;FLAVOR:Marlin
;TIME:7698
;Filament used: 3.71851m
;Layer height: 0.2
;MINX:52.491
;MINY:52.493
;MINZ:0.2
;MAXX:167.512
;MAXY:167.513
;MAXZ:19.68
;Generated with Cura_SteamEngine 4.5.0
M140 S50
M105
M190 S50
M104 S225
M105
M109 S225
M82 ;absolute extrusion mode
M201 X500.00 Y500.00 Z100.00 E5000.00 ;Setup machine max acceleration
M203 X500.00 Y500.00 Z10.00 E50.00 ;Setup machine max feedrate
M204 P500.00 R1000.00 T500.00 ;Setup Print/Retract/Travel acceleration
M205 X8.00 Y8.00 Z0.40 E5.00 ;Setup Jerk
M220 S100 ;Reset Feedrate
M221 S100 ;Reset Flowrate

G28 ;Home

G92 E0 ;Reset Extruder
G1 Z2.0 F3000 ;Move Z Axis up
G1 X10.1 Y20 Z0.28 F5000.0 ;Move to start position
G1 X10.1 Y200.0 Z0.28 F1500.0 E15 ;Draw the first line
G1 X10.4 Y200.0 Z0.28 F5000.0 ;Move to side a little
G1 X10.4 Y20 Z0.28 F1500.0 E30 ;Draw the second line
G92 E0 ;Reset Extruder
G1 Z2.0 F3000 ;Move Z Axis up

G92 E0
G92 E0
G1 F1800 E-3
;LAYER_COUNT:114
;LAYER:0
M106 S127.5
M204 S500
M205 X6 Y6
G0 F9000 X59.177 Y59.067 Z0.2
;TYPE:SKIRT
G1 F1800 E0
G1 F3000 X59.754 Y58.514 E0.02392
G1 X60.272 Y58.052 E0.0447
G1 X60.83 Y57.582 E0.06654
G1 X61.32 Y57.194 E0.08525
G1 X61.974 Y56.711 E0.10959
G1 X62.415 Y56.402 E0.12571
G1 X62.874 Y56.098 E0.14219
G1 X63.557 Y55.677 E0.1662
G1 X64.474 Y55.159 E0.19773
G1 X64.987 Y54.895 E0.215
G1 X65.716 Y54.543 E0.23923
G1 X66.26 Y54.304 E0.25702
G1 X66.951 Y54.023 E0.27935
G1 X67.632 Y53.766 E0.30114
G1 X68.183 Y53.581 E0.31853
G1 X68.925 Y53.359 E0.34172
G1 X69.584 Y53.182 E0.36214
G1 X70.406 Y52.991 E0.38741
G1 X71.11 Y52.853 E0.40888
G1 X71.693 Y52.755 E0.42658
G1 X72.234 Y52.68 E0.44293
G1 X72.985 Y52.594 E0.46555
G1 X73.623 Y52.544 E0.48471
G1 X74.343 Y52.509 E0.50629
G1 X74.987 Y52.493 E0.52557
G1 X75.6 Y52.497 E0.54392
G1 X76.675 Y52.545 E0.57613
G1 X77.312 Y52.599 E0.59527
G1 X77.967 Y52.674 E0.615
G1 X78.692 Y52.774 E0.63691
G1 X79.317 Y52.882 E0.6559
G1 X79.97 Y53.016 E0.67585
G1 X80.734 Y53.193 E0.69933
G1 X83.841 Y54.061 E0.79589
G1 X86.286 Y54.677 E0.87137
G1 X88.793 Y55.235 E0.94825
G1 X91.249 Y55.706 E1.02311
G1 X93.572 Y56.091 E1.09359
G1 X94.473 Y56.281 E1.12116
G1 X95.353 Y56.548 E1.14869
G1 X96.208 Y56.891 E1.17626
G1 X97.029 Y57.306 E1.2038
G1 X98.124 Y58.013 E1.24282
G1 X99.003 Y58.695 E1.27612
G1 X100.484 Y59.961 E1.33444
G1 X101.741 Y61.003 E1.38332
G1 X102.176 Y61.386 E1.40067
G1 X103.136 Y62.278 E1.43989
G1 X104.681 Y63.683 E1.5024
G1 X105.597 Y64.5 E1.53915
G1 X106.038 Y64.916 E1.55729
G1 X117.494 Y76.371 E2.04224
G1 X118.249 Y77.211 E2.07605
G1 X118.624 Y77.679 E2.094
G1 X119.814 Y79.219 E2.15226
G1 X121.395 Y81.146 E2.22687
G1 X123.069 Y83.072 E2.30326
G1 X124.772 Y84.926 E2.37862
G1 X126.504 Y86.707 E2.45298
G1 X128.37 Y88.518 E2.53082
G1 X130.213 Y90.211 E2.60573
G1 X132.127 Y91.869 E2.68153
G1 X134.053 Y93.446 E2.75605
G1 X135.39 Y94.478 E2.80661
G1 X135.936 Y94.911 E2.82747
G1 X136.937 Y95.816 E2.86786
G1 X138.87 Y97.803 E2.95084
G1 X140.696 Y99.574 E3.02699
G1 X142.816 Y101.746 E3.11784
G1 X144.722 Y103.599 E3.19741
G1 X146.711 Y105.637 E3.28266
G1 X148.513 Y107.39 E3.35791
G1 X150.477 Y109.401 E3.44206
G1 X152.198 Y111.076 E3.51394
G1 X152.83 Y111.746 E3.54151
G1 X153.401 Y112.469 E3.56909
G1 X153.907 Y113.238 E3.59665
G1 X154.344 Y114.048 E3.6242
G1 X154.593 Y114.603 E3.64241
G1 X154.836 Y115.191 E3.66145
G1 X155.466 Y116.789 E3.71287
G1 X156.473 Y119.146 E3.78959
G1 X157.518 Y121.411 E3.86426
G1 X158.644 Y123.68 E3.94009
G1 X159.838 Y125.926 E4.01623
G1 X161.069 Y128.09 E4.09075
G1 X162.396 Y130.278 E4.16735
G1 X163.887 Y132.575 E4.24933
G1 X164.55 Y133.681 E4.28793
G1 X164.891 Y134.291 E4.30885
G1 X165.17 Y134.835 E4.32715
G1 X165.514 Y135.568 E4.35139
G1 X165.917 Y136.514 E4.38217
G1 X166.213 Y137.309 E4.40756
G1 X166.431 Y137.956 E4.428
G1 X166.648 Y138.682 E4.45068
G1 X166.841 Y139.407 E4.47314
G1 X166.982 Y140.006 E4.49156
G1 X167.091 Y140.538 E4.50781
G1 X167.221 Y141.248 E4.52942
G1 X167.318 Y141.922 E4.5498
G1 X167.403 Y142.682 E4.5727
G1 X167.456 Y143.265 E4.59022
G1 X167.494 Y143.94 E4.61046
G1 X167.512 Y145.063 E4.64408
G1 X167.496 Y145.739 E4.66432
G1 X167.455 Y146.48 E4.68653
G1 X167.398 Y147.189 E4.70782
G1 X167.336 Y147.728 E4.72407
G1 X167.211 Y148.565 E4.7494
G1 X167.09 Y149.236 E4.76981
G1 X166.948 Y149.901 E4.79016
G1 X166.757 Y150.673 E4.81397
G1 X166.593 Y151.263 E4.8323
G1 X166.436 Y151.77 E4.84819
G1 X166.164 Y152.575 E4.87362
G1 X165.942 Y153.164 E4.89246
G1 X165.71 Y153.727 E4.91069
G1 X165.309 Y154.618 E4.93994
G1 X165.008 Y155.223 E4.96017
G1 X164.63 Y155.925 E4.98403
G1 X164.327 Y156.452 E5.00223
G1 X164.046 Y156.909 E5.01829
G1 X163.592 Y157.609 E5.04327
G1 X163.233 Y158.121 E5.06198
G1 X162.826 Y158.667 E5.08237
G1 X162.356 Y159.265 E5.10514
G1 X161.979 Y159.71 E5.1226
G1 X161.459 Y160.286 E5.14582
G1 X160.978 Y160.788 E5.16664
G1 X160.403 Y161.347 E5.19064
G1 X159.903 Y161.805 E5.21094
G1 X159.388 Y162.248 E5.23127
G1 X158.815 Y162.709 E5.25329
G1 X157.99 Y163.326 E5.28413
G1 X157.493 Y163.669 E5.3022
G1 X156.84 Y164.092 E5.32549
G1 X156.245 Y164.45 E5.34628
G1 X155.62 Y164.799 E5.36771
G1 X155.009 Y165.122 E5.38839
G1 X154.479 Y165.379 E5.40603
G1 X153.769 Y165.695 E5.42929
G1 X153.276 Y165.901 E5.44528
G1 X152.678 Y166.129 E5.46444
G1 X151.973 Y166.371 E5.48675
G1 X151.279 Y166.588 E5.50852
G1 X150.648 Y166.762 E5.52811
G1 X149.909 Y166.945 E5.5509
G1 X149.204 Y167.095 E5.57248
G1 X148.445 Y167.229 E5.59555
G1 X147.787 Y167.329 E5.61547
G1 X147.202 Y167.397 E5.6331
G1 X146.681 Y167.443 E5.64876
G1 X145.931 Y167.493 E5.67126
G1 X145.382 Y167.512 E5.6877
G1 X144.572 Y167.513 E5.71195
G1 X143.828 Y167.491 E5.73423
G1 X143.125 Y167.445 E5.75532
G1 X142.354 Y167.372 E5.7785
G1 X141.709 Y167.291 E5.79796
G1 X141.193 Y167.21 E5.81359
G1 X140.428 Y167.072 E5.83686
G1 X139.884 Y166.956 E5.85351
G1 X139.101 Y166.763 E5.87765
G1 X138.616 Y166.631 E5.8927
G1 X138.061 Y166.463 E5.91006
G1 X137.301 Y166.207 E5.93406
G1 X136.801 Y166.025 E5.94999
G1 X136.216 Y165.792 E5.96884
G1 X135.687 Y165.563 E5.9861
G1 X135.04 Y165.267 E6.00739
G1 X134.466 Y164.979 E6.02662
G1 X133.858 Y164.651 E6.0473
G1 X133.277 Y164.318 E6.06734
G1 X132.226 Y163.671 E6.10429
G1 X130.909 Y162.835 E6.15098
G1 X128.727 Y161.538 E6.22697
G1 X126.542 Y160.32 E6.30185
G1 X124.271 Y159.138 E6.37849
G1 X121.987 Y158.029 E6.45449
G1 X119.708 Y157.002 E6.52931
G1 X117.358 Y156.019 E6.60557
G1 X116.844 Y155.822 E6.62204
G1 X115.884 Y155.437 E6.65301
G1 X115.046 Y155.058 E6.68054
G1 X114.243 Y154.607 E6.70811
G1 X113.732 Y154.269 E6.72644
G1 X112.987 Y153.745 E6.75371
G1 X112.18 Y153.147 E6.78378
G1 X111.468 Y152.563 E6.81134
G1 X110.809 Y151.92 E6.8389
G1 X110.208 Y151.222 E6.86647
G1 X109.65 Y150.444 E6.89513
G1 X108.22 Y148.246 E6.97363
G1 X106.778 Y146.151 E7.04976
G1 X105.287 Y144.112 E7.12537
G1 X103.74 Y142.117 E7.20094
G1 X102.123 Y140.148 E7.27721
G1 X100.481 Y138.26 E7.35211
G1 X98.752 Y136.383 E7.4285
G1 X97.004 Y134.59 E7.50346
G1 X95.175 Y132.815 E7.57975
G1 X93.302 Y131.101 E7.65575
G1 X91.421 Y129.474 E7.7302
G1 X89.441 Y127.854 E7.80678
G1 X87.44 Y126.311 E7.88242
G1 X85.416 Y124.84 E7.95731
G1 X82.833 Y123.084 E8.05081
G1 X82.169 Y122.642 E8.07469
G1 X81.306 Y122.037 E8.10623
G1 X80.464 Y121.411 E8.13764
G1 X79.753 Y120.827 E8.16518
G1 X79.355 Y120.452 E8.18155
G1 X78.895 Y119.992 E8.20103
G1 X77.647 Y118.713 E8.25452
G1 X76.574 Y117.671 E8.29929
G1 X76.095 Y117.193 E8.31955
G1 X75.296 Y116.298 E8.35546
G1 X73.424 Y114.007 E8.44402
G1 X71.778 Y112.114 E8.51911
G1 X70.058 Y110.24 E8.59526
G1 X68.313 Y108.445 E8.67019
G1 X66.487 Y106.671 E8.7464
G1 X64.632 Y104.967 E8.8218
G1 X62.7 Y103.293 E8.89832
G1 X60.664 Y101.626 E8.97709
G1 X59.675 Y100.79 E9.01586
G1 X59.035 Y100.129 E9.0434
G1 X58.454 Y99.415 E9.07095
G1 X57.937 Y98.653 E9.09852
G1 X57.489 Y97.849 E9.12607
G1 X57.112 Y97.009 E9.15363
G1 X56.936 Y96.533 E9.16882
G1 X56.662 Y95.735 E9.19408
G1 X56.342 Y94.72 E9.22593
G1 X56.113 Y93.855 E9.25272
G1 X55.921 Y92.98 E9.27953
G1 X55.731 Y92.052 E9.30789
G1 X55.605 Y91.394 E9.32794
G1 X55.238 Y89.301 E9.39155
G1 X54.73 Y86.817 E9.46745
G1 X54.145 Y84.313 E9.54442
G1 X53.556 Y82.074 E9.61372
G1 X53.334 Y81.27 E9.63869
G1 X53.06 Y80.163 E9.67283
G1 X52.922 Y79.524 E9.6924
G1 X52.814 Y78.942 E9.71012
G1 X52.65 Y77.798 E9.74471
G1 X52.58 Y77.112 E9.76535
G1 X52.531 Y76.404 E9.7866
G1 X52.501 Y75.762 E9.80583
G1 X52.491 Y75.121 E9.82502
G1 X52.52 Y74.007 E9.85838
G1 X52.558 Y73.398 E9.87665
G1 X52.635 Y72.608 E9.90041
G1 X52.698 Y72.087 E9.91612
G1 X52.785 Y71.499 E9.93391
G1 X52.885 Y70.938 E9.95097
G1 X53.042 Y70.169 E9.97446
G1 X53.186 Y69.569 E9.99293
G1 X53.367 Y68.902 E10.01362
G1 X53.575 Y68.201 E10.03551
G1 X53.763 Y67.642 E10.05316
G1 X54.014 Y66.969 E10.07466
G1 X54.312 Y66.233 E10.09843
G1 X54.592 Y65.61 E10.11888
G1 X54.923 Y64.924 E10.14168
G1 X55.259 Y64.283 E10.16334
G1 X55.619 Y63.651 E10.18512
G1 X55.99 Y63.036 E10.20662
G1 X56.29 Y62.573 E10.22313
G1 X56.736 Y61.931 E10.24653
G1 X57.067 Y61.479 E10.2633
G1 X57.427 Y61.015 E10.28088
G1 X57.941 Y60.396 E10.30496
G1 X58.631 Y59.625 E10.33594
G1 X59.177 Y59.067 E10.35931
G0 F9000 X59.456 Y59.354
G1 F3000 X60.024 Y58.809 E10.38287
G1 X60.53 Y58.358 E10.40316
G1 X61.088 Y57.888 E10.425
G1 X61.559 Y57.514 E10.443
G1 X62.204 Y57.039 E10.46698
G1 X62.645 Y56.73 E10.4831
G1 X63.086 Y56.437 E10.49895
G1 X63.758 Y56.022 E10.52259
G1 X64.657 Y55.514 E10.5535
G1 X65.17 Y55.25 E10.57077
G1 X65.887 Y54.904 E10.5946
G1 X66.411 Y54.674 E10.61173
G1 X67.102 Y54.393 E10.63406
G1 X67.77 Y54.142 E10.65542
G1 X68.3 Y53.963 E10.67217
G1 X69.03 Y53.744 E10.69498
G1 X69.68 Y53.57 E10.71512
G1 X70.483 Y53.383 E10.7398
G1 X71.187 Y53.245 E10.76128
G1 X71.748 Y53.152 E10.7783
G1 X72.289 Y53.077 E10.79465
G1 X73.029 Y52.991 E10.81695
G1 X73.643 Y52.943 E10.83539
G1 X74.363 Y52.908 E10.85696
G1 X74.992 Y52.893 E10.8758
G1 X75.595 Y52.897 E10.89385
G1 X76.654 Y52.945 E10.92558
G1 X77.266 Y52.996 E10.94396
G1 X77.921 Y53.071 E10.9637
G1 X78.635 Y53.169 E10.98527
G1 X79.236 Y53.274 E11.00354
G1 X79.889 Y53.408 E11.02349
G1 X80.641 Y53.582 E11.04659
G1 X83.741 Y54.448 E11.14294
G1 X86.216 Y55.071 E11.21934
G1 X88.703 Y55.625 E11.29561
G1 X91.148 Y56.094 E11.37014
G1 X93.506 Y56.485 E11.44168
G1 X94.39 Y56.672 E11.46873
G1 X95.253 Y56.937 E11.49576
G1 X96.09 Y57.277 E11.5228
G1 X96.893 Y57.689 E11.54981
G1 X97.887 Y58.335 E11.5853
G1 X98.743 Y58.999 E11.61773
G1 X100.211 Y60.254 E11.67554
G1 X101.485 Y61.311 E11.7251
G1 X101.904 Y61.679 E11.74179
G1 X102.867 Y62.574 E11.78114
G1 X104.43 Y63.996 E11.84439
G1 X105.331 Y64.799 E11.88052
G1 X105.755 Y65.199 E11.89797
G1 X117.211 Y76.654 E12.38292
G1 X117.938 Y77.462 E12.41546
G1 X118.307 Y77.924 E12.43315
G1 X119.481 Y79.443 E12.49062
G1 X121.085 Y81.399 E12.56634
G1 X122.771 Y83.339 E12.64328
G1 X124.492 Y85.212 E12.71942
G1 X126.221 Y86.99 E12.79366
G1 X128.084 Y88.799 E12.87139
G1 X129.946 Y90.509 E12.94707
G1 X131.857 Y92.164 E13.02274
G1 X133.839 Y93.787 E13.09943
G1 X135.145 Y94.795 E13.14881
G1 X135.687 Y95.224 E13.1695
G1 X136.65 Y96.095 E13.20837
G1 X138.571 Y98.069 E13.29082
G1 X140.418 Y99.861 E13.36786
G1 X142.533 Y102.029 E13.45852
G1 X144.443 Y103.886 E13.53826
G1 X146.41 Y105.901 E13.62255
G1 X148.234 Y107.676 E13.69874
G1 X150.176 Y109.666 E13.78197
G1 X151.92 Y111.363 E13.85481
G1 X152.538 Y112.021 E13.88184
G1 X153.096 Y112.731 E13.90887
G1 X153.589 Y113.487 E13.93588
G1 X154.014 Y114.285 E13.96295
G1 X154.224 Y114.757 E13.97841
G1 X154.464 Y115.337 E13.9972
G1 X155.102 Y116.956 E14.04929
G1 X156.106 Y119.305 E14.12576
G1 X157.15 Y121.567 E14.20034
G1 X158.29 Y123.866 E14.27715
G1 X159.495 Y126.131 E14.35395
G1 X160.731 Y128.304 E14.42878
G1 X162.061 Y130.497 E14.50556
G1 X163.551 Y132.793 E14.58749
G1 X164.205 Y133.884 E14.62557
G1 X164.54 Y134.483 E14.64611
G1 X164.809 Y135.008 E14.66377
G1 X165.148 Y135.729 E14.68762
G1 X165.543 Y136.657 E14.71781
G1 X165.834 Y137.438 E14.74276
G1 X166.049 Y138.076 E14.76291
G1 X166.262 Y138.785 E14.78507
G1 X166.455 Y139.51 E14.80753
G1 X166.59 Y140.087 E14.82527
G1 X166.699 Y140.619 E14.84152
G1 X166.827 Y141.318 E14.86279
G1 X166.921 Y141.966 E14.88239
G1 X167.006 Y142.726 E14.90529
G1 X167.057 Y143.298 E14.92248
G1 X167.094 Y143.959 E14.94229
G1 X167.112 Y145.067 E14.97547
G1 X167.096 Y145.717 E14.99493
G1 X167.055 Y146.458 E15.01714
G1 X166.999 Y147.154 E15.03805
G1 X166.94 Y147.672 E15.05365
G1 X166.817 Y148.494 E15.07853
G1 X166.696 Y149.165 E15.09894
G1 X166.559 Y149.805 E15.11853
G1 X166.368 Y150.577 E15.14234
G1 X166.211 Y151.144 E15.15995
G1 X166.054 Y151.651 E15.17584
G1 X165.786 Y152.445 E15.20092
G1 X165.572 Y153.011 E15.21904
G1 X165.34 Y153.574 E15.23726
G1 X164.946 Y154.452 E15.26607
G1 X164.656 Y155.034 E15.28554
G1 X164.278 Y155.736 E15.3094
G1 X163.986 Y156.243 E15.32692
G1 X163.705 Y156.7 E15.34297
G1 X163.257 Y157.389 E15.36758
G1 X162.912 Y157.882 E15.38559
G1 X162.505 Y158.428 E15.40597
G1 X162.043 Y159.015 E15.42833
G1 X161.681 Y159.444 E15.44514
G1 X161.169 Y160.011 E15.46801
G1 X160.695 Y160.505 E15.4885
G1 X160.133 Y161.052 E15.51197
G1 X159.633 Y161.51 E15.53227
G1 X159.137 Y161.936 E15.55184
G1 X158.564 Y162.397 E15.57386
G1 X157.754 Y163.003 E15.60414
G1 X157.276 Y163.333 E15.62153
G1 X156.623 Y163.756 E15.64482
G1 X156.05 Y164.101 E15.66484
G1 X155.425 Y164.45 E15.68627
G1 X154.824 Y164.767 E15.70661
G1 X154.315 Y165.014 E15.72354
G1 X153.615 Y165.325 E15.74647
G1 X153.122 Y165.531 E15.76246
G1 X152.547 Y165.751 E15.78089
G1 X151.851 Y165.99 E15.80292
G1 X151.168 Y166.204 E15.82435
G1 X150.552 Y166.374 E15.84347
G1 X149.813 Y166.557 E15.86626
G1 X149.134 Y166.701 E15.88704
G1 X148.375 Y166.835 E15.91011
G1 X147.73 Y166.933 E15.92964
G1 X147.167 Y166.998 E15.94661
G1 X146.646 Y167.044 E15.96226
G1 X145.906 Y167.093 E15.98446
G1 X145.379 Y167.112 E16.00025
G1 X144.582 Y167.113 E16.02411
G1 X143.848 Y167.091 E16.04609
G1 X143.163 Y167.047 E16.06663
G1 X142.392 Y166.974 E16.08982
G1 X141.771 Y166.896 E16.10855
G1 X141.255 Y166.815 E16.12419
G1 X140.501 Y166.679 E16.14712
G1 X139.977 Y166.567 E16.16316
G1 X139.206 Y166.377 E16.18693
G1 X138.721 Y166.245 E16.20198
G1 X138.187 Y166.084 E16.21867
G1 X137.438 Y165.831 E16.24234
G1 X136.938 Y165.649 E16.25827
G1 X136.375 Y165.425 E16.2764
G1 X135.846 Y165.196 E16.29366
G1 X135.208 Y164.904 E16.31466
G1 X134.656 Y164.627 E16.33315
G1 X134.048 Y164.299 E16.35383
G1 X133.478 Y163.973 E16.37349
G1 X132.437 Y163.331 E16.4101
G1 X131.106 Y162.487 E16.45727
G1 X128.948 Y161.203 E16.53244
G1 X126.716 Y159.959 E16.60893
G1 X124.466 Y158.788 E16.68486
G1 X122.176 Y157.676 E16.76106
G1 X119.846 Y156.626 E16.83756
G1 X117.501 Y155.645 E16.91365
G1 X116.993 Y155.451 E16.92993
G1 X116.033 Y155.066 E16.96089
G1 X115.211 Y154.693 E16.98791
G1 X114.425 Y154.249 E17.01494
G1 X113.962 Y153.942 E17.03156
G1 X113.217 Y153.418 E17.05883
G1 X112.42 Y152.827 E17.08853
G1 X111.722 Y152.254 E17.11556
G1 X111.077 Y151.621 E17.14262
G1 X110.491 Y150.934 E17.16965
G1 X109.985 Y150.226 E17.19569
G1 X108.551 Y148.023 E17.27438
G1 X107.097 Y145.911 E17.35113
G1 X105.61 Y143.877 E17.42656
G1 X104.05 Y141.864 E17.50279
G1 X102.435 Y139.898 E17.57895
G1 X100.776 Y137.99 E17.65464
G1 X99.05 Y136.115 E17.73092
G1 X97.268 Y134.288 E17.80732
G1 X95.458 Y132.532 E17.88281
G1 X93.588 Y130.821 E17.95868
G1 X91.651 Y129.145 E18.03535
G1 X89.697 Y127.547 E18.11091
G1 X87.668 Y125.983 E18.1876
G1 X85.646 Y124.513 E18.26243
G1 X83.028 Y122.732 E18.35721
G1 X82.399 Y122.314 E18.37982
G1 X81.536 Y121.709 E18.41137
G1 X80.704 Y121.092 E18.44238
G1 X80.007 Y120.518 E18.4694
G1 X79.637 Y120.168 E18.48465
G1 X79.181 Y119.713 E18.50393
G1 X77.911 Y118.411 E18.55838
G1 X76.853 Y117.384 E18.60252
G1 X76.378 Y116.91 E18.6226
G1 X75.609 Y116.049 E18.65716
G1 X73.751 Y113.774 E18.74508
G1 X72.074 Y111.845 E18.8216
G1 X70.34 Y109.956 E18.89835
G1 X68.613 Y108.179 E18.97253
G1 X66.754 Y106.373 E19.05011
G1 X64.879 Y104.652 E19.1263
G1 X62.991 Y103.014 E19.20112
G1 X60.916 Y101.316 E19.28138
G1 X59.938 Y100.488 E19.31974
G1 X59.311 Y99.838 E19.34677
G1 X58.744 Y99.134 E19.37383
G1 X58.242 Y98.384 E19.40085
