;FLAVOR:Marlin
;TIME:482
;Filament used: 0.123086m
;Layer height: 0.16
;MINX:94.561
;MINY:101.077
;MINZ:0.2
;MAXX:125.431
;MAXY:120.464
;MAXZ:10.36
;Generated with Cura_SteamEngine 4.4.1
M140 S40
M105
M190 S40
M104 S215
M105
M109 S215
M82 ;absolute extrusion mode
M201 X500.00 Y500.00 Z100.00 E5000.00 ;Setup machine max acceleration
M203 X500.00 Y500.00 Z10.00 E50.00 ;Setup machine max feedrate
M204 P500.00 R1000.00 T500.00 ;Setup Print/Retract/Travel acceleration
M205 X8.00 Y8.00 Z0.40 E5.00 ;Setup Jerk
M220 S100 ;Reset Feedrate
M221 S100 ;Reset Flowrate

G28 ;Home

G92 E0 ;Reset Extruder
G1 Z2.0 F3000 ;Move Z Axis up
G1 X10.1 Y20 Z0.28 F5000.0 ;Move to start position
G1 X10.1 Y200.0 Z0.28 F1500.0 E15 ;Draw the first line
G1 X10.4 Y200.0 Z0.28 F5000.0 ;Move to side a little
G1 X10.4 Y20 Z0.28 F1500.0 E30 ;Draw the second line
G92 E0 ;Reset Extruder
G1 Z2.0 F3000 ;Move Z Axis up

G92 E0
G92 E0
G1 F1800 E-3
;LAYER_COUNT:67
;LAYER:0
M107
G0 F6000 X97.735 Y103.503 Z0.2
;TYPE:SKIRT
G1 F1800 E0
G1 F1200 X98.328 Y102.982 E0.02625
G1 X98.971 Y102.523 E0.05253
G1 X99.422 Y102.255 E0.06998
G1 X99.75 Y102.075 E0.08242
G1 X100.461 Y101.731 E0.10869
G1 X101.203 Y101.46 E0.13497
G1 X101.968 Y101.265 E0.16122
G1 X102.652 Y101.16 E0.18424
G1 X102.98 Y101.124 E0.19522
G1 X103.768 Y101.077 E0.22147
G1 X104.939 Y101.156 E0.26051
G1 X105.249 Y101.201 E0.27093
G1 X105.762 Y101.196 E0.28799
G1 X106.548 Y101.268 E0.31424
G1 X106.943 Y101.335 E0.32757
G1 X107.345 Y101.414 E0.34119
G1 X108.111 Y101.606 E0.36746
G1 X108.854 Y101.873 E0.39372
G1 X109.627 Y102.249 E0.42231
G1 X109.998 Y102.455 E0.43642
G1 X110.005 Y102.459 E0.43669
G1 X110.365 Y102.241 E0.45069
G1 X111.078 Y101.902 E0.47695
G1 X111.871 Y101.622 E0.50492
G1 X112.25 Y101.511 E0.51805
G1 X113.018 Y101.328 E0.54431
G1 X113.8 Y101.223 E0.57056
G1 X114.56 Y101.198 E0.59585
G1 X114.797 Y101.202 E0.60373
G1 X115.096 Y101.15 E0.61382
G1 X115.97 Y101.094 E0.64295
G1 X116.358 Y101.091 E0.65586
G1 X117.147 Y101.125 E0.68213
G1 X117.928 Y101.239 E0.70838
G1 X118.694 Y101.43 E0.73463
G1 X119.502 Y101.726 E0.76325
G1 X119.818 Y101.862 E0.7747
G1 X120.526 Y102.211 E0.80095
G1 X121.196 Y102.629 E0.82722
G1 X121.82 Y103.113 E0.85348
G1 X122.126 Y103.391 E0.86723
G1 X122.403 Y103.656 E0.87998
G1 X122.945 Y104.23 E0.90624
G1 X123.48 Y104.935 E0.93568
G1 X123.775 Y105.373 E0.95324
G1 X124.183 Y106.049 E0.9795
G1 X124.453 Y106.607 E1.00012
G1 X124.675 Y107.115 E1.01856
G1 X124.955 Y107.853 E1.04481
G1 X125.173 Y108.689 E1.07355
G1 X125.283 Y109.232 E1.09197
G1 X125.4 Y110.013 E1.11824
G1 X125.431 Y111.121 E1.15511
G1 X125.41 Y111.602 E1.17112
G1 X125.335 Y112.388 E1.19738
G1 X125.182 Y113.163 E1.22366
G1 X124.853 Y114.174 E1.25902
G1 X124.686 Y114.589 E1.2739
G1 X124.355 Y115.306 E1.30016
G1 X123.952 Y115.985 E1.32642
G1 X123.374 Y116.751 E1.35834
G1 X123.04 Y117.141 E1.37542
G1 X122.497 Y117.714 E1.40167
G1 X121.898 Y118.229 E1.42795
G1 X121.54 Y118.491 E1.4427
G1 X121.1 Y118.794 E1.46047
G1 X120.428 Y119.208 E1.48672
G1 X119.56 Y119.617 E1.51864
G1 X119.06 Y119.816 E1.53654
G1 X118.313 Y120.071 E1.56279
G1 X117.543 Y120.248 E1.58907
G1 X117.026 Y120.34 E1.60653
G1 X116.242 Y120.439 E1.63282
G1 X115.674 Y120.461 E1.65172
G1 X115.166 Y120.462 E1.66862
G1 X114.378 Y120.424 E1.69486
G1 X113.836 Y120.35 E1.71305
G1 X113.298 Y120.258 E1.73121
G1 X112.528 Y120.086 E1.75745
G1 X111.921 Y119.891 E1.77865
G1 X111.426 Y119.709 E1.79619
G1 X110.7 Y119.399 E1.82245
G1 X110.018 Y119.006 E1.84863
G1 X109.963 Y119.043 E1.85084
G1 X109.266 Y119.415 E1.87711
G1 X108.816 Y119.609 E1.89341
G1 X108.331 Y119.801 E1.91076
G1 X107.583 Y120.055 E1.93703
G1 X106.998 Y120.196 E1.95705
G1 X106.486 Y120.299 E1.97442
G1 X105.705 Y120.415 E2.00068
G1 X105.195 Y120.448 E2.01768
G1 X104.691 Y120.464 E2.03445
G1 X103.902 Y120.449 E2.0607
G1 X103.331 Y120.388 E2.0798
G1 X102.804 Y120.312 E2.09751
G1 X102.029 Y120.16 E2.12377
G1 X101.35 Y119.957 E2.14734
G1 X100.845 Y119.781 E2.16513
G1 X100.113 Y119.484 E2.19141
G1 X99.223 Y118.995 E2.22518
G1 X98.766 Y118.704 E2.2432
G1 X98.122 Y118.247 E2.26947
G1 X97.266 Y117.461 E2.30812
G1 X96.904 Y117.075 E2.32572
G1 X96.393 Y116.472 E2.35201
G1 X95.946 Y115.821 E2.37827
G1 X95.597 Y115.188 E2.40231
G1 X95.421 Y114.831 E2.41555
G1 X95.108 Y114.106 E2.44182
G1 X94.87 Y113.353 E2.46808
G1 X94.702 Y112.528 E2.49609
G1 X94.638 Y112.097 E2.51058
G1 X94.561 Y111.311 E2.53685
G1 X94.565 Y110.521 E2.56312
G1 X94.613 Y109.982 E2.58112
G1 X94.675 Y109.487 E2.59771
G1 X94.813 Y108.709 E2.62399
G1 X95.01 Y108.007 E2.64824
G1 X95.182 Y107.487 E2.66646
G1 X95.467 Y106.75 E2.69274
G1 X95.818 Y106.06 E2.71849
G1 X96.074 Y105.613 E2.73562
G1 X96.501 Y104.948 E2.76191
G1 X96.866 Y104.478 E2.7817
G1 X97.198 Y104.082 E2.79889
G1 X97.735 Y103.503 E2.82515
G0 F6000 X98.028 Y103.776
G1 F1200 X98.608 Y103.27 E2.85075
G1 X99.237 Y102.828 E2.87632
G1 X99.615 Y102.606 E2.8909
G1 X99.943 Y102.426 E2.90335
G1 X100.635 Y102.091 E2.92892
G1 X101.359 Y101.83 E2.95452
G1 X102.106 Y101.646 E2.9801
G1 X102.696 Y101.557 E2.99995
G1 X103.024 Y101.521 E3.01092
G1 X103.792 Y101.477 E3.03651
G1 X104.883 Y101.552 E3.07288
G1 X105.219 Y101.6 E3.08417
G1 X105.765 Y101.596 E3.10233
G1 X106.866 Y101.728 E3.13921
G1 X107.268 Y101.807 E3.15284
G1 X108.014 Y101.994 E3.17842
G1 X108.736 Y102.258 E3.20399
G1 X109.433 Y102.598 E3.22978
G1 X109.804 Y102.804 E3.2439
G1 X110.001 Y102.928 E3.25164
G1 X110.572 Y102.583 E3.27383
G1 X111.268 Y102.256 E3.2994
G1 X111.983 Y102.006 E3.3246
G1 X112.362 Y101.895 E3.33773
G1 X113.11 Y101.718 E3.3633
G1 X113.873 Y101.619 E3.38889
G1 X114.554 Y101.598 E3.41155
G1 X114.828 Y101.602 E3.42066
G1 X115.164 Y101.545 E3.432
G1 X115.973 Y101.494 E3.45896
G1 X116.361 Y101.491 E3.47186
G1 X117.129 Y101.525 E3.49743
G1 X117.89 Y101.639 E3.52303
G1 X118.635 Y101.831 E3.54861
G1 X119.343 Y102.094 E3.57374
G1 X119.659 Y102.23 E3.58518
G1 X120.349 Y102.57 E3.61076
G1 X121 Y102.98 E3.63635
G1 X121.849 Y103.68 E3.67295
G1 X122.126 Y103.945 E3.6857
G1 X122.654 Y104.505 E3.7113
G1 X123.149 Y105.158 E3.73855
G1 X123.444 Y105.596 E3.75612
G1 X123.84 Y106.256 E3.78172
G1 X124.087 Y106.767 E3.80059
G1 X124.309 Y107.275 E3.81903
G1 X124.58 Y107.995 E3.84462
G1 X124.781 Y108.769 E3.87122
G1 X124.891 Y109.312 E3.88964
G1 X125.004 Y110.073 E3.91523
G1 X125.031 Y111.104 E3.94954
G1 X125.01 Y111.585 E3.96555
G1 X124.937 Y112.35 E3.99111
G1 X124.784 Y113.104 E4.0167
G1 X124.482 Y114.025 E4.04893
G1 X124.315 Y114.44 E4.06381
G1 X123.991 Y115.137 E4.08938
G1 X123.597 Y115.797 E4.11494
G1 X123.071 Y116.49 E4.14388
G1 X122.737 Y116.88 E4.16096
G1 X122.207 Y117.438 E4.18656
G1 X121.313 Y118.162 E4.22482
G1 X120.873 Y118.465 E4.24259
G1 X120.218 Y118.867 E4.26815
G1 X119.412 Y119.245 E4.29776
G1 X118.912 Y119.444 E4.31566
G1 X118.184 Y119.691 E4.34122
G1 X117.472 Y119.855 E4.36553
G1 X116.955 Y119.947 E4.38299
G1 X116.192 Y120.042 E4.40857
G1 X115.674 Y120.061 E4.42581
G1 X115.166 Y120.062 E4.4427
G1 X114.397 Y120.024 E4.46831
G1 X113.904 Y119.956 E4.48486
G1 X113.366 Y119.864 E4.50302
G1 X112.615 Y119.695 E4.52862
G1 X112.059 Y119.515 E4.54806
G1 X111.564 Y119.333 E4.5656
G1 X110.857 Y119.031 E4.59117
G1 X110.001 Y118.535 E4.62407
G1 X109.74 Y118.71 E4.63452
G1 X109.06 Y119.07 E4.66012
G1 X108.669 Y119.237 E4.67426
G1 X108.184 Y119.429 E4.69161
G1 X107.455 Y119.675 E4.7172
G1 X106.919 Y119.804 E4.73553
G1 X106.407 Y119.907 E4.7529
G1 X105.647 Y120.019 E4.77845
G1 X105.183 Y120.048 E4.79392
G1 X104.679 Y120.064 E4.81069
G1 X103.91 Y120.049 E4.83627
G1 X103.388 Y119.992 E4.85373
G1 X102.861 Y119.916 E4.87144
G1 X102.106 Y119.767 E4.89704
G1 X101.482 Y119.58 E4.91871
G1 X100.977 Y119.404 E4.93649
G1 X100.264 Y119.113 E4.96211
G1 X99.437 Y118.658 E4.9935
G1 X98.98 Y118.367 E5.01152
G1 X98.354 Y117.921 E5.03709
G1 X97.557 Y117.187 E5.07312
G1 X97.195 Y116.801 E5.09072
G1 X96.699 Y116.213 E5.11631
G1 X96.266 Y115.578 E5.14187
G1 X95.956 Y115.011 E5.16337
G1 X95.78 Y114.654 E5.1766
G1 X95.476 Y113.948 E5.20217
G1 X95.247 Y113.213 E5.22778
G1 X95.097 Y112.469 E5.25302
G1 X95.033 Y112.038 E5.26751
G1 X94.96 Y111.272 E5.2931
G1 X94.967 Y110.503 E5.31868
G1 X95.01 Y110.031 E5.33445
G1 X95.072 Y109.536 E5.35104
G1 X95.207 Y108.779 E5.37661
G1 X95.389 Y108.132 E5.39897
G1 X95.561 Y107.612 E5.41718
G1 X95.841 Y106.895 E5.44279
G1 X96.166 Y106.258 E5.46657
G1 X96.422 Y105.811 E5.4837
G1 X96.838 Y105.165 E5.50926
G1 X97.172 Y104.735 E5.52737
G1 X97.504 Y104.339 E5.54456
G1 X98.028 Y103.776 E5.57014
G0 F6000 X98.321 Y104.049
G1 F1200 X98.887 Y103.56 E5.59502
G1 X99.807 Y102.956 E5.63162
G1 X100.135 Y102.776 E5.64406
G1 X100.809 Y102.452 E5.66894
G1 X101.514 Y102.201 E5.69383
G1 X102.242 Y102.028 E5.71872
G1 X102.739 Y101.955 E5.73542
G1 X103.067 Y101.919 E5.7464
G1 X103.814 Y101.877 E5.77128
G1 X104.826 Y101.948 E5.80502
G1 X105.194 Y102.001 E5.81739
G1 X105.768 Y101.997 E5.83648
G1 X106.789 Y102.12 E5.87069
G1 X107.191 Y102.199 E5.88431
G1 X107.916 Y102.383 E5.90919
G1 X108.618 Y102.642 E5.93408
G1 X109.239 Y102.948 E5.9571
G1 X109.61 Y103.154 E5.97122
G1 X110.005 Y103.402 E5.98673
G1 X110.138 Y103.312 E5.99207
G1 X110.779 Y102.926 E6.01696
G1 X111.457 Y102.611 E6.04182
G1 X112.096 Y102.39 E6.06431
G1 X112.475 Y102.279 E6.07745
G1 X113.203 Y102.108 E6.10232
G1 X113.945 Y102.015 E6.12719
G1 X114.548 Y101.998 E6.14726
G1 X114.861 Y102.003 E6.15767
G1 X115.231 Y101.94 E6.17015
G1 X115.976 Y101.894 E6.19498
G1 X116.364 Y101.891 E6.20788
G1 X117.111 Y101.925 E6.23275
G1 X117.851 Y102.039 E6.25766
G1 X118.574 Y102.231 E6.28254
G1 X119.185 Y102.461 E6.30425
G1 X119.501 Y102.597 E6.31569
G1 X120.172 Y102.929 E6.34059
G1 X120.803 Y103.331 E6.36548
G1 X121.573 Y103.969 E6.39874
G1 X121.85 Y104.234 E6.41149
G1 X122.362 Y104.779 E6.43636
G1 X122.817 Y105.382 E6.46148
G1 X123.112 Y105.82 E6.47905
G1 X123.496 Y106.462 E6.50393
G1 X123.72 Y106.927 E6.52109
G1 X123.942 Y107.435 E6.53953
G1 X124.205 Y108.135 E6.5644
G1 X124.389 Y108.848 E6.5889
G1 X124.499 Y109.391 E6.60732
G1 X124.608 Y110.131 E6.6322
G1 X124.631 Y111.086 E6.66397
G1 X124.61 Y111.567 E6.67999
G1 X124.538 Y112.312 E6.70488
G1 X124.386 Y113.044 E6.72975
G1 X124.111 Y113.875 E6.75886
G1 X123.944 Y114.29 E6.77374
G1 X123.628 Y114.968 E6.79862
G1 X123.241 Y115.609 E6.82352
G1 X122.767 Y116.23 E6.84951
G1 X122.433 Y116.62 E6.86658
G1 X121.916 Y117.162 E6.8915
G1 X121.086 Y117.832 E6.92698
G1 X120.646 Y118.135 E6.94474
G1 X120.008 Y118.526 E6.96963
G1 X119.265 Y118.874 E6.99692
G1 X118.765 Y119.073 E7.01482
G1 X118.056 Y119.312 E7.0397
G1 X117.402 Y119.461 E7.06201
G1 X116.885 Y119.553 E7.07948
G1 X116.143 Y119.644 E7.10434
G1 X115.673 Y119.661 E7.11999
G1 X115.165 Y119.662 E7.13688
G1 X114.418 Y119.623 E7.16176
G1 X113.971 Y119.562 E7.17677
G1 X113.433 Y119.47 E7.19492
G1 X112.704 Y119.305 E7.21978
G1 X112.197 Y119.14 E7.23751
G1 X111.702 Y118.958 E7.25505
G1 X111.015 Y118.663 E7.27992
G1 X110.213 Y118.197 E7.31077
G1 X110.001 Y118.054 E7.31928
G1 X109.517 Y118.377 E7.33863
G1 X108.522 Y118.866 E7.37551
G1 X108.037 Y119.058 E7.39286
G1 X107.327 Y119.295 E7.41775
G1 X106.841 Y119.412 E7.43438
G1 X106.329 Y119.515 E7.45175
G1 X105.588 Y119.623 E7.47665
G1 X105.17 Y119.648 E7.49058
G1 X104.666 Y119.664 E7.50735
G1 X103.918 Y119.648 E7.53224
G1 X103.445 Y119.596 E7.54806
G1 X102.918 Y119.52 E7.56577
G1 X102.184 Y119.374 E7.59066
G1 X101.613 Y119.202 E7.6105
G1 X101.108 Y119.026 E7.62829
G1 X100.416 Y118.742 E7.65316
G1 X99.652 Y118.321 E7.68218
G1 X99.195 Y118.03 E7.7002
G1 X98.587 Y117.595 E7.72506
G1 X97.849 Y116.913 E7.75849
G1 X97.487 Y116.527 E7.77609
G1 X97.005 Y115.955 E7.80096
G1 X96.587 Y115.335 E7.82583
G1 X96.315 Y114.834 E7.8448
G1 X96.139 Y114.477 E7.85803
G1 X95.844 Y113.79 E7.8829
G1 X95.625 Y113.074 E7.9078
G1 X95.493 Y112.41 E7.93032
G1 X95.429 Y111.979 E7.94481
G1 X95.359 Y111.234 E7.9697
G1 X95.368 Y110.486 E7.99458
G1 X95.407 Y110.081 E8.00811
G1 X95.469 Y109.586 E8.02471
G1 X95.602 Y108.85 E8.04958
G1 X95.769 Y108.258 E8.07004
G1 X95.941 Y107.738 E8.08826
G1 X96.214 Y107.041 E8.11316
G1 X96.513 Y106.457 E8.13498
G1 X96.769 Y106.01 E8.15211
G1 X97.175 Y105.382 E8.17698
G1 X97.479 Y104.992 E8.19343
G1 X97.811 Y104.596 E8.21062
G1 X98.321 Y104.049 E8.23549
G0 F6000 X98.614 Y104.323
G1 F1200 X99.166 Y103.85 E8.25967
G1 X100 Y103.307 E8.29277
G1 X100.328 Y103.127 E8.30521
G1 X100.983 Y102.813 E8.32937
G1 X101.668 Y102.573 E8.35351
G1 X102.376 Y102.41 E8.37768
G1 X102.783 Y102.352 E8.39135
G1 X103.111 Y102.316 E8.40233
G1 X103.836 Y102.277 E8.42647
G1 X104.769 Y102.344 E8.45759
G1 X105.162 Y102.4 E8.47079
G1 X105.771 Y102.397 E8.49105
G1 X106.712 Y102.513 E8.52258
G1 X107.114 Y102.592 E8.53621
G1 X107.818 Y102.771 E8.56037
G1 X108.498 Y103.026 E8.58452
G1 X109.045 Y103.298 E8.60484
G1 X109.416 Y103.504 E8.61895
G1 X110.013 Y103.88 E8.64242
G1 X110.362 Y103.643 E8.65645
G1 X110.985 Y103.27 E8.6806
G1 X111.645 Y102.967 E8.70476
G1 X112.208 Y102.774 E8.72455
G1 X112.587 Y102.663 E8.73769
G1 X113.294 Y102.498 E8.76183
G1 X114.015 Y102.411 E8.78599
G1 X114.542 Y102.398 E8.80352
G1 X114.891 Y102.403 E8.81513
G1 X115.298 Y102.335 E8.82886
G1 X115.979 Y102.294 E8.85155
G1 X116.367 Y102.291 E8.86445
G1 X117.093 Y102.326 E8.88863
G1 X117.81 Y102.439 E8.91277
G1 X118.51 Y102.631 E8.93691
G1 X119.027 Y102.829 E8.95532
G1 X119.343 Y102.965 E8.96677
G1 X119.994 Y103.288 E8.99094
G1 X120.604 Y103.681 E9.01507
G1 X121.296 Y104.258 E9.04504
G1 X121.573 Y104.523 E9.05779
G1 X122.07 Y105.053 E9.08196
G1 X122.485 Y105.605 E9.10492
G1 X122.78 Y106.043 E9.12249
G1 X123.152 Y106.667 E9.14665
G1 X123.354 Y107.087 E9.16215
G1 X123.576 Y107.595 E9.18059
G1 X123.83 Y108.276 E9.20477
G1 X123.997 Y108.928 E9.22715
G1 X124.107 Y109.471 E9.24558
G1 X124.211 Y110.189 E9.26971
G1 X124.232 Y111.069 E9.29899
G1 X124.211 Y111.55 E9.315
G1 X124.139 Y112.273 E9.33917
G1 X123.989 Y112.983 E9.3633
G1 X123.74 Y113.726 E9.38936
G1 X123.573 Y114.141 E9.40424
G1 X123.265 Y114.799 E9.42841
G1 X122.887 Y115.419 E9.45256
G1 X122.463 Y115.97 E9.47568
G1 X122.129 Y116.36 E9.49276
G1 X121.627 Y116.885 E9.51692
G1 X120.859 Y117.503 E9.54971
G1 X120.419 Y117.806 E9.56748
G1 X119.799 Y118.184 E9.59163
G1 X119.117 Y118.502 E9.61666
G1 X118.617 Y118.701 E9.63455
G1 X117.928 Y118.932 E9.65872
G1 X117.332 Y119.067 E9.67905
G1 X116.815 Y119.159 E9.69652
G1 X116.094 Y119.247 E9.72067
G1 X115.672 Y119.261 E9.73472
G1 X115.164 Y119.262 E9.75161
G1 X114.439 Y119.223 E9.77576
G1 X114.039 Y119.168 E9.78919
G1 X113.501 Y119.076 E9.80734
G1 X112.792 Y118.914 E9.83153
G1 X112.335 Y118.765 E9.84752
G1 X111.84 Y118.583 E9.86506
G1 X111.173 Y118.295 E9.88923
G1 X110.436 Y117.865 E9.91761
G1 X110.018 Y117.584 E9.93436
G1 X109.997 Y117.568 E9.93524
G1 X109.899 Y117.641 E9.9393
G1 X109.295 Y118.044 E9.96345
G1 X108.374 Y118.494 E9.99755
G1 X107.889 Y118.686 E10.01489
G1 X107.2 Y118.915 E10.03904
G1 X106.762 Y119.019 E10.05402
G1 X106.25 Y119.122 E10.07139
G1 X105.531 Y119.226 E10.09555
G1 X105.157 Y119.249 E10.10801
G1 X104.653 Y119.265 E10.12478
G1 X103.927 Y119.248 E10.14894
G1 X103.502 Y119.2 E10.16316
G1 X102.975 Y119.124 E10.18087
G1 X102.263 Y118.981 E10.20503
G1 X101.745 Y118.824 E10.22303
G1 X101.24 Y118.648 E10.24082
G1 X100.568 Y118.372 E10.26498
G1 X99.867 Y117.983 E10.29164
G1 X99.41 Y117.692 E10.30966
G1 X98.82 Y117.269 E10.33381
G1 X98.141 Y116.64 E10.36459
G1 X97.779 Y116.254 E10.38219
G1 X97.312 Y115.697 E10.40637
G1 X96.909 Y115.093 E10.43052
G1 X96.673 Y114.657 E10.44701
G1 X96.497 Y114.3 E10.46025
G1 X96.212 Y113.632 E10.4844
G1 X96.003 Y112.937 E10.50854
G1 X95.889 Y112.351 E10.5284
G1 X95.825 Y111.92 E10.54289
G1 X95.758 Y111.197 E10.56704
G1 X95.804 Y110.131 E10.60253
G1 X95.866 Y109.636 E10.61912
G1 X95.996 Y108.921 E10.64329
G1 X96.149 Y108.383 E10.6619
G1 X96.321 Y107.863 E10.68011
G1 X96.587 Y107.187 E10.70427
G1 X96.86 Y106.656 E10.72413
G1 X97.116 Y106.209 E10.74127
G1 X97.511 Y105.599 E10.76544
G1 X97.785 Y105.249 E10.78022
G1 X98.117 Y104.853 E10.79741
G1 X98.614 Y104.323 E10.82157
G0 F6000 X98.906 Y104.597
G1 F1200 X99.443 Y104.142 E10.84498
G1 X100.192 Y103.658 E10.87464
G1 X100.52 Y103.478 E10.88709
