;FLAVOR:Marlin
;TIME:15785
;Filament used: 14.1788m
;Layer height: 0.2
;MINX:68.895
;MINY:64.335
;MINZ:0.24
;MAXX:151.106
;MAXY:155.665
;MAXZ:32.8
;Generated with Cura_SteamEngine 4.5.0
M140 S50
M105
M190 S50
M104 S215
M105
M109 S215
M82 ;absolute extrusion mode
M201 X500.00 Y500.00 Z100.00 E5000.00 ;Setup machine max acceleration
M203 X500.00 Y500.00 Z10.00 E50.00 ;Setup machine max feedrate
M204 P500.00 R1000.00 T500.00 ;Setup Print/Retract/Travel acceleration
M205 X8.00 Y8.00 Z0.40 E5.00 ;Setup Jerk
M220 S100 ;Reset Feedrate
M221 S100 ;Reset Flowrate

G28 ;Home

G92 E0 ;Reset Extruder
G1 Z2.0 F3000 ;Move Z Axis up
G1 X10.1 Y20 Z0.28 F5000.0 ;Move to start position
G1 X10.1 Y200.0 Z0.28 F1500.0 E15 ;Draw the first line
G1 X10.4 Y200.0 Z0.28 F5000.0 ;Move to side a little
G1 X10.4 Y20 Z0.28 F1500.0 E30 ;Draw the second line
G92 E0 ;Reset Extruder
G1 Z2.0 F3000 ;Move Z Axis up

G92 E0
G92 E0
G1 F1800 E-3
;LAYER_COUNT:166
;LAYER:0
M107
;MESH:Object 1
G0 F9000 X94.831 Y146.447 Z0.24
;TYPE:WALL-INNER
G1 F1800 E0
G1 F3600 X100.108 Y140.535 E0.31629
G1 X100.108 Y130.185 E0.72938
G1 X94.831 Y124.276 E1.04557
G1 X89.955 Y129.737 E1.33777
G1 X89.64 Y130.09 E1.35666
G1 X84.448 Y124.276 E1.66776
G1 X79.591 Y129.717 E1.95886
G1 X79.173 Y130.185 E1.98391
G1 X79.173 Y140.533 E2.39692
G1 X84.3 Y146.281 E2.70433
G1 X84.448 Y146.447 E2.71321
G1 X84.596 Y146.281 E2.71877
G1 X89.64 Y140.63 E3.02109
G1 X94.831 Y146.447 E3.33226
G0 F9000 X94.831 Y145.846
G1 F3600 X94.979 Y145.68 E3.34114
G1 X99.708 Y140.382 E3.62458
G1 X99.708 Y130.338 E4.02545
G1 X94.979 Y125.043 E4.3088
G1 X94.831 Y124.877 E4.31768
G1 X94.683 Y125.043 E4.32324
G1 X90.289 Y129.966 E4.58661
G1 X89.955 Y130.338 E4.60656
G1 X89.955 Y140.382 E5.00744
G1 X94.683 Y145.68 E5.29085
G1 X94.831 Y145.846 E5.29641
G0 F9000 X94.831 Y145.245
;TYPE:WALL-OUTER
G1 F3600 X99.308 Y140.229 E5.56475
G1 X99.308 Y130.491 E5.95342
G1 X94.831 Y125.478 E6.22167
G1 X90.587 Y130.232 E6.47602
G1 X90.355 Y130.491 E6.4899
G1 X90.355 Y140.229 E6.87857
G1 X94.831 Y145.245 E7.14688
G0 F9000 X94.607 Y145.443
G0 X89.64 Y140.906
G0 X84.3 Y145.68
;TYPE:WALL-INNER
G1 F3600 X84.448 Y145.846 E7.15576
G1 X84.596 Y145.68 E7.16132
G1 X89.325 Y140.382 E7.44476
G1 X89.325 Y130.338 E7.84564
G1 X84.596 Y125.043 E8.12898
G1 X84.448 Y124.877 E8.13786
G1 X84.3 Y125.043 E8.14342
G1 X79.907 Y129.966 E8.40676
G1 X79.573 Y130.338 E8.42672
G1 X79.573 Y140.381 E8.82755
G1 X84.3 Y145.68 E9.11097
G0 F9000 X84.448 Y145.245
;TYPE:WALL-OUTER
G1 F3600 X88.925 Y140.229 E9.37931
G1 X88.925 Y130.491 E9.76798
G1 X84.448 Y125.478 E10.03623
G1 X80.205 Y130.232 E10.29056
G1 X79.973 Y130.491 E10.30443
G1 X79.973 Y140.229 E10.6931
G1 X84.448 Y145.245 E10.96139
G1 F1800 E7.96139
G0 F9000 X84.224 Y145.443
G0 X79.736 Y140.319
G0 X79.736 Y130.401
G0 X84.107 Y123.417
G0 X84.107 Y113.499
G0 X79.736 Y107.067
G0 X79.245 Y96.277
;TYPE:WALL-INNER
G1 F1800 E10.96139
G1 F3600 X79.393 Y96.443 E10.97027
G1 X79.541 Y96.277 E10.97582
G1 X84.328 Y90.917 E11.26265
G1 X84.563 Y90.654 E11.27673
G1 X84.695 Y90.802 E11.28026
G1 X89.733 Y96.441 E11.58206
G1 X94.686 Y90.896 E11.87881
G1 X94.923 Y90.631 E11.893
G1 X95.077 Y90.803 E11.90221
G1 X100.115 Y96.443 E12.20405
G1 X105.176 Y90.773 E12.50739
G1 X105.354 Y90.574 E12.51804
G1 X105.623 Y90.876 E12.53418
G1 X110.593 Y96.443 E12.83204
G1 X115.656 Y90.773 E13.13543
G1 X115.805 Y90.607 E13.14433
G1 X116.071 Y90.905 E13.16028
G1 X121.018 Y96.443 E13.45666
G1 X126 Y90.862 E13.75525
G1 X126.096 Y90.755 E13.76098
G1 X126.264 Y90.944 E13.76709
G1 X131.175 Y96.445 E14.06141
G1 X136.168 Y90.85 E14.36071
G1 X136.268 Y90.739 E14.36668
G1 X136.452 Y90.945 E14.37362
G1 X141.213 Y96.277 E14.65892
G1 X141.361 Y96.443 E14.66779
G1 X141.509 Y96.277 E14.67335
G1 X146.635 Y90.534 E14.98059
G1 X146.635 Y80.183 E15.39372
G1 X141.509 Y74.44 E15.70096
G1 X141.361 Y74.274 E15.70984
G1 X141.213 Y74.44 E15.7154
G1 X136.268 Y79.978 E16.01172
G1 X131.175 Y74.274 E16.31693
G1 X126.096 Y79.963 E16.62131
G1 X121.018 Y74.274 E16.92567
G1 X115.805 Y80.11 E17.23799
G1 X110.593 Y74.274 E17.55028
G1 X105.354 Y80.143 E17.86428
G1 X100.115 Y74.274 E18.17827
G1 X94.923 Y80.086 E18.48932
G1 X89.733 Y74.276 E18.80026
G1 X84.711 Y79.897 E19.1011
G1 X84.563 Y80.063 E19.10998
G1 X84.415 Y79.897 E19.11554
G1 X79.541 Y74.44 E19.40757
G1 X79.393 Y74.274 E19.41644
G1 X79.245 Y74.44 E19.422
G1 X74.118 Y80.183 E19.72927
G1 X74.118 Y90.534 E20.1424
G1 X79.245 Y96.277 E20.44966
G0 F9000 X79.393 Y95.842
G1 F3600 X79.541 Y95.676 E20.45854
G1 X84.27 Y90.381 E20.74189
G1 X84.27 Y80.336 E21.14281
G1 X79.541 Y75.041 E21.42616
G1 X79.393 Y74.875 E21.43503
G1 X79.245 Y75.041 E21.44059
G1 X74.518 Y80.336 E21.72389
G1 X74.518 Y90.381 E22.12481
G1 X78.765 Y95.138 E22.37933
G1 X79.245 Y95.676 E22.4081
G1 X79.393 Y95.842 E22.41366
G0 F9000 X79.393 Y95.241
;TYPE:WALL-OUTER
G1 F3600 X83.87 Y90.228 E22.68191
G1 X83.87 Y80.489 E23.07062
G1 X79.393 Y75.476 E23.33887
G1 X74.918 Y80.489 E23.60708
G1 X74.918 Y90.228 E23.99578
G1 X79.063 Y94.872 E24.24423
G1 X79.393 Y95.241 E24.26398
G0 F9000 X79.616 Y95.441
G0 X84.448 Y91.886
G0 X89.585 Y95.675
;TYPE:WALL-INNER
G1 F3600 X89.733 Y95.841 E24.27286
G1 X89.881 Y95.675 E24.27842
G1 X94.61 Y90.381 E24.56174
G1 X94.61 Y80.336 E24.96265
G1 X89.881 Y75.042 E25.24597
G1 X89.733 Y74.876 E25.25485
G1 X89.585 Y75.042 E25.26041
G1 X84.855 Y80.336 E25.54375
G1 X84.855 Y90.381 E25.94467
G1 X89.585 Y95.675 E26.22802
G0 F9000 X89.733 Y95.241
;TYPE:WALL-OUTER
G1 F3600 X94.21 Y90.228 E26.49627
G1 X94.21 Y80.489 E26.88498
G1 X89.733 Y75.476 E27.15323
G1 X85.255 Y80.489 E27.42152
G1 X85.255 Y90.228 E27.81022
G1 X89.733 Y95.241 E28.0785
G0 F9000 X89.956 Y95.441
G0 X94.831 Y91.886
G0 X99.967 Y95.676
;TYPE:WALL-INNER
G1 F3600 X100.115 Y95.842 E28.08738
G1 X100.263 Y95.676 E28.09294
G1 X104.989 Y90.381 E28.37621
G1 X104.989 Y80.336 E28.77712
G1 X100.263 Y75.041 E29.06039
G1 X100.115 Y74.875 E29.06927
G1 X99.967 Y75.041 E29.07483
G1 X95.236 Y80.336 E29.35823
G1 X95.236 Y90.381 E29.75915
G1 X99.967 Y95.676 E30.04255
G0 F9000 X100.115 Y95.241
;TYPE:WALL-OUTER
G1 F3600 X104.589 Y90.228 E30.31073
G1 X104.589 Y80.489 E30.69943
G1 X100.115 Y75.476 E30.96761
G1 X95.636 Y80.489 E31.23591
G1 X95.636 Y90.228 E31.62462
G1 X100.115 Y95.241 E31.89293
G0 F9000 X100.338 Y95.441
G0 X105.458 Y91.886
G0 X110.445 Y95.676
;TYPE:WALL-INNER
G1 F3600 X110.593 Y95.842 E31.9018
G1 X110.741 Y95.676 E31.90736
G1 X115.47 Y90.381 E32.19071
G1 X115.47 Y80.336 E32.59163
G1 X110.741 Y75.041 E32.87498
G1 X110.593 Y74.875 E32.88385
G1 X110.445 Y75.041 E32.88941
G1 X106.052 Y79.964 E33.15275
G1 X105.718 Y80.336 E33.17271
G1 X105.718 Y90.381 E33.57363
G1 X110.445 Y95.676 E33.85692
G0 F9000 X110.593 Y95.241
;TYPE:WALL-OUTER
G1 F3600 X115.07 Y90.228 E34.12518
G1 X115.07 Y80.489 E34.51388
G1 X110.593 Y75.476 E34.78214
G1 X106.35 Y80.23 E35.03646
G1 X106.118 Y80.489 E35.05034
G1 X106.118 Y90.228 E35.43904
G1 X110.593 Y95.241 E35.70725
G0 F9000 X110.816 Y95.441
G0 X115.938 Y91.886
G0 X120.87 Y95.676
;TYPE:WALL-INNER
G1 F3600 X121.018 Y95.842 E35.71612
G1 X121.166 Y95.676 E35.72168
G1 X125.893 Y90.381 E36.00498
G1 X125.893 Y80.336 E36.40589
G1 X121.166 Y75.041 E36.68919
G1 X121.018 Y74.875 E36.69807
G1 X120.87 Y75.041 E36.70362
G1 X116.14 Y80.336 E36.987
G1 X116.14 Y90.381 E37.38792
G1 X120.87 Y95.676 E37.67129
G0 F9000 X121.018 Y95.241
;TYPE:WALL-OUTER
G1 F3600 X125.493 Y90.228 E37.9395
G1 X125.493 Y80.489 E38.3282
G1 X121.018 Y75.476 E38.5964
G1 X116.54 Y80.489 E38.86468
G1 X116.54 Y90.228 E39.25339
G1 X121.018 Y95.241 E39.52167
G0 F9000 X121.241 Y95.441
G0 X126.179 Y91.883
G0 X131.027 Y95.678
;TYPE:WALL-INNER
G1 F3600 X131.175 Y95.844 E39.53055
G1 X131.323 Y95.678 E39.5361
G1 X136.051 Y90.381 E39.81949
G1 X136.051 Y80.336 E40.2204
G1 X131.323 Y75.041 E40.50373
G1 X131.175 Y74.875 E40.5126
G1 X131.027 Y75.041 E40.51816
G1 X126.633 Y79.964 E40.78153
G1 X126.299 Y80.336 E40.80148
G1 X126.299 Y90.381 E41.2024
G1 X131.027 Y95.678 E41.48578
G0 F9000 X131.175 Y95.243
;TYPE:WALL-OUTER
G1 F3600 X135.651 Y90.228 E41.75407
G1 X135.651 Y80.489 E42.14278
G1 X131.175 Y75.476 E42.41101
G1 X126.931 Y80.23 E42.66536
G1 X126.699 Y80.489 E42.67923
G1 X126.699 Y90.228 E43.06794
G1 X131.175 Y95.243 E43.33623
G0 F9000 X131.398 Y95.443
G0 X136.364 Y91.886
G0 X141.213 Y95.676
;TYPE:WALL-INNER
G1 F3600 X141.361 Y95.842 E43.3451
G1 X141.509 Y95.676 E43.35066
G1 X146.235 Y90.381 E43.63393
G1 X146.235 Y80.336 E44.03485
G1 X141.509 Y75.041 E44.31812
G1 X141.361 Y74.875 E44.32699
G1 X141.213 Y75.041 E44.33255
G1 X136.484 Y80.336 E44.6159
G1 X136.484 Y90.381 E45.01682
G1 X140.733 Y95.138 E45.27139
G1 X141.213 Y95.676 E45.30017
G0 F9000 X141.361 Y95.241
;TYPE:WALL-OUTER
G1 F3600 X145.835 Y90.228 E45.56834
G1 X145.835 Y80.489 E45.95705
G1 X141.361 Y75.476 E46.22522
G1 X136.884 Y80.489 E46.49348
G1 X136.884 Y90.228 E46.88218
G1 X141.031 Y94.872 E47.13068
G1 X141.361 Y95.241 E47.15044
G0 F9000 X141.584 Y95.441
G0 X141.568 Y95.749
G0 X141.46 Y107.485
;TYPE:WALL-INNER
G1 F3600 X141.64 Y107.283 E47.16124
G1 X141.64 Y96.933 E47.57433
G1 X141.273 Y96.522 E47.59632
G1 X136.364 Y91.024 E47.8905
G1 X131.369 Y96.617 E48.08589
G1 X131.269 Y96.729 E48.09189
G1 X131.087 Y96.525 E48.0987
G1 X126.179 Y91.021 E48.1843
G1 X121.198 Y96.603 E48.36354
G1 X121.059 Y96.758 E48.37185
G1 X120.885 Y96.563 E48.37804
G1 X115.938 Y91.024 E48.51064
G1 X110.875 Y96.694 E48.79731
G1 X110.698 Y96.892 E48.80791
G1 X110.429 Y96.591 E48.82402
G1 X105.458 Y91.024 E48.98866
G1 X100.396 Y96.693 E49.27489
G1 X100.182 Y96.933 E49.28772
G1 X100.182 Y107.283 E49.70081
G1 X100.197 Y107.3 E49.70172
G1 X105.429 Y113.159 E50.01523
G1 X105.354 Y113.243 E50.01972
G1 X105.346 Y113.234
G1 X100.115 Y107.374 E50.10658
G1 X94.923 Y113.186 E50.41763
G1 X94.88 Y113.137 E50.42023
G1 X100.065 Y107.331 E50.47069
G1 X100.108 Y107.283 E50.47326
G1 X100.108 Y96.933 E50.54988
G1 X99.868 Y96.664 E50.56427
G1 X94.831 Y91.024 E50.81425
G1 X89.879 Y96.57 E50.9582
G1 X89.64 Y96.838 E50.97253
G1 X89.485 Y96.664 E50.98183
G1 X84.448 Y91.024 E51.23334
G1 X79.514 Y96.551 E51.52904
G1 X79.173 Y96.933 E51.54948
G1 X79.173 Y107.283 E51.96257
G1 X79.324 Y107.452 E51.97162
G1 X74.118 Y113.283 E52.2836
G1 X74.118 Y123.633 E52.69669
G1 X79.245 Y129.376 E53.00396
G1 X79.393 Y129.542 E53.01284
G1 X79.541 Y129.376 E53.0184
G1 X84.252 Y124.102 E53.30064
G1 X84.563 Y123.753 E53.3193
G1 X89.733 Y129.54 E53.62902
G1 X94.61 Y124.08 E53.84542
G1 X94.923 Y123.73 E53.86416
G1 X100.115 Y129.542 E54.17521
G1 X105.354 Y123.673 E54.4892
G1 X105.699 Y124.06 E54.5099
G1 X110.593 Y129.542 E54.8032
G1 X115.805 Y123.706 E55.1155
G1 X116.147 Y124.089 E55.13599
G1 X121.018 Y129.542 E55.42782
G1 X125.923 Y124.048 E55.72177
G1 X126.096 Y123.854 E55.73214
G1 X126.342 Y124.13 E55.7469
G1 X131.175 Y129.545 E56.03659
G1 X136.093 Y124.035 E56.33136
G1 X136.268 Y123.839 E56.34185
G1 X136.527 Y124.129 E56.35737
G1 X141.213 Y129.376 E56.63815
G1 X141.361 Y129.542 E56.64702
G1 X141.509 Y129.376 E56.65258
G1 X146.635 Y123.633 E56.95982
G1 X146.635 Y113.283 E57.37291
G1 X141.46 Y107.485 E57.68309
G0 F9000 X141.24 Y107.13
G1 F3600 X141.24 Y97.086 E58.08397
G1 X136.512 Y91.791 E58.36729
G1 X136.364 Y91.625 E58.37617
G1 X136.216 Y91.791 E58.38173
G1 X131.487 Y97.086 E58.66508
G1 X131.487 Y107.13 E59.06595
G1 X135.736 Y111.887 E59.32053
G1 X136.216 Y112.425 E59.3493
G1 X136.364 Y112.591 E59.35818
G1 X136.512 Y112.425 E59.36374
G1 X141.24 Y107.13 E59.64706
G1 F1800 E56.64706
G0 F9000 X136.587 Y112.19
G0 X136.364 Y111.99
;TYPE:WALL-OUTER
G1 F1800 E59.64706
G1 F3600 X140.84 Y106.977 E59.91529
G1 X140.84 Y97.239 E60.30395
G1 X136.364 Y92.226 E60.57218
G1 X131.887 Y97.239 E60.84044
G1 X131.887 Y106.977 E61.2291
G1 X136.034 Y111.621 E61.4776
G1 X136.364 Y111.99 E61.49736
G0 F9000 X136.587 Y112.19
G0 X136.364 Y112.33
G0 X131.175 Y108.236
G0 X126.031 Y112.425
;TYPE:WALL-INNER
G1 F3600 X126.179 Y112.591 E61.50623
G1 X126.327 Y112.425 E61.51179
G1 X131.053 Y107.13 E61.79506
G1 X131.053 Y97.087 E62.1959
G1 X126.327 Y91.788 E62.47929
G1 X126.179 Y91.622 E62.48816
G1 X126.031 Y91.788 E62.49372
G1 X121.636 Y96.714 E62.75721
G1 X121.302 Y97.086 E62.77716
G1 X121.302 Y107.13 E63.17804
G1 X126.031 Y112.425 E63.46139
G0 F9000 X126.179 Y111.99
;TYPE:WALL-OUTER
G1 F3600 X130.653 Y106.977 E63.72956
G1 X130.653 Y97.239 E64.11823
G1 X126.179 Y92.223 E64.38649
G1 X121.934 Y96.98 E64.64096
G1 X121.702 Y97.239 E64.65484
G1 X121.702 Y106.977 E65.0435
G1 X126.179 Y111.99 E65.31176
G0 F9000 X126.402 Y112.19
G0 X126.179 Y112.33
G0 X121.018 Y108.236
G0 X115.79 Y112.425
;TYPE:WALL-INNER
G1 F3600 X115.938 Y112.591 E65.32063
G1 X116.086 Y112.425 E65.32619
G1 X120.815 Y107.13 E65.60954
G1 X120.815 Y97.086 E66.01042
G1 X116.086 Y91.791 E66.29377
G1 X115.938 Y91.625 E66.30264
G1 X115.79 Y91.791 E66.3082
G1 X111.061 Y97.086 E66.59155
G1 X111.061 Y107.13 E66.99243
G1 X115.79 Y112.425 E67.27578
G0 F9000 X115.938 Y111.99
;TYPE:WALL-OUTER
G1 F3600 X120.415 Y106.977 E67.54403
G1 X120.415 Y97.239 E67.9327
G1 X115.938 Y92.226 E68.20095
G1 X111.461 Y97.239 E68.46921
G1 X111.461 Y106.977 E68.85787
G1 X115.938 Y111.99 E69.12613
G0 F9000 X116.161 Y112.19
G0 X115.938 Y112.33
G0 X110.593 Y108.236
G0 X105.31 Y112.425
;TYPE:WALL-INNER
G1 F3600 X105.458 Y112.591 E69.135
G1 X105.606 Y112.425 E69.14056
G1 X110.335 Y107.13 E69.42391
G1 X110.335 Y97.086 E69.82479
G1 X105.606 Y91.791 E70.10814
G1 X105.458 Y91.625 E70.11702
G1 X105.31 Y91.791 E70.12257
G1 X100.582 Y97.086 E70.4059
G1 X100.582 Y107.13 E70.80677
G1 X104.83 Y111.887 E71.06132
G1 X105.31 Y112.425 E71.0901
G0 F9000 X105.458 Y111.99
;TYPE:WALL-OUTER
G1 F3600 X109.935 Y106.977 E71.35835
G1 X109.935 Y97.239 E71.74702
G1 X105.458 Y92.226 E72.01527
G1 X100.982 Y97.239 E72.2835
G1 X100.982 Y106.977 E72.67216
G1 X105.128 Y111.621 E72.92064
G1 X105.458 Y111.99 E72.94039
G0 F9000 X105.681 Y112.19
G0 X105.458 Y112.33
G0 X100.115 Y108.236
G0 X94.683 Y112.425
;TYPE:WALL-INNER
G1 F3600 X94.831 Y112.591 E72.94927
G1 X94.979 Y112.425 E72.95483
G1 X99.708 Y107.13 E73.23818
G1 X99.708 Y97.086 E73.63905
G1 X94.979 Y91.791 E73.9224
G1 X94.831 Y91.625 E73.93128
G1 X94.683 Y91.791 E73.93684
G1 X89.955 Y97.086 E74.22016
G1 X89.955 Y107.13 E74.62104
G1 X94.683 Y112.425 E74.90436
G0 F9000 X94.831 Y111.99
;TYPE:WALL-OUTER
G1 F3600 X99.308 Y106.977 E75.17262
G1 X99.308 Y97.239 E75.56128
G1 X94.831 Y92.226 E75.82954
G1 X90.355 Y97.239 E76.09777
G1 X90.355 Y106.977 E76.48643
G1 X94.831 Y111.99 E76.75466
G0 F9000 X95.054 Y112.19
G0 X94.831 Y112.33
G0 X89.733 Y108.236
G0 X84.3 Y112.425
;TYPE:WALL-INNER
G1 F3600 X84.448 Y112.591 E76.76354
G1 X84.596 Y112.425 E76.76909
G1 X89.325 Y107.13 E77.05244
G1 X89.325 Y97.086 E77.45332
G1 X84.596 Y91.791 E77.73667
G1 X84.448 Y91.625 E77.74555
G1 X84.3 Y91.791 E77.7511
G1 X79.907 Y96.714 E78.01445
G1 X79.573 Y97.086 E78.0344
G1 X79.573 Y107.13 E78.43528
G1 X84.3 Y112.425 E78.71857
G0 F9000 X84.448 Y111.99
;TYPE:WALL-OUTER
G1 F3600 X88.925 Y106.977 E78.98683
G1 X88.925 Y97.239 E79.37549
G1 X84.448 Y92.226 E79.64375
G1 X80.205 Y96.98 E79.89807
G1 X79.973 Y97.239 E79.91195
G1 X79.973 Y106.977 E80.30062
G1 X84.448 Y111.99 E80.56882
G0 F9000 X84.671 Y112.19
G0 X84.107 Y123.417
G0 X79.393 Y128.68
G0 X79.245 Y128.775
;TYPE:WALL-INNER
G1 F3600 X79.393 Y128.941 E80.57769
G1 X79.541 Y128.775 E80.58325
G1 X84.27 Y123.48 E80.8666
G1 X84.27 Y113.436 E81.26748
G1 X79.541 Y108.141 E81.55083
G1 X79.393 Y107.975 E81.55971
G1 X79.245 Y108.141 E81.56526
G1 X74.852 Y113.064 E81.82861
G1 X74.518 Y113.436 E81.84856
G1 X74.518 Y123.48 E82.24944
G1 X79.245 Y128.775 E82.53273
G0 F9000 X79.393 Y128.34
;TYPE:WALL-OUTER
G1 F3600 X83.87 Y123.327 E82.80099
G1 X83.87 Y113.589 E83.18965
G1 X79.393 Y108.576 E83.45791
G1 X75.15 Y113.33 E83.71223
G1 X74.918 Y113.589 E83.72611
G1 X74.918 Y123.327 E84.11477
G1 X79.393 Y128.34 E84.38298
G0 F9000 X79.616 Y128.54
G0 X84.448 Y125.138
G0 X89.641 Y129.813
G0 X89.585 Y128.774
;TYPE:WALL-INNER
G1 F3600 X89.733 Y128.94 E84.39185
G1 X89.881 Y128.774 E84.39741
G1 X94.61 Y123.48 E84.68073
G1 X94.61 Y113.436 E85.08161
G1 X89.881 Y108.142 E85.36493
G1 X89.733 Y107.976 E85.3738
G1 X89.585 Y108.142 E85.37936
