;FLAVOR:Marlin
;TIME:15255
;Filament used: 16.7641m
;Layer height: 0.2
;MINX:69.335
;MINY:58.686
;MINZ:0.24
;MAXX:150.665
;MAXY:157.087
;MAXZ:39.84
;Generated with Cura_SteamEngine 4.5.0
M140 S50
M105
M190 S50
M104 S215
M105
M109 S215
M82 ;absolute extrusion mode
M201 X500.00 Y500.00 Z100.00 E5000.00 ;Setup machine max acceleration
M203 X500.00 Y500.00 Z10.00 E50.00 ;Setup machine max feedrate
M204 P500.00 R1000.00 T500.00 ;Setup Print/Retract/Travel acceleration
M205 X8.00 Y8.00 Z0.40 E5.00 ;Setup Jerk
M220 S100 ;Reset Feedrate
M221 S100 ;Reset Flowrate

G28 ;Home

G92 E0 ;Reset Extruder
G1 Z2.0 F3000 ;Move Z Axis up
G1 X10.1 Y20 Z0.28 F5000.0 ;Move to start position
G1 X10.1 Y200.0 Z0.28 F1500.0 E15 ;Draw the first line
G1 X10.4 Y200.0 Z0.28 F5000.0 ;Move to side a little
G1 X10.4 Y20 Z0.28 F1500.0 E30 ;Draw the second line
G92 E0 ;Reset Extruder
G1 Z2.0 F3000 ;Move Z Axis up

G92 E0
G92 E0
G1 F1800 E-3
;LAYER_COUNT:187
;LAYER:0
M107
G0 F9000 X96.828 Y62.067 Z0.24
;TYPE:SKIRT
G1 F1800 E0
G1 F3600 X96.952 Y61.976 E0.00614
G1 X98.826 Y62.021 E0.08096
G1 X99.206 Y62.157 E0.09706
G1 X99.745 Y62.224 E0.11874
G1 X100.006 Y62.314 E0.12976
G1 X100.42 Y62.377 E0.14648
G1 X100.839 Y62.36 E0.16321
G1 X101.289 Y62.245 E0.18175
G1 X101.668 Y62.245 E0.19688
G1 X102.16 Y62.444 E0.21806
G1 X102.575 Y62.508 E0.23482
G1 X102.993 Y62.493 E0.25151
G1 X103.401 Y62.398 E0.26823
G1 X103.789 Y62.224 E0.2852
G1 X104.168 Y62.224 E0.30033
G1 X104.698 Y62.453 E0.32337
G1 X104.142 Y62.682 E0.34737
G1 X103.996 Y62.776 E0.3543
G1 X103.765 Y62.776 E0.36352
G1 X103.273 Y62.577 E0.38471
G1 X102.858 Y62.513 E0.40147
G1 X102.44 Y62.528 E0.41816
G1 X102.032 Y62.623 E0.43488
G1 X101.644 Y62.797 E0.45185
G1 X101.301 Y62.797 E0.46554
G1 X101.049 Y62.707 E0.47622
G1 X100.635 Y62.644 E0.49294
G1 X100.216 Y62.661 E0.50967
G1 X99.766 Y62.776 E0.52821
G1 X99.337 Y62.776 E0.54533
G1 X99.001 Y62.656 E0.55957
G1 X98.54 Y62.59 E0.57816
G1 X96.946 Y62.534 E0.64182
G1 X96.857 Y62.491 E0.64576
G1 X96.773 Y62.235 E0.65652
G1 X96.828 Y62.067 E0.66357
G0 F9000 X96.489 Y61.818
G1 F3600 X96.826 Y61.573 E0.6802
G1 X98.936 Y61.624 E0.76444
G1 X99.375 Y61.786 E0.78312
G1 X99.813 Y61.826 E0.80067
G1 X100.174 Y61.942 E0.81581
G1 X100.551 Y61.98 E0.83093
G1 X100.928 Y61.938 E0.84607
G1 X101.206 Y61.845 E0.85777
G1 X101.777 Y61.845 E0.88056
G1 X101.969 Y61.956 E0.88941
G1 X102.33 Y62.073 E0.90456
G1 X102.706 Y62.112 E0.91964
G1 X103.083 Y62.071 E0.93478
G1 X103.443 Y61.952 E0.94991
G1 X103.663 Y61.824 E0.96007
G1 X104.267 Y61.824 E0.98418
G1 X104.846 Y62.079 E1.00943
G1 X105.22 Y62.14 E1.02455
G1 X105.599 Y62.121 E1.0397
G1 X105.965 Y62.024 E1.05481
G1 X106.357 Y61.811 E1.07262
G1 X108.625 Y61.74 E1.16318
G1 X110.216 Y61.843 E1.22682
G1 X113.483 Y61.855 E1.35721
G1 X115.793 Y61.793 E1.44944
G1 X116.263 Y61.972 E1.46951
G1 X116.64 Y62.011 E1.48464
G1 X117.017 Y61.97 E1.49978
G1 X117.377 Y61.851 E1.51491
G1 X117.558 Y61.745 E1.52328
G1 X120.926 Y61.854 E1.65778
G1 X121.399 Y61.864 E1.67666
G1 X121.77 Y62.135 E1.695
G1 X121.906 Y62.551 E1.71246
G1 X121.764 Y62.99 E1.73088
G1 X121.421 Y63.222 E1.74741
G1 X119.424 Y63.207 E1.82711
G1 X117.622 Y63.109 E1.89914
G1 X117.435 Y63.001 E1.90776
G1 X117.075 Y62.885 E1.92286
G1 X116.698 Y62.846 E1.93798
G1 X116.321 Y62.887 E1.95312
G1 X115.961 Y63.006 E1.96825
G1 X115.723 Y63.145 E1.97925
G1 X113.193 Y63.209 E2.08026
G1 X110.241 Y63.199 E2.19808
G1 X107.557 Y63.091 E2.30529
G1 X106.295 Y63.15 E2.35572
G1 X105.957 Y62.953 E2.37133
G1 X105.596 Y62.836 E2.38648
G1 X105.22 Y62.797 E2.40157
G1 X104.843 Y62.838 E2.4167
G1 X104.483 Y62.957 E2.43183
G1 X104.118 Y63.176 E2.44882
G1 X103.656 Y63.176 E2.46726
G1 X103.464 Y63.065 E2.47611
G1 X103.103 Y62.948 E2.49126
G1 X102.727 Y62.909 E2.50635
G1 X102.35 Y62.95 E2.52148
G1 X101.99 Y63.069 E2.53662
G1 X101.77 Y63.197 E2.54678
G1 X101.245 Y63.197 E2.56773
G1 X100.881 Y63.079 E2.583
G1 X100.504 Y63.041 E2.59813
G1 X100.127 Y63.083 E2.61327
G1 X99.849 Y63.176 E2.62497
G1 X99.248 Y63.176 E2.64895
G1 X98.832 Y63.027 E2.66659
G1 X96.83 Y62.93 E2.74659
G1 X96.538 Y62.802 E2.75931
G1 X96.353 Y62.235 E2.78312
G1 X96.489 Y61.818 E2.80062
G0 F9000 X96.147 Y61.572
G1 F3600 X96.699 Y61.17 E2.82788
G1 X99.049 Y61.227 E2.9217
G1 X99.213 Y61.319 E2.9292
G1 X99.745 Y61.424 E2.95085
G1 X99.919 Y61.424 E2.95779
G1 X100.334 Y61.564 E2.97527
G1 X100.668 Y61.574 E2.98861
G1 X100.994 Y61.505 E3.00191
G1 X101.11 Y61.445 E3.00712
G1 X101.881 Y61.445 E3.03789
G1 X102.168 Y61.606 E3.05103
G1 X102.49 Y61.696 E3.06437
G1 X102.824 Y61.707 E3.07771
G1 X103.151 Y61.638 E3.09105
G1 X103.553 Y61.424 E3.10922
G1 X104.364 Y61.424 E3.14159
G1 X104.99 Y61.703 E3.16895
G1 X105.322 Y61.743 E3.18229
G1 X105.653 Y61.703 E3.1956
G1 X106.145 Y61.475 E3.21724
G1 X106.228 Y61.414 E3.22135
G1 X108.629 Y61.339 E3.31723
G1 X110.242 Y61.444 E3.38174
G1 X113.484 Y61.455 E3.51114
G1 X115.893 Y61.389 E3.60733
G1 X116.102 Y61.506 E3.61689
G1 X116.423 Y61.595 E3.63018
G1 X116.757 Y61.606 E3.64352
G1 X117.084 Y61.537 E3.65686
G1 X117.46 Y61.342 E3.67376
G1 X120.939 Y61.454 E3.81269
G1 X121.532 Y61.466 E3.83636
G1 X122.112 Y61.888 E3.86499
G1 X122.327 Y62.551 E3.89281
G1 X122.098 Y63.256 E3.92239
G1 X121.549 Y63.623 E3.94875
G1 X119.42 Y63.607 E4.03372
G1 X117.509 Y63.503 E4.11011
G1 X117.236 Y63.351 E4.12258
G1 X116.915 Y63.262 E4.13588
G1 X116.581 Y63.251 E4.14921
G1 X116.254 Y63.32 E4.16255
G1 X115.843 Y63.541 E4.18118
G1 X113.168 Y63.609 E4.28798
G1 X110.224 Y63.599 E4.40548
G1 X107.541 Y63.491 E4.51265
G1 X106.174 Y63.557 E4.56727
G1 X105.758 Y63.302 E4.58675
G1 X105.436 Y63.213 E4.60008
G1 X105.102 Y63.202 E4.61342
G1 X104.775 Y63.271 E4.62676
G1 X104.249 Y63.576 E4.65103
G1 X103.552 Y63.576 E4.67884
G1 X103.265 Y63.415 E4.69198
G1 X102.943 Y63.325 E4.70532
G1 X102.609 Y63.314 E4.71866
G1 X102.282 Y63.383 E4.732
G1 X101.88 Y63.597 E4.75018
G1 X101.136 Y63.597 E4.77987
G1 X100.721 Y63.457 E4.79735
G1 X100.387 Y63.447 E4.81069
G1 X100.061 Y63.516 E4.82399
G1 X99.945 Y63.576 E4.8292
G1 X99.141 Y63.576 E4.86129
G1 X98.994 Y63.494 E4.86801
G1 X98.512 Y63.39 E4.88769
G1 X96.719 Y63.327 E4.95929
G1 X96.501 Y63.205 E4.96927
G1 X96.222 Y63.128 E4.98082
G1 X95.932 Y62.235 E5.01829
G1 X96.147 Y61.572 E5.04611
G0 F9000 X95.808 Y61.324
G1 F3600 X96.573 Y60.767 E5.08388
G1 X99.152 Y60.829 E5.18684
G1 X99.406 Y60.965 E5.19834
G1 X99.745 Y61.024 E5.21207
G1 X100.021 Y61.024 E5.22309
G1 X100.204 Y61.121 E5.23136
G1 X100.481 Y61.178 E5.24264
G1 X100.762 Y61.156 E5.25389
G1 X101.006 Y61.045 E5.26459
G1 X102.01 Y61.045 E5.30466
G1 X102.362 Y61.252 E5.32096
G1 X102.638 Y61.31 E5.33222
G1 X102.919 Y61.288 E5.34347
G1 X103.423 Y61.024 E5.36618
G1 X104.461 Y61.024 E5.40761
G1 X105.127 Y61.324 E5.43676
G1 X105.409 Y61.339 E5.44803
G1 X105.684 Y61.275 E5.4593
G1 X106.091 Y61.019 E5.47849
G1 X108.642 Y60.939 E5.58036
G1 X110.268 Y61.045 E5.64539
G1 X113.485 Y61.055 E5.77379
G1 X116.001 Y60.987 E5.87425
G1 X116.295 Y61.152 E5.8877
G1 X116.571 Y61.209 E5.89895
G1 X116.852 Y61.187 E5.9102
G1 X117.335 Y60.937 E5.93191
G1 X120.952 Y61.054 E6.07634
G1 X121.666 Y61.069 E6.10485
G1 X122.451 Y61.64 E6.14359
G1 X122.748 Y62.551 E6.18183
G1 X122.458 Y63.442 E6.21923
G1 X122.427 Y63.552 E6.22379
G1 X122.121 Y63.702 E6.23739
G1 X121.678 Y64.024 E6.25925
G1 X119.416 Y64.007 E6.34954
G1 X117.373 Y63.896 E6.4312
G1 X117.043 Y63.705 E6.44642
G1 X116.767 Y63.648 E6.45766
G1 X116.486 Y63.67 E6.46891
G1 X115.978 Y63.938 E6.49184
G1 X113.176 Y64.009 E6.60371
G1 X110.206 Y63.999 E6.72225
G1 X107.525 Y63.891 E6.82934
G1 X106.053 Y63.963 E6.88816
G1 X105.565 Y63.656 E6.91117
G1 X105.288 Y63.599 E6.92246
G1 X105.007 Y63.621 E6.93371
G1 X104.636 Y63.789 E6.94996
G1 X104.379 Y63.976 E6.96265
G1 X103.423 Y63.976 E7.0008
G1 X103.071 Y63.769 E7.0171
G1 X102.795 Y63.711 E7.02836
G1 X102.514 Y63.733 E7.03961
G1 X102.01 Y63.997 E7.06232
G1 X101.034 Y63.997 E7.10127
G1 X100.851 Y63.9 E7.10954
G1 X100.574 Y63.843 E7.12082
G1 X100.293 Y63.865 E7.13207
G1 X100.049 Y63.976 E7.14277
G1 X99.042 Y63.976 E7.18296
G1 X98.801 Y63.848 E7.19386
G1 X98.497 Y63.79 E7.20621
G1 X96.601 Y63.723 E7.28193
G1 X96.308 Y63.559 E7.29533
G1 X95.917 Y63.5 E7.31111
G1 X95.511 Y62.235 E7.36414
G1 X95.808 Y61.324 E7.40238
G0 F9000 X95.468 Y61.077
G1 F3600 X96.447 Y60.364 E7.45072
G1 X99.287 Y60.432 E7.5641
G1 X99.589 Y60.603 E7.57795
G1 X100.132 Y60.624 E7.59964
G1 X100.387 Y60.76 E7.61118
G1 X100.604 Y60.777 E7.61986
G1 X100.923 Y60.645 E7.63364
G1 X102.14 Y60.645 E7.68222
G1 X102.545 Y60.891 E7.70113
G1 X102.763 Y60.909 E7.70986
G1 X103.055 Y60.797 E7.72234
G1 X103.292 Y60.624 E7.73405
G1 X104.558 Y60.624 E7.78458
G1 X105.045 Y60.876 E7.80647
G1 X105.254 Y60.939 E7.81518
G1 X105.471 Y60.924 E7.82386
G1 X105.674 Y60.828 E7.83282
G1 X105.955 Y60.623 E7.84671
G1 X108.645 Y60.539 E7.95412
G1 X110.294 Y60.646 E8.02008
G1 X113.486 Y60.655 E8.14748
G1 X116.127 Y60.584 E8.25292
G1 X116.478 Y60.79 E8.26917
G1 X116.695 Y60.808 E8.27786
G1 X116.987 Y60.696 E8.29034
G1 X117.21 Y60.534 E8.30134
G1 X120.965 Y60.655 E8.45129
G1 X121.8 Y60.671 E8.48462
G1 X122.791 Y61.393 E8.53356
G1 X123.168 Y62.551 E8.58216
G1 X122.838 Y63.566 E8.62476
G1 X122.81 Y63.782 E8.63345
G1 X122.84 Y63.911 E8.63874
G1 X122.493 Y63.951 E8.65268
G1 X121.807 Y64.425 E8.68596
G1 X119.392 Y64.407 E8.78235
G1 X117.234 Y64.29 E8.86861
G1 X116.86 Y64.067 E8.88599
G1 X116.643 Y64.049 E8.89468
G1 X116.351 Y64.161 E8.90716
G1 X116.112 Y64.335 E8.91896
G1 X113.185 Y64.409 E9.03582
G1 X110.214 Y64.399 E9.1544
G1 X107.509 Y64.29 E9.26245
G1 X105.933 Y64.371 E9.32544
G1 X105.578 Y64.112 E9.34297
G1 X105.382 Y64.018 E9.35165
G1 X105.164 Y64 E9.36038
G1 X104.872 Y64.112 E9.37286
G1 X104.51 Y64.376 E9.39075
G1 X103.293 Y64.376 E9.43932
G1 X102.888 Y64.13 E9.45823
G1 X102.67 Y64.112 E9.46696
G1 X102.378 Y64.224 E9.47944
G1 X102.141 Y64.397 E9.49115
G1 X100.923 Y64.397 E9.53977
G1 X100.668 Y64.261 E9.5513
G1 X100.451 Y64.244 E9.55999
G1 X100.132 Y64.376 E9.57377
G1 X98.914 Y64.376 E9.62238
G1 X98.618 Y64.21 E9.63593
G1 X96.463 Y64.117 E9.72202
G1 X96.125 Y63.921 E9.73761
G1 X95.526 Y63.901 E9.76153
G1 X95.525 Y63.568 E9.77482
G1 X95.091 Y62.235 E9.83078
G1 X95.468 Y61.077 E9.87938
G0 F9000 X95.127 Y60.831
G1 F3600 X96.323 Y59.961 E9.93841
G1 X99.42 Y60.035 E10.06205
G1 X99.627 Y60.186 E10.07228
G1 X99.745 Y60.224 E10.07723
G1 X100.262 Y60.224 E10.09786
G1 X100.543 Y60.38 E10.11069
G1 X100.793 Y60.245 E10.12203
G1 X102.27 Y60.245 E10.18098
G1 X102.584 Y60.474 E10.19649
G1 X102.703 Y60.512 E10.20148
G1 X102.82 Y60.474 E10.20639
G1 X103.163 Y60.224 E10.22333
G1 X104.655 Y60.224 E10.28288
G1 X105.229 Y60.521 E10.30867
G1 X105.352 Y60.541 E10.31364
G1 X105.821 Y60.227 E10.33617
G1 X108.648 Y60.138 E10.44906
G1 X110.32 Y60.247 E10.51593
G1 X113.487 Y60.255 E10.64234
G1 X116.251 Y60.18 E10.75269
G1 X116.516 Y60.373 E10.76578
G1 X116.635 Y60.411 E10.77076
G1 X116.752 Y60.373 E10.77567
G1 X117.087 Y60.129 E10.79221
G1 X120.978 Y60.255 E10.94759
G1 X121.932 Y60.274 E10.98568
G1 X123.132 Y61.147 E11.04491
G1 X123.589 Y62.551 E11.10384
G1 X123.219 Y63.689 E11.1516
G1 X123.219 Y63.814 E11.15659
G1 X123.294 Y63.914 E11.16157
G1 X123.504 Y63.951 E11.17009
G1 X130.801 Y63.96 E11.46132
G1 X130.801 Y64.29 E11.4745
G1 X122.708 Y64.311 E11.79751
G1 X122.591 Y64.349 E11.80242
G1 X121.935 Y64.826 E11.83479
G1 X119.387 Y64.807 E11.93649
G1 X117.094 Y64.682 E12.02814
G1 X116.822 Y64.484 E12.04157
G1 X116.703 Y64.446 E12.04656
G1 X116.586 Y64.484 E12.05147
G1 X116.246 Y64.732 E12.06826
G1 X113.194 Y64.809 E12.19011
G1 X110.198 Y64.799 E12.30969
G1 X107.493 Y64.69 E12.41774
G1 X105.813 Y64.777 E12.48488
G1 X105.343 Y64.435 E12.50808
G1 X105.224 Y64.397 E12.51307
G1 X105.107 Y64.435 E12.51798
G1 X104.639 Y64.776 E12.54109
G1 X103.163 Y64.776 E12.6
G1 X102.849 Y64.547 E12.61551
G1 X102.73 Y64.509 E12.6205
G1 X102.613 Y64.547 E12.62541
G1 X102.27 Y64.797 E12.64235
G1 X100.793 Y64.797 E12.7013
G1 X100.512 Y64.641 E12.71412
G1 X100.262 Y64.776 E12.72546
G1 X98.785 Y64.776 E12.78441
G1 X98.469 Y64.589 E12.79907
G1 X96.328 Y64.513 E12.88458
G1 X96.087 Y64.338 E12.89646
G1 X95.969 Y64.3 E12.90141
G1 X89.208 Y64.317 E13.17126
G1 X89.199 Y63.946 E13.18607
G1 X94.954 Y63.954 E13.41576
G1 X95.072 Y63.915 E13.42072
G1 X95.145 Y63.813 E13.42573
G1 X95.144 Y63.692 E13.43056
G1 X94.67 Y62.235 E13.49171
G1 X95.127 Y60.831 E13.55064
G0 F9000 X105.808 Y62.479
G1 F3600 X106.329 Y62.298 E13.57266
G1 X106.476 Y62.207 E13.57956
G1 X108.623 Y62.14 E13.66529
G1 X110.19 Y62.242 E13.72796
G1 X113.482 Y62.255 E13.85936
G1 X115.688 Y62.196 E13.94743
G1 X116.094 Y62.344 E13.96468
G1 X116.509 Y62.407 E13.98143
G1 X116.927 Y62.391 E13.99813
G1 X117.335 Y62.296 E14.01485
G1 X117.664 Y62.149 E14.02923
G1 X120.913 Y62.254 E14.15897
G1 X121.264 Y62.261 E14.17299
G1 X121.431 Y62.383 E14.18124
G1 X121.486 Y62.551 E14.1883
G1 X121.414 Y62.732 E14.19607
G1 X121.291 Y62.821 E14.20213
G1 X119.449 Y62.807 E14.27565
G1 X117.74 Y62.714 E14.34396
G1 X117.244 Y62.513 E14.36532
G1 X116.829 Y62.45 E14.38207
G1 X116.411 Y62.466 E14.39877
G1 X116.003 Y62.561 E14.41549
G1 X115.595 Y62.748 E14.4334
G1 X113.184 Y62.809 E14.52966
G1 X110.232 Y62.799 E14.64748
G1 X107.574 Y62.692 E14.75366
G1 X106.394 Y62.744 E14.8008
G1 X106.16 Y62.606 E14.81164
G1 X105.808 Y62.479 E14.82658
G1 F1800 E11.82658
G0 F9000 X100.665 Y64.032
G0 X99.8 Y64.032
;TYPE:SUPPORT
G1 F1800 E14.82658
G1 F3600 X99.8 Y64.29 E14.83687
G1 X96.035 Y64.3 E14.98714
G1 X95.561 Y63.955 E15.01054
G1 X99.728 Y63.96 E15.17686
G1 X99.8 Y64.032 E15.18092
G1 X99.8 Y64.29 E15.19122
G1 X96.035 Y64.3 E15.34149
G1 X95.561 Y63.955 E15.36489
G1 X99.728 Y63.96 E15.5312
G1 X99.8 Y64.032 E15.53526
G1 F1800 E12.53526
G0 F9000 X100.665 Y64.032
G0 X119.335 Y64.025
G0 X120.2 Y64.025
G1 F1800 E15.53526
G1 F3600 X120.272 Y63.953 E15.53933
G1 X123.133 Y63.951 E15.65352
G1 X122.644 Y64.311 E15.67775
G1 X120.209 Y64.317 E15.77494
G1 X120.2 Y64.308 E15.77545
G1 X120.2 Y64.025 E15.78674
G1 X120.272 Y63.953 E15.79081
G1 X123.133 Y63.951 E15.90499
G1 X122.643 Y64.311 E15.92926
G1 X120.209 Y64.317 E16.02641
G1 X120.2 Y64.308 E16.02692
G1 X120.2 Y64.025 E16.03821
G1 F1800 E13.03821
;MESH:Object 1
G0 F9000 X119.335 Y64.025
G0 X109.15 Y78.922
G0 X107.781 Y77.701
G0 X105.273 Y81.615
G0 X104.541 Y91.531
G0 X99.679 Y97.491
;TYPE:WALL-INNER
G1 F1800 E16.03821
G1 F3600 X99.827 Y97.657 E16.04709
G1 X99.975 Y97.491 E16.05265
G1 X104.809 Y92.077 E16.34233
G1 X104.907 Y91.967 E16.34821
G1 X105.077 Y92.158 E16.35439
G1 X109.985 Y97.657 E16.64858
G1 X114.981 Y92.064 E16.94789
G1 X115.08 Y91.953 E16.95383
G1 X115.263 Y92.158 E16.9607
G1 X120.025 Y97.491 E17.24606
G1 X120.173 Y97.657 E17.25494
G1 X120.321 Y97.491 E17.26049
G1 X125.45 Y91.747 E17.56784
G1 X125.45 Y81.4 E17.98082
G1 X120.321 Y75.654 E18.28822
G1 X120.173 Y75.488 E18.2971
G1 X120.025 Y75.654 E18.30266
G1 X115.228 Y81.027 E18.59014
G1 X115.08 Y81.193 E18.59901
G1 X114.932 Y81.027 E18.60457
G1 X109.985 Y75.488 E18.90098
G1 X105.055 Y81.013 E19.19652
G1 X104.907 Y81.179 E19.2054
G1 X104.759 Y81.013 E19.21096
G1 X99.975 Y75.654 E19.49767
G1 X99.827 Y75.488 E19.50655
G1 X99.679 Y75.654 E19.51211
G1 X94.55 Y81.399 E19.81949
G1 X94.55 Y91.746 E20.23246
G1 X99.679 Y97.491 E20.53984
G0 F9000 X99.827 Y97.056
G1 F3600 X99.975 Y96.89 E20.54871
G1 X104.704 Y91.594 E20.83209
G1 X104.704 Y81.553 E21.23285
G1 X99.975 Y76.255 E21.51629
G1 X99.827 Y76.089 E21.52517
G1 X99.679 Y76.255 E21.53072
G1 X94.95 Y81.552 E21.81413
G1 X94.95 Y91.593 E22.21489
G1 X99.679 Y96.89 E22.4983
G1 X99.827 Y97.056 E22.50386
G0 F9000 X99.827 Y96.455
;TYPE:WALL-OUTER
G1 F3600 X104.304 Y91.441 E22.77214
G1 X104.304 Y81.706 E23.16069
G1 X99.827 Y76.69 E23.42903
G1 X95.35 Y81.705 E23.69735
G1 X95.35 Y91.44 E24.08589
G1 X99.827 Y96.455 E24.35421
G0 F9000 X100.05 Y96.655
G0 X104.99 Y93.099
G0 X109.837 Y96.89
;TYPE:WALL-INNER
G1 F3600 X109.985 Y97.056 E24.36308
G1 X110.133 Y96.89 E24.36864
G1 X114.864 Y91.594 E24.65207
G1 X114.864 Y81.553 E25.05283
G1 X110.133 Y76.255 E25.33632
G1 X109.985 Y76.089 E25.3452
G1 X109.837 Y76.255 E25.35076
G1 X105.11 Y81.552 E25.63411
G1 X105.11 Y91.593 E26.03487
