;FLAVOR:Marlin
;TIME:2234
;Filament used: 1.82547m
;Layer height: 0.2
;MINX:39.599
;MINY:84.374
;MINZ:0.24
;MAXX:180.41
;MAXY:135.383
;MAXZ:12.96
;Generated with Cura_SteamEngine 4.5.0
M140 S50
M105
M190 S50
M104 S215
M105
M109 S215
M82 ;absolute extrusion mode
M201 X500.00 Y500.00 Z100.00 E5000.00 ;Setup machine max acceleration
M203 X500.00 Y500.00 Z10.00 E50.00 ;Setup machine max feedrate
M204 P500.00 R1000.00 T500.00 ;Setup Print/Retract/Travel acceleration
M205 X8.00 Y8.00 Z0.40 E5.00 ;Setup Jerk
M220 S100 ;Reset Feedrate
M221 S100 ;Reset Flowrate

G28 ;Home

G92 E0 ;Reset Extruder
G1 Z2.0 F3000 ;Move Z Axis up
G1 X10.1 Y20 Z0.28 F5000.0 ;Move to start position
G1 X10.1 Y200.0 Z0.28 F1500.0 E15 ;Draw the first line
G1 X10.4 Y200.0 Z0.28 F5000.0 ;Move to side a little
G1 X10.4 Y20 Z0.28 F1500.0 E30 ;Draw the second line
G92 E0 ;Reset Extruder
G1 Z2.0 F3000 ;Move Z Axis up

G92 E0
G92 E0
G1 F1800 E-3
;LAYER_COUNT:71
;LAYER:0
M107
G0 F9000 X45.372 Y85.624 Z0.24
;TYPE:SKIRT
G1 F1800 E0
G1 F3000 X46.209 Y85.242 E0.03672
G1 X47.076 Y84.933 E0.07346
G1 X47.967 Y84.701 E0.1102
G1 X48.875 Y84.546 E0.14697
G1 X49.979 Y84.466 E0.19115
G1 X50.967 Y84.446 E0.23059
G1 X54.9 Y84.442 E0.38756
G1 X55.711 Y84.452 E0.41993
G1 X56.63 Y84.504 E0.45667
G1 X57.542 Y84.637 E0.49346
G1 X58.438 Y84.847 E0.53019
G1 X59.312 Y85.135 E0.56692
G1 X60.159 Y85.497 E0.60368
G1 X61.034 Y85.97 E0.64338
G1 X61.645 Y86.341 E0.67191
G1 X63.091 Y87.259 E0.74027
G1 X65.275 Y88.561 E0.84175
G1 X67.476 Y89.789 E0.94235
G1 X69.723 Y90.962 E1.04351
G1 X71.987 Y92.063 E1.14399
G1 X74.297 Y93.107 E1.24517
G1 X76.681 Y94.105 E1.34832
G1 X78.976 Y94.988 E1.44647
G1 X81.37 Y95.833 E1.54779
G1 X83.795 Y96.613 E1.64946
G1 X86.193 Y97.31 E1.74913
G1 X88.685 Y97.959 E1.85191
G1 X91.121 Y98.521 E1.95169
G1 X93.592 Y99.015 E2.05227
G1 X96.104 Y99.446 E2.15399
G1 X98.599 Y99.801 E2.25457
G1 X101.102 Y100.086 E2.35512
G1 X103.64 Y100.302 E2.45678
G1 X106.142 Y100.444 E2.5568
G1 X108.688 Y100.516 E2.65846
G1 X111.197 Y100.516 E2.7586
G1 X113.753 Y100.444 E2.86066
G1 X116.245 Y100.303 E2.96028
G1 X118.796 Y100.086 E3.06246
G1 X121.268 Y99.806 E3.16175
G1 X123.823 Y99.443 E3.26475
G1 X126.282 Y99.021 E3.36433
G1 X128.741 Y98.528 E3.46443
G1 X131.216 Y97.959 E3.56579
G1 X133.693 Y97.315 E3.66794
G1 X136.102 Y96.615 E3.76806
G1 X138.511 Y95.84 E3.86907
G1 X140.892 Y95 E3.96984
G1 X143.264 Y94.086 E4.07129
G1 X145.58 Y93.117 E4.17149
G1 X147.885 Y92.077 E4.27242
G1 X150.169 Y90.967 E4.37378
G1 X152.42 Y89.793 E4.4751
G1 X154.634 Y88.557 E4.57631
G1 X156.822 Y87.254 E4.67795
G1 X158.205 Y86.385 E4.74314
G1 X158.704 Y86.065 E4.7668
G1 X159.5 Y85.602 E4.80355
G1 X160.333 Y85.21 E4.8403
G1 X161.197 Y84.892 E4.87704
G1 X162.085 Y84.65 E4.91378
G1 X162.991 Y84.486 E4.95052
G1 X164.069 Y84.394 E4.99371
G1 X164.681 Y84.379 E5.01814
G1 X169.155 Y84.374 E5.19671
G1 X169.942 Y84.383 E5.22812
G1 X170.861 Y84.434 E5.26486
G1 X171.772 Y84.565 E5.30159
G1 X172.669 Y84.775 E5.33836
G1 X173.544 Y85.061 E5.3751
G1 X174.391 Y85.423 E5.41186
G1 X175.203 Y85.856 E5.44859
G1 X175.974 Y86.359 E5.48533
G1 X176.699 Y86.926 E5.52207
G1 X177.372 Y87.554 E5.55881
G1 X177.988 Y88.238 E5.59555
G1 X178.543 Y88.974 E5.63234
G1 X179.031 Y89.754 E5.66906
G1 X179.45 Y90.574 E5.70581
G1 X179.796 Y91.427 E5.74255
G1 X180.067 Y92.307 E5.7793
G1 X180.26 Y93.207 E5.81604
G1 X180.375 Y94.12 E5.85277
G1 X180.41 Y95.04 E5.88951
G1 X180.365 Y95.96 E5.92628
G1 X180.24 Y96.872 E5.96302
G1 X180.037 Y97.77 E5.99976
G1 X179.756 Y98.647 E6.03652
G1 X179.401 Y99.496 E6.07325
G1 X178.973 Y100.311 E6.10999
G1 X178.321 Y101.301 E6.1573
G1 X177.978 Y101.763 E6.18027
G1 X177.395 Y102.519 E6.21837
G1 X176.229 Y103.979 E6.29294
G1 X175.472 Y104.892 E6.34028
G1 X175.052 Y105.387 E6.36619
G1 X174.223 Y106.343 E6.41669
G1 X173.744 Y106.884 E6.44553
G1 X173.027 Y107.674 E6.48811
G1 X172.524 Y108.218 E6.51769
G1 X171.748 Y109.037 E6.56272
G1 X171.294 Y109.507 E6.5888
G1 X170.413 Y110.398 E6.63881
G1 X169.938 Y110.868 E6.66548
G1 X169.102 Y111.678 E6.71194
G1 X168.651 Y112.105 E6.73673
G1 X167.316 Y113.336 E6.8092
G1 X165.951 Y114.541 E6.88188
G1 X164.913 Y115.425 E6.93629
G1 X164.49 Y115.777 E6.95826
G1 X163.488 Y116.592 E7.00981
G1 X163.024 Y116.961 E7.03347
G1 X161.679 Y118 E7.1013
G1 X160.572 Y118.826 E7.15643
G1 X160.109 Y119.163 E7.17928
G1 X159.116 Y119.869 E7.22791
G1 X158.627 Y120.21 E7.25171
G1 X157.154 Y121.205 E7.32265
G1 X156.017 Y121.943 E7.37676
G1 X155.453 Y122.3 E7.4034
G1 X154.51 Y122.883 E7.44765
G1 X153.866 Y123.271 E7.47765
G1 X152.861 Y123.863 E7.52421
G1 X152.235 Y124.221 E7.55299
G1 X151.194 Y124.803 E7.60059
G1 X150.679 Y125.083 E7.62399
G1 X149.096 Y125.918 E7.69542
G1 X147.981 Y126.482 E7.74529
G1 X147.259 Y126.834 E7.77735
G1 X146.328 Y127.279 E7.81853
G1 X145.656 Y127.59 E7.84809
G1 X144.579 Y128.075 E7.89523
G1 X143.977 Y128.338 E7.92145
G1 X142.906 Y128.794 E7.96791
G1 X142.232 Y129.071 E7.99699
G1 X141.209 Y129.48 E8.04097
G1 X140.527 Y129.744 E8.07015
G1 X139.436 Y130.152 E8.11664
G1 X138.831 Y130.371 E8.14232
G1 X137.118 Y130.964 E8.21467
G1 X135.992 Y131.332 E8.26195
G1 X135.266 Y131.559 E8.29231
G1 X134.171 Y131.891 E8.33798
G1 X133.568 Y132.066 E8.36304
G1 X132.327 Y132.412 E8.41446
G1 X131.692 Y132.581 E8.44069
G1 X130.621 Y132.855 E8.48481
G1 X129.935 Y133.022 E8.51299
G1 X128.784 Y133.29 E8.56016
G1 X128.108 Y133.44 E8.5878
G1 X126.396 Y133.792 E8.65755
G1 X124.574 Y134.127 E8.73149
G1 X123.318 Y134.335 E8.78231
G1 X122.685 Y134.433 E8.80787
G1 X121.482 Y134.604 E8.85637
G1 X120.875 Y134.685 E8.88081
G1 X119.615 Y134.837 E8.93146
G1 X119.011 Y134.904 E8.95572
G1 X117.815 Y135.022 E9.00369
G1 X117.152 Y135.081 E9.03025
G1 X115.483 Y135.204 E9.09705
G1 X114.041 Y135.286 E9.15469
G1 X113.469 Y135.311 E9.17754
G1 X111.767 Y135.362 E9.2455
G1 X110.49 Y135.38 E9.29648
G1 X109.829 Y135.383 E9.32286
G1 X108.639 Y135.373 E9.37036
G1 X107.961 Y135.36 E9.39742
G1 X106.74 Y135.323 E9.44618
G1 X106.173 Y135.299 E9.46883
G1 X104.835 Y135.229 E9.5223
G1 X104.262 Y135.192 E9.54522
G1 X102.536 Y135.059 E9.61431
G1 X101.167 Y134.929 E9.6692
G1 X100.561 Y134.865 E9.69352
G1 X99.359 Y134.723 E9.74183
G1 X98.67 Y134.634 E9.76956
G1 X97.549 Y134.477 E9.81473
G1 X96.817 Y134.366 E9.84428
G1 X95.752 Y134.194 E9.88734
G1 X95.055 Y134.073 E9.91558
G1 X93.349 Y133.753 E9.98485
G1 X91.543 Y133.375 E10.0585
G1 X90.238 Y133.077 E10.11192
G1 X89.582 Y132.919 E10.13885
G1 X88.457 Y132.635 E10.18516
G1 X87.842 Y132.473 E10.21055
G1 X86.663 Y132.148 E10.25936
G1 X86.043 Y131.97 E10.2851
G1 X84.335 Y131.453 E10.35633
G1 X83.124 Y131.063 E10.40711
G1 X82.478 Y130.847 E10.43429
G1 X81.398 Y130.473 E10.47991
G1 X80.756 Y130.242 E10.50714
G1 X79.639 Y129.827 E10.5547
G1 X79 Y129.583 E10.582
G1 X77.922 Y129.156 E10.62828
G1 X77.316 Y128.91 E10.65438
G1 X75.713 Y128.228 E10.72391
G1 X74.45 Y127.664 E10.77912
G1 X73.882 Y127.402 E10.80408
G1 X72.363 Y126.676 E10.87128
G1 X71.122 Y126.057 E10.92663
G1 X70.564 Y125.771 E10.95166
G1 X69.523 Y125.222 E10.99863
G1 X68.928 Y124.899 E11.02565
G1 X67.894 Y124.326 E11.07283
G1 X67.33 Y124.005 E11.09873
G1 X66.313 Y123.41 E11.14576
G1 X65.705 Y123.047 E11.17402
G1 X64.738 Y122.454 E11.2193
G1 X64.127 Y122.07 E11.2481
G1 X63.142 Y121.435 E11.29487
G1 X62.627 Y121.096 E11.31948
G1 X61.64 Y120.432 E11.36696
G1 X61.163 Y120.103 E11.39009
G1 X60.085 Y119.341 E11.44278
G1 X59.604 Y118.994 E11.46645
G1 X58.619 Y118.265 E11.51536
G1 X58.088 Y117.865 E11.54189
G1 X57.132 Y117.125 E11.59014
G1 X56.602 Y116.705 E11.61713
G1 X55.708 Y115.983 E11.663
G1 X55.218 Y115.579 E11.68834
G1 X53.832 Y114.4 E11.76097
G1 X52.87 Y113.55 E11.81221
G1 X52.402 Y113.128 E11.83736
G1 X51.492 Y112.289 E11.88676
G1 X51.031 Y111.855 E11.91203
G1 X50.175 Y111.03 E11.95948
G1 X49.648 Y110.512 E11.98897
G1 X48.914 Y109.773 E12.03054
G1 X48.375 Y109.219 E12.06139
G1 X47.634 Y108.442 E12.10425
G1 X47.065 Y107.832 E12.13754
G1 X46.361 Y107.061 E12.17921
G1 X45.881 Y106.523 E12.20799
G1 X44.77 Y105.241 E12.2757
G1 X43.855 Y104.146 E12.33265
G1 X43.433 Y103.629 E12.35928
G1 X42.781 Y102.813 E12.40097
G1 X42.171 Y102.033 E12.44049
G1 X41.686 Y101.387 E12.47273
G1 X41.17 Y100.625 E12.50946
G1 X40.721 Y99.821 E12.54622
G1 X40.344 Y98.981 E12.58297
G1 X40.041 Y98.111 E12.61974
G1 X39.815 Y97.219 E12.65646
G1 X39.668 Y96.31 E12.69321
G1 X39.599 Y95.392 E12.72996
G1 X39.611 Y94.471 E12.76672
G1 X39.702 Y93.555 E12.80346
G1 X39.872 Y92.651 E12.84017
G1 X40.121 Y91.764 E12.87694
G1 X40.445 Y90.902 E12.9137
G1 X40.843 Y90.072 E12.95044
G1 X41.311 Y89.28 E12.98715
G1 X41.847 Y88.531 E13.02391
G1 X42.445 Y87.831 E13.06066
G1 X43.102 Y87.186 E13.0974
G1 X43.812 Y86.6 E13.13415
G1 X44.571 Y86.078 E13.17091
G1 X45.372 Y85.624 E13.20766
G0 F9000 X45.863 Y85.829
G1 F3000 X46.697 Y85.482 E13.24371
G1 X47.558 Y85.211 E13.27974
G1 X48.44 Y85.016 E13.31579
G1 X49.335 Y84.9 E13.35181
G1 X49.988 Y84.866 E13.37791
G1 X50.976 Y84.846 E13.41735
G1 X54.901 Y84.842 E13.57401
G1 X55.706 Y84.852 E13.60614
G1 X56.607 Y84.904 E13.64216
G1 X57.501 Y85.036 E13.67823
G1 X58.379 Y85.246 E13.71426
G1 X59.235 Y85.533 E13.75029
G1 X60.063 Y85.895 E13.78636
G1 X60.828 Y86.312 E13.82114
G1 X61.431 Y86.679 E13.84931
G1 X62.894 Y87.607 E13.91846
G1 X65.055 Y88.896 E14.01889
G1 X67.303 Y90.15 E14.12162
G1 X69.542 Y91.319 E14.22243
G1 X71.826 Y92.43 E14.32381
G1 X74.127 Y93.47 E14.42459
G1 X76.508 Y94.467 E14.52762
G1 X78.848 Y95.366 E14.62767
G1 X81.251 Y96.215 E14.72938
G1 X83.676 Y96.995 E14.83105
G1 X86.086 Y97.695 E14.93122
G1 X88.566 Y98.341 E15.0335
G1 X91.082 Y98.922 E15.13656
G1 X93.518 Y99.409 E15.23571
G1 X96.023 Y99.838 E15.33715
G1 X98.533 Y100.196 E15.43834
G1 X101.09 Y100.487 E15.54106
G1 X103.582 Y100.699 E15.64088
G1 X106.144 Y100.844 E15.7433
G1 X108.677 Y100.916 E15.84444
G1 X111.209 Y100.916 E15.94549
G1 X113.749 Y100.844 E16.04691
G1 X116.302 Y100.7 E16.14897
G1 X118.804 Y100.487 E16.24919
G1 X121.333 Y100.2 E16.35078
G1 X123.881 Y99.838 E16.45349
G1 X126.351 Y99.415 E16.55351
G1 X128.845 Y98.915 E16.65503
G1 X131.301 Y98.35 E16.75562
G1 X133.801 Y97.7 E16.85872
G1 X136.22 Y96.997 E16.95926
G1 X138.629 Y96.223 E17.06025
G1 X141.032 Y95.375 E17.16195
G1 X143.414 Y94.457 E17.26384
G1 X145.75 Y93.48 E17.3649
G1 X148.059 Y92.438 E17.46601
G1 X150.35 Y91.324 E17.56768
G1 X152.621 Y90.14 E17.6699
G1 X154.784 Y88.932 E17.76878
G1 X157.026 Y87.597 E17.87293
G1 X158.5 Y86.671 E17.9424
G1 X158.92 Y86.402 E17.96231
G1 X159.701 Y85.948 E17.99837
G1 X160.519 Y85.566 E18.0344
G1 X161.368 Y85.257 E18.07046
G1 X162.24 Y85.025 E18.10647
G1 X163.13 Y84.871 E18.14252
G1 X164.082 Y84.794 E18.18064
G1 X164.682 Y84.779 E18.2046
G1 X169.156 Y84.774 E18.38316
G1 X169.937 Y84.783 E18.41434
G1 X170.839 Y84.834 E18.4504
G1 X171.732 Y84.965 E18.48642
G1 X172.611 Y85.174 E18.52248
G1 X173.467 Y85.46 E18.5585
G1 X174.295 Y85.821 E18.59455
G1 X175.088 Y86.254 E18.63061
G1 X175.839 Y86.755 E18.66665
G1 X176.543 Y87.32 E18.70267
G1 X177.195 Y87.946 E18.73875
G1 X177.788 Y88.627 E18.77479
G1 X178.319 Y89.357 E18.81082
G1 X178.783 Y90.132 E18.84687
G1 X179.177 Y90.945 E18.88293
G1 X179.497 Y91.789 E18.91896
G1 X179.742 Y92.658 E18.95499
G1 X179.908 Y93.546 E18.99105
G1 X179.996 Y94.445 E19.0271
G1 X180.003 Y95.348 E19.06314
G1 X179.931 Y96.248 E19.09918
G1 X179.779 Y97.138 E19.13521
G1 X179.55 Y98.012 E19.17127
G1 X179.243 Y98.861 E19.20731
G1 X178.863 Y99.681 E19.24338
G1 X178.412 Y100.463 E19.27941
G1 X178 Y101.062 E19.30842
G1 X177.657 Y101.524 E19.33139
G1 X177.079 Y102.274 E19.36918
G1 X175.916 Y103.729 E19.44353
G1 X175.165 Y104.636 E19.49053
G1 X174.747 Y105.128 E19.51629
G1 X173.921 Y106.081 E19.56663
G1 X173.445 Y106.618 E19.59527
G1 X172.731 Y107.405 E19.63768
G1 X172.23 Y107.945 E19.66708
G1 X171.457 Y108.762 E19.71197
G1 X171.006 Y109.229 E19.73788
G1 X170.129 Y110.116 E19.78767
G1 X169.657 Y110.584 E19.8142
G1 X168.824 Y111.39 E19.86046
G1 X168.376 Y111.814 E19.88508
G1 X167.045 Y113.042 E19.95736
G1 X165.687 Y114.241 E20.02966
G1 X164.654 Y115.12 E20.08379
G1 X164.235 Y115.469 E20.10556
G1 X163.235 Y116.282 E20.157
G1 X162.776 Y116.648 E20.18043
G1 X161.435 Y117.684 E20.24806
G1 X160.333 Y118.505 E20.30291
G1 X159.874 Y118.839 E20.32557
G1 X158.884 Y119.543 E20.37405
G1 X158.398 Y119.882 E20.3977
G1 X156.93 Y120.873 E20.46839
G1 X155.8 Y121.607 E20.52217
G1 X155.24 Y121.961 E20.54862
G1 X154.299 Y122.543 E20.59278
G1 X153.66 Y122.928 E20.62255
G1 X152.658 Y123.518 E20.66896
G1 X152.037 Y123.874 E20.69753
G1 X150.999 Y124.453 E20.74497
G1 X150.488 Y124.732 E20.76821
G1 X148.91 Y125.564 E20.8394
G1 X147.801 Y126.125 E20.88901
G1 X147.084 Y126.475 E20.92085
G1 X146.156 Y126.918 E20.9619
G1 X145.488 Y127.227 E20.99127
G1 X144.415 Y127.71 E21.03824
G1 X143.817 Y127.972 E21.06429
G1 X142.75 Y128.426 E21.11057
G1 X142.08 Y128.701 E21.13948
G1 X141.061 Y129.109 E21.18329
G1 X140.383 Y129.371 E21.2123
G1 X139.296 Y129.778 E21.25863
G1 X138.696 Y129.995 E21.28409
G1 X136.987 Y130.586 E21.35626
G1 X135.868 Y130.952 E21.40325
G1 X135.147 Y131.177 E21.4334
G1 X134.055 Y131.508 E21.47894
G1 X133.457 Y131.682 E21.5038
G1 X132.22 Y132.027 E21.55506
G1 X131.59 Y132.194 E21.58107
G1 X130.522 Y132.467 E21.62507
G1 X129.841 Y132.634 E21.65305
G1 X128.694 Y132.9 E21.70004
G1 X128.022 Y133.049 E21.72752
G1 X126.316 Y133.4 E21.79703
G1 X124.502 Y133.734 E21.87065
G1 X123.253 Y133.941 E21.92118
G1 X122.625 Y134.038 E21.94654
G1 X121.426 Y134.208 E21.99488
G1 X120.823 Y134.288 E22.01915
G1 X119.567 Y134.44 E22.06965
G1 X118.967 Y134.507 E22.09375
G1 X117.776 Y134.624 E22.14151
G1 X117.118 Y134.682 E22.16787
G1 X115.453 Y134.805 E22.23451
G1 X114.019 Y134.886 E22.29183
G1 X113.453 Y134.911 E22.31445
G1 X111.755 Y134.962 E22.38225
G1 X110.485 Y134.98 E22.43294
G1 X109.827 Y134.983 E22.4592
G1 X108.643 Y134.973 E22.50646
G1 X107.969 Y134.96 E22.53337
G1 X106.753 Y134.923 E22.58192
G1 X106.19 Y134.9 E22.60441
G1 X104.857 Y134.83 E22.65769
G1 X104.288 Y134.793 E22.68045
G1 X102.567 Y134.66 E22.74934
G1 X101.205 Y134.531 E22.80394
G1 X100.603 Y134.467 E22.82811
G1 X99.406 Y134.326 E22.87621
G1 X98.721 Y134.238 E22.90378
G1 X97.605 Y134.081 E22.94876
G1 X96.877 Y133.971 E22.97814
G1 X95.816 Y133.799 E23.02104
G1 X95.123 Y133.679 E23.04911
G1 X93.423 Y133.36 E23.11815
G1 X91.625 Y132.983 E23.19147
G1 X90.328 Y132.687 E23.24457
G1 X89.676 Y132.531 E23.27133
G1 X88.556 Y132.247 E23.31744
G1 X87.945 Y132.086 E23.34266
G1 X86.769 Y131.762 E23.39135
G1 X86.153 Y131.585 E23.41693
G1 X84.451 Y131.071 E23.48789
G1 X83.247 Y130.683 E23.53837
G1 X82.605 Y130.467 E23.56541
G1 X81.529 Y130.095 E23.61085
G1 X80.892 Y129.865 E23.63788
G1 X79.778 Y129.452 E23.6853
G1 X79.143 Y129.21 E23.71242
G1 X78.069 Y128.784 E23.75854
G1 X77.467 Y128.539 E23.78448
G1 X75.869 Y127.86 E23.85378
G1 X74.614 Y127.299 E23.90864
G1 X74.05 Y127.039 E23.93343
G1 X72.536 Y126.315 E24.00041
G1 X71.3 Y125.699 E24.05553
G1 X70.747 Y125.415 E24.08034
G1 X69.71 Y124.868 E24.12713
G1 X69.118 Y124.548 E24.15399
G1 X68.089 Y123.976 E24.20098
G1 X67.528 Y123.657 E24.22674
G1 X66.515 Y123.065 E24.27357
G1 X65.91 Y122.703 E24.30171
G1 X64.948 Y122.113 E24.34675
G1 X64.341 Y121.731 E24.37537
G1 X63.359 Y121.099 E24.42198
G1 X62.847 Y120.762 E24.44645
G1 X61.864 Y120.1 E24.49375
G1 X61.391 Y119.774 E24.51668
G1 X59.838 Y118.67 E24.59273
G1 X58.329 Y117.546 E24.66783
G1 X57.377 Y116.809 E24.71588
G1 X56.85 Y116.392 E24.7427
G1 X55.96 Y115.672 E24.78839
G1 X55.473 Y115.271 E24.81357
G1 X54.092 Y114.095 E24.88596
G1 X53.135 Y113.251 E24.93689
G1 X52.67 Y112.831 E24.9619
G1 X51.763 Y111.995 E25.01113
G1 X51.306 Y111.564 E25.0362
G1 X50.452 Y110.742 E25.08351
G1 X49.929 Y110.227 E25.11281
G1 X49.198 Y109.491 E25.15421
G1 X48.662 Y108.94 E25.18489
G1 X47.924 Y108.167 E25.22755
G1 X47.358 Y107.559 E25.2607
G1 X46.657 Y106.792 E25.30217
G1 X46.18 Y106.257 E25.33078
G1 X45.072 Y104.979 E25.39829
G1 X44.162 Y103.89 E25.45493
G1 X43.743 Y103.376 E25.4814
G1 X43.094 Y102.564 E25.52289
G1 X42.486 Y101.787 E25.56226
G1 X42.007 Y101.148 E25.59414
G1 X41.501 Y100.4 E25.63018
G1 X41.063 Y99.61 E25.66623
G1 X40.697 Y98.785 E25.70226
