;FLAVOR:Marlin
;TIME:2204
;Filament used: 1.82567m
;Layer height: 0.24
;MINX:39.561
;MINY:84.334
;MINZ:0.28
;MAXX:180.44
;MAXY:135.383
;MAXZ:12.92
;Generated with Cura_SteamEngine 4.5.0
M140 S50
M105
M190 S50
M104 S215
M105
M109 S215
M82 ;absolute extrusion mode
M201 X500.00 Y500.00 Z100.00 E5000.00 ;Setup machine max acceleration
M203 X500.00 Y500.00 Z10.00 E50.00 ;Setup machine max feedrate
M204 P500.00 R1000.00 T500.00 ;Setup Print/Retract/Travel acceleration
M205 X8.00 Y8.00 Z0.40 E5.00 ;Setup Jerk
M220 S100 ;Reset Feedrate
M221 S100 ;Reset Flowrate

G28 ;Home

G92 E0 ;Reset Extruder
G1 Z2.0 F3000 ;Move Z Axis up
G1 X10.1 Y20 Z0.28 F5000.0 ;Move to start position
G1 X10.1 Y200.0 Z0.28 F1500.0 E15 ;Draw the first line
G1 X10.4 Y200.0 Z0.28 F5000.0 ;Move to side a little
G1 X10.4 Y20 Z0.28 F1500.0 E30 ;Draw the second line
G92 E0 ;Reset Extruder
G1 Z2.0 F3000 ;Move Z Axis up

G92 E0
G92 E0
G1 F1800 E-3
;LAYER_COUNT:59
;LAYER:0
M107
G0 F9000 X45.348 Y85.566 Z0.28
;TYPE:SKIRT
G1 F1800 E0
G1 F3000 X46.186 Y85.185 E0.04286
G1 X47.054 Y84.877 E0.08575
G1 X47.945 Y84.646 E0.12861
G1 X48.853 Y84.493 E0.17149
G1 X49.845 Y84.418 E0.21781
G1 X50.458 Y84.404 E0.24636
G1 X54.92 Y84.402 E0.45413
G1 X55.722 Y84.412 E0.49148
G1 X56.641 Y84.465 E0.53434
G1 X57.552 Y84.597 E0.57721
G1 X58.448 Y84.808 E0.62007
G1 X59.323 Y85.096 E0.66296
G1 X60.169 Y85.458 E0.70581
G1 X60.961 Y85.881 E0.74762
G1 X61.4 Y86.14 E0.77135
G1 X63.127 Y87.23 E0.86645
G1 X65.304 Y88.527 E0.98445
G1 X67.469 Y89.734 E1.09987
G1 X69.75 Y90.924 E1.21966
G1 X72.012 Y92.023 E1.33677
G1 X74.289 Y93.051 E1.4531
G1 X76.673 Y94.049 E1.57344
G1 X79.02 Y94.951 E1.69052
G1 X81.395 Y95.789 E1.80779
G1 X83.803 Y96.563 E1.92557
G1 X86.204 Y97.26 E2.04198
G1 X88.71 Y97.913 E2.16257
G1 X91.14 Y98.473 E2.27869
G1 X93.632 Y98.971 E2.39702
G1 X96.116 Y99.396 E2.51437
G1 X98.611 Y99.751 E2.63171
G1 X101.103 Y100.033 E2.74849
G1 X103.662 Y100.252 E2.86809
G1 X106.153 Y100.392 E2.98426
G1 X108.707 Y100.464 E3.10323
G1 X111.217 Y100.464 E3.22011
G1 X113.753 Y100.392 E3.33824
G1 X116.277 Y100.248 E3.45596
G1 X118.816 Y100.032 E3.57462
G1 X121.3 Y99.75 E3.69102
G1 X123.825 Y99.39 E3.80979
G1 X126.272 Y98.971 E3.92539
G1 X128.794 Y98.464 E4.04517
G1 X131.223 Y97.905 E4.16123
G1 X133.705 Y97.26 E4.28064
G1 X136.124 Y96.556 E4.39796
G1 X138.527 Y95.783 E4.5155
G1 X140.911 Y94.941 E4.63323
G1 X143.27 Y94.032 E4.75094
G1 X145.628 Y93.045 E4.86997
G1 X147.897 Y92.021 E4.98589
G1 X150.17 Y90.915 E5.10359
G1 X152.434 Y89.734 E5.2225
G1 X154.63 Y88.507 E5.33963
G1 X156.841 Y87.19 E5.45946
G1 X158.505 Y86.14 E5.55108
G1 X159.428 Y85.589 E5.60114
G1 X160.258 Y85.193 E5.64396
G1 X161.121 Y84.87 E5.68687
G1 X162.008 Y84.623 E5.72974
G1 X162.913 Y84.454 E5.77261
G1 X164.199 Y84.35 E5.83269
G1 X164.765 Y84.339 E5.85905
G1 X169.19 Y84.334 E6.06509
G1 X169.972 Y84.343 E6.10151
G1 X170.891 Y84.394 E6.14437
G1 X171.803 Y84.525 E6.18727
G1 X172.699 Y84.735 E6.23012
G1 X173.574 Y85.021 E6.27299
G1 X174.421 Y85.383 E6.31588
G1 X175.233 Y85.816 E6.35873
G1 X176.004 Y86.319 E6.40159
G1 X176.729 Y86.886 E6.44445
G1 X177.402 Y87.514 E6.48731
G1 X178.018 Y88.199 E6.53021
G1 X178.573 Y88.934 E6.57309
G1 X179.061 Y89.714 E6.61594
G1 X179.48 Y90.534 E6.65882
G1 X179.826 Y91.387 E6.70168
G1 X180.097 Y92.267 E6.74455
G1 X180.29 Y93.167 E6.78741
G1 X180.405 Y94.081 E6.83031
G1 X180.44 Y95.001 E6.87318
G1 X180.395 Y95.92 E6.91602
G1 X180.27 Y96.832 E6.95889
G1 X180.067 Y97.73 E7.00176
G1 X179.786 Y98.607 E7.04464
G1 X179.431 Y99.456 E7.08749
G1 X179.003 Y100.271 E7.13035
G1 X178.359 Y101.249 E7.18488
G1 X178.014 Y101.715 E7.21188
G1 X177.387 Y102.53 E7.25976
G1 X176.627 Y103.49 E7.31677
G1 X176.166 Y104.057 E7.3508
G1 X175.117 Y105.311 E7.42693
G1 X174.224 Y106.342 E7.49044
G1 X173.753 Y106.874 E7.52353
G1 X173.021 Y107.68 E7.57422
G1 X172.524 Y108.218 E7.60833
G1 X171.345 Y109.455 E7.6879
G1 X170.408 Y110.402 E7.74993
G1 X169.938 Y110.868 E7.78075
G1 X169.102 Y111.678 E7.83496
G1 X168.651 Y112.105 E7.86388
G1 X167.351 Y113.303 E7.94619
G1 X166.336 Y114.206 E8.00945
G1 X165.848 Y114.631 E8.03959
G1 X164.97 Y115.376 E8.0932
G1 X164.466 Y115.795 E8.12372
G1 X163.53 Y116.558 E8.17995
G1 X162.984 Y116.993 E8.21246
G1 X162.08 Y117.696 E8.26578
G1 X161.551 Y118.098 E8.29672
G1 X160.157 Y119.127 E8.3774
G1 X159.145 Y119.849 E8.43529
G1 X158.564 Y120.253 E8.46824
G1 X157.629 Y120.889 E8.52089
G1 X157.098 Y121.242 E8.55058
G1 X156.013 Y121.945 E8.61078
G1 X155.485 Y122.28 E8.6399
G1 X154.535 Y122.867 E8.6919
G1 X153.876 Y123.267 E8.7278
G1 X152.85 Y123.869 E8.78319
G1 X152.253 Y124.212 E8.81525
G1 X151.191 Y124.805 E8.87189
G1 X150.68 Y125.083 E8.89897
G1 X149.128 Y125.902 E8.98069
G1 X147.901 Y126.521 E9.04468
G1 X147.351 Y126.79 E9.07319
G1 X146.266 Y127.307 E9.12915
G1 X145.667 Y127.585 E9.1599
G1 X144.578 Y128.075 E9.21551
G1 X143.993 Y128.332 E9.24526
G1 X142.903 Y128.795 E9.3004
G1 X142.232 Y129.071 E9.33419
G1 X141.209 Y129.48 E9.38549
G1 X140.549 Y129.737 E9.41847
G1 X138.902 Y130.346 E9.50024
G1 X137.118 Y130.964 E9.58815
G1 X135.988 Y131.333 E9.6435
G1 X135.277 Y131.556 E9.6782
G1 X134.168 Y131.892 E9.73216
G1 X133.568 Y132.066 E9.76125
G1 X132.327 Y132.412 E9.82124
G1 X131.686 Y132.582 E9.85212
G1 X130.627 Y132.853 E9.90302
G1 X129.931 Y133.023 E9.93638
G1 X128.784 Y133.29 E9.99122
G1 X128.108 Y133.44 E10.02346
G1 X126.973 Y133.678 E10.07746
G1 X126.301 Y133.81 E10.10935
G1 X124.581 Y134.126 E10.19078
G1 X123.318 Y134.335 E10.25039
G1 X122.681 Y134.433 E10.2804
G1 X121.486 Y134.604 E10.33661
G1 X120.872 Y134.685 E10.36545
G1 X119.615 Y134.837 E10.42441
G1 X119.011 Y134.904 E10.4527
G1 X117.813 Y135.023 E10.50876
G1 X117.156 Y135.08 E10.53947
G1 X115.422 Y135.209 E10.62043
G1 X114.114 Y135.282 E10.68143
G1 X113.443 Y135.313 E10.71271
G1 X112.285 Y135.351 E10.76666
G1 X111.675 Y135.364 E10.79507
G1 X110.511 Y135.38 E10.84928
G1 X109.838 Y135.383 E10.88062
G1 X108.646 Y135.373 E10.93612
G1 X107.965 Y135.36 E10.96784
G1 X106.75 Y135.323 E11.02444
G1 X106.092 Y135.295 E11.05511
G1 X104.943 Y135.235 E11.10868
G1 X104.196 Y135.188 E11.14354
G1 X103.073 Y135.105 E11.19597
G1 X102.391 Y135.046 E11.22785
G1 X100.647 Y134.874 E11.30945
G1 X99.375 Y134.725 E11.36908
G1 X98.688 Y134.637 E11.40133
G1 X96.965 Y134.389 E11.48239
G1 X95.688 Y134.183 E11.54262
G1 X95.068 Y134.075 E11.57193
G1 X93.859 Y133.853 E11.62916
G1 X93.278 Y133.74 E11.65672
G1 X91.548 Y133.376 E11.73904
G1 X90.243 Y133.078 E11.80137
G1 X89.669 Y132.94 E11.82886
G1 X87.927 Y132.495 E11.91258
G1 X86.177 Y132.008 E11.99717
G1 X84.849 Y131.613 E12.06168
G1 X84.296 Y131.441 E12.08865
G1 X83.122 Y131.062 E12.14609
G1 X82.493 Y130.852 E12.17697
G1 X81.371 Y130.463 E12.23227
G1 X80.72 Y130.229 E12.26448
G1 X79.687 Y129.847 E12.31576
G1 X78.99 Y129.579 E12.35053
G1 X77.951 Y129.168 E12.40256
G1 X77.257 Y128.885 E12.43746
G1 X76.242 Y128.457 E12.48875
G1 X75.644 Y128.198 E12.5191
G1 X74.46 Y127.668 E12.5795
G1 X73.92 Y127.419 E12.60719
G1 X72.356 Y126.673 E12.68788
G1 X71.17 Y126.083 E12.74956
G1 X70.576 Y125.777 E12.78067
G1 X69.08 Y124.982 E12.85956
G1 X67.388 Y124.037 E12.9498
G1 X66.34 Y123.427 E13.00626
G1 X65.753 Y123.076 E13.03811
G1 X64.242 Y122.142 E13.12083
G1 X62.685 Y121.134 E13.20719
G1 X61.653 Y120.44 E13.2651
G1 X61.145 Y120.089 E13.29386
G1 X60.11 Y119.359 E13.35283
G1 X59.598 Y118.99 E13.38222
G1 X58.221 Y117.965 E13.46215
G1 X57.126 Y117.12 E13.52656
G1 X56.604 Y116.708 E13.55752
G1 X55.711 Y115.985 E13.61102
G1 X55.22 Y115.58 E13.64066
G1 X54.269 Y114.777 E13.69862
G1 X53.772 Y114.347 E13.72922
G1 X52.488 Y113.206 E13.8092
G1 X51.471 Y112.269 E13.87359
G1 X51.014 Y111.838 E13.90284
G1 X50.217 Y111.072 E13.95432
G1 X49.694 Y110.557 E13.9885
G1 X48.873 Y109.731 E14.04272
G1 X48.374 Y109.219 E14.07602
G1 X47.249 Y108.03 E14.15223
G1 X46.297 Y106.988 E14.21796
G1 X45.859 Y106.496 E14.24863
G1 X45.14 Y105.673 E14.29952
G1 X44.686 Y105.143 E14.33201
G1 X43.919 Y104.225 E14.38771
G1 X43.42 Y103.615 E14.42441
G1 X42.78 Y102.814 E14.47215
G1 X42.143 Y101.998 E14.52035
G1 X41.639 Y101.323 E14.55958
G1 X41.123 Y100.56 E14.60247
G1 X40.676 Y99.755 E14.64535
G1 X40.3 Y98.915 E14.6882
G1 X39.999 Y98.045 E14.73107
G1 X39.774 Y97.152 E14.77395
G1 X39.628 Y96.243 E14.81682
G1 X39.561 Y95.325 E14.85968
G1 X39.573 Y94.404 E14.90257
G1 X39.666 Y93.488 E14.94544
G1 X39.838 Y92.584 E14.98829
G1 X40.088 Y91.698 E15.03115
G1 X40.413 Y90.837 E15.07401
G1 X40.813 Y90.007 E15.11691
G1 X41.282 Y89.215 E15.15977
G1 X41.819 Y88.467 E15.20265
G1 X42.418 Y87.768 E15.24551
G1 X43.076 Y87.124 E15.28838
G1 X43.787 Y86.54 E15.33123
G1 X44.547 Y86.019 E15.37413
G1 X45.348 Y85.566 E15.41698
G0 F9000 X45.839 Y85.772
G1 F3000 X46.673 Y85.426 E15.45902
G1 X47.535 Y85.156 E15.50109
G1 X48.417 Y84.962 E15.54314
G1 X49.313 Y84.848 E15.5852
G1 X49.857 Y84.817 E15.61057
G1 X50.458 Y84.804 E15.63856
G1 X54.92 Y84.802 E15.84633
G1 X55.716 Y84.812 E15.8834
G1 X56.618 Y84.864 E15.92547
G1 X57.511 Y84.996 E15.9675
G1 X58.389 Y85.207 E16.00955
G1 X59.246 Y85.494 E16.05163
G1 X60.073 Y85.856 E16.09367
G1 X60.758 Y86.226 E16.12992
G1 X61.197 Y86.485 E16.15365
G1 X62.913 Y87.568 E16.24814
G1 X65.069 Y88.853 E16.36501
G1 X67.312 Y90.103 E16.48458
G1 X69.569 Y91.281 E16.60313
G1 X71.809 Y92.369 E16.71908
G1 X74.162 Y93.432 E16.83931
G1 X76.54 Y94.428 E16.95936
G1 X78.847 Y95.314 E17.07444
G1 X81.286 Y96.175 E17.19487
G1 X83.674 Y96.942 E17.31166
G1 X86.129 Y97.655 E17.4307
G1 X88.557 Y98.287 E17.54753
G1 X91.101 Y98.874 E17.6691
G1 X93.524 Y99.358 E17.78415
G1 X96.065 Y99.793 E17.90419
G1 X98.547 Y100.145 E18.02092
G1 X101.096 Y100.435 E18.14038
G1 X103.607 Y100.649 E18.25773
G1 X106.153 Y100.792 E18.37647
G1 X108.696 Y100.864 E18.49493
G1 X111.229 Y100.864 E18.61287
G1 X113.787 Y100.792 E18.73203
G1 X116.297 Y100.648 E18.8491
G1 X118.823 Y100.433 E18.96715
G1 X121.37 Y100.144 E19.08651
G1 X123.879 Y99.787 E19.20451
G1 X126.382 Y99.358 E19.32276
G1 X128.85 Y98.862 E19.43998
G1 X131.316 Y98.294 E19.55782
G1 X133.812 Y97.645 E19.6779
G1 X136.243 Y96.938 E19.79579
G1 X138.645 Y96.166 E19.91327
G1 X141.051 Y95.316 E20.03209
G1 X143.419 Y94.403 E20.15027
G1 X145.768 Y93.421 E20.26882
G1 X148.1 Y92.367 E20.38799
G1 X150.351 Y91.272 E20.50454
G1 X152.634 Y90.081 E20.62445
G1 X154.824 Y88.858 E20.74125
G1 X157.019 Y87.55 E20.86023
G1 X158.769 Y86.446 E20.95657
G1 X159.631 Y85.934 E21.00326
G1 X160.447 Y85.547 E21.04531
G1 X161.294 Y85.234 E21.08736
G1 X162.165 Y84.997 E21.12939
G1 X163.054 Y84.838 E21.17144
G1 X164.207 Y84.75 E21.22529
G1 X164.773 Y84.739 E21.25165
G1 X169.191 Y84.734 E21.45737
G1 X169.967 Y84.743 E21.4935
G1 X170.869 Y84.794 E21.53557
G1 X171.762 Y84.925 E21.5776
G1 X172.641 Y85.134 E21.61967
G1 X173.497 Y85.42 E21.6617
G1 X174.325 Y85.781 E21.70376
G1 X175.118 Y86.214 E21.74583
G1 X175.869 Y86.715 E21.78786
G1 X176.573 Y87.28 E21.8299
G1 X177.225 Y87.906 E21.87198
G1 X177.818 Y88.587 E21.91403
G1 X178.349 Y89.317 E21.95607
G1 X178.813 Y90.092 E21.99813
G1 X179.207 Y90.905 E22.04019
G1 X179.527 Y91.749 E22.08222
G1 X179.772 Y92.619 E22.12431
G1 X179.938 Y93.506 E22.16633
G1 X180.026 Y94.405 E22.20839
G1 X180.033 Y95.308 E22.25044
G1 X179.961 Y96.208 E22.29248
G1 X179.809 Y97.099 E22.33457
G1 X179.58 Y97.972 E22.3766
G1 X179.273 Y98.822 E22.41868
G1 X178.893 Y99.641 E22.46072
G1 X178.442 Y100.423 E22.50275
G1 X178.038 Y101.011 E22.53597
G1 X177.693 Y101.477 E22.56297
G1 X177.071 Y102.286 E22.61049
G1 X176.313 Y103.241 E22.66726
G1 X175.856 Y103.804 E22.70103
G1 X174.81 Y105.054 E22.77692
G1 X173.922 Y106.08 E22.84011
G1 X173.454 Y106.608 E22.87296
G1 X172.725 Y107.411 E22.92346
G1 X172.23 Y107.945 E22.95737
G1 X171.055 Y109.179 E23.03671
G1 X170.124 Y110.121 E23.09838
G1 X169.657 Y110.584 E23.129
G1 X168.824 Y111.39 E23.18297
G1 X168.376 Y111.814 E23.2117
G1 X167.08 Y113.009 E23.29378
G1 X166.071 Y113.907 E23.35668
G1 X165.585 Y114.329 E23.38665
G1 X164.711 Y115.071 E23.44003
G1 X164.211 Y115.488 E23.47035
G1 X163.277 Y116.247 E23.52639
G1 X162.735 Y116.68 E23.55869
G1 X161.835 Y117.38 E23.61179
G1 X161.31 Y117.779 E23.64249
G1 X159.92 Y118.805 E23.72294
G1 X158.913 Y119.523 E23.78053
G1 X158.336 Y119.924 E23.81324
G1 X157.404 Y120.559 E23.86576
G1 X156.877 Y120.909 E23.89522
G1 X155.795 Y121.61 E23.95525
G1 X155.271 Y121.942 E23.98413
G1 X154.325 Y122.527 E24.03593
G1 X153.669 Y122.924 E24.07163
G1 X152.648 Y123.524 E24.12677
G1 X152.054 Y123.866 E24.15869
G1 X150.996 Y124.456 E24.2151
G1 X150.489 Y124.732 E24.24198
G1 X148.941 Y125.548 E24.32346
G1 X147.721 Y126.163 E24.38708
G1 X147.175 Y126.431 E24.4154
G1 X146.095 Y126.945 E24.47109
G1 X145.499 Y127.222 E24.5017
G1 X144.414 Y127.71 E24.55709
G1 X143.832 Y127.965 E24.58668
G1 X142.747 Y128.427 E24.64159
G1 X142.08 Y128.701 E24.67517
G1 X141.061 Y129.109 E24.72628
G1 X140.405 Y129.364 E24.75905
G1 X138.763 Y129.97 E24.84055
G1 X136.987 Y130.586 E24.92808
G1 X135.864 Y130.953 E24.9831
G1 X135.157 Y131.174 E25.01759
G1 X134.052 Y131.509 E25.07135
G1 X133.457 Y131.682 E25.10021
G1 X132.22 Y132.027 E25.16001
G1 X131.584 Y132.195 E25.19064
G1 X130.528 Y132.466 E25.2414
G1 X129.837 Y132.635 E25.27453
G1 X128.694 Y132.9 E25.32916
G1 X128.022 Y133.049 E25.36121
G1 X126.891 Y133.286 E25.41502
G1 X126.224 Y133.417 E25.44667
G1 X124.509 Y133.733 E25.52787
G1 X123.253 Y133.941 E25.58715
G1 X122.621 Y134.038 E25.61693
G1 X121.429 Y134.208 E25.67299
G1 X120.82 Y134.288 E25.70159
G1 X119.567 Y134.44 E25.76037
G1 X118.967 Y134.507 E25.78848
G1 X117.774 Y134.624 E25.8443
G1 X117.122 Y134.682 E25.87478
G1 X115.392 Y134.81 E25.95555
G1 X114.092 Y134.883 E26.01618
G1 X113.426 Y134.913 E26.04722
G1 X112.272 Y134.951 E26.10099
G1 X111.666 Y134.965 E26.12921
G1 X110.505 Y134.98 E26.18328
G1 X109.837 Y134.983 E26.21438
G1 X108.65 Y134.973 E26.26966
G1 X107.973 Y134.96 E26.30119
G1 X106.763 Y134.923 E26.35756
G1 X106.11 Y134.896 E26.38799
G1 X104.964 Y134.836 E26.44143
G1 X104.222 Y134.789 E26.47604
G1 X103.103 Y134.706 E26.52829
G1 X102.426 Y134.648 E26.55993
G1 X100.687 Y134.476 E26.6413
G1 X99.423 Y134.328 E26.70056
G1 X98.739 Y134.24 E26.73267
G1 X97.022 Y133.993 E26.81345
G1 X95.753 Y133.788 E26.8733
G1 X95.136 Y133.681 E26.90246
G1 X93.931 Y133.459 E26.95952
G1 X93.355 Y133.347 E26.98684
G1 X91.63 Y132.984 E27.06892
G1 X90.333 Y132.688 E27.13087
G1 X89.763 Y132.551 E27.15817
G1 X88.027 Y132.108 E27.24159
G1 X86.285 Y131.623 E27.32579
G1 X84.964 Y131.23 E27.38997
G1 X84.416 Y131.059 E27.4167
G1 X83.245 Y130.682 E27.47398
G1 X82.621 Y130.473 E27.50462
G1 X81.503 Y130.085 E27.55973
G1 X80.855 Y129.853 E27.59178
G1 X79.826 Y129.472 E27.64287
G1 X79.134 Y129.206 E27.67739
G1 X78.098 Y128.796 E27.72927
G1 X77.408 Y128.515 E27.76397
G1 X76.398 Y128.089 E27.81501
G1 X75.803 Y127.831 E27.84521
G1 X74.623 Y127.303 E27.9054
G1 X74.088 Y127.056 E27.93284
G1 X72.529 Y126.312 E28.01328
G1 X71.349 Y125.725 E28.07465
G1 X70.759 Y125.422 E28.10553
G1 X69.268 Y124.629 E28.18417
G1 X67.583 Y123.688 E28.27403
G1 X66.542 Y123.082 E28.33012
G1 X65.959 Y122.733 E28.36176
G1 X64.453 Y121.802 E28.4442
G1 X62.903 Y120.799 E28.53017
G1 X61.877 Y120.108 E28.58777
G1 X61.372 Y119.76 E28.61633
G1 X60.341 Y119.032 E28.6751
G1 X59.832 Y118.665 E28.70432
G1 X58.46 Y117.645 E28.78392
G1 X57.37 Y116.804 E28.84803
G1 X56.853 Y116.395 E28.87873
G1 X55.963 Y115.674 E28.93206
G1 X55.475 Y115.272 E28.9615
G1 X54.527 Y114.472 E29.01926
G1 X54.033 Y114.045 E29.04967
G1 X52.754 Y112.907 E29.12938
G1 X51.742 Y111.975 E29.19345
G1 X51.289 Y111.547 E29.22246
G1 X50.495 Y110.784 E29.27374
G1 X49.974 Y110.272 E29.30775
G1 X49.157 Y109.449 E29.36175
G1 X48.661 Y108.94 E29.39485
G1 X47.54 Y107.755 E29.4708
G1 X46.593 Y106.718 E29.53619
G1 X46.158 Y106.23 E29.56664
G1 X45.442 Y105.41 E29.61733
G1 X44.99 Y104.883 E29.64965
G1 X44.226 Y103.969 E29.70512
G1 X43.73 Y103.362 E29.74162
G1 X43.093 Y102.564 E29.78917
G1 X42.458 Y101.752 E29.83717
G1 X41.96 Y101.085 E29.87593
G1 X41.455 Y100.336 E29.91799
G1 X41.018 Y99.546 E29.96003
G1 X40.653 Y98.719 E30.00212
G1 X40.363 Y97.864 E30.04416
G1 X40.149 Y96.987 E30.0862
G1 X40.013 Y96.094 E30.12826
G1 X39.958 Y95.193 E30.17029
