;FLAVOR:Marlin
;TIME:20416
;Filament used: 4.38278m
;Layer height: 0.16
;MINX:52.636
;MINY:52.402
;MINZ:0.16
;MAXX:167.364
;MAXY:167.598
;MAXZ:25.28
;Generated with Cura_SteamEngine 4.5.0
M140 S70
M105
M190 S70
M104 S200
M105
M109 S200
M82 ;absolute extrusion mode
M201 X500.00 Y500.00 Z100.00 E5000.00 ;Setup machine max acceleration
M203 X500.00 Y500.00 Z10.00 E50.00 ;Setup machine max feedrate
M204 P500.00 R1000.00 T500.00 ;Setup Print/Retract/Travel acceleration
M205 X8.00 Y8.00 Z0.40 E5.00 ;Setup Jerk
M220 S100 ;Reset Feedrate
M221 S100 ;Reset Flowrate

G28 ;Home

G92 E0 ;Reset Extruder
G1 Z2.0 F3000 ;Move Z Axis up
G1 X10.1 Y20 Z0.28 F5000.0 ;Move to start position
G1 X10.1 Y200.0 Z0.28 F1500.0 E15 ;Draw the first line
G1 X10.4 Y200.0 Z0.28 F5000.0 ;Move to side a little
G1 X10.4 Y20 Z0.28 F1500.0 E30 ;Draw the second line
G92 E0 ;Reset Extruder
G1 Z2.0 F3000 ;Move Z Axis up

G92 E0
G92 E0
;LAYER_COUNT:188
;LAYER:0
M107
G0 F6000 X69.809 Y69.344 Z0.16
;TYPE:SKIRT
G1 F3000 X70.51 Y68.698 E0.04604
G1 X71.147 Y68.161 E0.08627
G1 X71.643 Y67.757 E0.11717
G1 X72.201 Y67.315 E0.15154
G1 X72.957 Y66.767 E0.19664
G1 X73.757 Y66.286 E0.24172
G1 X74.498 Y65.918 E0.28167
G1 X75.01 Y65.694 E0.30866
G1 X76.069 Y65.266 E0.36383
G1 X76.938 Y64.93 E0.40882
G1 X77.815 Y64.635 E0.45351
G1 X78.47 Y64.445 E0.48644
G1 X79.875 Y64.057 E0.55683
G1 X82.313 Y63.312 E0.67995
G1 X84.663 Y62.521 E0.7997
G1 X87.06 Y61.638 E0.92306
G1 X89.363 Y60.714 E1.0429
G1 X91.693 Y59.702 E1.16558
G1 X94.003 Y58.62 E1.28877
G1 X96.206 Y57.512 E1.40786
G1 X98.452 Y56.3 E1.53111
G1 X100.661 Y55.028 E1.65421
G1 X101.175 Y54.715 E1.68328
G1 X101.671 Y54.424 E1.71105
G1 X102.497 Y53.989 E1.75613
G1 X103.358 Y53.626 E1.80126
G1 X104.246 Y53.338 E1.84634
G1 X104.853 Y53.188 E1.87654
G1 X105.833 Y52.976 E1.92496
G1 X107.074 Y52.732 E1.98604
G1 X107.953 Y52.573 E2.02918
G1 X108.878 Y52.448 E2.07426
G1 X109.811 Y52.402 E2.11937
G1 X110.744 Y52.436 E2.16446
G1 X111.67 Y52.55 E2.20952
G1 X112.59 Y52.745 E2.25493
G1 X113.571 Y52.997 E2.30385
G1 X115.196 Y53.446 E2.38527
G1 X115.994 Y53.678 E2.4254
G1 X116.878 Y53.978 E2.47048
G1 X117.733 Y54.352 E2.51555
G1 X118.401 Y54.708 E2.55211
G1 X120.643 Y56.006 E2.67722
G1 X122.886 Y57.221 E2.80041
G1 X125.132 Y58.359 E2.92201
G1 X127.395 Y59.425 E3.04282
G1 X129.714 Y60.439 E3.16505
G1 X132.072 Y61.392 E3.28787
G1 X134.425 Y62.264 E3.40906
G1 X136.793 Y63.068 E3.52983
G1 X139.208 Y63.812 E3.65187
G1 X141.545 Y64.463 E3.76903
G1 X143.031 Y64.918 E3.84408
G1 X143.588 Y65.13 E3.87286
G1 X144.389 Y65.449 E3.9145
G1 X145.229 Y65.799 E3.95845
G1 X146.074 Y66.195 E4.00352
G1 X146.882 Y66.663 E4.04861
G1 X147.732 Y67.263 E4.09886
G1 X148.142 Y67.583 E4.12397
G1 X148.814 Y68.128 E4.16576
G1 X149.43 Y68.643 E4.20454
G1 X150.12 Y69.273 E4.24966
G1 X150.801 Y70.016 E4.29833
G1 X151.533 Y70.893 E4.3535
G1 X152.152 Y71.667 E4.40136
G1 X152.701 Y72.422 E4.44645
G1 X153.183 Y73.222 E4.49155
G1 X153.595 Y74.06 E4.53665
G1 X153.934 Y74.929 E4.5817
G1 X154.098 Y75.455 E4.6083
G1 X154.271 Y76.061 E4.63874
G1 X154.54 Y77.055 E4.68847
G1 X154.789 Y78.034 E4.73725
G1 X155.398 Y80.584 E4.86387
G1 X156.038 Y82.962 E4.9828
G1 X156.776 Y85.429 E5.10715
G1 X157.548 Y87.765 E5.22597
G1 X158.425 Y90.193 E5.35064
G1 X159.329 Y92.484 E5.46958
G1 X160.341 Y94.853 E5.59399
G1 X161.376 Y97.095 E5.71325
G1 X162.509 Y99.382 E5.83651
G1 X163.691 Y101.605 E5.9581
G1 X164.797 Y103.557 E6.06645
G1 X165.411 Y104.611 E6.12535
G1 X165.846 Y105.437 E6.17044
G1 X166.209 Y106.297 E6.21552
G1 X166.589 Y107.541 E6.27834
G1 X166.861 Y108.667 E6.33428
G1 X167.066 Y109.613 E6.38103
G1 X167.22 Y110.534 E6.42612
G1 X167.285 Y111.266 E6.46161
G1 X167.32 Y111.898 E6.49218
G1 X167.349 Y112.7 E6.53094
G1 X167.364 Y113.544 E6.5717
G1 X167.341 Y114.477 E6.61678
G1 X167.166 Y115.81 E6.6817
G1 X167.061 Y116.351 E6.70832
G1 X166.881 Y117.185 E6.74952
G1 X166.684 Y118.026 E6.79124
G1 X166.431 Y118.925 E6.83634
G1 X166.102 Y119.798 E6.88139
G1 X165.689 Y120.662 E6.92764
G1 X165.23 Y121.521 E6.97468
G1 X164.692 Y122.488 E7.02812
G1 X164.281 Y123.201 E7.06786
G1 X163.793 Y123.969 E7.11181
G1 X163.069 Y125.009 E7.173
G1 X161.6 Y127.183 E7.29972
G1 X160.246 Y129.312 E7.42157
G1 X158.959 Y131.471 E7.54295
G1 X157.726 Y133.676 E7.66496
G1 X156.548 Y135.932 E7.78787
G1 X155.458 Y138.171 E7.90813
G1 X154.414 Y140.479 E8.03046
G1 X153.411 Y142.869 E8.15564
G1 X153.014 Y143.713 E8.20068
G1 X152.545 Y144.521 E8.2458
G1 X152.058 Y145.221 E8.28698
G1 X151.406 Y146.084 E8.33922
G1 X150.668 Y147.005 E8.39621
G1 X150.05 Y147.706 E8.44134
G1 X149.375 Y148.35 E8.4864
G1 X148.377 Y149.127 E8.54748
G1 X147.745 Y149.551 E8.58424
G1 X146.586 Y150.297 E8.6508
G1 X145.838 Y150.766 E8.69344
G1 X145.026 Y151.227 E8.73853
G1 X143.892 Y151.729 E8.79842
G1 X142.969 Y152.076 E8.84604
G1 X142.22 Y152.347 E8.88451
G1 X139.889 Y153.26 E9.00541
G1 X137.56 Y154.249 E9.12761
G1 X135.26 Y155.304 E9.24981
G1 X133.007 Y156.414 E9.3711
G1 X130.787 Y157.588 E9.49238
G1 X128.571 Y158.842 E9.61535
G1 X126.418 Y160.141 E9.73679
G1 X124.335 Y161.48 E9.85637
G1 X122.192 Y162.944 E9.98171
G1 X121.081 Y163.737 E10.04763
G1 X119.565 Y164.775 E10.13636
G1 X118.852 Y165.249 E10.17771
G1 X118.052 Y165.73 E10.22279
G1 X117.214 Y166.142 E10.26789
G1 X116.344 Y166.48 E10.31296
G1 X115.133 Y166.815 E10.37364
G1 X114.15 Y167.027 E10.42221
G1 X112.926 Y167.268 E10.48245
G1 X112.047 Y167.427 E10.52559
G1 X111.122 Y167.552 E10.57067
G1 X110.189 Y167.598 E10.61578
G1 X109.256 Y167.564 E10.66087
G1 X108.33 Y167.45 E10.70593
G1 X107.411 Y167.255 E10.7513
G1 X106.422 Y167.001 E10.80061
G1 X104.802 Y166.553 E10.88178
G1 X104.017 Y166.324 E10.92127
G1 X103.133 Y166.024 E10.96636
G1 X102.278 Y165.649 E11.01145
G1 X101.458 Y165.203 E11.05652
G1 X100.662 Y164.675 E11.10265
G1 X99.828 Y164.068 E11.15247
G1 X97.742 Y162.593 E11.27585
G1 X95.624 Y161.183 E11.39873
G1 X93.507 Y159.859 E11.51932
G1 X91.33 Y158.583 E11.64118
G1 X89.103 Y157.359 E11.7639
G1 X86.88 Y156.22 E11.88453
G1 X84.599 Y155.129 E12.00664
G1 X82.295 Y154.108 E12.12835
G1 X80.014 Y153.171 E12.24744
G1 X76.23 Y151.773 E12.44225
G1 X75.369 Y151.412 E12.48734
G1 X74.403 Y150.897 E12.54021
G1 X73.709 Y150.481 E12.57928
G1 X72.488 Y149.702 E12.64923
G1 X71.78 Y149.233 E12.69024
G1 X71.026 Y148.684 E12.73529
G1 X70.321 Y148.072 E12.78037
G1 X69.547 Y147.261 E12.83451
G1 X69.151 Y146.788 E12.8643
G1 X68.572 Y146.061 E12.90919
G1 X68.018 Y145.34 E12.9531
G1 X67.484 Y144.574 E12.9982
G1 X67.017 Y143.766 E13.04327
G1 X66.611 Y142.895 E13.08967
G1 X66.263 Y142.056 E13.13354
G1 X65.223 Y139.639 E13.26061
G1 X64.156 Y137.349 E13.38262
G1 X63.036 Y135.106 E13.5037
G1 X61.844 Y132.881 E13.6256
G1 X60.588 Y130.689 E13.74761
G1 X59.279 Y128.548 E13.8688
G1 X57.899 Y126.424 E13.99112
G1 X56.197 Y123.957 E14.13587
G1 X55.747 Y123.246 E14.1765
G1 X55.411 Y122.668 E14.20879
G1 X54.752 Y121.492 E14.27389
G1 X54.358 Y120.765 E14.31383
G1 X53.95 Y119.925 E14.35892
G1 X53.614 Y119.054 E14.40401
G1 X53.348 Y118.13 E14.45045
G1 X53.118 Y117.174 E14.49793
G1 X52.864 Y115.978 E14.55698
G1 X52.713 Y115.056 E14.6021
G1 X52.641 Y114.125 E14.64719
G1 X52.636 Y113.608 E14.67216
G1 X52.644 Y113.014 E14.70085
G1 X52.664 Y112.305 E14.73511
G1 X52.704 Y111.399 E14.7789
G1 X52.787 Y110.469 E14.824
G1 X52.919 Y109.688 E14.86225
G1 X53.032 Y109.142 E14.88917
G1 X53.196 Y108.411 E14.92535
G1 X53.389 Y107.601 E14.96557
G1 X53.646 Y106.703 E15.01068
G1 X53.978 Y105.831 E15.05574
G1 X54.554 Y104.685 E15.11768
G1 X55.335 Y103.335 E15.193
G1 X56.597 Y101.075 E15.31801
G1 X57.786 Y98.799 E15.44202
G1 X58.878 Y96.556 E15.5625
G1 X59.915 Y94.265 E15.68394
G1 X60.893 Y91.928 E15.80629
G1 X61.808 Y89.56 E15.92889
G1 X62.632 Y87.227 E16.04838
G1 X63.41 Y84.811 E16.17096
G1 X64.123 Y82.363 E16.2941
G1 X64.753 Y79.95 E16.41453
G1 X65.485 Y76.971 E16.56268
G1 X65.671 Y76.272 E16.59761
G1 X65.892 Y75.489 E16.6369
G1 X66.185 Y74.602 E16.68202
G1 X66.552 Y73.744 E16.72708
G1 X66.992 Y72.92 E16.7722
G1 X67.5 Y72.137 E16.81727
G1 X68.174 Y71.255 E16.87088
G1 X68.653 Y70.663 E16.90766
G1 X69.179 Y70.034 E16.94725
G1 X69.36 Y69.836 E16.96021
G0 F2700 X69.809 Y69.344
G0 F6000 X70.252 Y69.749
G1 F3000 X70.897 Y69.157 E17.00249
G1 X71.534 Y68.62 E17.04273
G1 X72.016 Y68.227 E17.07276
G1 X72.574 Y67.785 E17.10714
G1 X73.309 Y67.253 E17.15096
G1 X74.089 Y66.789 E17.19479
G1 X74.744 Y66.465 E17.23008
G1 X75.238 Y66.249 E17.25612
G1 X76.292 Y65.822 E17.31104
G1 X77.154 Y65.49 E17.35565
G1 X77.983 Y65.211 E17.39789
G1 X78.638 Y65.021 E17.43083
G1 X80.064 Y64.627 E17.50227
G1 X82.469 Y63.892 E17.62372
G1 X84.894 Y63.075 E17.7473
G1 X87.238 Y62.212 E17.86793
G1 X89.645 Y61.246 E17.99319
G1 X91.933 Y60.253 E18.11364
G1 X94.243 Y59.17 E18.23685
G1 X96.492 Y58.039 E18.35842
G1 X98.739 Y56.827 E18.48172
G1 X100.969 Y55.542 E18.60601
G1 X101.486 Y55.228 E18.63523
G1 X101.973 Y54.942 E18.6625
G1 X102.777 Y54.52 E18.70635
G1 X103.614 Y54.171 E18.75015
G1 X104.479 Y53.896 E18.79398
G1 X104.98 Y53.775 E18.81887
G1 X105.96 Y53.563 E18.8673
G1 X107.189 Y53.321 E18.92779
G1 X108.059 Y53.164 E18.97048
G1 X108.959 Y53.043 E19.01434
G1 X109.865 Y53.002 E19.05814
G1 X110.772 Y53.041 E19.10198
G1 X111.672 Y53.159 E19.14582
G1 X112.441 Y53.326 E19.18382
G1 X113.422 Y53.578 E19.23273
G1 X115.035 Y54.024 E19.31355
G1 X115.826 Y54.254 E19.35334
G1 X116.685 Y54.546 E19.39715
G1 X117.515 Y54.913 E19.44098
G1 X118.101 Y55.228 E19.47311
G1 X120.354 Y56.532 E19.59883
G1 X122.583 Y57.74 E19.72126
G1 X124.859 Y58.893 E19.84448
G1 X127.169 Y59.981 E19.96779
G1 X129.473 Y60.988 E20.08923
G1 X131.879 Y61.961 E20.21456
G1 X134.203 Y62.822 E20.33425
G1 X136.602 Y63.636 E20.4566
G1 X139.049 Y64.391 E20.58027
G1 X141.376 Y65.039 E20.69692
G1 X142.818 Y65.479 E20.76973
G1 X143.375 Y65.691 E20.79851
G1 X144.165 Y66.006 E20.83959
G1 X144.997 Y66.352 E20.8831
G1 X145.818 Y66.739 E20.92694
G1 X146.602 Y67.196 E20.97076
G1 X147.363 Y67.736 E21.01583
G1 X147.773 Y68.056 E21.04094
G1 X148.434 Y68.593 E21.08207
G1 X149.045 Y69.103 E21.12051
G1 X149.714 Y69.716 E21.16433
G1 X150.341 Y70.401 E21.20918
G1 X151.073 Y71.278 E21.26434
G1 X151.682 Y72.04 E21.31145
G1 X152.215 Y72.775 E21.3553
G1 X152.681 Y73.554 E21.39914
G1 X153.076 Y74.371 E21.44296
G1 X153.521 Y75.62 E21.507
G1 X153.694 Y76.226 E21.53743
G1 X153.961 Y77.211 E21.58672
G1 X154.207 Y78.181 E21.63504
G1 X154.811 Y80.709 E21.76057
G1 X155.466 Y83.144 E21.88234
G1 X156.194 Y85.578 E22.00504
G1 X156.995 Y88.004 E22.12842
G1 X157.853 Y90.376 E22.25023
G1 X158.781 Y92.729 E22.37239
G1 X159.776 Y95.058 E22.4947
G1 X160.852 Y97.389 E22.61868
G1 X161.965 Y99.635 E22.73974
G1 X163.168 Y101.898 E22.86351
G1 X164.277 Y103.857 E22.97223
G1 X164.893 Y104.913 E23.03127
G1 X165.315 Y105.717 E23.07512
G1 X165.664 Y106.554 E23.11891
G1 X166.006 Y107.681 E23.17579
G1 X166.278 Y108.807 E23.23173
G1 X166.479 Y109.738 E23.27773
G1 X166.628 Y110.633 E23.32155
G1 X166.686 Y111.299 E23.35383
G1 X166.721 Y111.931 E23.3844
G1 X166.749 Y112.718 E23.42243
G1 X166.764 Y113.554 E23.46281
G1 X166.74 Y114.461 E23.50663
G1 X166.577 Y115.695 E23.56674
G1 X166.472 Y116.236 E23.59336
G1 X166.295 Y117.056 E23.63387
G1 X166.1 Y117.888 E23.67514
G1 X165.853 Y118.761 E23.71896
G1 X165.53 Y119.61 E23.76282
G1 X165.159 Y120.379 E23.80406
G1 X164.7 Y121.238 E23.85109
G1 X164.168 Y122.195 E23.90397
G1 X163.762 Y122.901 E23.9433
G1 X163.301 Y123.626 E23.9848
G1 X162.568 Y124.68 E24.0468
G1 X161.084 Y126.875 E24.17475
G1 X159.738 Y128.992 E24.29591
G1 X158.44 Y131.168 E24.41827
G1 X157.2 Y133.387 E24.54103
G1 X156.02 Y135.645 E24.66407
G1 X154.908 Y137.93 E24.78679
G1 X153.872 Y140.222 E24.90827
G1 X152.858 Y142.637 E25.03476
G1 X152.47 Y143.457 E25.07857
G1 X152.012 Y144.24 E25.12238
G1 X151.579 Y144.859 E25.15886
G1 X150.927 Y145.722 E25.21109
G1 X150.202 Y146.628 E25.26713
G1 X149.6 Y147.308 E25.31099
G1 X148.942 Y147.932 E25.35479
G1 X148.036 Y148.633 E25.41011
G1 X147.415 Y149.05 E25.44623
G1 X146.262 Y149.792 E25.51245
G1 X145.52 Y150.257 E25.55474
G1 X144.73 Y150.704 E25.59857
G1 X143.681 Y151.167 E25.65395
G1 X142.758 Y151.514 E25.70157
G1 X142.02 Y151.78 E25.73946
G1 X139.659 Y152.705 E25.86192
G1 X137.316 Y153.701 E25.98487
G1 X135.013 Y154.756 E26.1072
G1 X132.73 Y155.882 E26.23014
G1 X130.494 Y157.064 E26.35228
G1 X128.301 Y158.304 E26.47395
G1 X126.108 Y159.628 E26.59766
G1 X123.955 Y161.012 E26.72127
G1 X121.849 Y162.451 E26.84445
G1 X120.732 Y163.248 E26.91072
G1 X119.226 Y164.28 E26.99889
G1 X118.521 Y164.748 E27.03975
G1 X117.743 Y165.215 E27.08357
G1 X116.927 Y165.612 E27.1274
G1 X116.079 Y165.936 E27.17124
G1 X115.006 Y166.229 E27.22495
G1 X114.023 Y166.441 E27.27352
G1 X112.811 Y166.679 E27.33317
G1 X111.941 Y166.836 E27.37586
G1 X111.041 Y166.957 E27.41972
G1 X110.135 Y166.998 E27.46352
G1 X109.228 Y166.959 E27.50736
G1 X108.328 Y166.841 E27.5512
G1 X107.56 Y166.674 E27.58915
G1 X106.571 Y166.42 E27.63846
G1 X104.963 Y165.975 E27.71904
G1 X104.186 Y165.749 E27.75812
G1 X103.327 Y165.456 E27.80195
G1 X102.497 Y165.088 E27.8458
G1 X101.703 Y164.649 E27.88961
G1 X101.015 Y164.19 E27.92955
G1 X100.147 Y163.558 E27.98141
G1 X98.089 Y162.102 E28.10316
G1 X95.95 Y160.679 E28.22723
G1 X93.82 Y159.347 E28.34855
G1 X91.625 Y158.06 E28.47143
G1 X89.411 Y156.844 E28.59342
G1 X87.13 Y155.674 E28.71722
G1 X84.861 Y154.589 E28.83869
G1 X82.512 Y153.548 E28.96277
G1 X80.228 Y152.61 E29.08201
G1 X76.438 Y151.21 E29.27713
G1 X75.601 Y150.858 E29.32098
G1 X74.711 Y150.382 E29.36973
G1 X74.017 Y149.966 E29.4088
G1 X72.812 Y149.197 E29.47784
G1 X72.112 Y148.733 E29.51839
G1 X71.379 Y148.198 E29.56222
G1 X70.696 Y147.601 E29.60603
G1 X70.002 Y146.869 E29.65474
G1 X69.62 Y146.414 E29.68343
G1 X69.041 Y145.687 E29.72832
G1 X68.495 Y144.976 E29.77161
G1 X67.977 Y144.231 E29.81543
G1 X67.526 Y143.443 E29.85928
G1 X67.165 Y142.665 E29.9007
G1 X66.83 Y141.855 E29.94303
G1 X65.768 Y139.39 E30.07265
G1 X64.694 Y137.081 E30.19564
G1 X63.565 Y134.823 E30.31755
G1 X62.373 Y132.596 E30.43954
G1 X61.107 Y130.386 E30.56254
G1 X59.79 Y128.232 E30.68447
G1 X58.391 Y126.081 E30.80839
G1 X56.691 Y123.616 E30.953
G1 X56.265 Y122.944 E30.99142
G1 X55.929 Y122.366 E31.02371
G1 X55.276 Y121.2 E31.08825
G1 X54.886 Y120.479 E31.12784
G1 X54.49 Y119.663 E31.17164
G1 X54.167 Y118.815 E31.21546
G1 X53.932 Y117.989 E31.25694
G1 X53.702 Y117.033 E31.30442
G1 X53.451 Y115.855 E31.36259
G1 X53.306 Y114.96 E31.40638
G1 X53.236 Y113.616 E31.47137
G1 X53.244 Y113.022 E31.50006
G1 X53.264 Y112.324 E31.53378
G1 X53.304 Y111.426 E31.57719
G1 X53.385 Y110.522 E31.62103
G1 X53.507 Y109.81 E31.65591
G1 X53.62 Y109.264 E31.68284
G1 X53.781 Y108.543 E31.71852
G1 X53.973 Y107.741 E31.75834
G1 X54.223 Y106.869 E31.80215
G1 X54.549 Y106.022 E31.84598
G1 X55.073 Y104.985 E31.90209
G1 X55.869 Y103.608 E31.97891
G1 X57.132 Y101.348 E32.10394
G1 X58.314 Y99.086 E32.22719
G1 X59.414 Y96.826 E32.34858
G1 X60.47 Y94.49 E32.47238
G1 X61.456 Y92.135 E32.59568
G1 X62.361 Y89.796 E32.7168
G1 X63.218 Y87.368 E32.84115
G1 X63.975 Y85.017 E32.96043
G1 X64.695 Y82.545 E33.08477
G1 X65.351 Y80.031 E33.21025
G1 X66.068 Y77.114 E33.35531
G1 X66.25 Y76.429 E33.38954
G1 X66.47 Y75.652 E33.42854
G1 X66.755 Y74.791 E33.47234
G1 X67.115 Y73.958 E33.51616
G1 X67.547 Y73.16 E33.55999
G1 X68.253 Y72.13 E33.62029
G1 X68.647 Y71.624 E33.65126
G1 X69.118 Y71.043 E33.68738
G1 X69.639 Y70.419 E33.72664
G1 X69.803 Y70.24 E33.73837
G0 F2700 X70.252 Y69.749
;MESH:octopus4.stl
G0 F6000 X76.71 Y76.385
G0 X77.843 Y77.307
G0 X78.184 Y77.648
;TYPE:WALL-INNER
G1 F600 X79.361 Y76.689 E33.81169
G1 X79.433 Y76.63 E33.81618
G1 X80.87 Y76.054 E33.89095
G1 X81.086 Y75.967 E33.90219
G1 X82.738 Y75.701 E33.983
G1 X82.801 Y75.711 E33.98608
G1 X84.914 Y76.044 E34.08939
G1 X85.131 Y76.147 E34.10099
G1 X86.667 Y76.879 E34.18316
G1 X86.719 Y76.904 E34.18595
G1 X87.81 Y77.904 E34.25742
G1 X87.954 Y78.036 E34.26685
G1 X88.695 Y79.459 E34.34433
G1 X88.771 Y79.604 E34.35224
G1 X89.212 Y81.315 E34.43757
G1 X89.238 Y81.414 E34.44252
G1 X89.106 Y84.413 E34.58749
G1 X89.104 Y84.437 E34.58865
G1 X89.097 Y84.476 E34.59056
G1 X88.851 Y85.834 E34.65721
