;FLAVOR:Marlin
;TIME:8163
;Filament used: 7.81803m
;Layer height: 0.16
;MINX:14.407
;MINY:9.835
;MINZ:0.2
;MAXX:209.926
;MAXY:205.298
;MAXZ:11.48
;Generated with Cura_SteamEngine 4.5.0
M140 S50
M105
M190 S50
M104 S215
M105
M109 S215
M82 ;absolute extrusion mode
M201 X500.00 Y500.00 Z100.00 E5000.00 ;Setup machine max acceleration
M203 X500.00 Y500.00 Z10.00 E50.00 ;Setup machine max feedrate
M204 P500.00 R1000.00 T500.00 ;Setup Print/Retract/Travel acceleration
M205 X8.00 Y8.00 Z0.40 E5.00 ;Setup Jerk
M220 S100 ;Reset Feedrate
M221 S100 ;Reset Flowrate

G28 ;Home

G92 E0 ;Reset Extruder
G1 Z2.0 F3000 ;Move Z Axis up
G1 X10.1 Y20 Z0.28 F5000.0 ;Move to start position
G1 X10.1 Y200.0 Z0.28 F1500.0 E15 ;Draw the first line
G1 X10.4 Y200.0 Z0.28 F5000.0 ;Move to side a little
G1 X10.4 Y20 Z0.28 F1500.0 E30 ;Draw the second line
G92 E0 ;Reset Extruder
G1 Z2.0 F3000 ;Move Z Axis up

G92 E0
G92 E0
G1 F1800 E-3
;LAYER_COUNT:84
;LAYER:0
M107
G0 F9000 X49.741 Y46.567 Z0.2
;TYPE:SKIRT
G1 F1800 E0
G1 F3000 X50.383 Y45.902 E0.03074
G1 X50.992 Y45.301 E0.0592
G1 X51.794 Y44.533 E0.09613
G1 X53.366 Y43.048 E0.16806
G1 X55.102 Y41.431 E0.24697
G1 X56.745 Y39.922 E0.32116
G1 X58.309 Y38.509 E0.39127
G1 X60.027 Y36.982 E0.46772
G1 X61.595 Y35.614 E0.53693
G1 X63.24 Y34.206 E0.60895
G1 X64.983 Y32.744 E0.68461
G1 X66.703 Y31.333 E0.75861
G1 X68.016 Y30.279 E0.81461
G1 X68.737 Y29.708 E0.8452
G1 X69.806 Y28.871 E0.89035
G1 X70.415 Y28.402 E0.91592
G1 X72.204 Y27.046 E0.99058
G1 X73.988 Y25.732 E1.06428
G1 X75.276 Y24.807 E1.11702
G1 X75.976 Y24.313 E1.14551
G1 X77.088 Y23.541 E1.19054
G1 X77.867 Y23.007 E1.22195
G1 X78.974 Y22.264 E1.26629
G1 X79.806 Y21.717 E1.29941
G1 X80.951 Y20.977 E1.34476
G1 X81.674 Y20.517 E1.37326
G1 X82.856 Y19.783 E1.41953
G1 X83.691 Y19.277 E1.45201
G1 X84.782 Y18.626 E1.49426
G1 X85.716 Y18.082 E1.53021
G1 X86.724 Y17.509 E1.56878
G1 X87.765 Y16.931 E1.60838
G1 X88.78 Y16.379 E1.64681
G1 X89.764 Y15.859 E1.68383
G1 X90.788 Y15.333 E1.72212
G1 X91.915 Y14.769 E1.76403
G1 X92.802 Y14.339 E1.79682
G1 X94.013 Y13.767 E1.84136
G1 X94.944 Y13.342 E1.8754
G1 X96.12 Y12.823 E1.91815
G1 X97.008 Y12.443 E1.95028
G1 X98.295 Y11.912 E1.99659
G1 X99.558 Y11.411 E2.04178
G1 X100.356 Y11.11 E2.07014
G1 X101.01 Y10.882 E2.09318
G1 X102.177 Y10.516 E2.13386
G1 X103.008 Y10.269 E2.16269
G1 X103.901 Y10.046 E2.19331
G1 X104.81 Y9.901 E2.22392
G1 X105.728 Y9.835 E2.25453
G1 X106.385 Y9.837 E2.27639
G1 X107.028 Y9.859 E2.29779
G1 X108.113 Y9.922 E2.33393
G1 X108.938 Y9.984 E2.36145
G1 X109.852 Y10.094 E2.39207
G1 X110.753 Y10.283 E2.42269
G1 X111.635 Y10.549 E2.45333
G1 X112.813 Y11.044 E2.49583
G1 X113.355 Y11.311 E2.51592
G1 X114.236 Y11.768 E2.54893
G1 X115.38 Y12.387 E2.5922
G1 X117.666 Y13.583 E2.67801
G1 X119.935 Y14.689 E2.76196
G1 X122.244 Y15.735 E2.84627
G1 X124.574 Y16.713 E2.93032
G1 X126.966 Y17.64 E3.01564
G1 X129.311 Y18.469 E3.09837
G1 X131.714 Y19.244 E3.18235
G1 X134.162 Y19.959 E3.26717
G1 X136.591 Y20.595 E3.35068
G1 X139.072 Y21.17 E3.43539
G1 X141.567 Y21.674 E3.52005
G1 X144.032 Y22.099 E3.60324
G1 X146.511 Y22.455 E3.68654
G1 X149.047 Y22.746 E3.77144
G1 X151.578 Y22.964 E3.85593
G1 X154.099 Y23.111 E3.93993
G1 X156.6 Y23.184 E4.02314
G1 X159.147 Y23.188 E4.10786
G1 X161.665 Y23.119 E4.19164
G1 X164.203 Y22.979 E4.27618
G1 X166.718 Y22.768 E4.36012
G1 X169.903 Y22.444 E4.4666
G1 X171.015 Y22.364 E4.50369
G1 X171.843 Y22.332 E4.53125
G1 X172.454 Y22.327 E4.55157
G1 X173.275 Y22.333 E4.57887
G1 X173.932 Y22.36 E4.60075
G1 X174.868 Y22.427 E4.63196
G1 X175.816 Y22.521 E4.66364
G1 X176.38 Y22.595 E4.68256
G1 X177.005 Y22.699 E4.70363
G1 X178.191 Y22.939 E4.74388
G1 X178.998 Y23.14 E4.77154
G1 X179.593 Y23.313 E4.79215
G1 X180.519 Y23.607 E4.82446
G1 X181.336 Y23.908 E4.85342
G1 X181.888 Y24.138 E4.87331
G1 X182.725 Y24.509 E4.90376
G1 X183.372 Y24.826 E4.92773
G1 X184.143 Y25.244 E4.9569
G1 X184.747 Y25.595 E4.98013
G1 X185.267 Y25.918 E5.00049
G1 X185.931 Y26.357 E5.02697
G1 X186.675 Y26.879 E5.0572
G1 X187.085 Y27.182 E5.07415
G1 X187.633 Y27.613 E5.09734
G1 X188.261 Y28.132 E5.12444
G1 X189.083 Y28.851 E5.16076
G1 X189.739 Y29.455 E5.19042
G1 X190.488 Y30.189 E5.2253
G1 X191.566 Y31.281 E5.27634
G1 X192.117 Y31.854 E5.30278
G1 X192.86 Y32.668 E5.33943
G1 X193.779 Y33.714 E5.38574
G1 X194.518 Y34.579 E5.42358
G1 X195.886 Y36.28 E5.49618
G1 X196.628 Y37.236 E5.53643
G1 X197.73 Y38.737 E5.59837
G1 X199.018 Y40.572 E5.67293
G1 X199.681 Y41.559 E5.71248
G1 X200.902 Y43.463 E5.78771
G1 X201.506 Y44.447 E5.82611
G1 X202.688 Y46.471 E5.90407
G1 X203.365 Y47.688 E5.95039
G1 X203.939 Y48.753 E5.99063
G1 X204.941 Y50.758 E6.06518
G1 X205.398 Y51.708 E6.10024
G1 X205.667 Y52.3 E6.12187
G1 X206.353 Y53.872 E6.17892
G1 X206.678 Y54.646 E6.20684
G1 X207.054 Y55.61 E6.24125
G1 X207.545 Y56.934 E6.28822
G1 X207.761 Y57.54 E6.30962
G1 X208.232 Y59.009 E6.36093
G1 X208.549 Y60.071 E6.39779
G1 X208.767 Y60.842 E6.42444
G1 X208.971 Y61.648 E6.45209
G1 X209.274 Y63.021 E6.49885
G1 X209.487 Y64.138 E6.53668
G1 X209.57 Y64.635 E6.55343
G1 X209.702 Y65.582 E6.58524
G1 X209.784 Y66.306 E6.60947
G1 X209.854 Y67.088 E6.63558
G1 X209.907 Y67.998 E6.6659
G1 X209.926 Y68.593 E6.6857
G1 X209.922 Y69.797 E6.72575
G1 X209.9 Y70.466 E6.74801
G1 X209.867 Y70.993 E6.76557
G1 X209.748 Y72.146 E6.80413
G1 X209.658 Y72.776 E6.82529
G1 X209.517 Y73.558 E6.85172
G1 X209.31 Y74.478 E6.88309
G1 X209.135 Y75.133 E6.90563
G1 X208.961 Y75.726 E6.92619
G1 X208.804 Y76.204 E6.94292
G1 X208.52 Y76.954 E6.9696
G1 X208.285 Y77.515 E6.98983
G1 X207.908 Y78.318 E7.01933
G1 X207.611 Y78.888 E7.04071
G1 X206.624 Y80.718 E7.10986
G1 X205.61 Y82.514 E7.17846
G1 X205.21 Y83.193 E7.20467
G1 X203.97 Y85.195 E7.283
G1 X202.759 Y87.06 E7.35696
G1 X202.225 Y87.857 E7.38887
G1 X201.935 Y88.271 E7.40568
G1 X200.4 Y90.491 E7.49545
G1 X199.038 Y92.586 E7.57856
G1 X197.716 Y94.75 E7.6629
G1 X196.458 Y96.948 E7.74713
G1 X195.254 Y99.195 E7.83192
G1 X194.141 Y101.422 E7.91473
G1 X193.069 Y103.73 E7.99937
G1 X192.068 Y106.05 E8.08341
G1 X191.124 Y108.422 E8.16832
G1 X190.27 Y110.763 E8.2512
G1 X189.459 Y113.196 E8.3365
G1 X188.735 Y115.588 E8.41962
G1 X188.069 Y118.039 E8.5041
G1 X187.483 Y120.465 E8.58711
G1 X186.945 Y122.994 E8.67311
G1 X186.501 Y125.436 E8.75566
G1 X185.953 Y129.163 E8.88095
G1 X185.829 Y130.148 E8.91397
G1 X185.679 Y131.036 E8.94392
G1 X185.512 Y131.819 E8.97055
G1 X185.313 Y132.655 E8.99914
G1 X185.05 Y133.558 E9.03042
G1 X184.754 Y134.43 E9.06105
G1 X184.418 Y135.337 E9.09322
G1 X184.045 Y136.204 E9.12461
G1 X183.651 Y137.018 E9.15469
G1 X182.717 Y138.817 E9.2221
G1 X181.535 Y141.15 E9.30909
G1 X180.45 Y143.451 E9.3937
G1 X179.437 Y145.771 E9.4779
G1 X178.48 Y148.138 E9.56282
G1 X177.619 Y150.457 E9.6451
G1 X176.435 Y154.016 E9.76985
G1 X176.19 Y154.807 E9.79739
G1 X176.006 Y155.347 E9.81636
G1 X175.742 Y156.027 E9.84063
G1 X175.535 Y156.516 E9.85829
G1 X175.06 Y157.496 E9.89451
G1 X174.793 Y157.981 E9.91292
G1 X174.388 Y158.677 E9.93971
G1 X173.518 Y160.05 E9.99377
G1 X172.971 Y160.851 E10.02603
G1 X172.619 Y161.338 E10.04601
G1 X172.135 Y161.967 E10.07241
G1 X171.55 Y162.697 E10.10353
G1 X171.17 Y163.15 E10.12319
G1 X170.65 Y163.732 E10.14915
G1 X170.046 Y164.384 E10.17871
G1 X169.606 Y164.838 E10.19974
G1 X169.052 Y165.377 E10.22545
G1 X168.629 Y165.773 E10.24472
G1 X167.414 Y166.839 E10.29848
G1 X166.665 Y167.453 E10.33069
G1 X166.147 Y167.853 E10.35246
G1 X165.572 Y168.272 E10.37612
G1 X164.825 Y168.796 E10.40647
G1 X164.065 Y169.293 E10.43667
G1 X163.52 Y169.629 E10.45797
G1 X162.885 Y170.006 E10.48253
G1 X162.359 Y170.298 E10.50254
G1 X161.891 Y170.541 E10.52008
G1 X161.226 Y170.867 E10.54471
G1 X160.38 Y171.23 E10.57533
G1 X159.899 Y171.399 E10.59229
G1 X159.147 Y171.643 E10.61858
G1 X157.436 Y172.178 E10.67821
G1 X155.045 Y172.994 E10.76224
G1 X152.635 Y173.892 E10.84778
G1 X150.355 Y174.819 E10.92964
G1 X147.992 Y175.858 E11.01549
G1 X145.719 Y176.933 E11.09912
G1 X143.542 Y178.036 E11.18029
G1 X141.942 Y178.873 E11.24035
G1 X141.03 Y179.325 E11.27421
G1 X140.132 Y179.715 E11.30677
G1 X139.224 Y180.061 E11.33909
G1 X138.409 Y180.348 E11.36783
G1 X137.507 Y180.616 E11.39912
G1 X136.546 Y180.855 E11.43206
G1 X135.717 Y181.038 E11.4603
G1 X134.798 Y181.194 E11.4913
G1 X133.92 Y181.303 E11.52073
G1 X131.32 Y181.665 E11.60804
G1 X128.844 Y182.082 E11.69155
G1 X126.371 Y182.569 E11.77538
G1 X123.922 Y183.125 E11.85891
G1 X121.431 Y183.764 E11.94444
G1 X119.021 Y184.457 E12.02785
G1 X116.606 Y185.225 E12.11213
G1 X114.194 Y186.068 E12.19712
G1 X111.843 Y186.964 E12.2808
G1 X109.542 Y187.918 E12.36364
G1 X107.221 Y188.957 E12.44822
G1 X104.919 Y190.068 E12.53324
G1 X102.67 Y191.232 E12.61747
G1 X100.487 Y192.441 E12.70046
G1 X98.309 Y193.73 E12.78464
G1 X96.151 Y195.09 E12.86948
G1 X94.062 Y196.492 E12.95316
G1 X93.105 Y197.169 E12.99215
G1 X91.865 Y198.011 E13.042
G1 X91.144 Y198.475 E13.07052
G1 X87.813 Y200.564 E13.20129
G1 X87.029 Y201.042 E13.23183
G1 X85.604 Y201.858 E13.28645
G1 X83.942 Y202.768 E13.34947
G1 X83.299 Y203.111 E13.37371
G1 X82.687 Y203.411 E13.39638
G1 X82.107 Y203.673 E13.41755
G1 X81.382 Y203.969 E13.44359
G1 X80.906 Y204.143 E13.46045
G1 X80.243 Y204.364 E13.48369
G1 X79.606 Y204.547 E13.50574
G1 X78.815 Y204.747 E13.53287
G1 X77.997 Y204.92 E13.56068
G1 X77.269 Y205.044 E13.58524
G1 X76.37 Y205.165 E13.61541
G1 X75.622 Y205.236 E13.6404
G1 X74.933 Y205.275 E13.66336
G1 X73.536 Y205.298 E13.70983
G1 X72.871 Y205.286 E13.73195
G1 X71.94 Y205.239 E13.76295
G1 X71.171 Y205.179 E13.78861
G1 X70.314 Y205.085 E13.81728
G1 X69.281 Y204.943 E13.85196
G1 X68.759 Y204.859 E13.86955
G1 X67.504 Y204.62 E13.91204
G1 X66.358 Y204.359 E13.95113
G1 X65.045 Y204.009 E13.99633
G1 X63.628 Y203.599 E14.04539
G1 X62.846 Y203.361 E14.07258
G1 X62.23 Y203.157 E14.09416
G1 X60.385 Y202.48 E14.15953
G1 X59.567 Y202.167 E14.18866
G1 X58.622 Y201.775 E14.22269
G1 X57.155 Y201.137 E14.27589
G1 X56.265 Y200.735 E14.30837
G1 X55.64 Y200.437 E14.3314
G1 X54.072 Y199.659 E14.38962
G1 X53.036 Y199.127 E14.42836
G1 X52.545 Y198.864 E14.44688
G1 X51.027 Y198.022 E14.50462
G1 X49.933 Y197.396 E14.54654
G1 X48.29 Y196.395 E14.61053
G1 X46.356 Y195.16 E14.68685
G1 X45.403 Y194.526 E14.72492
G1 X43.526 Y193.214 E14.80109
G1 X42.393 Y192.389 E14.84771
G1 X41.441 Y191.674 E14.88731
G1 X39.827 Y190.391 E14.95588
G1 X38.946 Y189.669 E14.99377
G1 X38.529 Y189.313 E15.012
G1 X37.43 Y188.349 E15.06063
G1 X36.651 Y187.647 E15.0955
G1 X36.129 Y187.155 E15.11936
G1 X35.147 Y186.198 E15.16497
G1 X34.477 Y185.528 E15.19648
G1 X34.071 Y185.098 E15.21615
G1 X32.874 Y183.757 E15.27594
G1 X32.428 Y183.223 E15.29908
G1 X31.654 Y182.232 E15.3409
G1 X31.134 Y181.523 E15.37015
G1 X30.806 Y181.04 E15.38956
G1 X30.458 Y180.496 E15.41104
G1 X30 Y179.742 E15.44039
G1 X29.711 Y179.229 E15.45997
G1 X29.412 Y178.652 E15.48158
G1 X28.952 Y177.69 E15.51705
G1 X28.631 Y176.938 E15.54425
G1 X28.426 Y176.401 E15.56336
G1 X28.087 Y175.438 E15.59732
G1 X27.85 Y174.659 E15.6244
G1 X27.693 Y174.06 E15.645
G1 X27.467 Y173.11 E15.67748
G1 X27.34 Y172.509 E15.69791
G1 X27.209 Y171.717 E15.72461
G1 X27.115 Y170.937 E15.75074
G1 X27.053 Y170.289 E15.77239
G1 X27.008 Y169.677 E15.7928
G1 X26.975 Y168.92 E15.818
G1 X26.955 Y168.056 E15.84674
G1 X26.956 Y167.524 E15.86444
G1 X26.974 Y166.871 E15.88617
G1 X26.995 Y166.371 E15.90281
G1 X27.043 Y165.559 E15.92987
G1 X27.097 Y164.912 E15.95146
G1 X27.179 Y164.176 E15.97609
G1 X27.454 Y161.541 E16.06421
G1 X27.644 Y159.06 E16.14697
G1 X27.765 Y156.516 E16.23168
G1 X27.814 Y154.007 E16.31514
G1 X27.791 Y151.46 E16.39986
G1 X27.697 Y148.916 E16.48453
G1 X27.533 Y146.413 E16.56796
G1 X27.297 Y143.903 E16.65181
G1 X26.988 Y141.388 E16.73609
G1 X26.61 Y138.895 E16.81995
G1 X26.158 Y136.391 E16.90458
G1 X25.646 Y133.953 E16.98744
G1 X25.049 Y131.457 E17.0728
G1 X24.396 Y129.033 E17.1563
G1 X23.666 Y126.6 E17.24078
G1 X22.866 Y124.188 E17.3253
G1 X22.007 Y121.822 E17.40902
G1 X21.085 Y119.49 E17.49243
G1 X20.078 Y117.141 E17.57743
G1 X19.021 Y114.854 E17.66123
G1 X17.903 Y112.606 E17.74473
G1 X16.681 Y110.314 E17.83112
G1 X16.398 Y109.806 E17.85046
G1 X15.946 Y108.928 E17.88331
G1 X15.701 Y108.392 E17.90291
G1 X15.283 Y107.321 E17.94115
G1 X15.123 Y106.838 E17.95807
G1 X14.833 Y105.786 E17.99437
G1 X14.718 Y105.264 E18.01215
G1 X14.524 Y104.056 E18.05284
G1 X14.459 Y103.417 E18.0742
G1 X14.407 Y102.122 E18.11731
G1 X14.419 Y101.548 E18.1364
G1 X14.512 Y100.351 E18.17634
G1 X14.586 Y99.803 E18.19473
G1 X14.805 Y98.66 E18.23344
G1 X14.935 Y98.138 E18.25133
G1 X15.098 Y97.557 E18.2714
G1 X15.322 Y96.872 E18.29537
G1 X15.511 Y96.35 E18.31383
G1 X16.387 Y94.064 E18.39526
G1 X16.817 Y92.979 E18.43408
G1 X17.829 Y90.648 E18.5186
G1 X18.783 Y88.574 E18.59453
G1 X19.568 Y86.956 E18.65434
G1 X20.52 Y85.085 E18.72416
G1 X21.443 Y83.355 E18.78938
G1 X22.393 Y81.648 E18.85435
G1 X23.463 Y79.807 E18.92518
G1 X24.362 Y78.315 E18.98311
G1 X25.575 Y76.375 E19.05921
G1 X26.483 Y74.972 E19.1148
G1 X27.794 Y73.011 E19.19325
G1 X28.641 Y71.78 E19.24295
G1 X30.067 Y69.768 E19.32497
G1 X30.904 Y68.62 E19.37223
G1 X32.465 Y66.53 E19.45899
G1 X33.215 Y65.549 E19.50006
G1 X34.868 Y63.439 E19.58921
G1 X35.627 Y62.49 E19.62963
G1 X37.394 Y60.329 E19.72247
G1 X38.021 Y59.577 E19.75504
G1 X39.888 Y57.378 E19.85098
G1 X40.485 Y56.687 E19.88136
G1 X42.894 Y53.952 E20.00258
G1 X44.907 Y51.727 E20.10237
G1 X45.581 Y50.996 E20.13544
G1 X49.741 Y46.567 E20.33754
G0 F9000 X50.032 Y46.841
G1 F3000 X50.67 Y46.18 E20.3681
G1 X51.272 Y45.587 E20.3962
G1 X52.07 Y44.822 E20.43297
G1 X53.641 Y43.339 E20.50483
G1 X55.375 Y41.723 E20.58366
G1 X57.015 Y40.217 E20.65772
G1 X58.577 Y38.805 E20.72775
G1 X60.293 Y37.282 E20.80406
G1 X61.858 Y35.916 E20.87315
G1 X63.5 Y34.51 E20.94505
G1 X65.24 Y33.051 E21.02058
G1 X66.957 Y31.642 E21.09445
G1 X68.266 Y30.591 E21.15029
G1 X68.985 Y30.022 E21.18078
G1 X70.052 Y29.186 E21.22587
G1 X70.659 Y28.719 E21.25134
G1 X72.445 Y27.365 E21.32588
G1 X74.225 Y26.054 E21.39941
G1 X75.509 Y25.132 E21.45199
G1 X76.207 Y24.639 E21.48041
G1 X78.093 Y23.337 E21.55663
G1 X79.197 Y22.596 E21.60086
G1 X80.025 Y22.052 E21.63381
G1 X81.168 Y21.312 E21.6791
G1 X81.889 Y20.855 E21.70749
G1 X83.067 Y20.123 E21.75362
G1 X83.898 Y19.618 E21.78596
G1 X84.986 Y18.97 E21.82808
G1 X85.918 Y18.427 E21.86395
G1 X86.921 Y17.856 E21.90234
G1 X87.959 Y17.281 E21.94181
G1 X88.97 Y16.73 E21.9801
G1 X89.951 Y16.213 E22.01699
G1 X90.97 Y15.689 E22.0551
G1 X92.094 Y15.127 E22.09689
G1 X92.976 Y14.699 E22.1295
G1 X94.184 Y14.129 E22.17393
G1 X95.11 Y13.706 E22.20779
G1 X96.282 Y13.189 E22.25039
G1 X97.165 Y12.811 E22.28234
G1 X98.447 Y12.282 E22.32847
G1 X99.706 Y11.783 E22.37351
G1 X100.497 Y11.484 E22.40164
G1 X101.138 Y11.261 E22.42421
G1 X102.295 Y10.898 E22.46454
G1 X103.121 Y10.652 E22.49321
G1 X103.998 Y10.434 E22.52326
G1 X104.89 Y10.294 E22.55329
G1 X105.791 Y10.234 E22.58333
G1 X106.372 Y10.237 E22.60265
G1 X107.015 Y10.259 E22.62405
G1 X108.089 Y10.321 E22.65983
G1 X108.908 Y10.383 E22.68715
G1 X109.804 Y10.492 E22.71717
G1 X110.688 Y10.679 E22.74722
G1 X111.551 Y10.944 E22.77725
G1 X112.636 Y11.403 E22.81643
G1 X113.178 Y11.67 E22.83653
G1 X114.05 Y12.123 E22.86921
G1 X115.185 Y12.736 E22.91212
G1 X117.498 Y13.946 E22.99894
G1 X119.745 Y15.042 E23.08209
G1 X122.103 Y16.11 E23.16819
G1 X124.422 Y17.084 E23.25184
G1 X126.814 Y18.01 E23.33715
G1 X129.203 Y18.855 E23.42144
G1 X131.584 Y19.623 E23.50465
G1 X134.062 Y20.347 E23.59051
G1 X136.496 Y20.984 E23.67419
G1 X138.981 Y21.56 E23.75904
G1 X141.489 Y22.066 E23.84413
G1 X143.979 Y22.495 E23.92817
G1 X146.476 Y22.854 E24.01208
G1 X149.007 Y23.145 E24.09681
G1 X151.52 Y23.361 E24.1807
G1 X154.063 Y23.509 E24.26543
G1 X156.623 Y23.584 E24.35061
G1 X159.157 Y23.588 E24.43489
G1 X161.697 Y23.519 E24.5194
G1 X164.225 Y23.379 E24.60361
G1 X166.729 Y23.169 E24.68719
G1 X169.943 Y22.843 E24.79463
G1 X171.042 Y22.763 E24.83128
G1 X171.847 Y22.732 E24.85808
G1 X172.458 Y22.727 E24.8784
G1 X173.272 Y22.733 E24.90548
G1 X173.903 Y22.759 E24.92648
G1 X174.839 Y22.826 E24.95769
G1 X175.775 Y22.918 E24.98897
G1 X176.317 Y22.99 E25.00716
