;FLAVOR:Marlin
;TIME:807
;Filament used: 0.393683m
;Layer height: 0.16
;MINX:76.909
;MINY:91.41
;MINZ:0.24
;MAXX:143.085
;MAXY:128.579
;MAXZ:4.84
;Generated with Cura_SteamEngine 4.5.0
M140 S50
M105
M190 S50
M104 S215
M105
M109 S215
M82 ;absolute extrusion mode
M201 X500.00 Y500.00 Z100.00 E5000.00 ;Setup machine max acceleration
M203 X500.00 Y500.00 Z10.00 E50.00 ;Setup machine max feedrate
M204 P500.00 R1000.00 T500.00 ;Setup Print/Retract/Travel acceleration
M205 X8.00 Y8.00 Z0.40 E5.00 ;Setup Jerk
M220 S100 ;Reset Feedrate
M221 S100 ;Reset Flowrate

G28 ;Home

G92 E0 ;Reset Extruder
G1 Z2.0 F3000 ;Move Z Axis up
G1 X10.1 Y20 Z0.28 F5000.0 ;Move to start position
G1 X10.1 Y200.0 Z0.28 F1500.0 E15 ;Draw the first line
G1 X10.4 Y200.0 Z0.28 F5000.0 ;Move to side a little
G1 X10.4 Y20 Z0.28 F1500.0 E30 ;Draw the second line
G92 E0 ;Reset Extruder
G1 Z2.0 F3000 ;Move Z Axis up

G92 E0
G92 E0
G1 F1800 E-3
;LAYER_COUNT:25
;LAYER:0
M107
G0 F9000 X81.823 Y94.245 Z0.24
;TYPE:SKIRT
G1 F1800 E0
G1 F3000 X82.827 Y93.498 E0.04995
G1 X83.926 Y92.825 E0.10138
G1 X84.755 Y92.425 E0.13812
G1 X85.373 Y92.181 E0.16464
G1 X86.573 Y91.793 E0.21497
G1 X87.473 Y91.598 E0.25173
G1 X88.677 Y91.462 E0.30009
G1 X89.307 Y91.431 E0.32526
G1 X89.871 Y91.421 E0.34778
G1 X90.967 Y91.423 E0.39152
G1 X91.589 Y91.431 E0.41635
G1 X93.538 Y91.412 E0.49414
G1 X95.001 Y91.451 E0.55255
G1 X97.626 Y91.508 E0.65735
G1 X100.139 Y91.491 E0.75765
G1 X101.944 Y91.428 E0.82973
G1 X102.56 Y91.414 E0.85433
G1 X103.164 Y91.419 E0.87843
G1 X105.19 Y91.491 E0.95935
G1 X108.501 Y91.528 E1.0915
G1 X109.816 Y91.519 E1.14399
G1 X110.666 Y91.529 E1.17792
G1 X112.831 Y91.535 E1.26433
G1 X113.916 Y91.525 E1.30763
G1 X116.236 Y91.523 E1.40023
G1 X117.925 Y91.529 E1.46764
G1 X118.722 Y91.523 E1.49945
G1 X123.426 Y91.514 E1.6872
G1 X125.779 Y91.447 E1.78115
G1 X126.443 Y91.42 E1.80768
G1 X127.033 Y91.412 E1.83123
G1 X129.933 Y91.42 E1.94697
G1 X130.524 Y91.41 E1.97056
G1 X131.77 Y91.45 E2.02032
G1 X132.391 Y91.523 E2.04528
G1 X133.751 Y91.763 E2.10039
G1 X134.637 Y92.014 E2.13715
G1 X135.497 Y92.341 E2.17387
G1 X136.146 Y92.646 E2.20249
G1 X137.287 Y93.277 E2.25453
G1 X138.044 Y93.8 E2.29125
G1 X138.844 Y94.47 E2.3329
G1 X139.992 Y95.636 E2.39821
G1 X140.698 Y96.529 E2.44365
G1 X141.198 Y97.302 E2.48039
G1 X141.539 Y97.932 E2.50898
G1 X141.77 Y98.395 E2.52963
G1 X142.145 Y99.236 E2.56638
G1 X142.445 Y100.106 E2.60311
G1 X142.722 Y101.172 E2.64707
G1 X142.904 Y102.075 E2.68384
G1 X142.984 Y102.701 E2.70903
G1 X143.041 Y103.34 E2.73463
G1 X143.085 Y104.606 E2.78519
G1 X143.075 Y105.138 E2.80643
G1 X143.002 Y107.616 E2.90537
G1 X142.993 Y109.59 E2.98416
G1 X142.998 Y110.439 E3.01805
G1 X142.963 Y111.359 E3.05479
G1 X142.848 Y112.272 E3.09152
G1 X142.655 Y113.173 E3.1283
G1 X142.384 Y114.053 E3.16505
G1 X142.038 Y114.906 E3.20179
G1 X141.619 Y115.726 E3.23854
G1 X141.131 Y116.506 E3.27526
G1 X140.577 Y117.241 E3.312
G1 X139.961 Y117.925 E3.34874
G1 X139.288 Y118.554 E3.3855
G1 X138.73 Y118.999 E3.41399
G1 X137.773 Y119.662 E3.46046
G1 X136.882 Y120.155 E3.5011
G1 X136.38 Y120.402 E3.52343
G1 X135.537 Y120.772 E3.56017
G1 X134.888 Y121 E3.58763
G1 X134.349 Y121.17 E3.61018
G1 X132.446 Y121.723 E3.68928
G1 X130.013 Y122.5 E3.79122
G1 X127.668 Y123.323 E3.89041
G1 X125.264 Y124.244 E3.99316
G1 X122.949 Y125.207 E4.09323
G1 X120.621 Y126.252 E4.19508
G1 X119.264 Y126.899 E4.25508
G1 X118.629 Y127.208 E4.28326
G1 X117.863 Y127.55 E4.31675
G1 X117.002 Y127.877 E4.3535
G1 X115.766 Y128.204 E4.40453
G1 X114.498 Y128.418 E4.45586
G1 X113.739 Y128.476 E4.48624
G1 X112.784 Y128.514 E4.52439
G1 X110.276 Y128.542 E4.62449
G1 X109.481 Y128.566 E4.65624
G1 X108.917 Y128.576 E4.67875
G1 X106.806 Y128.555 E4.76301
G1 X105.119 Y128.526 E4.83035
G1 X104.609 Y128.526 E4.85071
G1 X101.356 Y128.579 E4.98056
G1 X100.697 Y128.574 E5.00686
G1 X99.778 Y128.519 E5.0436
G1 X98.906 Y128.393 E5.07877
G1 X97.675 Y128.107 E5.12921
G1 X96.532 Y127.729 E5.17726
G1 X95.741 Y127.382 E5.21173
G1 X94.713 Y126.835 E5.25821
G1 X94.216 Y126.518 E5.28174
G1 X92.177 Y125.095 E5.38098
G1 X90.062 Y123.7 E5.4821
G1 X87.909 Y122.365 E5.58321
G1 X85.705 Y121.085 E5.68494
G1 X84.086 Y120.194 E5.75869
G1 X83.594 Y119.905 E5.78147
G1 X82.415 Y119.124 E5.83791
G1 X81.666 Y118.506 E5.87667
G1 X80.737 Y117.611 E5.92815
G1 X80.016 Y116.747 E5.97307
G1 X79.248 Y115.653 E6.02642
G1 X78.947 Y115.136 E6.05029
G1 X78.371 Y113.995 E6.10131
G1 X78.162 Y113.479 E6.12353
G1 X77.871 Y112.681 E6.15743
G1 X77.486 Y111.4 E6.21082
G1 X77.256 Y110.384 E6.25239
G1 X77.114 Y109.525 E6.28714
G1 X77.045 Y108.941 E6.31061
G1 X76.985 Y108.311 E6.33587
G1 X76.943 Y107.741 E6.35868
G1 X76.922 Y107.232 E6.37902
G1 X76.909 Y106.488 E6.40871
G1 X76.913 Y105.934 E6.43083
G1 X76.935 Y105.302 E6.45607
G1 X77.004 Y104.312 E6.49568
G1 X77.069 Y103.692 E6.52056
G1 X77.144 Y103.168 E6.54168
G1 X77.267 Y102.434 E6.57139
G1 X77.431 Y101.64 E6.60375
G1 X77.607 Y100.961 E6.63174
G1 X78.095 Y99.541 E6.69167
G1 X78.307 Y99.04 E6.71338
G1 X78.531 Y98.539 E6.73529
G1 X78.95 Y97.719 E6.77204
G1 X79.478 Y96.88 E6.81161
G1 X80.297 Y95.775 E6.8665
G1 X80.939 Y95.073 E6.90447
G1 X81.823 Y94.245 E6.95281
G0 F9000 X82.094 Y94.54
G1 F3000 X83.046 Y93.833 E7.00014
G1 X84.13 Y93.169 E7.05088
G1 X84.945 Y92.778 E7.08696
G1 X85.508 Y92.558 E7.11108
G1 X86.692 Y92.176 E7.16074
G1 X87.575 Y91.987 E7.19678
G1 X88.699 Y91.861 E7.24192
G1 X89.317 Y91.831 E7.26661
G1 X89.871 Y91.821 E7.28873
G1 X90.967 Y91.823 E7.33247
G1 X91.587 Y91.831 E7.35722
G1 X93.542 Y91.812 E7.43525
G1 X94.978 Y91.851 E7.49259
G1 X97.62 Y91.908 E7.59806
G1 X100.156 Y91.891 E7.69928
G1 X101.958 Y91.828 E7.77124
G1 X102.568 Y91.814 E7.7956
G1 X103.15 Y91.819 E7.81883
G1 X105.172 Y91.891 E7.89958
G1 X108.499 Y91.928 E8.03238
G1 X109.818 Y91.919 E8.08502
G1 X110.659 Y91.929 E8.11859
G1 X112.833 Y91.935 E8.20536
G1 X113.919 Y91.925 E8.24871
G1 X116.236 Y91.923 E8.34118
G1 X117.927 Y91.929 E8.40867
G1 X118.725 Y91.923 E8.44052
G1 X123.438 Y91.914 E8.62863
G1 X125.809 Y91.847 E8.7233
G1 X126.46 Y91.82 E8.74931
G1 X127.028 Y91.812 E8.77198
G1 X129.941 Y91.82 E8.88824
G1 X130.524 Y91.81 E8.91152
G1 X131.752 Y91.85 E8.96055
G1 X132.333 Y91.918 E8.9839
G1 X133.676 Y92.156 E9.03834
G1 X134.544 Y92.405 E9.07438
G1 X135.387 Y92.729 E9.11042
G1 X135.963 Y93.002 E9.13587
G1 X137.089 Y93.625 E9.18723
G1 X137.83 Y94.14 E9.22324
G1 X138.572 Y94.763 E9.26191
G1 X139.687 Y95.895 E9.32533
G1 X140.382 Y96.774 E9.37005
G1 X140.87 Y97.534 E9.4061
G1 X141.181 Y98.11 E9.43223
G1 X141.412 Y98.573 E9.45288
G1 X141.779 Y99.398 E9.48892
G1 X142.184 Y100.669 E9.54216
G1 X142.333 Y101.269 E9.56683
G1 X142.512 Y102.154 E9.60287
G1 X142.586 Y102.74 E9.62645
G1 X142.641 Y103.366 E9.65153
G1 X142.685 Y104.599 E9.70077
G1 X142.675 Y105.131 E9.72201
G1 X142.602 Y107.644 E9.82235
G1 X142.593 Y109.543 E9.89814
G1 X142.598 Y110.441 E9.93398
G1 X142.563 Y111.344 E9.97005
G1 X142.448 Y112.239 E10.00607
G1 X142.255 Y113.122 E10.04214
G1 X141.984 Y113.983 E10.07817
G1 X141.638 Y114.817 E10.11421
G1 X141.22 Y115.618 E10.15027
G1 X140.733 Y116.378 E10.18629
G1 X140.18 Y117.092 E10.22234
G1 X139.566 Y117.755 E10.2584
G1 X138.896 Y118.36 E10.29443
G1 X138.491 Y118.678 E10.31499
G1 X137.548 Y119.331 E10.36077
G1 X136.705 Y119.796 E10.39919
G1 X136.203 Y120.043 E10.42152
G1 X135.376 Y120.406 E10.45757
G1 X134.768 Y120.619 E10.48328
G1 X134.229 Y120.789 E10.50584
G1 X132.318 Y121.344 E10.58526
G1 X129.906 Y122.114 E10.68632
G1 X127.498 Y122.959 E10.78817
G1 X125.147 Y123.86 E10.88866
G1 X122.767 Y124.85 E10.99154
G1 X120.464 Y125.884 E11.0923
G1 X119.142 Y126.514 E11.15075
G1 X118.454 Y126.849 E11.18129
G1 X117.705 Y127.183 E11.21402
G1 X116.86 Y127.502 E11.25007
G1 X115.687 Y127.812 E11.29849
G1 X114.437 Y128.022 E11.34908
G1 X113.724 Y128.076 E11.37762
G1 X112.769 Y128.114 E11.41577
G1 X110.26 Y128.142 E11.51591
G1 X109.469 Y128.166 E11.5475
G1 X108.911 Y128.176 E11.56977
G1 X106.811 Y128.155 E11.65359
G1 X105.126 Y128.126 E11.72086
G1 X104.602 Y128.126 E11.74177
G1 X101.349 Y128.179 E11.87162
G1 X100.704 Y128.174 E11.89736
G1 X99.802 Y128.12 E11.93343
G1 X98.98 Y128 E11.96659
G1 X97.788 Y127.724 E12.01542
G1 X96.662 Y127.351 E12.06276
G1 X95.916 Y127.023 E12.09529
G1 X94.904 Y126.484 E12.14105
G1 X94.441 Y126.187 E12.163
G1 X92.405 Y124.767 E12.26208
G1 X90.279 Y123.364 E12.36374
G1 X88.099 Y122.013 E12.4661
G1 X85.886 Y120.728 E12.56824
G1 X84.279 Y119.843 E12.64146
G1 X83.805 Y119.566 E12.66337
G1 X82.641 Y118.794 E12.71912
G1 X81.934 Y118.209 E12.75575
G1 X81.018 Y117.326 E12.80653
G1 X80.336 Y116.507 E12.84906
G1 X79.579 Y115.428 E12.90167
G1 X79.298 Y114.944 E12.92401
G1 X78.731 Y113.819 E12.97429
G1 X78.536 Y113.339 E12.99497
G1 X78.251 Y112.555 E13.02826
G1 X77.875 Y111.306 E13.08032
G1 X77.65 Y110.311 E13.12104
G1 X77.511 Y109.474 E13.1549
G1 X77.443 Y108.903 E13.17785
G1 X77.383 Y108.273 E13.20311
G1 X77.342 Y107.715 E13.22544
G1 X77.309 Y106.481 E13.27471
G1 X77.313 Y105.948 E13.29599
G1 X77.335 Y105.316 E13.32123
G1 X77.403 Y104.344 E13.36011
G1 X77.467 Y103.738 E13.38444
G1 X77.538 Y103.234 E13.40475
G1 X77.661 Y102.5 E13.43445
G1 X77.82 Y101.736 E13.4656
G1 X77.992 Y101.071 E13.49302
G1 X78.463 Y99.697 E13.55099
G1 X78.675 Y99.196 E13.5727
G1 X78.895 Y98.705 E13.59417
G1 X79.306 Y97.901 E13.63021
G1 X79.806 Y97.108 E13.66763
G1 X80.615 Y96.018 E13.72181
G1 X81.222 Y95.356 E13.75765
G1 X82.094 Y94.54 E13.80532
G1 F1800 E10.80532
;MESH:Coronavirus-words_stop_coronavirus_green.stl
G0 F9000 X87.458 Y110.011
G0 X88.003 Y110.853
G0 X88.337 Y111.168
G0 X88.757 Y111.441
G0 X89.205 Y111.6
G0 X105.385 Y112.415
G0 X105.387 Y114.249
G0 X108.094 Y116.541
G0 X107.84 Y117.24
G0 X108.117 Y117.395
G0 X109.139 Y117.587
;TYPE:WALL-OUTER
G1 F1800 E13.80532
G1 F3000 X109.556 Y117.378 E13.82394
G1 X109.874 Y117.048 E13.84223
G1 X110.088 Y116.616 E13.86147
G1 X110.207 Y116.083 E13.88327
G1 X110.243 Y115.517 E13.9059
G1 X110.206 Y114.908 E13.93025
G1 X110.088 Y114.385 E13.95165
G1 X109.867 Y113.943 E13.97138
G1 X109.552 Y113.616 E13.9895
G1 X109.123 Y113.406 E14.00856
G1 X108.625 Y113.341 E14.02861
G1 X108.11 Y113.412 E14.04936
G1 X107.7 Y113.617 E14.06765
G1 X107.382 Y113.951 E14.08606
G1 X107.166 Y114.385 E14.10541
G1 X107.044 Y114.906 E14.12676
G1 X107.003 Y115.502 E14.15061
G1 X107.044 Y116.098 E14.17445
G1 X107.17 Y116.628 E14.19619
G1 X107.384 Y117.05 E14.21508
G1 X107.706 Y117.38 E14.23348
G1 X108.137 Y117.589 E14.2526
G1 X108.647 Y117.652 E14.27311
G1 X109.139 Y117.587 E14.29292
G0 F9000 X108.93 Y117.78
G1 F3000 X108.34 Y117.782 E14.31646
G1 X107.812 Y117.64 E14.33829
G1 X107.401 Y117.375 E14.3578
G1 X107.086 Y116.982 E14.37791
G1 X106.885 Y116.49 E14.39912
G1 X106.783 Y115.873 E14.42408
G1 X106.778 Y115.174 E14.45198
G1 X106.821 Y114.817 E14.46633
G1 X106.971 Y114.259 E14.48939
G1 X107.215 Y113.823 E14.50933
G1 X107.58 Y113.481 E14.5293
G1 X108.033 Y113.275 E14.54916
G1 X108.325 Y113.218 E14.56103
G1 X108.906 Y113.217 E14.58422
G1 X109.433 Y113.36 E14.60602
G1 X109.824 Y113.622 E14.6248
G1 X110.147 Y114.024 E14.64538
G1 X110.351 Y114.513 E14.66653
G1 X110.467 Y115.139 E14.69194
G1 X110.472 Y115.828 E14.71944
G1 X110.358 Y116.468 E14.74539
G1 X110.151 Y116.966 E14.76691
G1 X109.834 Y117.368 E14.78735
G1 X109.432 Y117.636 E14.80663
G1 X108.93 Y117.78 E14.82747
G0 F9000 X108.904 Y117.819
G1 F1800 E11.82747
G0 F9000 X109.959 Y117.502
G0 X112.094 Y117.593
G0 X112.145 Y117.598
G1 F1800 E14.82747
G1 F3000 X112.868 Y117.598 E14.85633
G1 X113.249 Y117.566 E14.87159
G1 X113.556 Y117.48 E14.88431
G1 X113.817 Y117.319 E14.89655
G1 X114.01 Y117.08 E14.90881
G1 X114.116 Y116.799 E14.9208
G1 X114.139 Y116.282 E14.94146
G1 X114.054 Y115.929 E14.95595
G1 X113.893 Y115.66 E14.96846
G1 X113.634 Y115.454 E14.98167
G1 X113.15 Y115.307 E15.00186
G1 X112.17 Y115.277 E15.04099
G1 X112.145 Y117.598 E15.13363
G0 F9000 X111.944 Y117.725
G1 F3000 X111.944 Y113.268 E15.31152
G1 X112.147 Y113.268 E15.31962
G1 X112.147 Y114.892 E15.38444
G1 X112.213 Y115.157 E15.39534
G1 X113.103 Y115.171 E15.43087
G1 X113.582 Y115.272 E15.4504
G1 X113.936 Y115.462 E15.46644
G1 X114.164 Y115.701 E15.47962
G1 X114.308 Y115.986 E15.49237
G1 X114.379 Y116.332 E15.50646
G1 X114.375 Y116.705 E15.52135
G1 X114.299 Y117.038 E15.53498
G1 X114.154 Y117.296 E15.5468
G1 X113.928 Y117.495 E15.55882
G1 X113.601 Y117.638 E15.57306
G1 X113.174 Y117.716 E15.59038
G1 X111.944 Y117.725 E15.63948
G1 F1800 E12.63948
G0 F9000 X111.079 Y117.551
G0 X108.628 Y114.214
G0 X108.622 Y113.523
G0 X108.159 Y113.567
G0 X107.519 Y113.954
G0 X105.888 Y117.726
G1 F1800 E15.63948
G1 F3000 X102.973 Y117.726 E15.75582
G1 X102.973 Y117.578 E15.76173
G1 X104.329 Y117.578 E15.81585
G1 X104.329 Y113.268 E15.98787
G1 X104.532 Y113.268 E15.99597
G1 X104.532 Y117.578 E16.16799
G1 X105.888 Y117.578 E16.22212
G1 X105.888 Y117.726 E16.22802
G1 F1800 E13.22802
G0 F9000 X107.519 Y113.954
G0 X107.357 Y113.876
G0 X107.297 Y113.838
G0 X107.034 Y114.336
G0 X106.906 Y114.884
G0 X106.864 Y115.502
G0 X106.889 Y115.688
G0 X106.902 Y115.862
G0 X105.932 Y116.024
G0 X105.385 Y112.415
G0 X103.476 Y112.415
G0 X102.624 Y116.76
G0 X102.3 Y117.719
G0 X102.052 Y117.607
G1 F1800 E16.22802
G1 F3000 X101.728 Y117.719 E16.2417
G1 X101.308 Y117.786 E16.25868
G1 X100.88 Y117.785 E16.27576
G1 X100.549 Y117.718 E16.28924
G1 X100.283 Y117.592 E16.30099
G1 X100.081 Y117.422 E16.31153
G1 X99.934 Y117.19 E16.32249
G1 X99.861 Y116.91 E16.33404
G1 X99.857 Y116.607 E16.34613
G1 X99.909 Y116.312 E16.35809
G1 X100.006 Y116.096 E16.36754
G1 X100.271 Y115.805 E16.38325
G1 X100.67 Y115.563 E16.40187
G1 X101.212 Y115.326 E16.42548
G1 X101.623 Y115.089 E16.44442
G1 X101.889 Y114.802 E16.46004
G1 X101.989 Y114.432 E16.47533
G1 X101.961 Y114.025 E16.49162
G1 X101.846 Y113.763 E16.50304
G1 X101.665 Y113.562 E16.51383
G1 X101.429 Y113.426 E16.5247
G1 X101.124 Y113.346 E16.53729
G1 X100.552 Y113.336 E16.56012
G1 X99.974 Y113.452 E16.58365
G1 X99.789 Y113.525 E16.59159
G1 X99.789 Y113.363 E16.59805
G1 X99.818 Y113.344 E16.59944
G1 X100.35 Y113.226 E16.62119
G1 X100.996 Y113.21 E16.64698
G1 X101.406 Y113.284 E16.66361
G1 X101.715 Y113.424 E16.67715
G1 X101.94 Y113.616 E16.68895
G1 X102.1 Y113.87 E16.70093
G1 X102.186 Y114.18 E16.71377
G1 X102.169 Y114.666 E16.73318
G1 X102.084 Y114.901 E16.74316
G1 X101.954 Y115.086 E16.75218
G1 X101.613 Y115.347 E16.76932
G1 X101.133 Y115.576 E16.79055
G1 X100.662 Y115.794 E16.81126
G1 X100.309 Y116.042 E16.82848
G1 X100.109 Y116.363 E16.84357
G1 X100.053 Y116.759 E16.85954
G1 X100.083 Y117.004 E16.86939
G1 X100.185 Y117.236 E16.8795
G1 X100.339 Y117.414 E16.8889
G1 X100.57 Y117.557 E16.89974
G1 X101.082 Y117.648 E16.9205
G1 X101.671 Y117.574 E16.94419
G1 X101.991 Y117.459 E16.95776
G1 X102.052 Y117.607 E16.96415
G0 F9000 X101.798 Y117.483
G1 F1800 E13.96415
G0 F9000 X102.095 Y117.225
G0 X101.866 Y116.586
G0 X102.859 Y115.302
G0 X103.028 Y114.829
G0 X103.048 Y114.222
G0 X102.644 Y111.655
G0 X102.753 Y110.677
G0 X103.122 Y110.369
G0 X103.053 Y110.182
G1 F1800 E16.96415
G1 F3000 X103.324 Y110.079 E16.97572
G1 X103.559 Y109.912 E16.98723
G1 X103.901 Y109.467 E17.00963
G1 X104.162 Y108.813 E17.03773
G1 X104.319 Y108.003 E17.07066
G1 X104.393 Y107.067 E17.10814
G1 X104.403 Y106.531 E17.12953
G1 X104.396 Y105.995 E17.15093
G1 X104.366 Y105.468 E17.172
G1 X104.252 Y104.575 E17.20793
G1 X104.049 Y103.846 E17.23813
G1 X103.743 Y103.287 E17.26356
G1 X103.537 Y103.063 E17.27571
G1 X103.295 Y102.9 E17.28736
G1 X103.031 Y102.808 E17.29851
G1 X102.756 Y102.777 E17.30956
G1 X102.469 Y102.809 E17.32109
G1 X102.196 Y102.912 E17.33273
G1 X101.957 Y103.079 E17.34437
G1 X101.615 Y103.528 E17.36689
G1 X101.358 Y104.171 E17.39453
G1 X101.193 Y105.004 E17.42843
G1 X101.112 Y105.966 E17.46696
G1 X101.104 Y106.478 E17.48739
G1 X101.112 Y107.042 E17.50991
G1 X101.19 Y107.98 E17.54747
G1 X101.352 Y108.813 E17.58134
G1 X101.603 Y109.441 E17.60834
G1 X101.971 Y109.922 E17.63251
G1 X102.213 Y110.087 E17.6442
G1 X102.491 Y110.184 E17.65595
G1 X102.778 Y110.213 E17.66746
G1 X103.053 Y110.182 E17.67851
G0 F9000 X103.05 Y110.767
G1 F3000 X102.752 Y110.797 E17.69046
