;FLAVOR:Marlin
;TIME:1928
;Filament used: 1.35975m
;Layer height: 0.2
;MINX:45.309
;MINY:57.392
;MINZ:0.24
;MAXX:174.697
;MAXY:162.611
;MAXZ:0.96
;Generated with Cura_SteamEngine 4.5.0
M140 S50
M105
M190 S50
M104 S215
M105
M109 S215
M82 ;absolute extrusion mode
M201 X500.00 Y500.00 Z100.00 E5000.00 ;Setup machine max acceleration
M203 X500.00 Y500.00 Z10.00 E50.00 ;Setup machine max feedrate
M204 P500.00 R1000.00 T500.00 ;Setup Print/Retract/Travel acceleration
M205 X8.00 Y8.00 Z0.40 E5.00 ;Setup Jerk
M220 S100 ;Reset Feedrate
M221 S100 ;Reset Flowrate

G28 ;Home

G92 E0 ;Reset Extruder
G1 Z2.0 F3000 ;Move Z Axis up
G1 X10.1 Y20 Z0.28 F5000.0 ;Move to start position
G1 X10.1 Y200.0 Z0.28 F1500.0 E15 ;Draw the first line
G1 X10.4 Y200.0 Z0.28 F5000.0 ;Move to side a little
G1 X10.4 Y20 Z0.28 F1500.0 E30 ;Draw the second line
G92 E0 ;Reset Extruder
G1 Z2.0 F3000 ;Move Z Axis up

G92 E0
G92 E0
G1 F1800 E-3
;LAYER_COUNT:5
;LAYER:0
M107
G0 F9000 X57.251 Y65.386 Z0.24
;TYPE:SKIRT
G1 F1800 E0
G1 F3000 X57.997 Y64.793 E0.03804
G1 X58.481 Y64.437 E0.06202
G1 X59.112 Y64.004 E0.09256
G1 X59.727 Y63.619 E0.12152
G1 X60.525 Y63.164 E0.15818
G1 X61.191 Y62.821 E0.18808
G1 X62.123 Y62.39 E0.22906
G1 X62.668 Y62.165 E0.2526
G1 X63.165 Y61.974 E0.27385
G1 X64.133 Y61.651 E0.31458
G1 X64.867 Y61.443 E0.34503
G1 X65.383 Y61.313 E0.36626
G1 X66.034 Y61.166 E0.3929
G1 X66.859 Y61.008 E0.42643
G1 X68.483 Y60.755 E0.49203
G1 X69.091 Y60.668 E0.51654
G1 X71.579 Y60.244 E0.61727
G1 X74.065 Y59.748 E0.71845
G1 X76.537 Y59.18 E0.81968
G1 X79.009 Y58.541 E0.92159
G1 X80.755 Y58.044 E0.99405
G1 X81.49 Y57.858 E1.02431
G1 X82.032 Y57.744 E1.04641
G1 X82.567 Y57.646 E1.06812
G1 X83.419 Y57.526 E1.10246
G1 X83.987 Y57.469 E1.12524
G1 X84.488 Y57.431 E1.1453
G1 X85.074 Y57.404 E1.16871
G1 X85.955 Y57.392 E1.20388
G1 X87.173 Y57.439 E1.25253
G1 X87.776 Y57.488 E1.27667
G1 X88.485 Y57.579 E1.3052
G1 X89.698 Y57.799 E1.35441
G1 X90.236 Y57.931 E1.37652
G1 X91.536 Y58.326 E1.43074
G1 X92.03 Y58.508 E1.45176
G1 X92.73 Y58.794 E1.48194
G1 X93.356 Y59.088 E1.50954
G1 X93.914 Y59.376 E1.5346
G1 X94.744 Y59.827 E1.5723
G1 X95.584 Y60.298 E1.61074
G1 X97.822 Y61.473 E1.71163
G1 X100.095 Y62.586 E1.81264
G1 X102.411 Y63.64 E1.9142
G1 X104.716 Y64.611 E2.01402
G1 X107.119 Y65.547 E2.11695
G1 X109.445 Y66.374 E2.21548
G1 X111.884 Y67.165 E2.31782
G1 X114.287 Y67.871 E2.41778
G1 X116.759 Y68.522 E2.51981
G1 X119.195 Y69.09 E2.61964
G1 X121.689 Y69.599 E2.72124
G1 X124.187 Y70.033 E2.82243
G1 X126.687 Y70.396 E2.92326
G1 X129.185 Y70.687 E3.02363
G1 X131.672 Y70.905 E3.12327
G1 X135.413 Y71.109 E3.27281
G1 X136.572 Y71.214 E3.31925
G1 X137.385 Y71.327 E3.35201
G1 X138.335 Y71.508 E3.39061
G1 X139.043 Y71.681 E3.4197
G1 X140.684 Y72.135 E3.48766
G1 X143.282 Y72.821 E3.5949
G1 X145.716 Y73.392 E3.69469
G1 X148.216 Y73.902 E3.79652
G1 X150.708 Y74.338 E3.89749
G1 X152.91 Y74.665 E3.98635
G1 X153.48 Y74.765 E4.00944
G1 X154.286 Y74.93 E4.04228
G1 X154.998 Y75.102 E4.07151
G1 X155.671 Y75.289 E4.09939
G1 X156.393 Y75.518 E4.12962
G1 X157.01 Y75.738 E4.15577
G1 X158.111 Y76.182 E4.20315
G1 X158.644 Y76.428 E4.22658
G1 X159.136 Y76.668 E4.24843
G1 X159.82 Y77.037 E4.27945
G1 X160.469 Y77.422 E4.30957
G1 X161.124 Y77.847 E4.34073
G1 X161.733 Y78.275 E4.37044
G1 X162.189 Y78.618 E4.39321
G1 X162.895 Y79.198 E4.42968
G1 X163.396 Y79.647 E4.45653
G1 X163.866 Y80.096 E4.48247
G1 X164.413 Y80.659 E4.5138
G1 X164.82 Y81.11 E4.53805
G1 X165.25 Y81.618 E4.56461
G1 X165.675 Y82.166 E4.59229
G1 X166.186 Y82.89 E4.62766
G1 X166.794 Y83.872 E4.67376
G1 X167.088 Y84.402 E4.69795
G1 X167.41 Y85.025 E4.72594
G1 X167.665 Y85.576 E4.75017
G1 X167.904 Y86.147 E4.77488
G1 X168.219 Y87.002 E4.81124
G1 X168.425 Y87.646 E4.83823
G1 X168.586 Y88.21 E4.86164
G1 X168.755 Y88.886 E4.88945
G1 X168.88 Y89.448 E4.91243
G1 X169.013 Y90.157 E4.94122
G1 X169.142 Y91.006 E4.9755
G1 X169.224 Y91.695 E5.00319
G1 X169.328 Y92.912 E5.05194
G1 X169.399 Y94.202 E5.1035
G1 X169.458 Y95.794 E5.16709
G1 X169.537 Y98.34 E5.26875
G1 X169.69 Y101.538 E5.39654
G1 X169.795 Y103.201 E5.46304
G1 X169.891 Y104.946 E5.5328
G1 X169.926 Y105.754 E5.56508
G1 X169.934 Y106.356 E5.5891
G1 X169.924 Y107.03 E5.61601
G1 X169.92 Y109.6 E5.71858
G1 X169.989 Y112.142 E5.82008
G1 X170.129 Y114.682 E5.92161
G1 X170.338 Y117.175 E6.02146
G1 X170.625 Y119.727 E6.12396
G1 X170.974 Y122.204 E6.22379
G1 X171.401 Y124.716 E6.32549
G1 X171.892 Y127.185 E6.42597
G1 X172.446 Y129.601 E6.5249
G1 X173.087 Y132.081 E6.62713
G1 X173.302 Y132.813 E6.65758
G1 X174.035 Y135.449 E6.76678
G1 X174.205 Y136.137 E6.79507
G1 X174.306 Y136.628 E6.81507
G1 X174.398 Y137.154 E6.83639
G1 X174.505 Y137.872 E6.86536
G1 X174.607 Y138.796 E6.90246
G1 X174.668 Y139.621 E6.93548
G1 X174.695 Y140.194 E6.95837
G1 X174.697 Y141.229 E6.99968
G1 X174.639 Y142.226 E7.03954
G1 X174.563 Y142.944 E7.06836
G1 X174.409 Y143.907 E7.10728
G1 X174.269 Y144.552 E7.13363
G1 X173.95 Y145.689 E7.18076
G1 X173.711 Y146.329 E7.20803
G1 X173.424 Y147.01 E7.23752
G1 X173.021 Y147.838 E7.27428
G1 X172.354 Y148.91 E7.32467
G1 X171.924 Y149.5 E7.35381
G1 X171.078 Y150.529 E7.40697
G1 X170.425 Y151.178 E7.44372
G1 X169.719 Y151.768 E7.48044
G1 X169.307 Y152.067 E7.50076
G1 X168.16 Y152.81 E7.5553
G1 X167.229 Y153.281 E7.59695
G1 X166.457 Y153.625 E7.63068
G1 X164.124 Y154.696 E7.73314
G1 X161.816 Y155.837 E7.8359
G1 X159.62 Y156.999 E7.93506
G1 X157.406 Y158.256 E8.03667
G1 X155.2 Y159.588 E8.13952
G1 X153.306 Y160.789 E8.22903
G1 X152.508 Y161.248 E8.26578
G1 X151.673 Y161.636 E8.30253
G1 X150.627 Y162.004 E8.34678
G1 X149.56 Y162.286 E8.39083
G1 X148.198 Y162.533 E8.44608
G1 X147.036 Y162.611 E8.49256
G1 X145.391 Y162.55 E8.55826
G1 X144.06 Y162.364 E8.6119
G1 X141.314 Y161.859 E8.72334
G1 X138.831 Y161.476 E8.82361
G1 X136.317 Y161.162 E8.92473
G1 X133.808 Y160.92 E9.02533
G1 X131.243 Y160.745 E9.12795
G1 X129.887 Y160.69 E9.18211
G1 X129.301 Y160.66 E9.20553
G1 X128.385 Y160.57 E9.24227
G1 X127.424 Y160.389 E9.2813
G1 X126.775 Y160.235 E9.30792
G1 X125.889 Y159.983 E9.34468
G1 X125.226 Y159.739 E9.37288
G1 X124.34 Y159.362 E9.41131
G1 X121.502 Y157.982 E9.53726
G1 X119.22 Y156.948 E9.63726
G1 X116.86 Y155.956 E9.73943
G1 X114.525 Y155.051 E9.83938
G1 X109.271 Y153.21 E10.06158
G1 X106.898 Y152.458 E10.16093
G1 X104.437 Y151.754 E10.2631
G1 X101.969 Y151.122 E10.36478
G1 X99.528 Y150.573 E10.46464
G1 X97.043 Y150.085 E10.56571
G1 X94.553 Y149.67 E10.66647
G1 X92.043 Y149.323 E10.7676
G1 X89.535 Y149.049 E10.86829
G1 X87.015 Y148.845 E10.9692
G1 X84.509 Y148.714 E11.06936
G1 X81.963 Y148.653 E11.171
G1 X79.417 Y148.663 E11.27262
G1 X76.94 Y148.744 E11.37154
G1 X75.717 Y148.823 E11.42045
G1 X74.362 Y148.896 E11.47461
G1 X73.466 Y148.921 E11.51039
G1 X72.545 Y148.902 E11.54715
G1 X71.637 Y148.804 E11.5836
G1 X70.361 Y148.576 E11.63534
G1 X69.081 Y148.232 E11.68824
G1 X68.22 Y147.906 E11.72498
G1 X67.391 Y147.507 E11.7617
G1 X66.865 Y147.205 E11.78591
G1 X66.335 Y146.879 E11.81075
G1 X64.004 Y145.409 E11.92074
G1 X61.832 Y144.124 E12.02146
G1 X59.62 Y142.899 E12.12238
G1 X57.361 Y141.73 E12.2239
G1 X55.14 Y140.659 E12.32231
G1 X54.022 Y140.166 E12.37108
G1 X52.603 Y139.517 E12.43336
G1 X51.783 Y139.097 E12.47013
G1 X51.003 Y138.608 E12.50687
G1 X50.377 Y138.142 E12.53802
G1 X49.365 Y137.277 E12.59115
G1 X48.556 Y136.41 E12.63848
G1 X47.732 Y135.359 E12.69179
G1 X47.191 Y134.498 E12.73237
G1 X46.549 Y133.274 E12.78754
G1 X46.216 Y132.448 E12.82308
G1 X46.021 Y131.879 E12.84709
G1 X45.67 Y130.565 E12.90137
G1 X45.57 Y130.067 E12.92164
G1 X45.415 Y129.031 E12.96345
G1 X45.346 Y128.211 E12.9963
G1 X45.309 Y127.131 E13.03943
G1 X45.314 Y126.536 E13.06318
G1 X45.346 Y125.806 E13.09234
G1 X45.409 Y124.993 E13.12489
G1 X45.484 Y124.306 E13.15247
G1 X45.582 Y123.623 E13.18001
G1 X45.687 Y122.99 E13.20562
G1 X45.822 Y122.333 E13.23239
G1 X46 Y121.609 E13.26214
G1 X46.14 Y121.103 E13.2831
G1 X46.34 Y120.429 E13.31116
G1 X47.047 Y117.93 E13.41481
G1 X47.67 Y115.463 E13.51637
G1 X48.217 Y113.01 E13.61668
G1 X48.698 Y110.518 E13.71798
G1 X49.107 Y108.022 E13.81892
G1 X49.441 Y105.557 E13.91821
G1 X49.713 Y102.999 E14.02088
G1 X49.909 Y100.488 E14.1214
G1 X50.033 Y97.979 E14.22166
G1 X50.087 Y95.444 E14.32286
G1 X50.065 Y92.909 E14.42405
G1 X50.119 Y91.115 E14.49568
G1 X50.241 Y88.912 E14.58374
G1 X50.31 Y87.832 E14.62693
G1 X50.463 Y84.642 E14.7544
G1 X50.567 Y81.272 E14.88897
G1 X50.65 Y79.492 E14.96009
G1 X50.697 Y78.81 E14.98737
G1 X50.856 Y77.34 E15.04639
G1 X50.932 Y76.785 E15.06875
G1 X51.049 Y76.128 E15.09538
G1 X51.214 Y75.347 E15.12724
G1 X51.374 Y74.671 E15.15497
G1 X51.554 Y74.028 E15.18162
G1 X51.74 Y73.436 E15.20638
G1 X51.978 Y72.759 E15.23502
G1 X52.208 Y72.183 E15.25978
G1 X52.547 Y71.428 E15.29281
G1 X52.857 Y70.805 E15.32058
G1 X53.291 Y70.027 E15.35614
G1 X53.629 Y69.482 E15.38174
G1 X54.142 Y68.725 E15.41823
G1 X54.513 Y68.228 E15.44299
G1 X55.024 Y67.596 E15.47543
G1 X55.441 Y67.124 E15.50056
G1 X56.178 Y66.36 E15.54293
G1 X56.638 Y65.924 E15.56823
G1 X57.251 Y65.386 E15.60078
G0 F9000 X57.503 Y65.696
G1 F3000 X58.236 Y65.114 E15.63814
G1 X58.712 Y64.764 E15.66172
G1 X59.329 Y64.34 E15.6916
G1 X59.93 Y63.964 E15.71989
G1 X60.711 Y63.518 E15.75579
G1 X61.366 Y63.181 E15.78519
G1 X62.276 Y62.76 E15.82521
G1 X62.821 Y62.535 E15.84874
G1 X63.299 Y62.351 E15.86918
G1 X64.244 Y62.035 E15.90895
G1 X64.967 Y61.83 E15.93895
G1 X65.473 Y61.703 E15.95977
G1 X66.115 Y61.558 E15.98604
G1 X66.921 Y61.404 E16.01879
G1 X68.545 Y61.151 E16.08439
G1 X69.143 Y61.065 E16.1085
G1 X71.653 Y60.637 E16.21013
G1 X74.168 Y60.135 E16.31248
G1 X76.612 Y59.573 E16.41258
G1 X79.092 Y58.932 E16.51481
G1 X80.864 Y58.428 E16.58834
G1 X81.583 Y58.248 E16.61792
G1 X82.104 Y58.138 E16.63918
G1 X82.639 Y58.04 E16.66088
G1 X83.459 Y57.924 E16.69394
G1 X84.027 Y57.867 E16.71672
G1 X84.813 Y57.814 E16.74816
G1 X85.471 Y57.793 E16.77444
G1 X86.332 Y57.8 E16.8088
G1 X87.151 Y57.838 E16.84153
G1 X87.732 Y57.886 E16.8648
G1 X88.422 Y57.974 E16.89256
G1 X89.606 Y58.189 E16.94059
G1 X90.132 Y58.317 E16.96219
G1 X91.398 Y58.701 E17.015
G1 X91.892 Y58.883 E17.03601
G1 X92.565 Y59.159 E17.06504
G1 X93.175 Y59.445 E17.09193
G1 X93.723 Y59.728 E17.11655
G1 X94.553 Y60.179 E17.15425
G1 X95.409 Y60.659 E17.19342
G1 X97.638 Y61.829 E17.29389
G1 X99.903 Y62.938 E17.39455
G1 X102.238 Y64.001 E17.49695
G1 X104.582 Y64.989 E17.59847
G1 X106.977 Y65.921 E17.70104
G1 X109.325 Y66.756 E17.80051
G1 X111.763 Y67.547 E17.90281
G1 X114.177 Y68.256 E18.00322
G1 X116.638 Y68.904 E18.10479
G1 X119.129 Y69.485 E18.20688
G1 X121.612 Y69.992 E18.30803
G1 X124.132 Y70.429 E18.41011
G1 X126.615 Y70.79 E18.51025
G1 X129.14 Y71.084 E18.61171
G1 X131.644 Y71.304 E18.71204
G1 X135.392 Y71.508 E18.86185
G1 X136.532 Y71.612 E18.90754
G1 X137.315 Y71.721 E18.93909
G1 X138.247 Y71.898 E18.97696
G1 X138.937 Y72.066 E19.0053
G1 X140.674 Y72.547 E19.07724
G1 X143.159 Y73.203 E19.17981
G1 X145.642 Y73.785 E19.2816
G1 X148.138 Y74.294 E19.38327
G1 X150.621 Y74.729 E19.48388
G1 X152.851 Y75.06 E19.57386
G1 X153.4 Y75.157 E19.59612
G1 X154.206 Y75.322 E19.62895
G1 X154.891 Y75.487 E19.65707
G1 X155.564 Y75.674 E19.68495
G1 X156.259 Y75.894 E19.71405
G1 X156.876 Y76.114 E19.74019
G1 X157.943 Y76.545 E19.78612
G1 X158.476 Y76.791 E19.80955
G1 X158.958 Y77.026 E19.83095
G1 X159.625 Y77.386 E19.8612
G1 X160.262 Y77.764 E19.89077
G1 X160.902 Y78.179 E19.92121
G1 X161.5 Y78.601 E19.95042
G1 X161.946 Y78.935 E19.97266
G1 X162.637 Y79.504 E20.00839
G1 X163.12 Y79.937 E20.03428
G1 X163.59 Y80.386 E20.06022
G1 X164.116 Y80.927 E20.09034
G1 X164.523 Y81.378 E20.11458
G1 X164.937 Y81.867 E20.14016
G1 X165.352 Y82.402 E20.16718
G1 X165.851 Y83.108 E20.20169
G1 X166.445 Y84.066 E20.24668
G1 X166.739 Y84.596 E20.27087
G1 X167.052 Y85.203 E20.29812
G1 X167.297 Y85.733 E20.32143
G1 X167.531 Y86.293 E20.34565
G1 X167.839 Y87.126 E20.3811
G1 X168.041 Y87.759 E20.40762
G1 X168.199 Y88.311 E20.43053
G1 X168.365 Y88.972 E20.45774
G1 X168.49 Y89.534 E20.48071
G1 X168.617 Y90.217 E20.50844
G1 X168.746 Y91.066 E20.54272
G1 X168.825 Y91.73 E20.5694
G1 X168.929 Y92.947 E20.61816
G1 X169 Y94.222 E20.66912
G1 X169.058 Y95.808 E20.73246
G1 X169.139 Y98.401 E20.83601
G1 X169.286 Y101.492 E20.95952
G1 X169.396 Y103.227 E21.0289
G1 X169.492 Y104.968 E21.09849
G1 X169.526 Y105.77 E21.13053
G1 X169.534 Y106.35 E21.15368
G1 X169.524 Y107.024 E21.18059
G1 X169.52 Y109.634 E21.28476
G1 X169.589 Y112.174 E21.38617
G1 X169.729 Y114.702 E21.48723
G1 X169.94 Y117.22 E21.58808
G1 X170.225 Y119.756 E21.68993
G1 X170.578 Y122.256 E21.7907
G1 X171.008 Y124.789 E21.89325
G1 X171.499 Y127.255 E21.9936
G1 X172.069 Y129.744 E22.09551
G1 X172.698 Y132.176 E22.19577
G1 X172.918 Y132.926 E22.22697
G1 X173.65 Y135.556 E22.33593
G1 X173.815 Y136.227 E22.36351
G1 X173.956 Y136.941 E22.39255
G1 X174.07 Y137.657 E22.42149
G1 X174.155 Y138.293 E22.4471
G1 X174.208 Y138.826 E22.46848
G1 X174.269 Y139.651 E22.5015
G1 X174.295 Y140.202 E22.52351
G1 X174.297 Y141.213 E22.56386
G1 X174.241 Y142.186 E22.60276
G1 X174.166 Y142.892 E22.6311
G1 X174.018 Y143.827 E22.66888
G1 X173.881 Y144.457 E22.69461
G1 X173.418 Y145.981 E22.75819
G1 X173.187 Y146.552 E22.78277
G1 X172.661 Y147.662 E22.8318
G1 X172.027 Y148.679 E22.87963
G1 X171.608 Y149.255 E22.90806
G1 X170.773 Y150.271 E22.96054
G1 X170.13 Y150.906 E22.99661
G1 X169.08 Y151.738 E23.05008
G1 X167.947 Y152.471 E23.10394
G1 X167.066 Y152.915 E23.14332
G1 X166.372 Y153.224 E23.17364
G1 X163.93 Y154.345 E23.28088
G1 X161.659 Y155.468 E23.382
G1 X159.416 Y156.656 E23.4833
G1 X157.18 Y157.924 E23.5859
G1 X155.044 Y159.214 E23.68549
G1 X153.092 Y160.452 E23.77775
G1 X152.308 Y160.901 E23.81381
G1 X151.488 Y161.279 E23.84984
G1 X150.514 Y161.621 E23.89105
G1 X149.477 Y161.894 E23.93384
G1 X148.133 Y162.138 E23.98836
G1 X147.032 Y162.211 E24.0324
G1 X145.435 Y162.152 E24.09619
G1 X144.137 Y161.971 E24.14849
G1 X141.381 Y161.465 E24.26033
G1 X138.865 Y161.077 E24.36194
G1 X136.373 Y160.766 E24.46217
G1 X133.802 Y160.517 E24.56526
G1 X131.323 Y160.349 E24.66443
G1 X129.903 Y160.291 E24.72116
G1 X129.323 Y160.26 E24.74434
G1 X128.424 Y160.172 E24.78039
G1 X127.516 Y159.999 E24.81728
G1 X126.867 Y159.845 E24.8439
G1 X125.998 Y159.598 E24.87996
G1 X125.377 Y159.368 E24.90639
G1 X124.51 Y159 E24.94398
G1 X121.693 Y157.63 E25.06901
G1 X119.361 Y156.573 E25.1712
G1 X117.042 Y155.599 E25.27159
G1 X114.658 Y154.674 E25.37365
G1 X109.419 Y152.838 E25.59522
G1 X106.991 Y152.068 E25.69688
G1 X104.541 Y151.368 E25.79858
G1 X102.09 Y150.739 E25.89957
G1 X99.579 Y150.175 E26.00229
G1 X97.149 Y149.698 E26.10113
G1 X94.602 Y149.273 E26.20419
G1 X92.108 Y148.928 E26.30468
G1 X89.572 Y148.651 E26.4065
G1 X87.035 Y148.446 E26.50808
G1 X84.504 Y148.313 E26.60924
G1 X81.971 Y148.253 E26.71037
G1 X79.438 Y148.263 E26.81146
G1 X76.901 Y148.346 E26.91278
G1 X75.691 Y148.424 E26.96117
G1 X74.34 Y148.497 E27.01517
G1 X73.457 Y148.521 E27.05043
G1 X72.554 Y148.502 E27.08647
G1 X71.697 Y148.409 E27.12088
G1 X70.453 Y148.186 E27.17132
G1 X69.19 Y147.847 E27.22351
G1 X68.346 Y147.525 E27.25957
G1 X67.534 Y147.13 E27.29561
G1 X67.074 Y146.864 E27.31682
G1 X66.548 Y146.541 E27.34145
G1 X64.215 Y145.07 E27.45153
G1 X62.008 Y143.764 E27.55389
G1 X59.833 Y142.559 E27.65313
G1 X57.525 Y141.365 E27.75684
G1 X55.307 Y140.295 E27.85513
G1 X54.183 Y139.8 E27.90415
G1 X52.769 Y139.153 E27.96621
G1 X51.966 Y138.741 E28.00223
G1 X51.202 Y138.259 E28.03829
G1 X50.628 Y137.83 E28.06689
G1 X49.629 Y136.976 E28.11934
G1 X48.863 Y136.154 E28.16419
G1 X48.05 Y135.117 E28.21678
G1 X47.54 Y134.302 E28.25515
G1 X46.906 Y133.094 E28.3096
G1 X46.593 Y132.315 E28.34311
G1 X46.402 Y131.759 E28.36657
G1 X46.063 Y130.486 E28.41915
G1 X45.963 Y129.988 E28.43943
G1 X45.813 Y128.992 E28.47963
G1 X45.745 Y128.191 E28.51171
G1 X45.709 Y127.134 E28.55392
G1 X45.714 Y126.539 E28.57767
G1 X45.744 Y125.837 E28.60572
G1 X45.807 Y125.024 E28.63826
G1 X45.88 Y124.363 E28.6648
G1 X45.978 Y123.68 E28.69234
G1 X46.082 Y123.058 E28.71751
G1 X46.211 Y122.426 E28.74326
G1 X46.386 Y121.714 E28.77252
G1 X46.524 Y121.217 E28.79311
