;FLAVOR:Marlin
;TIME:1840
;Filament used: 1.49685m
;Layer height: 0.2
;MINX:39.4
;MINY:28.15
;MINZ:0.28
;MAXX:180.6
;MAXY:191.85
;MAXZ:1
;Generated with Cura_SteamEngine 4.5.0
M140 S110
M105
M190 S110
M104 S230
M105
M109 S230
M82 ;absolute extrusion mode
M201 X500.00 Y500.00 Z100.00 E5000.00 ;Setup machine max acceleration
M203 X500.00 Y500.00 Z10.00 E50.00 ;Setup machine max feedrate
M204 P500.00 R1000.00 T500.00 ;Setup Print/Retract/Travel acceleration
M205 X8.00 Y8.00 Z0.40 E5.00 ;Setup Jerk
M220 S100 ;Reset Feedrate
M221 S100 ;Reset Flowrate

G28 ;Home

G92 E0 ;Reset Extruder
G1 Z2.0 F3000 ;Move Z Axis up
G1 X10.1 Y20 Z0.28 F5000.0 ;Move to start position
G1 X10.1 Y200.0 Z0.28 F1500.0 E15 ;Draw the first line
G1 X10.4 Y200.0 Z0.28 F5000.0 ;Move to side a little
G1 X10.4 Y20 Z0.28 F1500.0 E30 ;Draw the second line
G92 E0 ;Reset Extruder
G1 Z2.0 F3000 ;Move Z Axis up

G92 E0
G92 E0
G1 F1800 E-3
;LAYER_COUNT:5
;LAYER:0
M107
G0 F9000 X44.782 Y35.833 Z0.28
;TYPE:SKIRT
G1 F1800 E0
G1 F3000 X45.673 Y34.803 E0.06342
G1 X46.056 Y34.39 E0.08964
G1 X46.629 Y33.824 E0.12715
G1 X47.177 Y33.32 E0.16182
G1 X47.636 Y32.922 E0.1901
G1 X48.165 Y32.495 E0.22176
G1 X48.571 Y32.183 E0.2456
G1 X49.04 Y31.843 E0.27258
G1 X49.643 Y31.434 E0.3065
G1 X50.475 Y30.917 E0.35212
G1 X51.155 Y30.536 E0.38841
G1 X52.015 Y30.101 E0.43329
G1 X52.549 Y29.857 E0.46062
G1 X53.092 Y29.622 E0.48818
G1 X53.7 Y29.387 E0.51853
G1 X54.203 Y29.21 E0.54336
G1 X54.722 Y29.04 E0.56879
G1 X55.293 Y28.877 E0.59644
G1 X55.812 Y28.744 E0.62139
G1 X56.538 Y28.585 E0.65599
G1 X57.441 Y28.42 E0.69874
G1 X58.129 Y28.312 E0.73116
G1 X58.998 Y28.222 E0.77185
G1 X59.867 Y28.175 E0.81237
G1 X60.681 Y28.154 E0.85028
G1 X158.793 Y28.15 E5.41879
G1 X159.839 Y28.164 E5.4675
G1 X160.728 Y28.206 E5.50894
G1 X161.599 Y28.284 E5.54966
G1 X162.557 Y28.409 E5.59465
G1 X163.341 Y28.546 E5.63171
G1 X164.09 Y28.713 E5.66744
G1 X165.011 Y28.963 E5.71188
G1 X165.667 Y29.169 E5.7439
G1 X166.228 Y29.36 E5.77149
G1 X166.801 Y29.58 E5.80007
G1 X167.441 Y29.853 E5.83247
G1 X167.959 Y30.093 E5.85905
G1 X168.621 Y30.425 E5.89354
G1 X169.3 Y30.791 E5.92946
G1 X169.849 Y31.109 E5.959
G1 X170.479 Y31.513 E5.99385
G1 X171.002 Y31.872 E6.02339
G1 X171.482 Y32.222 E6.05105
G1 X172.011 Y32.635 E6.0823
G1 X172.806 Y33.303 E6.13065
G1 X173.328 Y33.784 E6.1637
G1 X173.954 Y34.399 E6.20456
G1 X174.428 Y34.906 E6.23688
G1 X174.885 Y35.428 E6.26919
G1 X175.333 Y35.97 E6.30193
G1 X175.961 Y36.793 E6.35014
G1 X176.588 Y37.69 E6.4011
G1 X176.87 Y38.115 E6.42485
G1 X177.382 Y38.973 E6.47137
G1 X177.758 Y39.67 E6.50825
G1 X178.265 Y40.681 E6.56091
G1 X178.488 Y41.159 E6.58547
G1 X178.693 Y41.631 E6.60943
G1 X178.905 Y42.158 E6.63589
G1 X179.12 Y42.736 E6.6646
G1 X179.295 Y43.237 E6.68931
G1 X179.603 Y44.256 E6.73888
G1 X179.918 Y45.461 E6.79688
G1 X180.067 Y46.133 E6.82893
G1 X180.203 Y46.857 E6.86323
G1 X180.325 Y47.62 E6.89921
G1 X180.464 Y48.752 E6.95232
G1 X180.523 Y49.442 E6.98456
G1 X180.567 Y50.285 E7.02387
G1 X180.599 Y51.869 E7.09764
G1 X180.6 Y167.977 E12.50412
G1 X180.58 Y169.353 E12.5682
G1 X180.547 Y170.173 E12.60641
G1 X180.438 Y171.495 E12.66818
G1 X180.364 Y172.113 E12.69716
G1 X180.236 Y172.967 E12.73737
G1 X180.122 Y173.597 E12.76718
G1 X179.952 Y174.398 E12.80531
G1 X179.784 Y175.1 E12.83892
G1 X179.581 Y175.828 E12.87411
G1 X179.393 Y176.444 E12.9041
G1 X179.209 Y176.993 E12.93106
G1 X178.91 Y177.81 E12.97157
G1 X178.631 Y178.497 E13.0061
G1 X178.328 Y179.174 E13.04064
G1 X177.929 Y180 E13.08335
G1 X177.419 Y180.959 E13.13393
G1 X177.069 Y181.569 E13.16668
G1 X176.649 Y182.224 E13.20291
G1 X176.189 Y182.888 E13.24052
G1 X175.49 Y183.834 E13.29529
G1 X175.169 Y184.241 E13.31943
G1 X174.519 Y184.997 E13.36585
G1 X174.056 Y185.493 E13.39745
G1 X173.487 Y186.065 E13.43502
G1 X172.795 Y186.706 E13.47894
G1 X172.364 Y187.078 E13.50545
G1 X171.839 Y187.502 E13.53687
G1 X171.436 Y187.812 E13.56055
G1 X170.98 Y188.144 E13.58681
G1 X170.193 Y188.661 E13.63066
G1 X169.297 Y189.199 E13.67932
G1 X168.629 Y189.575 E13.71502
G1 X167.985 Y189.902 E13.74865
G1 X167.367 Y190.183 E13.78026
G1 X166.311 Y190.608 E13.83326
G1 X165.804 Y190.787 E13.8583
G1 X165.275 Y190.961 E13.88423
G1 X164.707 Y191.123 E13.91173
G1 X164.188 Y191.256 E13.93668
G1 X163.462 Y191.415 E13.97129
G1 X162.559 Y191.58 E14.01403
G1 X161.904 Y191.683 E14.04491
G1 X160.985 Y191.778 E14.08793
G1 X160.281 Y191.816 E14.12076
G1 X159.734 Y191.833 E14.14624
G1 X88.136 Y191.85 E17.48014
G1 X61.207 Y191.85 E18.73407
G1 X60.085 Y191.835 E18.78632
G1 X59.169 Y191.791 E18.82902
G1 X58.525 Y191.732 E18.85913
G1 X57.803 Y191.644 E18.893
G1 X56.996 Y191.514 E18.93106
G1 X56.384 Y191.391 E18.96013
G1 X55.878 Y191.276 E18.98429
G1 X55.234 Y191.106 E19.01531
G1 X53.98 Y190.71 E19.07654
G1 X53.134 Y190.396 E19.11856
G1 X52.533 Y190.138 E19.14902
G1 X51.588 Y189.69 E19.19771
G1 X50.841 Y189.291 E19.23715
G1 X50.024 Y188.808 E19.28134
G1 X49.165 Y188.232 E19.3295
G1 X48.398 Y187.669 E19.3738
G1 X47.814 Y187.22 E19.40811
G1 X47.084 Y186.596 E19.45282
G1 X46.69 Y186.227 E19.47796
G1 X45.816 Y185.344 E19.53581
G1 X45.387 Y184.884 E19.5651
G1 X44.943 Y184.37 E19.59673
G1 X44.446 Y183.756 E19.63351
G1 X44.05 Y183.241 E19.66376
G1 X43.619 Y182.624 E19.69881
G1 X43.127 Y181.863 E19.741
G1 X42.485 Y180.787 E19.79935
G1 X42.065 Y180.01 E19.84047
G1 X41.807 Y179.482 E19.86784
G1 X41.57 Y178.962 E19.89445
G1 X41.334 Y178.416 E19.92214
G1 X41.121 Y177.87 E19.94943
G1 X40.704 Y176.709 E20.00688
G1 X40.469 Y175.971 E20.04294
G1 X40.218 Y175.07 E20.08649
G1 X40.056 Y174.435 E20.11701
G1 X39.922 Y173.812 E20.14668
G1 X39.751 Y172.883 E20.19067
G1 X39.651 Y172.221 E20.22184
G1 X39.563 Y171.484 E20.2564
G1 X39.492 Y170.702 E20.29297
G1 X39.432 Y169.627 E20.3431
G1 X39.401 Y168.126 E20.41301
G1 X39.4 Y52.023 E25.81925
G1 X39.418 Y50.798 E25.8763
G1 X39.469 Y49.631 E25.93069
G1 X39.545 Y48.651 E25.97646
G1 X39.617 Y48.022 E26.00594
G1 X39.729 Y47.248 E26.04236
G1 X39.863 Y46.477 E26.0788
G1 X40.125 Y45.276 E26.13603
G1 X40.266 Y44.724 E26.16256
G1 X40.512 Y43.858 E26.20448
G1 X40.754 Y43.112 E26.241
G1 X41.118 Y42.117 E26.29034
G1 X41.323 Y41.6 E26.31623
G1 X41.535 Y41.103 E26.34139
G1 X41.752 Y40.627 E26.36575
G1 X42.041 Y40.051 E26.39576
G1 X42.426 Y39.33 E26.43382
G1 X42.898 Y38.51 E26.47788
G1 X43.501 Y37.551 E26.53062
G1 X43.92 Y36.937 E26.56524
G1 X44.332 Y36.391 E26.59709
G1 X44.782 Y35.833 E26.63047
G0 F9000 X45.093 Y36.084
G1 F3000 X45.974 Y35.067 E26.69312
G1 X46.342 Y34.669 E26.71836
G1 X46.9 Y34.118 E26.75488
G1 X47.448 Y33.614 E26.78954
G1 X47.889 Y33.232 E26.81671
G1 X48.409 Y32.812 E26.84784
G1 X48.815 Y32.5 E26.87168
G1 X49.266 Y32.173 E26.89762
G1 X49.86 Y31.77 E26.93104
G1 X50.673 Y31.264 E26.97563
G1 X51.342 Y30.889 E27.01134
G1 X52.181 Y30.465 E27.05512
G1 X52.715 Y30.221 E27.08246
G1 X53.248 Y29.991 E27.10949
G1 X53.833 Y29.764 E27.13871
G1 X54.336 Y29.587 E27.16353
G1 X54.843 Y29.421 E27.18838
G1 X55.392 Y29.264 E27.21496
G1 X55.911 Y29.131 E27.23991
G1 X56.61 Y28.978 E27.27323
G1 X57.513 Y28.813 E27.31598
G1 X58.187 Y28.708 E27.34774
G1 X59.023 Y28.621 E27.38688
G1 X59.877 Y28.574 E27.4267
G1 X60.691 Y28.553 E27.46462
G1 X158.793 Y28.55 E32.03266
G1 X159.833 Y28.564 E32.08109
G1 X160.705 Y28.605 E32.12174
G1 X161.558 Y28.682 E32.16162
G1 X162.503 Y28.805 E32.20599
G1 X163.258 Y28.937 E32.24168
G1 X163.993 Y29.101 E32.27675
G1 X164.891 Y29.345 E32.32008
G1 X165.547 Y29.551 E32.3521
G1 X166.095 Y29.737 E32.37904
G1 X166.647 Y29.949 E32.40658
G1 X167.275 Y30.217 E32.43837
G1 X167.784 Y30.453 E32.4645
G1 X168.431 Y30.777 E32.49819
G1 X169.11 Y31.143 E32.53411
G1 X169.639 Y31.449 E32.56256
G1 X170.252 Y31.843 E32.59649
G1 X170.775 Y32.202 E32.62603
G1 X171.237 Y32.538 E32.65263
G1 X171.758 Y32.945 E32.68342
G1 X172.537 Y33.599 E32.73078
G1 X173.05 Y34.072 E32.76327
G1 X173.665 Y34.676 E32.80341
G1 X174.129 Y35.171 E32.835
G1 X174.578 Y35.685 E32.86678
G1 X175.02 Y36.219 E32.89906
G1 X175.633 Y37.022 E32.9461
G1 X176.26 Y37.919 E32.99706
G1 X176.685 Y38.571 E33.0333
G1 X177.03 Y39.163 E33.06521
G1 X177.406 Y39.86 E33.10208
G1 X177.907 Y40.858 E33.15408
G1 X178.121 Y41.319 E33.17775
G1 X178.326 Y41.791 E33.20171
G1 X178.53 Y42.298 E33.22716
G1 X178.745 Y42.876 E33.25587
G1 X178.917 Y43.366 E33.28005
G1 X179.219 Y44.368 E33.32878
G1 X179.53 Y45.56 E33.38615
G1 X179.674 Y46.207 E33.41701
G1 X179.81 Y46.931 E33.45131
G1 X179.929 Y47.68 E33.48663
G1 X180.067 Y48.799 E33.53913
G1 X180.123 Y49.463 E33.57016
G1 X180.167 Y50.306 E33.60946
G1 X180.199 Y51.875 E33.68254
G1 X180.2 Y167.977 E39.08873
G1 X180.18 Y169.346 E39.15249
G1 X180.147 Y170.155 E39.19019
G1 X180.04 Y171.459 E39.25111
G1 X179.968 Y172.054 E39.27902
G1 X179.84 Y172.908 E39.31923
G1 X179.731 Y173.514 E39.3479
G1 X179.561 Y174.315 E39.38603
G1 X179.395 Y175.003 E39.41898
G1 X179.199 Y175.711 E39.45319
G1 X179.011 Y176.327 E39.48318
G1 X178.834 Y176.856 E39.50916
G1 X178.535 Y177.673 E39.54967
G1 X178.266 Y178.334 E39.5829
G1 X177.963 Y179.011 E39.61743
G1 X177.57 Y179.823 E39.65944
G1 X177.067 Y180.769 E39.70933
G1 X176.724 Y181.366 E39.74139
G1 X176.321 Y181.997 E39.77625
G1 X175.861 Y182.661 E39.81387
G1 X175.17 Y183.594 E39.86793
G1 X174.624 Y184.272 E39.90846
G1 X174.226 Y184.724 E39.93651
G1 X173.763 Y185.22 E39.9681
G1 X173.207 Y185.779 E40.00481
G1 X172.525 Y186.41 E40.04808
G1 X172.111 Y186.768 E40.07356
G1 X171.595 Y187.185 E40.10446
G1 X171.192 Y187.495 E40.12813
G1 X170.753 Y187.814 E40.1534
G1 X169.987 Y188.318 E40.1961
G1 X169.091 Y188.856 E40.24476
G1 X168.436 Y189.225 E40.27977
G1 X167.816 Y189.539 E40.31213
G1 X167.211 Y189.814 E40.34307
G1 X166.178 Y190.231 E40.39494
G1 X165.671 Y190.41 E40.41998
G1 X165.155 Y190.579 E40.44526
G1 X164.608 Y190.736 E40.47176
G1 X164.089 Y190.869 E40.49671
G1 X163.39 Y191.022 E40.53003
G1 X162.487 Y191.187 E40.57277
G1 X161.846 Y191.288 E40.60299
G1 X160.961 Y191.379 E40.64442
G1 X160.269 Y191.416 E40.67668
G1 X159.722 Y191.433 E40.70217
G1 X88.136 Y191.45 E44.03551
G1 X61.207 Y191.45 E45.28944
G1 X60.091 Y191.435 E45.34141
G1 X59.193 Y191.391 E45.38327
G1 X58.573 Y191.335 E45.41226
G1 X57.851 Y191.247 E45.44613
G1 X57.075 Y191.122 E45.48273
G1 X56.463 Y190.999 E45.5118
G1 X55.778 Y190.839 E45.54455
G1 X54.908 Y190.591 E45.58668
G1 X54.103 Y190.33 E45.62608
G1 X53.29 Y190.027 E45.66648
G1 X52.698 Y189.774 E45.69646
G1 X51.774 Y189.336 E45.74407
G1 X51.039 Y188.943 E45.78288
G1 X50.24 Y188.472 E45.82607
G1 X49.401 Y187.91 E45.87309
G1 X48.634 Y187.347 E45.9174
G1 X48.06 Y186.904 E45.95116
G1 X47.358 Y186.304 E45.99416
G1 X46.964 Y185.935 E46.0193
G1 X46.103 Y185.065 E46.07629
G1 X45.681 Y184.613 E46.10508
G1 X45.254 Y184.118 E46.13553
G1 X44.757 Y183.504 E46.17231
G1 X44.37 Y183.001 E46.20186
G1 X43.955 Y182.407 E46.2356
G1 X43.463 Y181.646 E46.2778
G1 X42.831 Y180.585 E46.3353
G1 X42.419 Y179.824 E46.3756
G1 X42.171 Y179.316 E46.40192
G1 X41.934 Y178.796 E46.42853
G1 X41.703 Y178.26 E46.45571
G1 X41.497 Y177.735 E46.48197
G1 X41.08 Y176.574 E46.53941
G1 X40.854 Y175.863 E46.57415
G1 X40.603 Y174.962 E46.6177
G1 X40.445 Y174.339 E46.64763
G1 X40.316 Y173.739 E46.67621
G1 X40.145 Y172.81 E46.72019
G1 X40.048 Y172.173 E46.75019
G1 X39.96 Y171.436 E46.78476
G1 X39.89 Y170.67 E46.82057
G1 X39.831 Y169.606 E46.87019
G1 X39.801 Y168.12 E46.9394
G1 X39.8 Y52.023 E52.34536
G1 X39.818 Y50.805 E52.40209
G1 X39.869 Y49.651 E52.45587
G1 X39.944 Y48.685 E52.50099
G1 X40.013 Y48.079 E52.52939
G1 X40.125 Y47.305 E52.56581
G1 X40.256 Y46.549 E52.60153
G1 X40.515 Y45.365 E52.65797
G1 X40.651 Y44.833 E52.68354
G1 X40.897 Y43.967 E52.72546
G1 X41.13 Y43.25 E52.76056
G1 X41.494 Y42.255 E52.8099
G1 X41.691 Y41.757 E52.83483
G1 X41.903 Y41.26 E52.85999
G1 X42.112 Y40.802 E52.88344
G1 X42.393 Y40.239 E52.91274
G1 X42.778 Y39.518 E52.9508
G1 X43.242 Y38.713 E52.99406
G1 X43.838 Y37.766 E53.04616
G1 X44.246 Y37.168 E53.07987
G1 X44.643 Y36.642 E53.11056
G1 X45.093 Y36.084 E53.14394
G1 F1800 E50.14394
;MESH:Object 1
G0 F9000 X54.191 Y54.178
G0 X52.336 Y54.139
G0 X53.109 Y166.536
G0 X53.324 Y168.432
G0 X53.864 Y170.519
G0 X54.482 Y171.999
G0 X54.914 Y172.811
G0 X55.934 Y174.307
G0 X56.511 Y174.975
G0 X57.309 Y175.756
G0 X58.496 Y176.641
G0 X59.428 Y177.181
G0 X60.762 Y177.71
G0 X61.557 Y177.923
G0 X62.366 Y178.059
G0 X62.595 Y178.075
G0 X89.418 Y178.689
;TYPE:WALL-INNER
G1 F1800 E53.14394
G1 F3000 X156.613 Y178.689 E56.27282
G1 X157.458 Y178.65 E56.31221
G1 X158.093 Y178.56 E56.34207
G1 X158.936 Y178.384 E56.38217
G1 X159.777 Y178.121 E56.4232
G1 X160.808 Y177.69 E56.47523
G1 X161.389 Y177.368 E56.50617
G1 X162.137 Y176.892 E56.54745
G1 X162.86 Y176.34 E56.58981
G1 X163.718 Y175.556 E56.64393
G1 X164.18 Y175.046 E56.67597
G1 X164.758 Y174.326 E56.71896
G1 X165.295 Y173.548 E56.76298
G1 X165.777 Y172.723 E56.80747
G1 X166.198 Y171.866 E56.85193
G1 X166.413 Y171.361 E56.87749
G1 X166.666 Y170.703 E56.91032
G1 X166.873 Y170.026 E56.94328
G1 X167.018 Y169.499 E56.96873
G1 X167.179 Y168.806 E57.00186
G1 X167.298 Y168.101 E57.03515
G1 X167.369 Y167.554 E57.06084
G1 X167.44 Y166.838 E57.09434
G1 X167.463 Y166.119 E57.12784
G1 X167.473 Y85.331 E60.88966
G1 X167.473 Y54.142 E62.34195
G1 X167.45 Y53.433 E62.37499
G1 X167.372 Y52.449 E62.42095
G1 X167.227 Y51.469 E62.46708
G1 X167.019 Y50.504 E62.51304
G1 X166.751 Y49.566 E62.55847
G1 X166.57 Y49.043 E62.58424
G1 X166.315 Y48.386 E62.61706
G1 X166.018 Y47.746 E62.64991
G1 X165.445 Y46.68 E62.70626
G1 X165.059 Y46.093 E62.73898
G1 X164.352 Y45.146 E62.79401
G1 X163.891 Y44.636 E62.82602
G1 X163.243 Y43.994 E62.86849
G1 X162.354 Y43.254 E62.92235
G1 X161.597 Y42.747 E62.96478
G1 X161.023 Y42.43 E62.99531
G1 X160.016 Y41.961 E63.04704
G1 X159.393 Y41.751 E63.07765
G1 X158.333 Y41.474 E63.12867
G1 X157.686 Y41.383 E63.15909
G1 X156.625 Y41.31 E63.20861
G1 X63.387 Y41.31 E67.55016
G1 X62.772 Y41.339 E67.57883
G1 X61.92 Y41.437 E67.61877
G1 X61.064 Y41.616 E67.65949
G1 X60.223 Y41.879 E67.70052
G1 X59.193 Y42.31 E67.75251
G1 X58.608 Y42.632 E67.7836
G1 X57.661 Y43.243 E67.83608
G1 X57.134 Y43.666 E67.86755
G1 X56.463 Y44.272 E67.90965
G1 X55.827 Y44.949 E67.9529
G1 X55.085 Y45.875 E68.00815
G1 X54.56 Y46.675 E68.05271
G1 X54.554 Y46.687 E68.05333
G1 X54.219 Y47.286 E68.08529
G1 X53.802 Y48.134 E68.12929
G1 X53.587 Y48.639 E68.15485
G1 X53.334 Y49.297 E68.18768
G1 X53.046 Y50.234 E68.23332
G1 X52.82 Y51.194 E68.27925
G1 X52.702 Y51.907 E68.3129
G1 X52.591 Y52.866 E68.35785
G1 X52.589 Y52.876 E68.35833
G1 X52.549 Y53.437 E68.38452
G1 X52.527 Y54.142 E68.41736
G1 X52.527 Y165.858 E73.61932
G1 X52.55 Y166.567 E73.65236
G1 X52.628 Y167.551 E73.69832
G1 X52.772 Y168.531 E73.74444
G1 X52.979 Y169.49 E73.79012
G1 X53.126 Y170.026 E73.816
G1 X53.334 Y170.702 E73.84894
G1 X53.588 Y171.367 E73.88209
G1 X53.977 Y172.244 E73.92676
G1 X54.429 Y173.092 E73.9715
G1 X55.075 Y174.112 E74.02772
G1 X55.499 Y174.661 E74.06002
G1 X56.102 Y175.359 E74.10297
G1 X56.936 Y176.177 E74.15737
G1 X57.464 Y176.599 E74.18884
G1 X58.193 Y177.113 E74.23038
G1 X59.175 Y177.681 E74.2832
G1 X59.195 Y177.689 E74.28421
G1 X59.767 Y177.94 E74.31329
G1 X59.779 Y177.946 E74.31392
G1 X60.592 Y178.245 E74.35425
G1 X61.438 Y178.47 E74.39502
G1 X62.298 Y178.617 E74.43564
G1 X63.157 Y178.678 E74.47574
G1 X89.418 Y178.689 E75.69856
G0 F9000 X89.418 Y178.289
G1 F3000 X156.604 Y178.289 E78.82703
G1 X157.421 Y178.251 E78.86511
G1 X158.024 Y178.166 E78.89346
G1 X158.835 Y177.996 E78.93205
G1 X159.64 Y177.745 E78.97131
G1 X160.633 Y177.329 E79.02145
G1 X161.185 Y177.024 E79.05081
G1 X161.908 Y176.564 E79.09071
G1 X162.603 Y176.033 E79.13144
G1 X163.434 Y175.274 E79.18385
G1 X163.875 Y174.786 E79.21447
G1 X164.437 Y174.087 E79.25624
G1 X164.957 Y173.333 E79.29889
G1 X165.424 Y172.534 E79.34198
G1 X165.834 Y171.699 E79.3853
G1 X166.042 Y171.211 E79.41
G1 X166.288 Y170.572 E79.44188
G1 X166.489 Y169.915 E79.47387
G1 X166.63 Y169.401 E79.49869
G1 X166.787 Y168.727 E79.53091
G1 X166.902 Y168.042 E79.56326
G1 X166.972 Y167.508 E79.58834
G1 X167.041 Y166.812 E79.6209
G1 X167.063 Y166.113 E79.65347
G1 X167.073 Y85.331 E83.41502
G1 X167.073 Y54.148 E84.86703
