;FLAVOR:Marlin
;TIME:5157
;Filament used: 4.48025m
;Layer height: 0.2
;MINX:64.126
;MINY:85.911
;MINZ:0.28
;MAXX:156.199
;MAXY:134.174
;MAXZ:17.16
;Generated with Cura_SteamEngine 4.5.0
M140 S50
M105
M190 S50
M104 S215
M105
M109 S215
M82 ;absolute extrusion mode
M201 X500.00 Y500.00 Z100.00 E5000.00 ;Setup machine max acceleration
M203 X500.00 Y500.00 Z10.00 E50.00 ;Setup machine max feedrate
M204 P500.00 R1000.00 T500.00 ;Setup Print/Retract/Travel acceleration
M205 X8.00 Y8.00 Z0.40 E5.00 ;Setup Jerk
M220 S100 ;Reset Feedrate
M221 S100 ;Reset Flowrate

G28 ;Home

G92 E0 ;Reset Extruder
G1 Z2.0 F3000 ;Move Z Axis up
G1 X10.1 Y20 Z0.28 F5000.0 ;Move to start position
G1 X10.1 Y200.0 Z0.28 F1500.0 E15 ;Draw the first line
G1 X10.4 Y200.0 Z0.28 F5000.0 ;Move to side a little
G1 X10.4 Y20 Z0.28 F1500.0 E30 ;Draw the second line
G92 E0 ;Reset Extruder
G1 Z2.0 F3000 ;Move Z Axis up

G92 E0
G92 E0
G1 F1800 E-3
;LAYER_COUNT:100
;LAYER:0
M107
G0 F9000 X70.068 Y95.984 Z0.28
;TYPE:SKIRT
G1 F1800 E0
G1 F3000 X70.995 Y95.371 E0.05175
G1 X71.936 Y94.808 E0.10281
G1 X73.012 Y94.223 E0.15984
G1 X74.101 Y93.683 E0.21644
G1 X76.211 Y92.758 E0.32372
G1 X78.379 Y91.929 E0.4318
G1 X80.527 Y91.2 E0.53742
G1 X82.919 Y90.471 E0.65386
G1 X85.312 Y89.812 E0.76943
G1 X87.696 Y89.212 E0.88391
G1 X90.078 Y88.663 E0.99773
G1 X92.477 Y88.156 E1.1119
G1 X94.883 Y87.695 E1.22598
G1 X97.294 Y87.278 E1.33991
G1 X99.72 Y86.908 E1.45418
G1 X100.491 Y86.809 E1.49038
G1 X102.189 Y86.585 E1.57013
G1 X104.674 Y86.317 E1.68651
G1 X107.177 Y86.111 E1.80345
G1 X109.693 Y85.973 E1.92079
G1 X112.23 Y85.911 E2.03895
G1 X114.787 Y85.94 E2.15803
G1 X117.352 Y86.07 E2.27762
G1 X119.932 Y86.315 E2.39829
G1 X121.274 Y86.491 E2.46132
G1 X122.57 Y86.696 E2.52241
G1 X123.863 Y86.937 E2.58366
G1 X125.153 Y87.213 E2.64509
G1 X126.442 Y87.529 E2.70688
G1 X127.714 Y87.879 E2.76832
G1 X128.986 Y88.271 E2.83029
G1 X130.253 Y88.706 E2.89267
G1 X131.495 Y89.173 E2.95446
G1 X132.729 Y89.682 E3.01661
G1 X133.942 Y90.225 E3.0785
G1 X135.134 Y90.8 E3.14012
G1 X136.317 Y91.416 E3.20223
G1 X137.47 Y92.058 E3.26368
G1 X138.608 Y92.735 E3.32534
G1 X139.715 Y93.433 E3.38627
G1 X140.928 Y94.244 E3.45422
G1 X142.121 Y95.09 E3.52232
G1 X143.286 Y95.962 E3.59008
G1 X144.424 Y96.858 E3.65752
G1 X146.594 Y98.691 E3.78979
G1 X148.634 Y100.561 E3.91865
G1 X149.056 Y100.933 E3.94485
G1 X150.124 Y101.953 E4.01361
G1 X150.942 Y102.839 E4.06976
G1 X151.676 Y103.729 E4.12348
G1 X152.361 Y104.658 E4.17723
G1 X152.992 Y105.616 E4.23064
G1 X153.573 Y106.609 E4.28422
G1 X154.102 Y107.636 E4.33801
G1 X154.572 Y108.684 E4.39149
G1 X154.988 Y109.772 E4.44573
G1 X155.341 Y110.865 E4.49921
G1 X155.635 Y111.979 E4.55286
G1 X155.869 Y113.118 E4.607
G1 X156.041 Y114.248 E4.66023
G1 X156.151 Y115.399 E4.71407
G1 X156.199 Y116.551 E4.76776
G1 X156.187 Y117.7 E4.82126
G1 X156.11 Y118.854 E4.87512
G1 X155.971 Y120.002 E4.92896
G1 X155.77 Y121.138 E4.98268
G1 X155.509 Y122.258 E5.03623
G1 X155.187 Y123.366 E5.08996
G1 X154.81 Y124.448 E5.14331
G1 X154.368 Y125.521 E5.19735
G1 X153.875 Y126.557 E5.25077
G1 X153.326 Y127.568 E5.30434
G1 X152.717 Y128.556 E5.35838
G1 X152.061 Y129.502 E5.41199
G1 X151.351 Y130.414 E5.46581
G1 X150.599 Y131.283 E5.51932
G1 X149.795 Y132.114 E5.57316
G1 X148.941 Y132.903 E5.6273
G1 X148.376 Y133.332 E5.66033
G1 X147.578 Y133.779 E5.70292
G1 X146.997 Y133.977 E5.7315
G1 X146.118 Y134.158 E5.77329
G1 X145.556 Y134.174 E5.79947
G1 X144.658 Y134.093 E5.84146
G1 X144.078 Y133.933 E5.86947
G1 X143.24 Y133.585 E5.91172
G1 X142.699 Y133.231 E5.94183
G1 X141.995 Y132.628 E5.98499
G1 X141.578 Y132.104 E6.01618
G1 X141.099 Y131.308 E6.05943
G1 X140.869 Y130.682 E6.09049
G1 X140.67 Y129.789 E6.13309
G1 X140.642 Y129.068 E6.16669
G1 X140.678 Y128.53 E6.1918
G1 X141.904 Y119.734 E6.60533
G1 X142.159 Y118.676 E6.65601
G1 X142.28 Y118.04 E6.68615
G1 X142.381 Y116.907 E6.73912
G1 X142.35 Y116.159 E6.77398
G1 X142.244 Y115.434 E6.8081
G1 X142.059 Y114.69 E6.8438
G1 X141.809 Y113.988 E6.8785
G1 X141.476 Y113.28 E6.91493
G1 X141.186 Y112.784 E6.94168
G1 X140.853 Y112.307 E6.96877
G1 X140.477 Y111.849 E6.99636
G1 X140.066 Y111.423 E7.02393
G1 X139.613 Y111.022 E7.0521
G1 X139.138 Y110.663 E7.07982
G1 X138.623 Y110.333 E7.1083
G1 X138.106 Y110.055 E7.13564
G1 X137.567 Y109.819 E7.16304
G1 X136.994 Y109.621 E7.19126
G1 X136.4 Y109.465 E7.21986
G1 X135.841 Y109.367 E7.24629
G1 X135.235 Y109.307 E7.27464
G1 X134.646 Y109.294 E7.30208
G1 X134.043 Y109.329 E7.3302
G1 X133.462 Y109.408 E7.3575
G1 X132.874 Y109.537 E7.38554
G1 X132.298 Y109.711 E7.41355
G1 X131.752 Y109.923 E7.44083
G1 X131.209 Y110.185 E7.4689
G1 X130.684 Y110.489 E7.49715
G1 X130.208 Y110.82 E7.52415
G1 X129.754 Y111.192 E7.55148
G1 X129.316 Y111.611 E7.5797
G1 X128.924 Y112.052 E7.60718
G1 X128.559 Y112.533 E7.63529
G1 X128.239 Y113.029 E7.66278
G1 X127.961 Y113.545 E7.69007
G1 X127.722 Y114.09 E7.71778
G1 X127.522 Y114.663 E7.74604
G1 X127.37 Y115.241 E7.77387
G1 X127.268 Y115.817 E7.80111
G1 X127.189 Y116.802 E7.84712
G1 X125.869 Y126.374 E8.29705
G1 X125.748 Y126.93 E8.32355
G1 X125.455 Y127.779 E8.36537
G1 X125.164 Y128.297 E8.39303
G1 X124.632 Y129.021 E8.43487
G1 X124.211 Y129.421 E8.46191
G1 X123.485 Y129.96 E8.50401
G1 X122.931 Y130.233 E8.53277
G1 X122.075 Y130.527 E8.57492
G1 X121.449 Y130.619 E8.60438
G1 X120.521 Y130.638 E8.6476
G1 X119.85 Y130.522 E8.67931
G1 X118.966 Y130.245 E8.72244
G1 X118.381 Y129.93 E8.75338
G1 X117.626 Y129.385 E8.79674
G1 X117.274 Y129.028 E8.82008
G1 X116.691 Y128.266 E8.86476
G1 X116.149 Y127.358 E8.914
G1 X115.552 Y126.223 E8.97372
G1 X115.022 Y125.051 E9.03361
G1 X114.566 Y123.863 E9.09286
G1 X114.366 Y123.105 E9.12937
G1 X114.135 Y121.627 E9.19902
G1 X113.937 Y119.992 E9.27571
G1 X113.798 Y118.354 E9.35226
G1 X113.718 Y116.713 E9.42876
G1 X113.698 Y115.065 E9.50551
G1 X113.735 Y113.426 E9.58184
G1 X113.832 Y111.782 E9.65853
G1 X113.951 Y110.526 E9.71727
G1 X114.009 Y109.814 E9.75054
G1 X113.962 Y108.954 E9.79064
G1 X113.74 Y108.08 E9.83263
G1 X113.534 Y107.603 E9.85683
G1 X113.189 Y107.035 E9.88777
G1 X112.566 Y106.34 E9.93123
G1 X111.837 Y105.815 E9.97306
G1 X110.984 Y105.438 E10.01649
G1 X110.082 Y105.249 E10.0594
G1 X109.298 Y105.247 E10.09591
G1 X108.668 Y105.339 E10.12556
G1 X107.83 Y105.621 E10.16673
G1 X107.423 Y105.832 E10.18807
G1 X106.682 Y106.383 E10.23107
G1 X106.082 Y107.064 E10.27333
G1 X105.834 Y107.458 E10.29501
G1 X105.473 Y108.305 E10.33788
G1 X105.298 Y109.203 E10.38049
G1 X105.283 Y109.667 E10.4021
G1 X105.325 Y110.249 E10.42927
G1 X105.387 Y110.858 E10.45778
G1 X105.44 Y111.759 E10.4998
G1 X105.426 Y113.107 E10.56258
G1 X105.301 Y114.497 E10.62756
G1 X105.209 Y115.184 E10.65984
G1 X105.016 Y115.959 E10.69703
G1 X104.668 Y116.797 E10.73928
G1 X104.372 Y117.262 E10.76495
G1 X103.817 Y117.883 E10.80373
G1 X103.406 Y118.25 E10.82938
G1 X102.947 Y118.555 E10.85505
G1 X102.165 Y118.906 E10.89496
G1 X101.641 Y119.075 E10.9206
G1 X101.098 Y119.167 E10.94624
G1 X100.557 Y119.18 E10.97144
G1 X99.675 Y119.098 E11.01269
G1 X99.143 Y118.953 E11.03836
G1 X98.584 Y118.719 E11.06658
G1 X98.098 Y118.459 E11.09224
G1 X97.654 Y118.133 E11.11789
G1 X97.164 Y117.652 E11.14987
G1 X96.809 Y117.231 E11.17551
G1 X96.527 Y116.779 E11.20032
G1 X96.255 Y116.266 E11.22735
G1 X95.886 Y115.476 E11.26795
G1 X95.592 Y114.736 E11.30503
G1 X95.331 Y114.162 E11.33439
G1 X94.976 Y113.646 E11.36356
G1 X94.354 Y113.061 E11.40332
G1 X93.236 Y112.18 E11.4696
G1 X92.438 Y111.661 E11.51392
G1 X91.638 Y111.226 E11.55632
G1 X90.86 Y110.887 E11.59584
G1 X90.058 Y110.626 E11.63511
G1 X89.377 Y110.482 E11.66753
G1 X88.661 Y110.411 E11.70103
G1 X87.984 Y110.427 E11.73256
G1 X87.3 Y110.528 E11.76476
G1 X86.468 Y110.742 E11.80476
G1 X85.614 Y111.04 E11.84688
G1 X84.211 Y111.626 E11.91768
G1 X81.667 Y112.739 E12.04698
G1 X80.136 Y113.315 E12.12314
G1 X79.232 Y113.599 E12.16727
G1 X78.348 Y113.827 E12.20978
G1 X77.178 Y114.046 E12.2652
G1 X75.925 Y114.175 E12.32386
G1 X74.614 Y114.184 E12.3849
G1 X73.306 Y114.062 E12.44607
G1 X72.02 Y113.813 E12.50707
G1 X70.797 Y113.457 E12.56638
G1 X69.617 Y112.994 E12.6254
G1 X68.537 Y112.471 E12.68128
G1 X67.701 Y111.967 E12.72673
G1 X67.295 Y111.67 E12.75016
G1 X66.749 Y111.213 E12.78331
G1 X66.297 Y110.765 E12.81294
G1 X65.909 Y110.31 E12.84079
G1 X65.24 Y109.343 E12.89554
G1 X64.936 Y108.779 E12.92538
G1 X64.689 Y108.211 E12.95422
G1 X64.338 Y107.111 E13.00798
G1 X64.213 Y106.49 E13.03748
G1 X64.141 Y105.866 E13.06673
G1 X64.126 Y104.71 E13.12056
G1 X64.19 Y104.074 E13.15032
G1 X64.305 Y103.454 E13.17969
G1 X64.616 Y102.373 E13.23206
G1 X64.876 Y101.748 E13.26358
G1 X65.205 Y101.122 E13.29651
G1 X65.686 Y100.322 E13.33998
G1 X66.467 Y99.259 E13.4014
G1 X67.067 Y98.577 E13.4437
G1 X67.703 Y97.925 E13.48611
G1 X68.221 Y97.434 E13.51934
G1 X69.133 Y96.672 E13.57468
G1 X70.068 Y95.984 E13.62874
G0 F9000 X70.303 Y96.307
G1 F3000 X71.214 Y95.705 E13.67958
G1 X72.14 Y95.152 E13.7298
G1 X73.202 Y94.575 E13.78608
G1 X74.278 Y94.042 E13.842
G1 X76.371 Y93.124 E13.94842
G1 X78.521 Y92.303 E14.05558
G1 X80.655 Y91.579 E14.16051
G1 X83.035 Y90.854 E14.27636
G1 X85.418 Y90.198 E14.39145
G1 X87.793 Y89.6 E14.50549
G1 X90.169 Y89.053 E14.61902
G1 X92.56 Y88.547 E14.73283
G1 X94.958 Y88.088 E14.84651
G1 X97.362 Y87.672 E14.96012
G1 X99.78 Y87.304 E15.07401
G1 X102.241 Y86.982 E15.18958
G1 X104.717 Y86.715 E15.30554
G1 X107.21 Y86.509 E15.42202
G1 X109.715 Y86.372 E15.53884
G1 X112.239 Y86.311 E15.6564
G1 X114.782 Y86.34 E15.77482
G1 X117.332 Y86.47 E15.89371
G1 X118.072 Y86.54 E15.92832
G1 X119.894 Y86.713 E16.01354
G1 X121.222 Y86.888 E16.07592
G1 X122.507 Y87.091 E16.13649
G1 X123.79 Y87.33 E16.19726
G1 X125.069 Y87.604 E16.25817
G1 X126.346 Y87.918 E16.3194
G1 X127.608 Y88.265 E16.38035
G1 X128.868 Y88.653 E16.44174
G1 X130.123 Y89.084 E16.50353
G1 X131.354 Y89.547 E16.56477
G1 X132.576 Y90.051 E16.62632
G1 X133.778 Y90.59 E16.68766
G1 X134.96 Y91.16 E16.74876
G1 X136.132 Y91.771 E16.81031
G1 X137.275 Y92.407 E16.87121
G1 X138.403 Y93.079 E16.93235
G1 X139.502 Y93.771 E16.99283
G1 X140.705 Y94.576 E17.06023
G1 X141.89 Y95.416 E17.12786
G1 X143.046 Y96.282 E17.19512
G1 X144.177 Y97.172 E17.26214
G1 X146.336 Y98.996 E17.39374
G1 X148.39 Y100.879 E17.52349
G1 X148.791 Y101.233 E17.5484
G1 X149.847 Y102.242 E17.61641
G1 X150.646 Y103.108 E17.67128
G1 X151.366 Y103.982 E17.724
G1 X152.037 Y104.894 E17.77673
G1 X152.657 Y105.834 E17.82916
G1 X153.227 Y106.809 E17.88175
G1 X153.745 Y107.817 E17.93452
G1 X154.206 Y108.846 E17.98702
G1 X154.614 Y109.913 E18.04022
G1 X154.96 Y110.986 E18.09271
G1 X155.248 Y112.08 E18.14539
G1 X155.477 Y113.196 E18.19844
G1 X155.645 Y114.306 E18.25071
G1 X155.753 Y115.435 E18.30352
G1 X155.8 Y116.565 E18.35619
G1 X155.787 Y117.694 E18.40876
G1 X155.711 Y118.825 E18.46154
G1 X155.574 Y119.951 E18.51436
G1 X155.376 Y121.067 E18.56714
G1 X155.12 Y122.166 E18.61968
G1 X154.803 Y123.253 E18.67241
G1 X154.433 Y124.315 E18.72477
G1 X153.999 Y125.367 E18.77776
G1 X153.515 Y126.383 E18.83017
G1 X152.976 Y127.376 E18.88278
G1 X152.378 Y128.344 E18.93576
G1 X151.733 Y129.273 E18.98842
G1 X151.037 Y130.167 E19.04118
G1 X150.298 Y131.019 E19.0937
G1 X149.509 Y131.834 E19.14652
G1 X148.671 Y132.608 E19.19963
G1 X148.165 Y132.992 E19.22921
G1 X147.392 Y133.423 E19.27042
G1 X146.899 Y133.589 E19.29465
G1 X146.049 Y133.763 E19.33505
G1 X145.223 Y133.758 E19.37351
G1 X144.706 Y133.695 E19.39776
G1 X144.215 Y133.557 E19.42151
G1 X143.405 Y133.219 E19.46238
G1 X142.946 Y132.916 E19.48799
G1 X142.265 Y132.332 E19.52976
G1 X141.911 Y131.884 E19.55635
G1 X141.449 Y131.112 E19.59824
G1 X141.255 Y130.578 E19.6247
G1 X141.064 Y129.714 E19.6659
G1 X141.042 Y129.067 E19.69604
G1 X141.075 Y128.586 E19.71849
G1 X142.301 Y119.79 E20.13203
G1 X142.55 Y118.762 E20.18128
G1 X142.677 Y118.092 E20.21304
G1 X142.736 Y117.713 E20.2309
G1 X142.782 Y116.903 E20.26868
G1 X142.749 Y116.122 E20.30508
G1 X142.636 Y115.35 E20.34141
G1 X142.447 Y114.59 E20.37787
G1 X142.176 Y113.828 E20.41553
G1 X141.831 Y113.095 E20.45325
G1 X141.525 Y112.572 E20.48147
G1 X141.168 Y112.06 E20.51053
G1 X140.774 Y111.58 E20.53945
G1 X140.338 Y111.128 E20.56869
G1 X139.871 Y110.714 E20.59775
G1 X139.37 Y110.337 E20.62695
G1 X138.834 Y109.993 E20.65661
G1 X138.282 Y109.696 E20.68579
G1 X137.706 Y109.444 E20.71507
G1 X137.111 Y109.238 E20.74439
G1 X136.487 Y109.074 E20.77443
G1 X135.893 Y108.971 E20.8025
G1 X135.258 Y108.907 E20.83222
G1 X134.632 Y108.894 E20.86138
G1 X134.017 Y108.929 E20.89006
G1 X133.384 Y109.015 E20.91981
G1 X132.775 Y109.149 E20.94884
G1 X132.167 Y109.332 E20.97841
G1 X131.592 Y109.556 E21.00714
G1 X131.018 Y109.833 E21.03682
G1 X130.477 Y110.147 E21.06595
G1 X129.968 Y110.5 E21.09479
G1 X129.481 Y110.899 E21.1241
G1 X129.029 Y111.332 E21.15325
G1 X128.618 Y111.794 E21.18204
G1 X128.234 Y112.299 E21.21158
G1 X127.889 Y112.835 E21.24127
G1 X127.599 Y113.374 E21.26977
G1 X127.348 Y113.945 E21.29881
G1 X127.141 Y114.541 E21.32819
G1 X126.977 Y115.163 E21.35814
G1 X126.871 Y115.763 E21.38651
G1 X126.789 Y116.779 E21.43398
G1 X125.473 Y126.319 E21.8824
G1 X125.365 Y126.816 E21.90609
G1 X125.08 Y127.637 E21.94655
G1 X124.832 Y128.074 E21.96995
G1 X124.316 Y128.774 E22.01044
G1 X123.684 Y129.334 E22.04976
G1 X123.256 Y129.631 E22.07402
G1 X122.784 Y129.86 E22.09845
G1 X121.956 Y130.144 E22.13921
G1 X121.424 Y130.22 E22.16423
G1 X120.526 Y130.237 E22.20606
G1 X119.953 Y130.136 E22.23315
G1 X119.099 Y129.866 E22.27485
G1 X118.601 Y129.595 E22.30125
G1 X117.87 Y129.068 E22.34322
G1 X117.381 Y128.54 E22.37673
G1 X117.035 Y128.061 E22.40424
G1 X116.493 Y127.153 E22.45348
G1 X115.907 Y126.039 E22.51209
G1 X115.387 Y124.888 E22.5709
G1 X114.94 Y123.721 E22.62909
G1 X114.761 Y123.043 E22.66175
G1 X114.53 Y121.565 E22.7314
G1 X114.334 Y119.944 E22.80743
G1 X114.197 Y118.321 E22.88328
G1 X114.118 Y116.694 E22.95913
G1 X114.098 Y115.061 E23.03517
G1 X114.135 Y113.436 E23.11086
G1 X114.231 Y111.806 E23.18689
G1 X114.346 Y110.593 E23.24362
G1 X114.409 Y109.821 E23.27969
G1 X114.36 Y108.904 E23.32245
G1 X114.115 Y107.938 E23.36886
G1 X113.9 Y107.441 E23.39407
G1 X113.515 Y106.803 E23.42877
G1 X113.204 Y106.417 E23.45185
G1 X112.833 Y106.043 E23.47638
G1 X112.46 Y105.742 E23.4987
G1 X112.037 Y105.469 E23.52214
G1 X111.575 Y105.236 E23.54624
G1 X111.106 Y105.057 E23.56961
G1 X110.622 Y104.928 E23.59293
G1 X110.115 Y104.849 E23.61683
G1 X109.25 Y104.849 E23.65711
G1 X108.585 Y104.947 E23.6884
G1 X108.128 Y105.073 E23.71048
G1 X107.665 Y105.256 E23.73366
G1 X107.213 Y105.492 E23.7574
G1 X106.802 Y105.765 E23.78038
G1 X106.409 Y106.09 E23.80413
G1 X106.059 Y106.448 E23.82744
G1 X105.75 Y106.84 E23.85068
G1 X105.485 Y107.262 E23.87388
G1 X105.265 Y107.711 E23.89717
G1 X105.088 Y108.193 E23.92108
G1 X104.969 Y108.667 E23.94383
G1 X104.899 Y109.173 E23.96762
G1 X104.883 Y109.672 E23.99087
G1 X104.925 Y110.272 E24.01887
G1 X104.989 Y110.899 E24.04822
G1 X105.04 Y111.781 E24.08936
G1 X105.027 Y113.101 E24.15083
G1 X104.903 Y114.457 E24.21423
G1 X104.812 Y115.128 E24.24576
G1 X104.64 Y115.822 E24.27905
G1 X104.302 Y116.632 E24.31992
G1 X104.017 Y117.068 E24.34418
G1 X103.529 Y117.605 E24.37797
G1 X103.139 Y117.951 E24.40224
G1 X102.701 Y118.234 E24.42652
G1 X102.015 Y118.535 E24.46141
G1 X101.518 Y118.693 E24.48569
G1 X101.003 Y118.774 E24.50997
G1 X100.241 Y118.764 E24.54545
G1 X99.724 Y118.699 E24.56971
G1 X99.026 Y118.477 E24.60382
G1 X98.287 Y118.106 E24.64232
G1 X97.689 Y117.618 E24.67826
G1 X97.116 Y116.973 E24.71844
G1 X96.608 Y116.079 E24.76632
G1 X96.25 Y115.309 E24.80586
G1 X95.939 Y114.528 E24.845
G1 X95.678 Y113.962 E24.87402
G1 X95.28 Y113.385 E24.90666
G1 X94.621 Y112.763 E24.94886
G1 X93.473 Y111.857 E25.01696
G1 X92.644 Y111.318 E25.063
G1 X91.81 Y110.864 E25.10722
G1 X91.007 Y110.515 E25.14799
G1 X90.167 Y110.242 E25.18911
G1 X89.443 Y110.087 E25.22359
G1 X88.675 Y110.011 E25.25953
G1 X87.945 Y110.029 E25.29353
G1 X87.209 Y110.138 E25.32817
G1 X86.355 Y110.357 E25.36923
G1 X85.48 Y110.663 E25.41239
G1 X84.069 Y111.252 E25.48359
G1 X81.507 Y112.373 E25.6138
G1 X79.997 Y112.941 E25.68892
G1 X79.115 Y113.216 E25.73194
