;FLAVOR:Marlin
;TIME:9276
;Filament used: 7.99696m
;Layer height: 0.2
;MINX:79.66
;MINY:74.061
;MINZ:0.24
;MAXX:140.341
;MAXY:139.119
;MAXZ:54.08
;Generated with Cura_SteamEngine 4.8.0
M140 S50
M105
M190 S50
M104 S215
M105
M109 S215
M82 ;absolute extrusion mode
M201 X500.00 Y500.00 Z100.00 E5000.00 ;Setup machine max acceleration
M203 X500.00 Y500.00 Z10.00 E50.00 ;Setup machine max feedrate
M204 P500.00 R1000.00 T500.00 ;Setup Print/Retract/Travel acceleration
M205 X8.00 Y8.00 Z0.40 E5.00 ;Setup Jerk
M220 S100 ;Reset Feedrate
M221 S100 ;Reset Flowrate

;*** Start Dual Nozzle/Bed Preheating ***
M140 S50 ; start preheating the bed
M104 S215 ﻿T0 ; start preheating hotend
M190 S50 ; heat to Cura Bed setting and WAIT
M109 S215 ﻿T0 ; heat to Cura Hotend and WAIT
;*** End Preheating ***

G28 ; home

G92 E0 ;Reset Extruder
G1 Z2.0 F3000 ;Move Z Axis up

;*** Single Print Start Tone
M300 S1000 P500 ; chirp to indicate starting to print
;*** End Single Start Tone

G1 X10.1 Y20 Z0.28 F5000.0 ;Move to start position
G1 X10.1 Y200.0 Z0.28 F1500.0 E15 ;Draw the first line
G1 X10.4 Y200.0 Z0.28 F5000.0 ;Move to side a little
G1 X10.4 Y20 Z0.28 F1500.0 E30 ;Draw the second line
G92 E0 ;Reset Extruder
G1 Z2.0 F3000 ;Move Z Axis up
G92 E0
G92 E0
G1 F2400 E-3
;LAYER_COUNT:241
;LAYER:0
M106 S63.8
M204 S500
M205 X6 Y6
G1 F300 Z0.44
G0 F9000 X90.563 Y80.186 Z0.44
;TYPE:SKIRT
G1 F300 Z0.24
G1 F1200 E0
G1 F1800 X90.962 Y79.74 E0.02388
G1 X91.489 Y79.194 E0.05417
G1 X92.297 Y78.451 E0.09798
G1 X92.811 Y78.032 E0.12445
G1 X93.111 Y77.8 E0.13959
G1 X94.041 Y77.157 E0.18471
G1 X94.592 Y76.824 E0.21041
G1 X94.923 Y76.634 E0.22564
G1 X95.924 Y76.128 E0.27041
G1 X96.538 Y75.864 E0.29708
G1 X96.9 Y75.719 E0.31265
G1 X98.012 Y75.344 E0.35949
G1 X98.709 Y75.157 E0.38829
G1 X99.038 Y75.078 E0.40179
G1 X99.792 Y74.926 E0.43249
G1 X100.413 Y74.836 E0.45754
G1 X101.145 Y74.757 E0.48692
G1 X102.069 Y74.705 E0.52386
G1 X102.384 Y74.703 E0.53643
G1 X103.381 Y74.713 E0.57623
G1 X105.979 Y74.701 E0.67992
G1 X108.479 Y74.619 E0.77975
G1 X111.017 Y74.464 E0.88124
G1 X113.478 Y74.244 E0.97985
G1 X114.75 Y74.115 E1.03088
G1 X115.929 Y74.061 E1.07799
G1 X116.566 Y74.072 E1.10342
G1 X116.977 Y74.089 E1.11983
G1 X118.044 Y74.187 E1.1626
G1 X118.667 Y74.284 E1.18776
G1 X119.101 Y74.363 E1.20537
G1 X119.818 Y74.52 E1.23467
G1 X120.489 Y74.708 E1.26248
G1 X121.13 Y74.912 E1.28933
G1 X122.282 Y75.36 E1.33866
G1 X122.892 Y75.645 E1.36553
G1 X123.189 Y75.792 E1.37876
G1 X124.184 Y76.353 E1.42435
G1 X124.741 Y76.714 E1.45084
G1 X125.055 Y76.928 E1.46601
G1 X125.908 Y77.575 E1.50874
G1 X126.384 Y77.983 E1.53376
G1 X126.693 Y78.262 E1.55038
G1 X127.528 Y79.106 E1.59776
G1 X127.977 Y79.622 E1.62506
G1 X128.204 Y79.895 E1.63923
G1 X128.644 Y80.461 E1.66784
G1 X128.934 Y80.879 E1.68815
G1 X129.233 Y81.341 E1.71011
G1 X129.445 Y81.684 E1.72621
G1 X129.987 Y82.675 E1.77129
G1 X130.265 Y83.269 E1.79747
G1 X130.411 Y83.6 E1.8119
G1 X130.803 Y84.629 E1.85585
G1 X131.012 Y85.303 E1.88402
G1 X131.12 Y85.687 E1.89994
G1 X131.32 Y86.528 E1.93444
G1 X131.46 Y87.243 E1.96352
G1 X131.988 Y89.781 E2.06699
G1 X132.571 Y92.23 E2.16746
G1 X133.224 Y94.663 E2.26801
G1 X133.962 Y97.126 E2.37063
G1 X134.746 Y99.504 E2.47056
G1 X135.602 Y101.87 E2.57099
G1 X136.545 Y104.263 E2.67364
G1 X136.769 Y104.793 E2.69661
G1 X137.456 Y106.493 E2.76979
G1 X138.384 Y108.906 E2.87298
G1 X138.656 Y109.643 E2.90433
G1 X138.936 Y110.52 E2.94107
G1 X139.138 Y111.41 E2.9775
G1 X139.309 Y112.352 E3.01571
G1 X140.089 Y117.153 E3.20984
G1 X140.216 Y118.002 E3.2441
G1 X140.324 Y119.185 E3.29152
G1 X140.339 Y119.712 E3.31256
G1 X140.341 Y119.925 E3.32106
G1 X140.34 Y127.584 E3.62675
G1 X140.33 Y128.312 E3.65581
G1 X140.277 Y129.231 E3.69255
G1 X140.145 Y130.142 E3.72929
G1 X139.934 Y131.038 E3.76603
G1 X139.647 Y131.913 E3.80278
G1 X139.284 Y132.759 E3.83952
G1 X138.85 Y133.571 E3.87627
G1 X138.346 Y134.341 E3.913
G1 X137.778 Y135.066 E3.94976
G1 X137.244 Y135.643 E3.98114
G1 X137.036 Y135.852 E3.99291
G1 X136.359 Y136.476 E4.02965
G1 X135.63 Y137.039 E4.06642
G1 X134.856 Y137.536 E4.10313
G1 X134.041 Y137.964 E4.13987
G1 X133.191 Y138.32 E4.17665
G1 X132.315 Y138.601 E4.21337
G1 X131.711 Y138.748 E4.23818
G1 X130.805 Y138.911 E4.27492
G1 X129.75 Y139.001 E4.31718
G1 X129.156 Y139.02 E4.3409
G1 X125.189 Y139.107 E4.49927
G1 X124.027 Y139.119 E4.54565
G1 X120.761 Y139.117 E4.676
G1 X120.085 Y139.107 E4.70299
G1 X119.49 Y139.081 E4.72676
G1 X118.894 Y139.039 E4.7506
G1 X116.257 Y138.888 E4.85602
G1 X113.268 Y138.809 E4.97536
G1 X110.034 Y138.776 E5.10445
G1 X109.001 Y138.771 E5.14568
G1 X106.62 Y138.771 E5.24071
G1 X104.04 Y138.808 E5.34369
G1 X100.726 Y138.96 E5.4761
G1 X100.147 Y138.993 E5.49925
G1 X99.324 Y139.009 E5.5321
G1 X91.214 Y139.011 E5.85579
G1 X90.355 Y139 E5.89007
G1 X89.436 Y138.947 E5.92681
G1 X88.525 Y138.814 E5.96356
G1 X87.629 Y138.603 E6.0003
G1 X86.755 Y138.315 E6.03703
G1 X85.908 Y137.953 E6.07379
G1 X85.097 Y137.518 E6.11052
G1 X84.326 Y137.014 E6.14729
G1 X83.342 Y136.215 E6.19788
G1 X83.27 Y136.149 E6.20178
G1 X82.804 Y135.694 E6.22777
G1 X82.64 Y135.524 E6.2372
G1 X82.03 Y134.835 E6.27393
G1 X81.483 Y134.095 E6.31065
G1 X81.001 Y133.31 E6.34742
G1 X80.59 Y132.486 E6.38417
G1 X80.251 Y131.63 E6.42092
G1 X79.989 Y130.748 E6.45764
G1 X79.803 Y129.846 E6.4944
G1 X79.674 Y128.502 E6.54829
G1 X79.66 Y127.765 E6.57771
G1 X79.661 Y120.103 E6.88351
G1 X79.672 Y119.386 E6.91214
G1 X79.76 Y118.175 E6.9606
G1 X79.867 Y117.431 E6.9906
G1 X80.714 Y112.217 E7.20143
G1 X80.83 Y111.554 E7.22829
G1 X81.028 Y110.655 E7.26503
G1 X81.309 Y109.759 E7.30251
G1 X81.618 Y108.909 E7.33861
G1 X81.82 Y108.38 E7.36121
G1 X82.702 Y105.984 E7.46311
G1 X83.51 Y103.577 E7.56445
G1 X84.247 Y101.161 E7.66526
G1 X84.922 Y98.701 E7.76708
G1 X85.513 Y96.283 E7.86642
G1 X86.056 Y93.757 E7.96954
G1 X86.503 Y91.333 E8.06792
G1 X86.792 Y89.407 E8.14565
G1 X87.019 Y87.971 E8.20368
G1 X87.129 Y87.36 E8.22846
G1 X87.25 Y86.776 E8.25226
G1 X87.456 Y85.965 E8.28566
G1 X87.679 Y85.277 E8.31452
G1 X87.898 Y84.669 E8.34032
G1 X88.216 Y83.896 E8.37368
G1 X88.538 Y83.234 E8.40306
G1 X88.802 Y82.734 E8.42563
G1 X89.11 Y82.195 E8.4504
G1 X89.46 Y81.654 E8.47612
G1 X89.815 Y81.146 E8.50086
G1 X90.02 Y80.866 E8.51471
G1 X90.563 Y80.186 E8.54944
G0 F9000 X90.865 Y80.448
G1 F1800 X91.257 Y80.011 E8.57287
G1 X91.775 Y79.474 E8.60265
G1 X92.552 Y78.759 E8.64479
G1 X93.056 Y78.348 E8.67075
G1 X93.356 Y78.116 E8.68589
G1 X94.25 Y77.498 E8.72926
G1 X94.791 Y77.171 E8.75449
G1 X95.122 Y76.981 E8.76973
G1 X96.085 Y76.494 E8.8128
G1 X96.686 Y76.235 E8.83892
G1 X97.048 Y76.09 E8.85448
G1 X98.118 Y75.729 E8.89955
G1 X98.802 Y75.546 E8.92781
G1 X99.131 Y75.467 E8.94132
G1 X99.857 Y75.32 E8.97088
G1 X100.465 Y75.232 E8.9954
G1 X101.185 Y75.155 E9.0243
G1 X102.074 Y75.105 E9.05984
G1 X102.381 Y75.103 E9.07209
G1 X103.38 Y75.113 E9.11197
G1 X105.958 Y75.101 E9.21486
G1 X108.517 Y75.017 E9.31705
G1 X111.038 Y74.863 E9.41786
G1 X113.483 Y74.645 E9.51583
G1 X114.791 Y74.512 E9.5683
G1 X115.925 Y74.46 E9.61361
G1 X116.55 Y74.472 E9.63856
G1 X116.961 Y74.489 E9.65498
G1 X117.988 Y74.583 E9.69614
G1 X118.596 Y74.678 E9.7207
G1 X119.03 Y74.757 E9.73831
G1 X119.719 Y74.907 E9.76645
G1 X120.376 Y75.092 E9.79369
G1 X121.007 Y75.293 E9.82012
G1 X122.116 Y75.724 E9.86761
G1 X122.715 Y76.003 E9.89399
G1 X123.012 Y76.15 E9.90721
G1 X123.969 Y76.69 E9.95107
G1 X124.515 Y77.044 E9.97704
G1 X124.829 Y77.258 E9.99221
G1 X125.65 Y77.881 E10.03334
G1 X126.116 Y78.28 E10.05783
G1 X126.425 Y78.559 E10.07444
G1 X127.228 Y79.371 E10.12002
G1 X127.67 Y79.878 E10.14687
G1 X127.897 Y80.151 E10.16104
G1 X128.32 Y80.696 E10.18857
G1 X128.735 Y81.304 E10.21795
G1 X129.104 Y81.894 E10.24573
G1 X129.626 Y82.848 E10.28913
G1 X129.899 Y83.431 E10.31483
G1 X130.045 Y83.762 E10.32926
G1 X130.422 Y84.751 E10.37151
G1 X130.627 Y85.411 E10.39909
G1 X130.735 Y85.795 E10.41501
G1 X130.927 Y86.604 E10.4482
G1 X131.052 Y87.245 E10.47426
G1 X131.602 Y89.883 E10.58182
G1 X132.184 Y92.329 E10.68217
G1 X132.841 Y94.777 E10.78333
G1 X133.575 Y97.229 E10.88549
G1 X134.374 Y99.649 E10.9872
G1 X135.241 Y102.047 E11.08897
G1 X136.157 Y104.372 E11.18871
G1 X136.398 Y104.943 E11.21345
G1 X137.085 Y106.643 E11.28663
G1 X138.01 Y109.049 E11.38951
G1 X138.281 Y109.781 E11.42066
G1 X138.555 Y110.642 E11.45673
G1 X138.744 Y111.481 E11.49105
G1 X138.915 Y112.423 E11.52926
G1 X139.694 Y117.217 E11.72311
G1 X139.82 Y118.06 E11.75713
G1 X139.924 Y119.199 E11.80278
G1 X139.939 Y119.716 E11.82342
G1 X139.941 Y119.929 E11.83193
G1 X139.94 Y127.578 E12.13721
G1 X139.93 Y128.306 E12.16627
G1 X139.878 Y129.208 E12.20233
G1 X139.746 Y130.101 E12.23836
G1 X139.535 Y130.979 E12.2744
G1 X139.248 Y131.836 E12.31048
G1 X138.886 Y132.663 E12.34651
G1 X138.453 Y133.455 E12.38253
G1 X137.95 Y134.206 E12.41861
G1 X137.384 Y134.909 E12.45463
G1 X136.961 Y135.361 E12.47934
G1 X136.753 Y135.57 E12.49111
G1 X136.088 Y136.181 E12.52715
G1 X135.372 Y136.732 E12.56321
G1 X134.61 Y137.216 E12.59924
G1 X133.808 Y137.631 E12.63528
G1 X132.972 Y137.974 E12.67135
G1 X131.765 Y138.325 E12.72152
G1 X131.623 Y138.357 E12.72733
G1 X130.734 Y138.517 E12.76338
G1 X129.736 Y138.601 E12.80335
G1 X129.147 Y138.621 E12.82687
G1 X125.303 Y138.706 E12.98033
G1 X124.027 Y138.719 E13.03126
G1 X120.767 Y138.717 E13.16138
G1 X120.091 Y138.707 E13.18836
G1 X119.518 Y138.682 E13.21125
G1 X118.871 Y138.636 E13.23714
G1 X116.292 Y138.489 E13.34024
G1 X113.282 Y138.409 E13.46042
G1 X110.036 Y138.376 E13.58998
G1 X109.003 Y138.371 E13.63121
G1 X106.614 Y138.371 E13.72656
G1 X104.016 Y138.408 E13.83026
G1 X100.743 Y138.559 E13.96103
G1 X100.134 Y138.593 E13.98538
G1 X99.319 Y138.609 E14.01791
G1 X91.214 Y138.611 E14.3414
G1 X90.361 Y138.6 E14.37545
G1 X89.459 Y138.547 E14.41151
G1 X88.566 Y138.415 E14.44754
G1 X87.688 Y138.204 E14.48358
G1 X86.832 Y137.917 E14.51962
G1 X86.004 Y137.554 E14.5557
G1 X85.212 Y137.12 E14.59174
G1 X84.462 Y136.618 E14.62776
G1 X83.613 Y135.92 E14.67163
G1 X83.541 Y135.854 E14.67553
G1 X83.092 Y135.417 E14.70054
G1 X82.928 Y135.247 E14.70997
G1 X82.33 Y134.57 E14.74602
G1 X81.795 Y133.842 E14.78208
G1 X81.326 Y133.071 E14.81809
G1 X80.927 Y132.26 E14.85417
G1 X80.602 Y131.418 E14.89019
G1 X80.352 Y130.55 E14.92624
G1 X80.18 Y129.664 E14.96227
G1 X80.074 Y128.489 E15.00935
G1 X80.06 Y127.762 E15.03837
G1 X80.061 Y120.11 E15.34378
G1 X80.072 Y119.393 E15.3724
G1 X80.157 Y118.227 E15.41906
G1 X80.263 Y117.49 E15.44878
G1 X81.108 Y112.286 E15.6592
G1 X81.224 Y111.623 E15.68607
G1 X81.418 Y110.741 E15.72211
G1 X81.685 Y109.896 E15.75748
G1 X82.062 Y108.863 E15.80137
G1 X82.188 Y108.536 E15.81536
G1 X83.084 Y106.102 E15.91888
G1 X83.893 Y103.694 E16.02026
G1 X84.63 Y101.278 E16.12108
G1 X85.304 Y98.821 E16.22277
G1 X85.906 Y96.357 E16.324
G1 X86.452 Y93.815 E16.42777
G1 X86.898 Y91.403 E16.52567
G1 X87.187 Y89.469 E16.60372
G1 X87.414 Y88.033 E16.66175
G1 X87.522 Y87.433 E16.68608
G1 X87.641 Y86.859 E16.70947
G1 X87.84 Y86.079 E16.7416
G1 X88.058 Y85.405 E16.76988
G1 X88.274 Y84.806 E16.79529
G1 X88.58 Y84.063 E16.82736
G1 X88.895 Y83.414 E16.85615
G1 X89.155 Y82.922 E16.87836
G1 X89.453 Y82.401 E16.90232
G1 X89.789 Y81.881 E16.92703
G1 X90.138 Y81.382 E16.95133
G1 X90.343 Y81.102 E16.96518
G1 X90.865 Y80.448 E16.99858
G1 F2400 E13.99858
G1 F300 Z0.44
G0 F9000 X113.58 Y87.615 Z0.44
G1 F300 Z0.24
G1 F1200 E16.99858
G1 F1800 X113.882 Y87.296 E17.01611
G1 X114.232 Y87.015 E17.03403
G1 X114.611 Y86.791 E17.0516
G1 X115.027 Y86.617 E17.0696
G1 X115.456 Y86.504 E17.0873
G1 X115.903 Y86.452 E17.10526
G1 X116.342 Y86.463 E17.12279
G1 X116.782 Y86.535 E17.14059
G1 X117.213 Y86.669 E17.1586
G1 X117.613 Y86.859 E17.17628
G1 X117.984 Y87.103 E17.194
G1 X118.32 Y87.398 E17.21184
G1 X118.711 Y87.893 E17.23702
G1 X118.399 Y87.67 E17.25233
G1 X117.996 Y87.453 E17.27059
G1 X117.525 Y87.272 E17.29073
G1 X117.159 Y87.174 E17.30586
G1 X116.882 Y87.152 E17.31695
G1 X116.193 Y87.151 E17.34445
G1 X115.638 Y87.238 E17.36687
G1 X115.169 Y87.389 E17.38653
G1 X114.732 Y87.598 E17.40587
G1 X114.323 Y87.867 E17.42541
G1 X113.914 Y88.237 E17.44742
G1 X113.541 Y88.697 E17.47105
G1 X113.369 Y88.951 E17.4833
G1 X112.868 Y89.845 E17.5242
G1 X112.881 Y89.237 E17.54847
G1 X112.969 Y88.796 E17.56642
G1 X113.114 Y88.381 E17.58397
G1 X113.321 Y87.983 E17.60187
G1 X113.58 Y87.615 E17.61983
G0 F9000 X113.267 Y87.365
G1 F1800 X113.611 Y87.001 E17.63982
G1 X114.005 Y86.685 E17.65998
G1 X114.43 Y86.433 E17.6797
G1 X114.901 Y86.236 E17.70008
G1 X115.378 Y86.111 E17.71976
G1 X115.881 Y86.052 E17.73997
G1 X116.388 Y86.065 E17.76021
G1 X116.873 Y86.144 E17.77983
G1 X117.354 Y86.294 E17.79994
G1 X117.813 Y86.511 E17.8202
G1 X118.226 Y86.783 E17.83994
G1 X118.607 Y87.117 E17.86016
G1 X118.93 Y87.494 E17.87997
G1 X119.205 Y87.922 E17.90028
G1 X119.411 Y88.372 E17.92003
G1 X119.556 Y88.854 E17.94012
G1 X119.636 Y89.381 E17.96139
G1 X119.61 Y90.056 E17.98836
G1 X119.512 Y89.67 E18.00425
G1 X119.311 Y89.211 E18.02425
G1 X119.116 Y88.891 E18.03921
G1 X118.819 Y88.525 E18.05802
G1 X118.548 Y88.269 E18.0729
G1 X118.166 Y87.995 E18.09166
G1 X117.852 Y87.826 E18.10589
G1 X117.381 Y87.645 E18.12603
G1 X116.881 Y87.552 E18.14633
G1 X116.192 Y87.551 E18.17383
G1 X115.761 Y87.618 E18.19124
G1 X115.292 Y87.769 E18.2109
G1 X114.952 Y87.932 E18.22595
G1 X114.543 Y88.201 E18.24549
G1 X114.225 Y88.489 E18.26261
G1 X113.852 Y88.949 E18.28625
G1 X113.718 Y89.147 E18.29579
G1 X112.708 Y90.949 E18.37824
G1 X112.605 Y90.675 E18.38992
G1 X112.494 Y90.182 E18.41009
G1 X112.453 Y89.69 E18.4298
G1 X112.483 Y89.185 E18.44999
G1 X112.582 Y88.693 E18.47002
G1 X112.747 Y88.22 E18.49001
G1 X112.981 Y87.769 E18.51029
G1 X113.267 Y87.365 E18.53005
G0 F9000 X112.958 Y87.111
G1 F1800 X113.34 Y86.706 E18.55227
G1 X113.777 Y86.355 E18.57464
G1 X114.252 Y86.074 E18.59667
G1 X114.771 Y85.857 E18.61912
G1 X115.309 Y85.716 E18.64132
G1 X115.858 Y85.652 E18.66338
G1 X116.42 Y85.665 E18.68582
G1 X116.971 Y85.756 E18.7081
G1 X117.501 Y85.921 E18.73026
G1 X118.007 Y86.16 E18.75259
G1 X118.467 Y86.463 E18.77458
G1 X118.893 Y86.837 E18.7972
G1 X119.255 Y87.259 E18.8194
G1 X119.553 Y87.722 E18.84137
G1 X119.787 Y88.233 E18.8638
G1 X119.946 Y88.765 E18.88596
G1 X120.036 Y89.355 E18.90979
G1 X120.038 Y89.87 E18.93034
G1 X119.966 Y90.427 E18.95276
G1 X119.817 Y90.971 E18.97527
G1 X119.599 Y91.477 E18.99726
G1 X119.308 Y91.955 E19.01959
G1 X118.957 Y92.383 E19.04169
G1 X118.555 Y92.753 E19.06349
G1 X118.986 Y91.984 E19.09868
G1 X119.079 Y91.757 E19.10847
G1 X119.249 Y91.131 E19.13436
G1 X119.28 Y90.785 E19.14822
G1 X119.226 Y90.148 E19.17374
G1 X119.146 Y89.831 E19.18679
G1 X118.945 Y89.372 E19.20679
G1 X118.509 Y88.777 E19.23623
G1 X117.933 Y88.32 E19.26557
G1 X117.709 Y88.2 E19.27572
G1 X117.238 Y88.019 E19.29585
G1 X116.88 Y87.952 E19.31039
G1 X116.191 Y87.951 E19.33789
G1 X115.884 Y87.999 E19.35029
G1 X115.171 Y88.267 E19.38069
G1 X114.762 Y88.536 E19.40023
G1 X114.535 Y88.741 E19.41244
G1 X114.162 Y89.201 E19.43608
G1 X114.067 Y89.342 E19.44286
G1 X112.688 Y91.804 E19.55549
G1 X112.417 Y91.312 E19.57791
G1 X112.221 Y90.79 E19.60016
G1 X112.098 Y90.245 E19.62246
G1 X112.052 Y89.685 E19.64489
G1 X112.085 Y89.139 E19.66672
G1 X112.196 Y88.584 E19.68931
G1 X112.378 Y88.062 E19.71137
G1 X112.635 Y87.567 E19.73363
G1 X112.958 Y87.111 E19.75594
G0 F9000 X112.647 Y86.856
G1 F1800 X113.068 Y86.41 E19.78042
G1 X113.546 Y86.027 E19.80486
G1 X114.072 Y85.716 E19.82925
G1 X114.645 Y85.476 E19.85405
G1 X115.231 Y85.323 E19.87822
G1 X115.843 Y85.251 E19.90281
G1 X116.459 Y85.266 E19.92741
G1 X117.062 Y85.365 E19.9518
G1 X117.649 Y85.548 E19.97634
G1 X118.201 Y85.809 E20.00071
G1 X118.713 Y86.146 E20.02517
G1 X119.177 Y86.553 E20.04981
G1 X119.574 Y87.017 E20.07418
G1 X119.908 Y87.536 E20.09881
G1 X120.161 Y88.087 E20.12301
G1 X120.339 Y88.681 E20.14776
G1 X120.436 Y89.327 E20.17383
G1 X120.438 Y89.897 E20.19658
G1 X120.359 Y90.506 E20.22109
G1 X120.197 Y91.099 E20.24563
G1 X119.953 Y91.666 E20.27026
G1 X119.636 Y92.185 E20.29454
G1 X119.249 Y92.658 E20.31893
G1 X118.794 Y93.076 E20.34359
G1 X118.292 Y93.425 E20.36799
