;FLAVOR:Marlin
;TIME:3269
;Filament used: 3.0196m
;Layer height: 0.16
;MINX:90.212
;MINY:90.212
;MINZ:0.24
;MAXX:129.788
;MAXY:129.788
;MAXZ:39.24
;Generated with Cura_SteamEngine 4.5.0
M140 S50
M105
M190 S50
M104 S215
M105
M109 S215
M82 ;absolute extrusion mode
M201 X500.00 Y500.00 Z100.00 E5000.00 ;Setup machine max acceleration
M203 X500.00 Y500.00 Z10.00 E50.00 ;Setup machine max feedrate
M204 P500.00 R1000.00 T500.00 ;Setup Print/Retract/Travel acceleration
M205 X8.00 Y8.00 Z0.40 E5.00 ;Setup Jerk
M220 S100 ;Reset Feedrate
M221 S100 ;Reset Flowrate

G28 ;Home

G92 E0 ;Reset Extruder
G1 Z2.0 F3000 ;Move Z Axis up
G1 X10.1 Y20 Z0.28 F5000.0 ;Move to start position
G1 X10.1 Y200.0 Z0.28 F1500.0 E15 ;Draw the first line
G1 X10.4 Y200.0 Z0.28 F5000.0 ;Move to side a little
G1 X10.4 Y20 Z0.28 F1500.0 E30 ;Draw the second line
G92 E0 ;Reset Extruder
G1 Z2.0 F3000 ;Move Z Axis up

G92 E0
G92 E0
G1 F1800 E-3
;LAYER_COUNT:225
;LAYER:0
M106 S63.8
M204 S500
M205 X6 Y6
G0 F9000 X103.977 Y104.686 Z0.24
;TYPE:SKIRT
G1 F1800 E0
G1 X104.37 Y104.295 E0.02213
G1 X104.914 Y103.797 E0.05156
G1 X105.587 Y103.306 E0.08481
G1 X106.102 Y102.988 E0.10897
G1 X106.825 Y102.638 E0.14103
G1 X107.375 Y102.418 E0.16467
G1 X108.133 Y102.202 E0.19613
G1 X108.733 Y102.077 E0.22059
G1 X109.533 Y101.995 E0.25269
G1 X110.135 Y101.978 E0.27673
G1 X111.445 Y102.111 E0.32928
G1 X112.481 Y102.367 E0.37187
G1 X113.548 Y102.81 E0.41798
G1 X114.256 Y103.204 E0.45032
G1 X114.858 Y103.617 E0.47946
G1 X115.548 Y104.215 E0.5159
G1 X116.034 Y104.699 E0.54328
G1 X116.691 Y105.581 E0.58717
G1 X117.012 Y106.102 E0.6116
G1 X117.362 Y106.825 E0.64366
G1 X117.582 Y107.375 E0.6673
G1 X117.798 Y108.133 E0.69876
G1 X117.923 Y108.729 E0.72306
G1 X118.005 Y109.531 E0.75524
G1 X118.022 Y110.135 E0.77936
G1 X117.964 Y110.922 E0.81085
G1 X117.88 Y111.513 E0.83468
G1 X117.633 Y112.48 E0.87451
G1 X117.19 Y113.547 E0.92062
G1 X116.796 Y114.256 E0.953
G1 X116.39 Y114.848 E0.98165
G1 X116.023 Y115.314 E1.00532
G1 X115.63 Y115.705 E1.02745
G1 X115.086 Y116.203 E1.05688
G1 X114.413 Y116.694 E1.09013
G1 X113.898 Y117.012 E1.11429
G1 X113.175 Y117.362 E1.14635
G1 X112.625 Y117.582 E1.16999
G1 X111.867 Y117.798 E1.20145
G1 X111.261 Y117.923 E1.22615
G1 X110.47 Y118.005 E1.25789
G1 X109.865 Y118.022 E1.28204
G1 X109.078 Y117.964 E1.31354
G1 X108.487 Y117.88 E1.33736
G1 X107.52 Y117.633 E1.3772
G1 X106.45 Y117.189 E1.42344
G1 X105.743 Y116.795 E1.45574
G1 X105.14 Y116.381 E1.48493
G1 X104.451 Y115.784 E1.52132
G1 X103.966 Y115.301 E1.54864
G1 X103.309 Y114.418 E1.59257
G1 X102.986 Y113.894 E1.61713
G1 X102.638 Y113.175 E1.64901
G1 X102.418 Y112.625 E1.67266
G1 X102.202 Y111.867 E1.70412
G1 X102.077 Y111.261 E1.72881
G1 X101.995 Y110.473 E1.76043
G1 X101.978 Y109.865 E1.78471
G1 X102.036 Y109.078 E1.8162
G1 X102.12 Y108.487 E1.84003
G1 X102.367 Y107.52 E1.87986
G1 X102.81 Y106.453 E1.92597
G1 X103.204 Y105.744 E1.95835
G1 X103.61 Y105.152 E1.987
G1 X103.977 Y104.686 E2.01067
G0 F9000 X104.259 Y104.97
G1 F1800 X104.652 Y104.579 E2.0328
G1 X105.184 Y104.093 E2.06156
G1 X105.815 Y103.634 E2.0927
G1 X106.309 Y103.33 E2.11585
G1 X106.993 Y103.001 E2.14615
G1 X107.521 Y102.791 E2.16883
G1 X108.236 Y102.588 E2.19849
G1 X108.811 Y102.469 E2.22193
G1 X109.567 Y102.393 E2.25225
G1 X110.143 Y102.378 E2.27525
G1 X111.398 Y102.508 E2.32561
G1 X112.376 Y102.753 E2.36585
G1 X113.387 Y103.176 E2.40959
G1 X114.056 Y103.551 E2.4402
G1 X114.628 Y103.945 E2.46792
G1 X115.281 Y104.513 E2.50246
G1 X115.75 Y104.981 E2.52891
G1 X116.363 Y105.811 E2.57009
G1 X116.67 Y106.309 E2.59344
G1 X116.999 Y106.993 E2.62373
G1 X117.209 Y107.521 E2.64641
G1 X117.412 Y108.236 E2.67608
G1 X117.531 Y108.808 E2.6994
G1 X117.607 Y109.565 E2.72976
G1 X117.622 Y110.143 E2.75284
G1 X117.566 Y110.886 E2.78258
G1 X117.484 Y111.454 E2.80548
G1 X117.247 Y112.375 E2.84344
G1 X116.824 Y113.386 E2.88718
G1 X116.449 Y114.056 E2.91782
G1 X116.054 Y114.63 E2.94563
G1 X115.741 Y115.03 E2.96591
G1 X115.348 Y115.421 E2.98803
G1 X114.816 Y115.907 E3.01679
G1 X114.185 Y116.366 E3.04793
G1 X113.691 Y116.67 E3.07108
G1 X113.007 Y116.999 E3.10138
G1 X112.479 Y117.209 E3.12406
G1 X111.764 Y117.412 E3.15372
G1 X111.183 Y117.531 E3.17739
G1 X110.435 Y117.606 E3.2074
G1 X109.857 Y117.622 E3.23047
G1 X109.114 Y117.566 E3.26021
G1 X108.546 Y117.484 E3.28312
G1 X107.625 Y117.247 E3.32108
G1 X106.611 Y116.822 E3.36496
G1 X105.944 Y116.449 E3.39546
G1 X105.37 Y116.054 E3.42327
G1 X104.718 Y115.486 E3.45778
G1 X104.25 Y115.019 E3.48417
G1 X103.636 Y114.189 E3.52538
G1 X103.328 Y113.687 E3.54888
G1 X103.001 Y113.007 E3.579
G1 X102.791 Y112.479 E3.60168
G1 X102.588 Y111.764 E3.63134
G1 X102.469 Y111.183 E3.65501
G1 X102.394 Y110.438 E3.6849
G1 X102.378 Y109.857 E3.70809
G1 X102.434 Y109.114 E3.73783
G1 X102.516 Y108.546 E3.76074
G1 X102.753 Y107.625 E3.7987
G1 X103.176 Y106.614 E3.84244
G1 X103.551 Y105.944 E3.87308
G1 X103.946 Y105.37 E3.90089
G1 X104.259 Y104.97 E3.92116
G0 F9000 X104.542 Y105.254
G1 F1800 X104.935 Y104.863 E3.94329
G1 X105.453 Y104.388 E3.97134
G1 X106.044 Y103.962 E4.00042
G1 X106.517 Y103.671 E4.02258
G1 X107.161 Y103.364 E4.05106
G1 X107.666 Y103.163 E4.07275
G1 X108.34 Y102.974 E4.10069
G1 X108.89 Y102.861 E4.1231
G1 X109.601 Y102.792 E4.15161
G1 X110.151 Y102.778 E4.17357
G1 X111.352 Y102.905 E4.22177
G1 X112.271 Y103.139 E4.25962
G1 X113.226 Y103.543 E4.30101
G1 X113.856 Y103.897 E4.32985
G1 X114.398 Y104.272 E4.35615
G1 X115.014 Y104.811 E4.38882
G1 X115.466 Y105.263 E4.41434
G1 X116.035 Y106.041 E4.45281
G1 X116.329 Y106.517 E4.47514
G1 X116.636 Y107.161 E4.50361
G1 X116.837 Y107.666 E4.5253
G1 X117.026 Y108.34 E4.55324
G1 X117.138 Y108.887 E4.57553
G1 X117.208 Y109.599 E4.60408
G1 X117.222 Y110.151 E4.62612
G1 X117.167 Y110.851 E4.65414
G1 X117.089 Y111.395 E4.67608
G1 X116.861 Y112.27 E4.71217
G1 X116.458 Y113.225 E4.75354
G1 X116.103 Y113.856 E4.78244
G1 X115.727 Y114.4 E4.80883
G1 X115.065 Y115.137 E4.84837
G1 X114.547 Y115.612 E4.87642
G1 X113.956 Y116.038 E4.9055
G1 X113.483 Y116.329 E4.92766
G1 X112.839 Y116.636 E4.95614
G1 X112.334 Y116.837 E4.97783
G1 X111.66 Y117.026 E5.00577
G1 X111.106 Y117.138 E5.02833
G1 X110.401 Y117.208 E5.0566
G1 X109.85 Y117.222 E5.0786
G1 X109.149 Y117.167 E5.10667
G1 X108.605 Y117.089 E5.1286
G1 X107.73 Y116.861 E5.16469
G1 X106.772 Y116.456 E5.2062
G1 X106.144 Y116.103 E5.23496
G1 X105.6 Y115.727 E5.26135
G1 X104.985 Y115.188 E5.29399
G1 X104.534 Y114.737 E5.31944
G1 X103.964 Y113.959 E5.35794
G1 X103.67 Y113.48 E5.38037
G1 X103.364 Y112.839 E5.40872
G1 X103.163 Y112.334 E5.43041
G1 X102.974 Y111.66 E5.45835
G1 X102.862 Y111.106 E5.48091
G1 X102.792 Y110.403 E5.50911
G1 X102.778 Y109.849 E5.53123
G1 X102.833 Y109.149 E5.55925
G1 X102.911 Y108.605 E5.58118
G1 X103.139 Y107.73 E5.61727
G1 X103.542 Y106.775 E5.65864
G1 X103.897 Y106.144 E5.68754
G1 X104.273 Y105.6 E5.71394
G1 X104.542 Y105.254 E5.73143
G0 F9000 X104.824 Y105.537
G1 F1800 X105.217 Y105.146 E5.75355
G1 X105.722 Y104.684 E5.78087
G1 X106.273 Y104.29 E5.80791
G1 X106.725 Y104.013 E5.82907
G1 X107.328 Y103.727 E5.8557
G1 X107.812 Y103.536 E5.87647
G1 X108.443 Y103.361 E5.9026
G1 X108.968 Y103.254 E5.92399
G1 X109.634 Y103.191 E5.95069
G1 X110.158 Y103.178 E5.97161
G1 X111.306 Y103.303 E6.0177
G1 X112.166 Y103.525 E6.05315
G1 X113.065 Y103.909 E6.09217
G1 X113.655 Y104.243 E6.11923
G1 X114.168 Y104.599 E6.14415
G1 X114.747 Y105.109 E6.17494
G1 X115.182 Y105.545 E6.19953
G1 X115.708 Y106.27 E6.23528
G1 X115.987 Y106.725 E6.25658
G1 X116.273 Y107.328 E6.28321
G1 X116.464 Y107.812 E6.30398
G1 X116.639 Y108.443 E6.33012
G1 X116.746 Y108.966 E6.35142
G1 X116.809 Y109.632 E6.37812
G1 X116.822 Y110.158 E6.39912
G1 X116.769 Y110.815 E6.42543
G1 X116.693 Y111.336 E6.44645
G1 X116.475 Y112.165 E6.48066
G1 X116.091 Y113.064 E6.51967
G1 X115.757 Y113.655 E6.54677
G1 X115.4 Y114.17 E6.57178
G1 X115.176 Y114.463 E6.5865
G1 X114.783 Y114.854 E6.60863
G1 X114.278 Y115.316 E6.63594
G1 X113.727 Y115.71 E6.66298
G1 X113.275 Y115.987 E6.68414
G1 X112.672 Y116.273 E6.71077
G1 X112.188 Y116.464 E6.73154
G1 X111.557 Y116.639 E6.75768
G1 X111.028 Y116.746 E6.77922
G1 X110.366 Y116.809 E6.80576
G1 X109.842 Y116.822 E6.82668
G1 X109.185 Y116.769 E6.85299
G1 X108.664 Y116.693 E6.874
G1 X107.835 Y116.475 E6.90821
G1 X106.933 Y116.09 E6.94736
G1 X106.344 Y115.757 E6.97436
G1 X105.83 Y115.4 E6.99934
G1 X105.252 Y114.89 E7.03011
G1 X104.818 Y114.455 E7.05463
G1 X104.291 Y113.729 E7.09044
G1 X104.012 Y113.272 E7.11181
G1 X103.727 Y112.672 E7.13832
G1 X103.536 Y112.188 E7.15908
G1 X103.361 Y111.557 E7.18522
G1 X103.254 Y111.028 E7.20676
G1 X103.191 Y110.369 E7.23318
G1 X103.178 Y109.842 E7.25422
G1 X103.231 Y109.185 E7.28053
G1 X103.307 Y108.664 E7.30155
G1 X103.525 Y107.835 E7.33576
G1 X103.909 Y106.936 E7.37477
G1 X104.243 Y106.345 E7.40187
G1 X104.6 Y105.83 E7.42688
G1 X104.824 Y105.537 E7.4416
G0 F9000 X105.106 Y105.821
G1 F1800 X105.499 Y105.43 E7.46373
G1 X105.992 Y104.98 E7.49037
G1 X106.501 Y104.619 E7.51527
G1 X106.932 Y104.355 E7.53545
G1 X107.496 Y104.09 E7.56032
G1 X108.022 Y103.887 E7.58282
G1 X108.546 Y103.747 E7.60447
G1 X109.047 Y103.646 E7.62487
G1 X109.668 Y103.589 E7.64976
G1 X110.166 Y103.578 E7.66964
G1 X111.259 Y103.7 E7.71353
G1 X112.061 Y103.911 E7.74663
G1 X112.904 Y104.275 E7.78328
G1 X113.455 Y104.59 E7.80861
G1 X113.938 Y104.926 E7.83209
G1 X114.48 Y105.406 E7.86099
G1 X114.898 Y105.826 E7.88464
G1 X115.38 Y106.5 E7.91771
G1 X115.645 Y106.932 E7.93794
G1 X115.91 Y107.496 E7.96281
G1 X116.113 Y108.022 E7.98531
G1 X116.253 Y108.546 E8.00696
G1 X116.354 Y109.045 E8.02728
G1 X116.411 Y109.666 E8.05217
G1 X116.422 Y110.166 E8.07213
G1 X116.371 Y110.779 E8.09668
G1 X116.297 Y111.277 E8.11678
G1 X116.089 Y112.06 E8.14911
G1 X115.725 Y112.903 E8.18576
G1 X115.41 Y113.455 E8.21113
G1 X115.073 Y113.939 E8.23467
G1 X114.894 Y114.179 E8.24662
G1 X114.501 Y114.57 E8.26874
G1 X114.008 Y115.02 E8.29538
G1 X113.499 Y115.381 E8.32029
G1 X113.068 Y115.645 E8.34046
G1 X112.504 Y115.91 E8.36533
G1 X111.978 Y116.113 E8.38784
G1 X111.454 Y116.253 E8.40948
G1 X110.95 Y116.354 E8.43
G1 X110.332 Y116.411 E8.45477
G1 X109.769 Y116.42 E8.47724
G1 X109.221 Y116.371 E8.4992
G1 X108.723 Y116.297 E8.5193
G1 X107.94 Y116.089 E8.55163
G1 X107.094 Y115.724 E8.58841
G1 X106.545 Y115.41 E8.61365
G1 X106.061 Y115.073 E8.63719
G1 X105.519 Y114.593 E8.66608
G1 X105.102 Y114.174 E8.68968
G1 X104.619 Y113.5 E8.72277
G1 X104.354 Y113.065 E8.7431
G1 X104.09 Y112.504 E8.76785
G1 X103.887 Y111.978 E8.79035
G1 X103.747 Y111.454 E8.812
G1 X103.646 Y110.95 E8.83251
G1 X103.589 Y110.334 E8.85721
G1 X103.578 Y109.834 E8.87717
G1 X103.629 Y109.221 E8.90172
G1 X103.703 Y108.723 E8.92181
G1 X103.911 Y107.94 E8.95415
G1 X104.275 Y107.097 E8.9908
G1 X104.59 Y106.545 E9.01616
G1 X104.927 Y106.061 E9.0397
G1 X105.106 Y105.821 E9.05165
G0 F9000 X105.388 Y106.104
G1 F1800 X105.781 Y105.713 E9.07378
G1 X106.261 Y105.275 E9.09971
G1 X106.73 Y104.947 E9.12255
G1 X107.16 Y104.686 E9.14263
G1 X107.664 Y104.453 E9.16479
G1 X108.125 Y104.274 E9.18453
G1 X108.649 Y104.134 E9.20618
G1 X109.148 Y104.035 E9.22648
G1 X109.702 Y103.988 E9.24867
G1 X110.201 Y103.979 E9.26859
G1 X111.213 Y104.097 E9.30926
G1 X111.956 Y104.297 E9.33997
G1 X112.743 Y104.641 E9.37425
G1 X113.255 Y104.936 E9.39783
G1 X113.708 Y105.253 E9.4199
G1 X114.213 Y105.704 E9.44692
G1 X114.614 Y106.108 E9.46964
G1 X115.053 Y106.729 E9.49999
G1 X115.314 Y107.16 E9.5201
G1 X115.547 Y107.664 E9.54227
G1 X115.726 Y108.125 E9.562
G1 X115.866 Y108.649 E9.58365
G1 X115.965 Y109.146 E9.60388
G1 X116.012 Y109.7 E9.62607
G1 X116.021 Y110.196 E9.64587
G1 X115.972 Y110.744 E9.66783
G1 X115.897 Y111.242 E9.68793
G1 X115.703 Y111.955 E9.71742
G1 X115.359 Y112.742 E9.7517
G1 X115.064 Y113.255 E9.77532
G1 X114.746 Y113.709 E9.79744
G1 X114.635 Y113.868 E9.80518
G1 X114.219 Y114.287 E9.82875
G1 X113.739 Y114.725 E9.85468
G1 X113.27 Y115.053 E9.87752
G1 X112.84 Y115.314 E9.8976
G1 X112.336 Y115.547 E9.91976
G1 X111.875 Y115.726 E9.9395
G1 X111.351 Y115.866 E9.96115
G1 X110.851 Y115.964 E9.98148
G1 X110.297 Y116.012 E10.00368
G1 X109.804 Y116.021 E10.02336
G1 X109.256 Y115.972 E10.04532
G1 X108.759 Y115.897 E10.06538
G1 X108.045 Y115.703 E10.09491
G1 X107.255 Y115.358 E10.12931
G1 X106.745 Y115.064 E10.15281
G1 X106.291 Y114.746 E10.17493
G1 X105.786 Y114.295 E10.20196
G1 X105.386 Y113.892 E10.22462
G1 X104.946 Y113.27 E10.25503
G1 X104.685 Y112.838 E10.27517
G1 X104.453 Y112.336 E10.29724
G1 X104.274 Y111.875 E10.31698
G1 X104.134 Y111.351 E10.33863
G1 X104.036 Y110.851 E10.35896
G1 X103.988 Y110.299 E10.38108
G1 X103.979 Y109.804 E10.40084
G1 X104.028 Y109.256 E10.4228
G1 X104.103 Y108.758 E10.4429
G1 X104.297 Y108.045 E10.47239
G1 X104.641 Y107.258 E10.50667
G1 X104.936 Y106.745 E10.53029
G1 X105.254 Y106.291 E10.55241
G1 X105.388 Y106.104 E10.5616
G1 F1800 E7.5616
;MESH:EyeBall.stl
G0 F9000 X105.707 Y106.881
G0 X104.923 Y108.336
G0 X104.655 Y110
G0 X104.915 Y111.652
G0 X105.668 Y113.129
G0 X106.871 Y114.331
G0 X108.2 Y115.009
G0 X109.831 Y115.476
G0 X109.826 Y115.622
;TYPE:WALL-OUTER
G1 F1800 E10.5616
G1 X109.303 Y115.575 E10.58255
G1 X108.852 Y115.508 E10.60075
G1 X108.161 Y115.319 E10.62934
G1 X107.428 Y114.997 E10.6613
G1 X106.956 Y114.724 E10.68306
G1 X106.532 Y114.425 E10.70377
G1 X106.055 Y113.997 E10.72935
G1 X105.684 Y113.624 E10.75034
G1 X105.275 Y113.04 E10.7788
G1 X105.042 Y112.656 E10.79673
G1 X104.819 Y112.177 E10.81782
G1 X104.657 Y111.76 E10.83567
G1 X104.522 Y111.256 E10.8565
G1 X104.433 Y110.806 E10.8748
G1 X104.387 Y110.275 E10.89608
G1 X104.378 Y109.826 E10.914
G1 X104.425 Y109.303 E10.93496
G1 X104.492 Y108.852 E10.95316
G1 X104.681 Y108.161 E10.98175
G1 X105.003 Y107.428 E11.0137
G1 X105.274 Y106.959 E11.03532
G1 X105.681 Y106.377 E11.06367
G1 X106.057 Y106.003 E11.08483
G1 X106.524 Y105.578 E11.11004
G1 X106.949 Y105.282 E11.13071
G1 X107.344 Y105.042 E11.14915
G1 X107.822 Y104.82 E11.17019
G1 X108.24 Y104.657 E11.1881
G1 X108.744 Y104.522 E11.20892
G1 X109.193 Y104.432 E11.2272
G1 X109.724 Y104.387 E11.24847
G1 X110.174 Y104.378 E11.26643
G1 X110.697 Y104.425 E11.28739
G1 X111.148 Y104.492 E11.30559
G1 X111.839 Y104.681 E11.33418
G1 X112.572 Y105.003 E11.36613
G1 X113.042 Y105.275 E11.38781
G1 X113.468 Y105.575 E11.4086
G1 X113.945 Y106.003 E11.43418
G1 X114.316 Y106.376 E11.45518
G1 X114.725 Y106.96 E11.48364
G1 X114.958 Y107.344 E11.50156
G1 X115.18 Y107.822 E11.5226
G1 X115.343 Y108.24 E11.5405
G1 X115.477 Y108.741 E11.5612
G1 X115.568 Y109.193 E11.57961
G1 X115.613 Y109.722 E11.6008
G1 X115.622 Y110.174 E11.61884
G1 X115.575 Y110.697 E11.6398
G1 X115.508 Y111.148 E11.658
G1 X115.319 Y111.839 E11.68659
G1 X114.997 Y112.572 E11.71854
G1 X114.726 Y113.041 E11.74016
G1 X114.319 Y113.623 E11.76851
G1 X113.943 Y113.997 E11.78967
G1 X113.476 Y114.422 E11.81487
G1 X113.051 Y114.718 E11.83555
G1 X112.656 Y114.958 E11.85399
G1 X112.178 Y115.18 E11.87503
G1 X111.76 Y115.343 E11.89294
G1 X111.256 Y115.478 E11.91376
G1 X110.806 Y115.567 E11.93207
G1 X110.275 Y115.613 E11.95334
G1 X109.826 Y115.622 E11.97127
G0 F9000 X110 Y115.204
G1 F1800 X111.609 Y114.95 E12.03628
G1 X113.059 Y114.211 E12.10124
G1 X114.211 Y113.059 E12.16626
G1 X114.943 Y111.621 E12.23066
G1 X115.205 Y110 E12.2962
G1 X114.951 Y108.391 E12.36121
G1 X114.218 Y106.953 E12.42563
G1 X113.059 Y105.789 E12.49119
G1 X111.609 Y105.049 E12.55617
G1 X110 Y104.794 E12.62119
G1 X108.577 Y105.02 E12.67869
G1 X108.391 Y105.049 E12.68621
G1 X106.953 Y105.782 E12.75063
G1 X105.789 Y106.941 E12.81619
G1 X105.057 Y108.379 E12.88059
G1 X104.796 Y110 E12.94612
G1 X105.049 Y111.609 E13.01113
G1 X105.782 Y113.047 E13.07555
G1 X106.663 Y113.933 E13.12542
G1 X106.953 Y114.217 E13.14162
G1 X108.391 Y114.951 E13.20605
G1 X110 Y115.204 E13.27106
G0 F9000 X110.294 Y115.385
;TYPE:SKIN
G1 F1800 X110.546 Y115.355 E13.27369
G1 X111.506 Y115.183 E13.28378
G1 X112.683 Y114.663 E13.2971
G1 X113.512 Y114.078 E13.30761
G1 X114.219 Y113.37 E13.31797
G1 X114.855 Y112.309 E13.33077
G1 X115.18 Y111.503 E13.33977
G1 X115.386 Y110.294 E13.35246
G1 X115.302 Y109.08 E13.36506
