;FLAVOR:Marlin
;TIME:8696
;Filament used: 7.2487m
;Layer height: 0.2
;MINX:59.4
;MINY:44.456
;MINZ:0.24
;MAXX:160.6
;MAXY:175.619
;MAXZ:17.76
;Generated with Cura_SteamEngine 4.5.0
M140 S50
M105
M190 S50
M104 S215
M105
M109 S215
M82 ;absolute extrusion mode
M201 X500.00 Y500.00 Z100.00 E5000.00 ;Setup machine max acceleration
M203 X500.00 Y500.00 Z10.00 E50.00 ;Setup machine max feedrate
M204 P500.00 R1000.00 T500.00 ;Setup Print/Retract/Travel acceleration
M205 X8.00 Y8.00 Z0.40 E5.00 ;Setup Jerk
M220 S100 ;Reset Feedrate
M221 S100 ;Reset Flowrate

G28 ;Home

G92 E0 ;Reset Extruder
G1 Z2.0 F3000 ;Move Z Axis up
G1 X10.1 Y20 Z0.28 F5000.0 ;Move to start position
G1 X10.1 Y200.0 Z0.28 F1500.0 E15 ;Draw the first line
G1 X10.4 Y200.0 Z0.28 F5000.0 ;Move to side a little
G1 X10.4 Y20 Z0.28 F1500.0 E30 ;Draw the second line
G92 E0 ;Reset Extruder
G1 Z2.0 F3000 ;Move Z Axis up

G92 E0
G92 E0
G1 F1800 E-3
;LAYER_COUNT:98
;LAYER:0
M106 S63.8
M204 S500
M205 X6 Y6
G0 F9000 X61.961 Y48.167 Z0.24
;TYPE:SKIRT
G1 F1800 E0
G1 X62.589 Y47.495 E0.03671
G1 X63.274 Y46.879 E0.07348
G1 X64.01 Y46.326 E0.11022
G1 X64.791 Y45.838 E0.14698
G1 X65.611 Y45.42 E0.18371
G1 X66.465 Y45.075 E0.22047
G1 X67.345 Y44.805 E0.25721
G1 X68.245 Y44.613 E0.29394
G1 X69.159 Y44.499 E0.3307
G1 X69.712 Y44.469 E0.35281
G1 X70.33 Y44.456 E0.37748
G1 X149.293 Y44.456 E3.52906
G1 X150.143 Y44.467 E3.56299
G1 X151.062 Y44.52 E3.59973
G1 X151.973 Y44.653 E3.63648
G1 X152.869 Y44.864 E3.67322
G1 X153.743 Y45.152 E3.70994
G1 X154.59 Y45.515 E3.74672
G1 X155.401 Y45.95 E3.78346
G1 X156.171 Y46.454 E3.82019
G1 X156.895 Y47.023 E3.85694
G1 X157.567 Y47.653 E3.8937
G1 X158.182 Y48.338 E3.93044
G1 X158.735 Y49.074 E3.96719
G1 X159.222 Y49.855 E4.00392
G1 X159.639 Y50.676 E4.04068
G1 X159.984 Y51.53 E4.07744
G1 X160.253 Y52.41 E4.11416
G1 X160.445 Y53.311 E4.15093
G1 X160.558 Y54.224 E4.18765
G1 X160.587 Y54.768 E4.20939
G1 X160.6 Y55.386 E4.23406
G1 X160.6 Y164.281 E8.5803
G1 X160.59 Y165.139 E8.61455
G1 X160.539 Y166.058 E8.65128
G1 X160.408 Y166.97 E8.68805
G1 X160.198 Y167.866 E8.72479
G1 X159.912 Y168.741 E8.76153
G1 X159.551 Y169.588 E8.79827
G1 X159.117 Y170.4 E8.83502
G1 X158.615 Y171.172 E8.87178
G1 X158.047 Y171.897 E8.90853
G1 X157.419 Y172.57 E8.94527
G1 X156.735 Y173.186 E8.98201
G1 X156 Y173.74 E9.01875
G1 X155.22 Y174.229 E9.05549
G1 X154.4 Y174.648 E9.09224
G1 X153.547 Y174.994 E9.12898
G1 X152.667 Y175.265 E9.16573
G1 X151.767 Y175.458 E9.20247
G1 X150.853 Y175.573 E9.23924
G1 X150.288 Y175.604 E9.26182
G1 X149.67 Y175.617 E9.28649
G1 X78.004 Y175.619 E12.14684
G1 X70.713 Y175.617 E12.43784
G1 X69.874 Y175.607 E12.47133
G1 X68.955 Y175.555 E12.50807
G1 X68.044 Y175.424 E12.5448
G1 X67.147 Y175.214 E12.58157
G1 X66.272 Y174.928 E12.61831
G1 X65.426 Y174.566 E12.65504
G1 X64.614 Y174.132 E12.69178
G1 X63.842 Y173.63 E12.72854
G1 X63.117 Y173.062 E12.7653
G1 X62.445 Y172.434 E12.80201
G1 X61.829 Y171.749 E12.83878
G1 X61.275 Y171.014 E12.87551
G1 X60.786 Y170.233 E12.91229
G1 X60.368 Y169.413 E12.94902
G1 X60.022 Y168.56 E12.98576
G1 X59.751 Y167.68 E13.02251
G1 X59.558 Y166.78 E13.05925
G1 X59.444 Y165.867 E13.09597
G1 X59.413 Y165.294 E13.11888
G1 X59.4 Y164.675 E13.14359
G1 X59.4 Y55.73 E17.49182
G1 X59.41 Y54.922 E17.52407
G1 X59.462 Y54.002 E17.56085
G1 X59.594 Y53.091 E17.59759
G1 X59.805 Y52.195 E17.63433
G1 X60.092 Y51.32 E17.67108
G1 X60.455 Y50.474 E17.70782
G1 X60.889 Y49.662 E17.74457
G1 X61.392 Y48.891 E17.78131
G1 X61.961 Y48.167 E17.81807
G0 F9000 X62.355 Y48.323
G1 F1800 X62.981 Y47.673 E17.85408
G1 X63.662 Y47.08 E17.89012
G1 X64.394 Y46.55 E17.92619
G1 X65.169 Y46.087 E17.96222
G1 X65.982 Y45.694 E17.99827
G1 X66.827 Y45.374 E18.03433
G1 X67.696 Y45.131 E18.07034
G1 X68.584 Y44.965 E18.1064
G1 X69.723 Y44.869 E18.15202
G1 X70.33 Y44.856 E18.17625
G1 X149.293 Y44.856 E21.32784
G1 X150.137 Y44.867 E21.36153
G1 X151.039 Y44.92 E21.39759
G1 X151.932 Y45.052 E21.43362
G1 X152.81 Y45.263 E21.46966
G1 X153.666 Y45.551 E21.5057
G1 X154.493 Y45.913 E21.54174
G1 X155.285 Y46.348 E21.5778
G1 X156.036 Y46.85 E21.61385
G1 X156.739 Y47.417 E21.6499
G1 X157.389 Y48.044 E21.68595
G1 X157.981 Y48.726 E21.72199
G1 X158.511 Y49.457 E21.75803
G1 X158.973 Y50.233 E21.79407
G1 X159.366 Y51.046 E21.83011
G1 X159.684 Y51.891 E21.86615
G1 X159.927 Y52.761 E21.9022
G1 X160.092 Y53.649 E21.93825
G1 X160.187 Y54.779 E21.98351
G1 X160.2 Y55.386 E22.00774
G1 X160.2 Y164.281 E26.35398
G1 X160.19 Y165.134 E26.38803
G1 X160.139 Y166.036 E26.42408
G1 X160.008 Y166.93 E26.46015
G1 X159.799 Y167.808 E26.49617
G1 X159.513 Y168.665 E26.53223
G1 X159.152 Y169.493 E26.56828
G1 X158.72 Y170.285 E26.60429
G1 X158.219 Y171.037 E26.64035
G1 X157.653 Y171.741 E26.6764
G1 X157.028 Y172.392 E26.71242
G1 X156.347 Y172.986 E26.74849
G1 X155.616 Y173.517 E26.78455
G1 X154.842 Y173.981 E26.82057
G1 X154.029 Y174.375 E26.85663
G1 X153.185 Y174.695 E26.89265
G1 X152.315 Y174.94 E26.92873
G1 X151.428 Y175.106 E26.96474
G1 X150.277 Y175.204 E27.01085
G1 X149.67 Y175.217 E27.03508
G1 X78.004 Y175.219 E29.89543
G1 X70.713 Y175.217 E30.18643
G1 X69.879 Y175.207 E30.21971
G1 X68.978 Y175.156 E30.25573
G1 X68.084 Y175.025 E30.2918
G1 X67.206 Y174.815 E30.32783
G1 X66.349 Y174.529 E30.36389
G1 X65.521 Y174.168 E30.39994
G1 X64.729 Y173.735 E30.43596
G1 X63.977 Y173.234 E30.47203
G1 X63.273 Y172.668 E30.50808
G1 X62.622 Y172.042 E30.54413
G1 X62.029 Y171.361 E30.58017
G1 X61.498 Y170.63 E30.61623
G1 X61.034 Y169.855 E30.65228
G1 X60.641 Y169.043 E30.68829
G1 X60.321 Y168.198 E30.72435
G1 X60.077 Y167.329 E30.76037
G1 X59.91 Y166.441 E30.79644
G1 X59.813 Y165.284 E30.84278
G1 X59.8 Y164.675 E30.86709
G1 X59.8 Y55.73 E35.21532
G1 X59.81 Y54.927 E35.24737
G1 X59.862 Y54.025 E35.28343
G1 X59.994 Y53.132 E35.31946
G1 X60.204 Y52.254 E35.35549
G1 X60.491 Y51.397 E35.39157
G1 X60.853 Y50.57 E35.4276
G1 X61.286 Y49.778 E35.46362
G1 X61.788 Y49.027 E35.49968
G1 X62.355 Y48.323 E35.53575
G1 F1800 E32.53575
;MESH:EyeGlassFrameHolder_Circuit_Casing_Base.stl
G0 F9000 X96.213 Y73.918
G0 X94.359 Y73.311
G0 X95.112 Y85.556
G0 X99.666 Y92.745
;TYPE:WALL-INNER
G1 F1800 E35.53575
G1 X99.827 Y92.965 E35.54664
G1 X99.988 Y92.745 E35.55312
G1 X104.908 Y86.01 E35.88601
G1 X105.227 Y86.447 E35.9076
G1 X105.388 Y86.667 E35.91848
G1 X109.985 Y92.965 E36.22969
G1 X115.08 Y85.993 E36.57434
G1 X115.412 Y86.447 E36.59679
G1 X120.012 Y92.745 E36.90807
G1 X120.173 Y92.965 E36.91895
G1 X120.334 Y92.745 E36.92543
G1 X125.45 Y85.742 E37.27157
G1 X125.45 Y73.377 E37.76509
G1 X120.333 Y66.37 E38.11139
G1 X120.173 Y66.15 E38.12224
G1 X120.012 Y66.37 E38.12872
G1 X115.241 Y72.903 E38.4516
G1 X115.08 Y73.123 E38.46248
G1 X114.919 Y72.903 E38.46896
G1 X110.146 Y66.37 E38.79188
G1 X109.985 Y66.15 E38.80276
G1 X109.825 Y66.37 E38.80923
G1 X105.067 Y72.887 E39.13128
G1 X104.907 Y73.107 E39.14214
G1 X104.746 Y72.887 E39.14862
G1 X99.987 Y66.37 E39.4707
G1 X99.827 Y66.15 E39.48156
G1 X99.666 Y66.37 E39.48804
G1 X94.55 Y73.374 E39.83421
G1 X94.55 Y85.741 E40.32781
G1 X99.666 Y92.745 E40.67399
G0 F9000 X99.827 Y92.287
G1 F1800 X99.988 Y92.067 E40.68487
G1 X104.704 Y85.611 E41.00397
G1 X104.704 Y73.507 E41.48706
G1 X99.987 Y67.048 E41.80628
G1 X99.827 Y66.828 E41.81714
G1 X99.666 Y67.048 E41.82362
G1 X94.95 Y73.505 E42.14275
G1 X94.95 Y85.61 E42.62589
G1 X99.666 Y92.067 E42.94502
G1 X99.827 Y92.287 E42.9515
G0 F9000 X99.827 Y91.609
;TYPE:WALL-OUTER
G1 F1800 X104.304 Y85.48 E43.25443
G1 X104.304 Y73.637 E43.72711
G1 X99.827 Y67.506 E44.03011
G1 X95.35 Y73.636 E44.33308
G1 X95.35 Y85.479 E44.80576
G1 X99.827 Y91.609 E45.10872
G0 F9000 X100.068 Y91.785
G0 X104.908 Y86.328
G0 X109.825 Y92.067
;TYPE:WALL-INNER
G1 F1800 X109.985 Y92.287 E45.11958
G1 X110.146 Y92.067 E45.12606
G1 X114.864 Y85.611 E45.44521
G1 X114.864 Y73.506 E45.92834
G1 X110.146 Y67.048 E46.24755
G1 X109.985 Y66.828 E46.25843
G1 X109.825 Y67.048 E46.2649
G1 X105.11 Y73.506 E46.58404
G1 X105.11 Y85.609 E47.0671
G1 X109.825 Y92.067 E47.38624
G0 F9000 X109.985 Y91.609
;TYPE:WALL-OUTER
G1 F1800 X114.464 Y85.48 E47.68922
G1 X114.464 Y73.637 E48.1619
G1 X109.985 Y67.506 E48.46494
G1 X105.51 Y73.636 E48.76786
G1 X105.51 Y85.479 E49.24054
G1 X109.985 Y91.609 E49.54346
G0 F9000 X109.743 Y91.784
G0 X110.024 Y93.214
G0 X110.082 Y93.279
G0 X115.175 Y87.598
G0 X120.012 Y92.067
;TYPE:WALL-INNER
G1 F1800 X120.173 Y92.287 E49.55434
G1 X120.334 Y92.067 E49.56082
G1 X125.05 Y85.611 E49.87992
G1 X125.05 Y73.507 E50.36302
G1 X120.333 Y67.048 E50.68224
G1 X120.173 Y66.828 E50.69309
G1 X120.012 Y67.048 E50.69958
G1 X115.296 Y73.505 E51.01871
G1 X115.296 Y85.61 E51.50184
G1 X120.012 Y92.067 E51.82097
G0 F9000 X120.173 Y91.609
;TYPE:WALL-OUTER
G1 F1800 X124.65 Y85.48 E52.12391
G1 X124.65 Y73.637 E52.59659
G1 X120.173 Y67.506 E52.89959
G1 X115.696 Y73.636 E53.20255
G1 X115.696 Y85.479 E53.67523
G1 X120.173 Y91.609 E53.9782
G0 F9000 X120.414 Y91.785
G0 X119.892 Y94.604
G0 X119.891 Y106.029
G0 X115.014 Y113.217
;TYPE:WALL-INNER
G1 F1800 X115.175 Y113.437 E53.98908
G1 X115.336 Y113.217 E53.99556
G1 X120.007 Y106.824 E54.31157
G1 X120.169 Y106.603 E54.3225
G1 X120.453 Y106.214 E54.34173
G1 X120.453 Y94.589 E54.80571
G1 X120.408 Y93.786 E54.83781
G1 X119.936 Y93.139 E54.86977
G1 X115.175 Y86.621 E55.19193
G1 X110.12 Y93.544 E55.53406
G1 X110.081 Y93.595 E55.53662
G1 X110.071 Y93.581
G1 X109.748 Y93.139 E55.55847
G1 X105.15 Y86.841 E55.82875
G1 X104.99 Y86.621 E55.83818
G1 X104.829 Y86.841 E55.84466
G1 X99.711 Y93.846 E56.19091
G1 X99.711 Y106.214 E56.68455
G1 X99.937 Y106.524 E56.69986
G1 X104.99 Y113.437 E57.04162
G1 X109.98 Y106.602 E57.37939
G1 X110.081 Y106.464 E57.38621
G1 X110.114 Y106.51
G1 X115.014 Y113.217 E57.71773
G0 F9000 X115.175 Y112.759
G1 F1800 X115.336 Y112.539 E57.72861
G1 X120.053 Y106.083 E58.04774
G1 X120.053 Y94.6 E58.50605
G1 X120.015 Y93.926 E58.53299
G1 X115.336 Y87.519 E58.84964
G1 X115.175 Y87.299 E58.86052
G1 X115.015 Y87.519 E58.86699
G1 X110.442 Y93.781 E59.17647
G1 X110.298 Y93.973 E59.18605
G1 X110.298 Y106.083 E59.66938
G1 X115.014 Y112.539 E59.98848
G1 X115.175 Y112.759 E59.99496
G0 F9000 X115.175 Y112.081
;TYPE:WALL-OUTER
G1 F1800 X119.653 Y105.952 E60.29792
G1 X119.653 Y94.611 E60.75056
G1 X119.622 Y94.067 E60.77231
G1 X115.175 Y87.977 E61.07328
G1 X110.764 Y94.018 E61.37182
G1 X110.698 Y94.106 E61.37621
G1 X110.698 Y105.952 E61.84901
G1 X115.175 Y112.081 E62.15195
G0 F9000 X115.416 Y112.257
G0 X115.175 Y112.46
G0 X109.985 Y107.582
G0 X105.15 Y112.539
;TYPE:WALL-INNER
G1 F1800 X109.865 Y106.082 E62.47106
G1 X109.865 Y94.599 E62.92937
G1 X109.827 Y93.925 E62.95631
G1 X105.15 Y87.519 E63.27288
G1 X104.99 Y87.299 E63.28374
G1 X104.829 Y87.519 E63.29022
G1 X100.256 Y93.78 E63.59967
G1 X100.111 Y93.977 E63.60943
G1 X100.111 Y106.083 E64.0926
G1 X104.829 Y112.539 E64.41175
G1 X104.99 Y112.759 E64.42263
G1 X105.15 Y112.539 E64.4291
G0 F9000 X104.99 Y112.081
;TYPE:WALL-OUTER
G1 F1800 X109.465 Y105.952 E64.73198
G1 X109.465 Y94.61 E65.18467
G1 X109.434 Y94.066 E65.20642
G1 X104.99 Y87.977 E65.50728
G1 X100.578 Y94.017 E65.80582
G1 X100.511 Y94.108 E65.81033
G1 X100.511 Y105.952 E66.28305
G1 X104.99 Y112.081 E66.58603
G0 F9000 X105.231 Y112.257
G0 X104.542 Y126.01
G0 X99.667 Y133.199
;TYPE:WALL-INNER
G1 F1800 X99.827 Y133.419 E66.59689
G1 X99.988 Y133.199 E66.60337
G1 X104.908 Y126.463 E66.93629
G1 X106.972 Y129.29 E67.076
G1 X109.825 Y133.199 E67.26915
G1 X109.985 Y133.419 E67.28001
G1 X110.146 Y133.199 E67.28649
G1 X114.92 Y126.665 E67.60946
G1 X115.081 Y126.445 E67.62034
G1 X115.241 Y126.665 E67.62681
G1 X120.013 Y133.199 E67.94974
G1 X120.173 Y133.419 E67.9606
G1 X120.334 Y133.199 E67.96708
G1 X125.45 Y126.195 E68.31326
G1 X125.45 Y113.829 E68.80681
G1 X120.334 Y106.825 E69.15299
G1 X120.173 Y106.605 E69.16387
G1 X120.012 Y106.825 E69.16938
G1 X115.18 Y113.44 E69.49633
G1 X115.08 Y113.577 E69.5031
G1 X115.047 Y113.531
G1 X109.985 Y106.605 E69.84549
G1 X104.996 Y113.44 E69.85017
G1 X104.908 Y113.56 E69.85611
G1 X104.878 Y113.519
G1 X99.988 Y106.825 E70.18697
G1 X99.827 Y106.605 E70.19785
G1 X99.666 Y106.825 E70.20433
G1 X94.55 Y113.829 E70.55051
G1 X94.55 Y126.192 E71.04395
G1 X99.667 Y133.199 E71.39024
G0 F9000 X99.827 Y132.741
G1 F1800 X99.988 Y132.521 E71.40113
G1 X104.704 Y126.064 E71.72026
G1 X104.704 Y113.96 E72.20335
G1 X99.988 Y107.503 E72.52248
G1 X99.827 Y107.283 E72.53337
G1 X99.666 Y107.503 E72.53985
G1 X98.112 Y109.631 E72.64502
G1 X94.95 Y113.96 E72.85898
G1 X94.95 Y126.062 E73.34199
G1 X99.667 Y132.521 E73.66121
G1 X99.827 Y132.741 E73.66768
G0 F9000 X99.827 Y132.063
;TYPE:WALL-OUTER
G1 F1800 X104.304 Y125.933 E73.97065
G1 X104.304 Y114.091 E74.44329
G1 X99.827 Y107.961 E74.74625
G1 X98.435 Y109.867 E74.84045
G1 X95.35 Y114.091 E75.04922
G1 X95.35 Y125.932 E75.52182
G1 X99.827 Y132.063 E75.82482
G0 F9000 X100.068 Y132.239
G0 X104.908 Y126.78
G0 X109.824 Y132.521
;TYPE:WALL-INNER
G1 F1800 X109.985 Y132.741 E75.8357
G1 X110.146 Y132.521 E75.84218
G1 X114.864 Y126.064 E76.16136
G1 X114.864 Y113.96 E76.64445
G1 X110.146 Y107.503 E76.96363
G1 X109.985 Y107.283 E76.97451
G1 X109.825 Y107.503 E76.98098
G1 X105.11 Y113.961 E77.30012
G1 X105.11 Y126.062 E77.78309
G1 X107.294 Y129.056 E77.93101
G1 X109.824 Y132.521 E78.10224
G0 F9000 X109.985 Y132.063
;TYPE:WALL-OUTER
G1 F1800 X114.464 Y125.933 E78.40526
G1 X114.464 Y114.091 E78.8779
G1 X109.985 Y107.961 E79.18091
G1 X105.51 Y114.091 E79.48383
G1 X105.51 Y125.932 E79.95643
G1 X107.617 Y128.82 E80.09911
G1 X109.985 Y132.063 E80.25938
G0 F9000 X110.226 Y132.239
G0 X109.956 Y133.76
G0 X110.082 Y133.919
G0 X115.175 Y128.238
G0 X120.013 Y132.521
;TYPE:WALL-INNER
G1 F1800 X120.173 Y132.741 E80.27024
G1 X120.334 Y132.521 E80.27672
G1 X125.05 Y126.064 E80.59585
G1 X125.05 Y113.96 E81.07894
G1 X120.334 Y107.503 E81.39808
G1 X120.173 Y107.283 E81.40896
G1 X120.012 Y107.503 E81.41544
G1 X115.296 Y113.96 E81.73457
G1 X115.296 Y126.062 E82.21759
G1 X120.013 Y132.521 E82.5368
G0 F9000 X120.173 Y132.063
;TYPE:WALL-OUTER
G1 F1800 X124.65 Y125.933 E82.83977
G1 X124.65 Y114.091 E83.31241
G1 X120.173 Y107.961 E83.61538
G1 X115.696 Y114.091 E83.91834
G1 X115.696 Y125.932 E84.39094
G1 X120.173 Y132.063 E84.69394
G0 F9000 X120.414 Y132.239
G0 X119.891 Y134.671
G0 X119.891 Y146.668
G0 X115.014 Y153.856
;TYPE:WALL-INNER
G1 F1800 X115.175 Y154.076 E84.70482
G1 X115.336 Y153.856 E84.7113
G1 X120.453 Y146.853 E85.05747
G1 X120.453 Y134.486 E85.55106
G1 X115.336 Y127.481 E85.8973
G1 X115.175 Y127.261 E85.90818
G1 X115.014 Y127.481 E85.91466
G1 X110.124 Y134.178 E86.24562
G1 X110.082 Y134.235 E86.24845
G1 X110.07 Y134.218
G1 X105.151 Y127.484 E86.58129
G1 X104.99 Y127.264 E86.59217
G1 X104.829 Y127.484 E86.59865
G1 X99.942 Y134.171 E86.92922
G1 X99.711 Y134.477 E86.94452
G1 X99.711 Y146.852 E87.43843
G1 X104.829 Y153.857 E87.78469
G1 X104.99 Y154.077 E87.79557
G1 X105.15 Y153.857 E87.80204
G1 X109.921 Y147.322 E88.12498
G1 X110.081 Y147.102 E88.13583
G1 X110.242 Y147.322 E88.14231
G1 X115.014 Y153.856 E88.46525
G0 F9000 X115.175 Y153.398
G1 F1800 X115.336 Y153.178 E88.47613
G1 X120.053 Y146.722 E88.79525
G1 X120.053 Y134.617 E89.27839
G1 X115.336 Y128.159 E89.59757
G1 X115.175 Y127.939 E89.60845
G1 X115.014 Y128.159 E89.61493
G1 X110.444 Y134.418 E89.92425
G1 X110.298 Y134.613 E89.93397
G1 X110.298 Y146.721 E90.41723
G1 X115.014 Y153.178 E90.73636
G1 X115.175 Y153.398 E90.74284
G0 F9000 X115.175 Y152.72
;TYPE:WALL-OUTER
G1 F1800 X119.653 Y146.591 E91.0458
G1 X119.653 Y134.748 E91.51847
G1 X115.175 Y128.617 E91.8215
G1 X110.764 Y134.658 E92.12004
G1 X110.698 Y134.746 E92.12443
G1 X110.698 Y146.59 E92.59715
G1 X115.175 Y152.72 E92.90012
G0 F9000 X115.416 Y152.896
G0 X115.175 Y153.099
G0 X110.081 Y147.419
G0 X105.15 Y153.179
;TYPE:WALL-INNER
G1 F1800 X109.865 Y146.72 E93.21929
G1 X109.865 Y134.617 E93.70234
G1 X105.151 Y128.162 E94.02136
G1 X104.99 Y127.942 E94.03225
G1 X104.829 Y128.162 E94.03873
G1 X100.261 Y134.413 E94.34773
G1 X100.111 Y134.611 E94.35765
G1 X100.111 Y146.721 E94.84098
G1 X104.829 Y153.179 E95.1602
G1 X104.99 Y153.399 E95.17108
G1 X105.15 Y153.179 E95.17754
G0 F9000 X104.99 Y152.721
;TYPE:WALL-OUTER
