;FLAVOR:Marlin
;TIME:16616
;Filament used: 11.851m
;Layer height: 0.2
;MINX:59.701
;MINY:44.401
;MINZ:0.24
;MAXX:160.901
;MAXY:175.599
;MAXZ:21.96
;Generated with Cura_SteamEngine 4.5.0
M140 S50
M105
M190 S50
M104 S215
M105
M109 S215
M82 ;absolute extrusion mode
M201 X500.00 Y500.00 Z100.00 E5000.00 ;Setup machine max acceleration
M203 X500.00 Y500.00 Z10.00 E50.00 ;Setup machine max feedrate
M204 P500.00 R1000.00 T500.00 ;Setup Print/Retract/Travel acceleration
M205 X8.00 Y8.00 Z0.40 E5.00 ;Setup Jerk
M220 S100 ;Reset Feedrate
M221 S100 ;Reset Flowrate

G28 ;Home

G92 E0 ;Reset Extruder
G1 Z2.0 F3000 ;Move Z Axis up
G1 X10.1 Y20 Z0.28 F5000.0 ;Move to start position
G1 X10.1 Y200.0 Z0.28 F1500.0 E15 ;Draw the first line
G1 X10.4 Y200.0 Z0.28 F5000.0 ;Move to side a little
G1 X10.4 Y20 Z0.28 F1500.0 E30 ;Draw the second line
G92 E0 ;Reset Extruder
G1 Z2.0 F3000 ;Move Z Axis up

G92 E0
G92 E0
G1 F1800 E-3
;LAYER_COUNT:120
;LAYER:0
M106 S63.8
M204 S500
M205 X6 Y6
G0 F9000 X61.693 Y48.836 Z0.24
;TYPE:SKIRT
G1 F1800 E0
G1 X62.262 Y48.112 E0.03675
G1 X62.89 Y47.44 E0.07346
G1 X63.575 Y46.824 E0.11023
G1 X64.311 Y46.271 E0.14697
G1 X65.092 Y45.783 E0.18373
G1 X65.912 Y45.365 E0.22047
G1 X66.766 Y45.02 E0.25723
G1 X67.646 Y44.75 E0.29397
G1 X68.546 Y44.558 E0.33069
G1 X69.46 Y44.444 E0.36746
G1 X70.013 Y44.414 E0.38956
G1 X70.631 Y44.401 E0.41423
G1 X149.594 Y44.401 E3.56582
G1 X150.444 Y44.412 E3.59974
G1 X151.363 Y44.465 E3.63648
G1 X152.274 Y44.598 E3.67323
G1 X153.17 Y44.809 E3.70997
G1 X154.044 Y45.097 E3.7467
G1 X154.891 Y45.46 E3.78348
G1 X155.702 Y45.895 E3.82021
G1 X156.472 Y46.399 E3.85694
G1 X157.196 Y46.968 E3.89369
G1 X157.868 Y47.598 E3.93046
G1 X158.483 Y48.283 E3.9672
G1 X159.036 Y49.019 E4.00394
G1 X159.523 Y49.8 E4.04068
G1 X159.94 Y50.621 E4.07743
G1 X160.285 Y51.475 E4.11419
G1 X160.554 Y52.355 E4.15092
G1 X160.746 Y53.256 E4.18768
G1 X160.859 Y54.169 E4.2244
G1 X160.888 Y54.713 E4.24615
G1 X160.901 Y55.331 E4.27082
G1 X160.901 Y164.263 E8.61853
G1 X160.891 Y165.121 E8.65277
G1 X160.84 Y166.04 E8.68951
G1 X160.709 Y166.952 E8.72628
G1 X160.499 Y167.848 E8.76301
G1 X160.213 Y168.723 E8.79976
G1 X159.852 Y169.57 E8.8365
G1 X159.418 Y170.382 E8.87325
G1 X158.916 Y171.154 E8.91
G1 X158.348 Y171.879 E8.94676
G1 X157.72 Y172.552 E8.9835
G1 X157.036 Y173.168 E9.02024
G1 X156.301 Y173.722 E9.05698
G1 X155.521 Y174.211 E9.09372
G1 X154.701 Y174.63 E9.13047
G1 X153.848 Y174.976 E9.16721
G1 X152.968 Y175.247 E9.20396
G1 X152.068 Y175.44 E9.2407
G1 X151.154 Y175.555 E9.27747
G1 X150.589 Y175.586 E9.30005
G1 X149.971 Y175.599 E9.32472
G1 X71.008 Y175.599 E12.47631
G1 X70.173 Y175.589 E12.50964
G1 X69.254 Y175.537 E12.54637
G1 X68.343 Y175.406 E12.58311
G1 X67.447 Y175.196 E12.61984
G1 X66.572 Y174.909 E12.65659
G1 X65.725 Y174.547 E12.69336
G1 X64.913 Y174.113 E12.7301
G1 X64.142 Y173.611 E12.76682
G1 X63.417 Y173.043 E12.80358
G1 X62.744 Y172.414 E12.84035
G1 X62.129 Y171.73 E12.87706
G1 X61.575 Y170.995 E12.9138
G1 X61.087 Y170.214 E12.95055
G1 X60.668 Y169.394 E12.98731
G1 X60.322 Y168.541 E13.02405
G1 X60.052 Y167.661 E13.06078
G1 X59.859 Y166.76 E13.09756
G1 X59.745 Y165.847 E13.13428
G1 X59.714 Y165.276 E13.15711
G1 X59.701 Y164.657 E13.18182
G1 X59.701 Y55.675 E17.53153
G1 X59.711 Y54.867 E17.56378
G1 X59.763 Y53.947 E17.60055
G1 X59.895 Y53.036 E17.63729
G1 X60.106 Y52.14 E17.67403
G1 X60.393 Y51.265 E17.71079
G1 X60.756 Y50.419 E17.74753
G1 X61.19 Y49.607 E17.78428
G1 X61.693 Y48.836 E17.82102
G0 F9000 X62.089 Y48.972
G1 F1800 X62.656 Y48.268 E17.8571
G1 X63.282 Y47.618 E17.89312
G1 X63.963 Y47.025 E17.92916
G1 X64.695 Y46.495 E17.96523
G1 X65.47 Y46.032 E18.00126
G1 X66.283 Y45.639 E18.0373
G1 X67.128 Y45.319 E18.07336
G1 X67.997 Y45.076 E18.10938
G1 X68.885 Y44.91 E18.14543
G1 X70.024 Y44.814 E18.19105
G1 X70.631 Y44.801 E18.21529
G1 X149.594 Y44.801 E21.36687
G1 X150.438 Y44.812 E21.40056
G1 X151.34 Y44.865 E21.43662
G1 X152.233 Y44.997 E21.47265
G1 X153.111 Y45.208 E21.50869
G1 X153.967 Y45.496 E21.54474
G1 X154.794 Y45.858 E21.58077
G1 X155.586 Y46.293 E21.61683
G1 X156.337 Y46.795 E21.65289
G1 X157.04 Y47.362 E21.68893
G1 X157.69 Y47.989 E21.72498
G1 X158.282 Y48.671 E21.76102
G1 X158.812 Y49.402 E21.79706
G1 X159.274 Y50.178 E21.83311
G1 X159.667 Y50.991 E21.86915
G1 X159.985 Y51.836 E21.90518
G1 X160.228 Y52.706 E21.94123
G1 X160.393 Y53.594 E21.97728
G1 X160.488 Y54.724 E22.02254
G1 X160.501 Y55.331 E22.04678
G1 X160.501 Y164.263 E26.39449
G1 X160.491 Y165.116 E26.42853
G1 X160.44 Y166.018 E26.46459
G1 X160.309 Y166.912 E26.50066
G1 X160.1 Y167.79 E26.53668
G1 X159.814 Y168.647 E26.57274
G1 X159.453 Y169.475 E26.60879
G1 X159.021 Y170.267 E26.6448
G1 X158.52 Y171.019 E26.68086
G1 X157.954 Y171.723 E26.71691
G1 X157.329 Y172.374 E26.75293
G1 X156.648 Y172.968 E26.789
G1 X155.917 Y173.499 E26.82506
G1 X155.143 Y173.963 E26.86108
G1 X154.33 Y174.357 E26.89714
G1 X153.486 Y174.677 E26.93316
G1 X152.616 Y174.922 E26.96924
G1 X151.729 Y175.088 E27.00525
G1 X150.578 Y175.186 E27.05136
G1 X149.971 Y175.199 E27.07559
G1 X71.008 Y175.199 E30.22717
G1 X70.178 Y175.189 E30.2603
G1 X69.277 Y175.138 E30.29632
G1 X68.383 Y175.006 E30.33239
G1 X67.505 Y174.797 E30.36841
G1 X66.648 Y174.51 E30.40448
G1 X65.821 Y174.149 E30.4405
G1 X65.028 Y173.716 E30.47656
G1 X64.277 Y173.215 E30.51259
G1 X63.573 Y172.649 E30.54865
G1 X62.922 Y172.023 E30.58469
G1 X62.329 Y171.342 E30.62073
G1 X61.799 Y170.611 E30.65677
G1 X61.335 Y169.836 E30.69282
G1 X60.941 Y169.023 E30.72888
G1 X60.621 Y168.179 E30.76491
G1 X60.377 Y167.309 E30.80097
G1 X60.211 Y166.421 E30.83703
G1 X60.114 Y165.266 E30.88329
G1 X60.101 Y164.657 E30.9076
G1 X60.101 Y55.675 E35.25731
G1 X60.111 Y54.872 E35.28936
G1 X60.163 Y53.97 E35.32542
G1 X60.295 Y53.077 E35.36145
G1 X60.505 Y52.199 E35.39748
G1 X60.792 Y51.342 E35.43355
G1 X61.154 Y50.515 E35.46958
G1 X61.587 Y49.723 E35.50561
G1 X62.089 Y48.972 E35.54166
G1 F1800 E32.54166
;MESH:EyeGlassFrameHolder_Circuit_Casing_Lid.stl
G0 F9000 X80.831 Y105.995
G0 X79.181 Y106.886
G0 X84.103 Y114.338
G0 X84.558 Y126.985
G0 X89.728 Y134.061
G0 X94.918 Y126.958
G0 X100.11 Y134.061
G0 X105.349 Y126.886
G0 X110.588 Y134.061
G0 X115.8 Y126.928
G0 X121.014 Y134.061
G0 X126.091 Y127.108
G0 X126.204 Y127.247
G0 X121.054 Y134.279
G0 X115.934 Y127.273
G0 X110.694 Y134.443
G0 X105.454 Y127.273
G0 X100.141 Y134.545
G0 X94.827 Y127.273
G0 X89.635 Y134.379
G0 X84.443 Y127.273
G0 X79.73 Y134.996
G0 X79.73 Y146.995
G0 X84.283 Y154.186
;TYPE:WALL-INNER
G1 F1800 E35.54166
G1 X84.443 Y154.406 E35.55252
G1 X84.603 Y154.186 E35.55898
G1 X89.475 Y147.514 E35.88872
G1 X89.635 Y147.294 E35.89958
G1 X89.795 Y147.514 E35.90604
G1 X94.827 Y154.406 E36.24663
G1 X100.104 Y147.178 E36.60382
G1 X100.104 Y134.811 E37.09741
G1 X94.988 Y127.809 E37.44353
G1 X94.827 Y127.589 E37.45441
G1 X94.666 Y127.809 E37.46089
G1 X90.013 Y134.179 E37.77573
G1 X89.795 Y134.476 E37.79044
G1 X89.635 Y134.695 E37.80126
G1 X89.475 Y134.476 E37.80771
G1 X84.604 Y127.809 E38.13726
G1 X84.443 Y127.589 E38.14814
G1 X84.282 Y127.809 E38.15462
G1 X79.168 Y134.811 E38.50069
G1 X79.168 Y147.178 E38.99428
G1 X84.283 Y154.186 E39.34057
G0 F9000 X84.443 Y153.728
G1 F1800 X84.603 Y153.508 E39.35142
G1 X89.32 Y147.048 E39.67068
G1 X89.32 Y134.942 E40.15385
G1 X84.604 Y128.487 E40.47292
G1 X84.443 Y128.267 E40.4838
G1 X84.282 Y128.487 E40.49028
G1 X79.568 Y134.942 E40.8093
G1 X79.568 Y147.048 E41.29248
G1 X84.283 Y153.508 E41.61168
G1 X84.443 Y153.728 E41.61815
G0 F9000 X84.443 Y153.05
;TYPE:WALL-OUTER
G1 F1800 X88.92 Y146.918 E41.92118
G1 X88.92 Y135.073 E42.39394
G1 X84.443 Y128.945 E42.69684
G1 X79.968 Y135.073 E42.99969
G1 X79.968 Y146.918 E43.47245
G1 X84.443 Y153.05 E43.77544
G0 F9000 X84.684 Y153.226
G0 X89.635 Y147.611
G0 X94.667 Y153.508
;TYPE:WALL-INNER
G1 F1800 X94.827 Y153.728 E43.78629
G1 X94.987 Y153.508 E43.79276
G1 X99.704 Y147.048 E44.11201
G1 X99.704 Y134.942 E44.59519
G1 X94.988 Y128.487 E44.91425
G1 X94.827 Y128.267 E44.92514
G1 X94.666 Y128.487 E44.93162
G1 X90.336 Y134.415 E45.22461
G1 X89.95 Y134.942 E45.25068
G1 X89.95 Y147.048 E45.73386
G1 X94.667 Y153.508 E46.05311
G0 F9000 X94.827 Y153.05
;TYPE:WALL-OUTER
G1 F1800 X99.304 Y146.918 E46.35614
G1 X99.304 Y135.073 E46.8289
G1 X94.827 Y128.945 E47.1318
G1 X90.659 Y134.651 E47.41383
G1 X90.35 Y135.073 E47.4347
G1 X90.35 Y146.918 E47.90746
G1 X94.827 Y153.05 E48.21049
G1 F1800 E45.21049
G0 F9000 X95.068 Y153.226
G0 X94.827 Y153.429
G0 X90.112 Y146.995
G0 X89.982 Y133.915
G0 X94.827 Y127.273
G0 X100.141 Y134.545
G0 X105.454 Y127.273
G0 X110.694 Y134.443
G0 X115.934 Y127.273
G0 X121.054 Y134.279
G0 X126.204 Y127.247
G0 X126.091 Y127.108
G0 X121.014 Y134.061
G0 X115.8 Y126.928
G0 X110.588 Y134.061
G0 X105.349 Y126.886
G0 X100.11 Y134.061
G0 X94.918 Y126.958
G0 X89.94 Y133.756
G0 X85.013 Y126.337
G0 X84.397 Y112.706
G0 X79.73 Y106.354
G0 X79.757 Y95.084
G0 X79.227 Y93.069
;TYPE:WALL-INNER
G1 F1800 E48.21049
G1 X79.388 Y93.289 E48.22137
G1 X79.549 Y93.069 E48.22785
G1 X84.007 Y86.966 E48.5295
G1 X84.167 Y86.747 E48.54033
G1 X84.558 Y86.213 E48.56674
G1 X89.728 Y93.289 E48.91651
G1 X94.523 Y86.727 E49.24089
G1 X94.918 Y86.186 E49.26762
G1 X100.11 Y93.289 E49.61878
G1 X105.349 Y86.116 E49.9733
G1 X110.588 Y93.289 E50.32782
G1 X115.8 Y86.156 E50.68042
G1 X116.223 Y86.736 E50.70907
G1 X121.014 Y93.289 E51.03306
G1 X126.092 Y86.336 E51.3767
G1 X126.41 Y86.771 E51.39821
G1 X131.171 Y93.293 E51.72049
G1 X136.262 Y86.317 E52.06518
G1 X136.596 Y86.774 E52.08777
G1 X141.195 Y93.069 E52.39893
G1 X141.356 Y93.289 E52.40981
G1 X141.517 Y93.069 E52.41629
G1 X146.631 Y86.067 E52.76235
G1 X146.631 Y73.698 E53.25603
G1 X141.517 Y66.696 E53.60209
G1 X141.356 Y66.476 E53.61297
G1 X141.195 Y66.696 E53.61946
G1 X136.424 Y73.227 E53.94227
G1 X136.263 Y73.447 E53.95315
G1 X136.102 Y73.227 E53.95963
G1 X131.332 Y66.696 E54.28242
G1 X131.171 Y66.476 E54.2933
G1 X131.01 Y66.696 E54.29978
G1 X126.357 Y73.066 E54.61462
G1 X126.252 Y73.209 E54.6217
G1 X126.092 Y73.428 E54.63253
G1 X125.932 Y73.209 E54.63898
G1 X121.014 Y66.476 E54.97176
G1 X115.8 Y73.609 E55.3244
G1 X110.588 Y66.476 E55.677
G1 X105.349 Y73.649 E56.03152
G1 X100.11 Y66.476 E56.38604
G1 X94.918 Y73.579 E56.7372
G1 X89.889 Y66.696 E57.07743
G1 X89.728 Y66.476 E57.08831
G1 X89.567 Y66.696 E57.09479
G1 X84.719 Y73.332 E57.4228
G1 X84.558 Y73.552 E57.43368
G1 X84.397 Y73.332 E57.44016
G1 X79.549 Y66.696 E57.76816
G1 X79.388 Y66.476 E57.77905
G1 X79.227 Y66.696 E57.78553
G1 X74.113 Y73.698 E58.13159
G1 X74.113 Y86.067 E58.62527
G1 X79.227 Y93.069 E58.97133
G0 F9000 X79.388 Y92.611
G1 F1800 X79.549 Y92.391 E58.98221
G1 X84.265 Y85.936 E59.30128
G1 X84.265 Y73.829 E59.7845
G1 X79.549 Y67.374 E60.10356
G1 X79.388 Y67.154 E60.11444
G1 X79.227 Y67.374 E60.12092
G1 X74.513 Y73.829 E60.43994
G1 X74.513 Y85.936 E60.92316
G1 X79.227 Y92.391 E61.24218
G1 X79.388 Y92.611 E61.24866
G0 F9000 X79.388 Y91.933
;TYPE:WALL-OUTER
G1 F1800 X83.865 Y85.805 E61.55156
G1 X83.865 Y73.96 E62.02432
G1 X79.388 Y67.832 E62.32722
G1 X74.913 Y73.96 E62.63008
G1 X74.913 Y85.805 E63.10284
G1 X79.388 Y91.933 E63.40569
G0 F9000 X79.629 Y92.109
G0 X84.443 Y87.925
G0 X89.635 Y93.737
G0 X89.72 Y93.633
G0 X89.567 Y92.391
;TYPE:WALL-INNER
G1 F1800 X89.728 Y92.611 E63.41657
G1 X89.889 Y92.391 E63.42305
G1 X94.605 Y85.936 E63.74212
G1 X94.605 Y73.829 E64.22534
G1 X89.889 Y67.374 E64.5444
G1 X89.728 Y67.154 E64.55528
G1 X89.567 Y67.374 E64.56176
G1 X85.237 Y73.302 E64.85476
G1 X84.851 Y73.829 E64.88083
G1 X84.851 Y85.936 E65.36405
G1 X89.567 Y92.391 E65.68311
G0 F9000 X89.728 Y91.933
;TYPE:WALL-OUTER
G1 F1800 X94.205 Y85.805 E65.98602
G1 X94.205 Y73.96 E66.45878
G1 X89.728 Y67.832 E66.76168
G1 X85.56 Y73.538 E67.0437
G1 X85.251 Y73.96 E67.06458
G1 X85.251 Y85.805 E67.53734
G1 X89.728 Y91.933 E67.84024
G0 F9000 X89.969 Y92.109
G0 X94.918 Y86.503
G0 X99.949 Y92.391
;TYPE:WALL-INNER
G1 F1800 X100.11 Y92.611 E67.85112
G1 X100.271 Y92.391 E67.8576
G1 X104.985 Y85.936 E68.17662
G1 X104.985 Y73.829 E68.65984
G1 X100.271 Y67.374 E68.97886
G1 X100.11 Y67.154 E68.98974
G1 X99.949 Y67.374 E68.99622
G1 X95.617 Y73.302 E69.28926
G1 X95.231 Y73.829 E69.31533
G1 X95.231 Y85.936 E69.79855
G1 X99.949 Y92.391 E70.11766
G0 F9000 X100.11 Y91.933
;TYPE:WALL-OUTER
G1 F1800 X104.585 Y85.805 E70.42052
G1 X104.585 Y73.96 E70.89328
G1 X100.11 Y67.832 E71.19613
G1 X95.94 Y73.538 E71.4782
G1 X95.631 Y73.96 E71.49908
G1 X95.631 Y85.805 E71.97184
G1 X100.11 Y91.933 E72.27479
G0 F9000 X100.351 Y92.109
G0 X105.349 Y86.433
G0 X110.427 Y92.391
;TYPE:WALL-INNER
G1 F1800 X110.588 Y92.611 E72.28567
G1 X110.749 Y92.391 E72.29215
G1 X115.465 Y85.936 E72.61121
G1 X115.465 Y73.829 E73.09443
G1 X110.749 Y67.374 E73.4135
G1 X110.588 Y67.154 E73.42438
G1 X110.427 Y67.374 E73.43086
G1 X105.713 Y73.829 E73.74988
G1 X105.713 Y85.936 E74.2331
G1 X110.427 Y92.391 E74.55212
G0 F9000 X110.588 Y91.933
;TYPE:WALL-OUTER
G1 F1800 X115.065 Y85.805 E74.85502
G1 X115.065 Y73.96 E75.32778
G1 X110.588 Y67.832 E75.63068
G1 X106.113 Y73.96 E75.93353
G1 X106.113 Y85.805 E76.40629
G1 X110.588 Y91.933 E76.70915
G0 F9000 X110.829 Y92.109
G0 X110.558 Y93.631
G0 X110.694 Y93.803
G0 X115.934 Y87.925
G0 X120.853 Y92.391
;TYPE:WALL-INNER
G1 F1800 X121.014 Y92.611 E76.72003
G1 X121.175 Y92.391 E76.72651
G1 X125.889 Y85.936 E77.04553
G1 X125.889 Y73.829 E77.52874
G1 X121.175 Y67.374 E77.84776
G1 X121.014 Y67.154 E77.85864
G1 X120.853 Y67.374 E77.86512
G1 X116.135 Y73.829 E78.18424
G1 X116.135 Y85.936 E78.66746
G1 X120.26 Y91.579 E78.94644
G1 X120.853 Y92.391 E78.98657
G0 F9000 X121.014 Y91.933
;TYPE:WALL-OUTER
G1 F1800 X125.489 Y85.805 E79.28942
G1 X125.489 Y73.96 E79.76218
G1 X121.014 Y67.832 E80.06504
G1 X116.535 Y73.96 E80.36799
G1 X116.535 Y85.805 E80.84075
G1 X120.583 Y91.343 E81.11453
G1 X121.014 Y91.933 E81.14369
G0 F9000 X121.255 Y92.109
G0 X121.012 Y93.595
G0 X121.055 Y93.638
G0 X126.174 Y87.921
G0 X131.011 Y92.395
;TYPE:WALL-INNER
G1 F1800 X131.171 Y92.615 E81.15455
G1 X131.331 Y92.395 E81.16102
G1 X136.046 Y85.935 E81.48022
G1 X136.046 Y73.829 E81.9634
G1 X131.332 Y67.374 E82.28242
G1 X131.171 Y67.154 E82.2933
G1 X131.01 Y67.374 E82.29978
G1 X126.68 Y73.302 E82.59277
G1 X126.294 Y73.829 E82.61885
G1 X126.294 Y85.935 E83.10202
G1 X131.011 Y92.395 E83.42127
G0 F9000 X131.171 Y91.937
;TYPE:WALL-OUTER
G1 F1800 X135.646 Y85.805 E83.72426
G1 X135.646 Y73.96 E84.19702
G1 X131.171 Y67.832 E84.49987
G1 X127.003 Y73.538 E84.7819
G1 X126.694 Y73.96 E84.80277
G1 X126.694 Y85.805 E85.27553
G1 X131.171 Y91.937 E85.57856
G0 F9000 X131.412 Y92.113
G0 X131.21 Y93.542
G0 X131.265 Y93.603
G0 X136.359 Y87.925
G0 X141.196 Y92.392
;TYPE:WALL-INNER
G1 F1800 X141.356 Y92.611 E85.58939
G1 X141.516 Y92.392 E85.59584
G1 X146.231 Y85.936 E85.91491
G1 X146.231 Y73.829 E86.39813
G1 X141.517 Y67.374 E86.71715
G1 X141.356 Y67.154 E86.72803
G1 X141.195 Y67.374 E86.73451
G1 X136.48 Y73.829 E87.05356
G1 X136.48 Y85.936 E87.53677
G1 X140.601 Y91.579 E87.81566
G1 X141.196 Y92.392 E87.85587
G0 F9000 X141.356 Y91.933
;TYPE:WALL-OUTER
G1 F1800 X145.831 Y85.805 E88.15873
G1 X145.831 Y73.96 E88.63148
G1 X141.356 Y67.832 E88.93434
G1 X136.88 Y73.96 E89.23722
G1 X136.88 Y85.805 E89.70998
G1 X140.924 Y91.343 E89.98367
G1 X141.356 Y91.933 E90.01285
G0 F9000 X141.597 Y92.109
G0 X141.051 Y96.706
G0 X141.074 Y106.354
G0 X136.537 Y113.518
;TYPE:WALL-INNER
G1 F1800 X141.351 Y106.928 E90.33858
G1 X141.636 Y106.539 E90.35783
G1 X141.636 Y94.17 E90.8515
G1 X141.119 Y93.463 E90.88646
G1 X136.359 Y86.948 E91.20849
G1 X131.265 Y93.92 E91.55312
G1 X130.934 Y93.467 E91.57551
G1 X126.174 Y86.944 E91.81219
G1 X121.055 Y93.956 E92.1587
G1 X120.723 Y93.502 E92.18115
G1 X116.095 Y87.168 E92.49424
G1 X115.934 Y86.948 E92.50512
G1 X115.773 Y87.168 E92.5116
G1 X111.12 Y93.538 E92.82645
G1 X110.854 Y93.9 E92.84438
G1 X110.694 Y94.119 E92.8552
G1 X110.534 Y93.9 E92.86165
G1 X105.454 Y86.948 E93.20531
G1 X100.178 Y94.17 E93.56228
G1 X100.178 Y106.539 E94.05595
G1 X100.341 Y106.762 E94.06698
G1 X105.454 Y113.761 E94.41292
G1 X110.494 Y106.863 E94.7539
G1 X110.694 Y106.59 E94.7674
G1 X110.819 Y106.761 E94.77068
