;FLAVOR:Marlin
;TIME:298
;Filament used: 0.13818m
;Layer height: 0.2
;MINX:93.03
;MINY:93.03
;MINZ:0.2
;MAXX:126.97
;MAXY:126.97
;MAXZ:5.88
;Generated with Cura_SteamEngine 4.8.0
M82 ;absolute extrusion mode
M201 X500.00 Y500.00 Z100.00 E5000.00 ;Setup machine max acceleration
M203 X500.00 Y500.00 Z10.00 E50.00 ;Setup machine max feedrate
M204 P500.00 R1000.00 T500.00 ;Setup Print/Retract/Travel acceleration
M205 X8.00 Y8.00 Z0.40 E5.00 ;Setup Jerk
M220 S100 ;Reset Feedrate
M221 S100 ;Reset Flowrate

;*** Start Dual Nozzle/Bed Preheating ***
M140 S50 ; start preheating the bed
M104 S195 ﻿T0 ; start preheating hotend
M190 S50 ; heat to Cura Bed setting and WAIT
M109 S195 ﻿T0 ; heat to Cura Hotend and WAIT
;*** End Preheating ***

G28 ; home

G92 E0 ;Reset Extruder
G1 Z2.0 F3000 ;Move Z Axis up

;*** Single Print Start Tone
M300 S1000 P500 ; chirp to indicate starting to print
;*** End Single Start Tone

G1 X10.1 Y20 Z0.28 F5000.0 ;Move to start position
G1 X10.1 Y200.0 Z0.28 F1500.0 E15 ;Draw the first line
G1 X10.4 Y200.0 Z0.28 F5000.0 ;Move to side a little
G1 X10.4 Y20 Z0.28 F1500.0 E30 ;Draw the second line
G92 E0 ;Reset Extruder
G1 Z2.0 F3000 ;Move Z Axis up
G92 E0
G92 E0
G1 F2400 E-3.2
;LAYER_COUNT:29
;LAYER:0
M106 S63.8
M204 S500
M205 X6 Y6
G0 F9000 X97.967 Y98.055 Z0.2
;TYPE:SKIRT
G1 F1440 E0
G1 F1800 X98.458 Y97.571 E0.02293
G1 X99.157 Y96.945 E0.05414
G1 X99.683 Y96.539 E0.07624
G1 X100.206 Y96.16 E0.09772
G1 X100.827 Y95.733 E0.12279
G1 X101.625 Y95.241 E0.15397
G1 X102.169 Y94.957 E0.17438
G1 X102.743 Y94.677 E0.19562
G1 X103.423 Y94.365 E0.22051
G1 X104.294 Y94.018 E0.25169
G1 X104.903 Y93.825 E0.27294
G1 X105.532 Y93.645 E0.2947
G1 X106.221 Y93.464 E0.31839
G1 X107.138 Y93.272 E0.34955
G1 X107.794 Y93.183 E0.37157
G1 X108.427 Y93.117 E0.39274
G1 X109.184 Y93.057 E0.418
G1 X110.122 Y93.03 E0.44921
G1 X110.75 Y93.057 E0.47011
G1 X111.385 Y93.102 E0.49129
G1 X112.118 Y93.171 E0.51577
G1 X113.046 Y93.305 E0.54696
G1 X113.693 Y93.447 E0.56899
G1 X114.294 Y93.598 E0.5896
G1 X114.993 Y93.789 E0.6137
G1 X115.884 Y94.081 E0.64489
G1 X116.514 Y94.341 E0.66756
G1 X117.101 Y94.604 E0.68895
G1 X117.753 Y94.914 E0.71296
G1 X118.579 Y95.357 E0.74414
G1 X119.121 Y95.701 E0.76549
G1 X119.62 Y96.038 E0.78552
G1 X120.236 Y96.475 E0.81064
G1 X120.974 Y97.054 E0.84183
G1 X121.483 Y97.519 E0.86477
G1 X121.948 Y97.971 E0.88633
G1 X122.462 Y98.494 E0.91072
G1 X123.085 Y99.195 E0.94192
G1 X123.463 Y99.686 E0.96253
G1 X123.797 Y100.146 E0.98143
G1 X124.252 Y100.805 E1.00807
G1 X124.746 Y101.603 E1.03928
G1 X125.044 Y102.171 E1.06062
G1 X125.324 Y102.745 E1.08186
G1 X125.631 Y103.414 E1.10634
G1 X125.979 Y104.285 E1.13754
G1 X126.174 Y104.897 E1.1589
G1 X126.355 Y105.529 E1.18077
G1 X126.536 Y106.221 E1.20456
G1 X126.728 Y107.138 E1.23572
G1 X126.817 Y107.8 E1.25793
G1 X126.881 Y108.417 E1.27857
G1 X126.941 Y109.156 E1.30323
G1 X126.97 Y110.094 E1.33444
G1 X126.944 Y110.745 E1.35611
G1 X126.899 Y111.382 E1.37735
G1 X126.829 Y112.118 E1.40194
G1 X126.695 Y113.046 E1.43312
G1 X126.553 Y113.693 E1.45515
G1 X126.402 Y114.294 E1.47577
G1 X126.209 Y114.999 E1.50008
G1 X125.916 Y115.89 E1.53127
G1 X125.662 Y116.507 E1.55346
G1 X125.403 Y117.086 E1.57456
G1 X125.09 Y117.745 E1.59883
G1 X124.647 Y118.572 E1.63003
G1 X124.299 Y119.121 E1.65165
G1 X123.962 Y119.62 E1.67168
G1 X123.525 Y120.236 E1.6968
G1 X122.946 Y120.974 E1.728
G1 X122.481 Y121.483 E1.75093
G1 X122.029 Y121.948 E1.77249
G1 X121.506 Y122.462 E1.79688
G1 X120.805 Y123.085 E1.82808
G1 X120.308 Y123.467 E1.84893
G1 X119.846 Y123.802 E1.86791
G1 X119.2 Y124.248 E1.89402
G1 X118.404 Y124.743 E1.92519
G1 X117.823 Y125.047 E1.947
G1 X117.244 Y125.329 E1.96842
G1 X116.592 Y125.628 E1.99228
G1 X115.721 Y125.977 E2.02349
G1 X115.094 Y126.177 E2.04538
G1 X114.464 Y126.357 E2.06717
G1 X113.779 Y126.536 E2.09072
G1 X112.862 Y126.728 E2.12188
G1 X112.206 Y126.817 E2.1439
G1 X111.573 Y126.883 E2.16507
G1 X110.816 Y126.943 E2.19032
G1 X109.878 Y126.97 E2.22153
G1 X109.25 Y126.943 E2.24244
G1 X108.615 Y126.898 E2.26361
G1 X107.882 Y126.829 E2.2881
G1 X106.954 Y126.695 E2.31929
G1 X106.307 Y126.553 E2.34132
G1 X105.706 Y126.402 E2.36193
G1 X105.007 Y126.211 E2.38603
G1 X104.116 Y125.919 E2.41721
G1 X103.486 Y125.659 E2.43988
G1 X102.899 Y125.396 E2.46128
G1 X102.245 Y125.085 E2.48536
G1 X101.418 Y124.641 E2.51658
G1 X100.872 Y124.295 E2.53808
G1 X100.375 Y123.959 E2.55804
G1 X99.758 Y123.521 E2.5832
G1 X99.021 Y122.941 E2.6144
G1 X98.514 Y122.479 E2.63721
G1 X98.055 Y122.033 E2.6585
G1 X97.571 Y121.542 E2.68143
G1 X96.945 Y120.843 E2.71264
G1 X96.539 Y120.317 E2.73474
G1 X96.152 Y119.783 E2.75667
G1 X95.726 Y119.162 E2.78172
G1 X95.235 Y118.363 E2.81291
G1 X94.957 Y117.831 E2.83287
G1 X94.676 Y117.255 E2.85419
G1 X94.364 Y116.575 E2.87907
G1 X94.017 Y115.703 E2.91029
G1 X93.825 Y115.097 E2.93143
G1 X93.645 Y114.468 E2.95319
G1 X93.464 Y113.779 E2.97689
G1 X93.272 Y112.862 E3.00805
G1 X93.183 Y112.206 E3.03007
G1 X93.117 Y111.573 E3.05123
G1 X93.058 Y110.821 E3.07632
G1 X93.03 Y109.884 E3.1075
G1 X93.056 Y109.255 E3.12844
G1 X93.101 Y108.618 E3.14968
G1 X93.171 Y107.882 E3.17427
G1 X93.305 Y106.954 E3.20545
G1 X93.447 Y106.307 E3.22749
G1 X93.598 Y105.706 E3.2481
G1 X93.791 Y105.001 E3.27241
G1 X94.084 Y104.11 E3.3036
G1 X94.338 Y103.494 E3.32576
G1 X94.601 Y102.906 E3.34719
G1 X94.914 Y102.247 E3.37145
G1 X95.357 Y101.421 E3.40263
G1 X95.701 Y100.879 E3.42398
G1 X96.038 Y100.38 E3.44401
G1 X96.479 Y99.758 E3.46937
G1 X97.059 Y99.021 E3.50056
G1 X97.413 Y98.633 E3.51803
G0 F1620 X97.521 Y98.514
G0 X97.967 Y98.055
G0 F9000 X98.254 Y98.334
G1 F1800 X98.737 Y97.857 E3.54061
G1 X99.424 Y97.244 E3.57123
G1 X99.918 Y96.863 E3.59198
G1 X100.441 Y96.484 E3.61346
G1 X101.051 Y96.064 E3.6381
G1 X101.835 Y95.582 E3.66871
G1 X102.345 Y95.316 E3.68784
G1 X102.919 Y95.036 E3.70908
G1 X103.587 Y94.73 E3.73352
G1 X104.442 Y94.39 E3.76412
G1 X105.013 Y94.209 E3.78404
G1 X105.642 Y94.029 E3.8058
G1 X106.319 Y93.852 E3.82908
G1 X107.22 Y93.664 E3.85969
G1 X107.836 Y93.581 E3.88036
G1 X108.469 Y93.515 E3.90153
G1 X109.213 Y93.456 E3.92635
G1 X110.133 Y93.43 E3.95697
G1 X110.721 Y93.456 E3.97654
G1 X111.356 Y93.501 E3.99771
G1 X112.078 Y93.569 E4.02183
G1 X112.989 Y93.701 E4.05245
G1 X113.596 Y93.835 E4.07313
G1 X114.197 Y93.986 E4.09374
G1 X114.884 Y94.174 E4.11743
G1 X115.759 Y94.462 E4.14807
G1 X116.35 Y94.706 E4.16933
G1 X116.937 Y94.969 E4.19072
G1 X117.579 Y95.274 E4.21437
G1 X118.389 Y95.71 E4.24496
G1 X118.898 Y96.033 E4.26501
G1 X119.397 Y96.37 E4.28504
G1 X120.003 Y96.8 E4.30975
G1 X120.726 Y97.369 E4.34035
G1 X121.204 Y97.806 E4.36189
G1 X121.669 Y98.258 E4.38346
G1 X122.175 Y98.773 E4.40748
G1 X122.786 Y99.461 E4.43808
G1 X123.139 Y99.921 E4.45737
G1 X123.473 Y100.381 E4.47627
G1 X123.921 Y101.03 E4.5025
G1 X124.406 Y101.813 E4.53314
G1 X124.685 Y102.347 E4.55318
G1 X124.965 Y102.921 E4.57442
G1 X125.266 Y103.578 E4.59845
G1 X125.607 Y104.434 E4.6291
G1 X125.789 Y105.008 E4.64913
G1 X125.97 Y105.64 E4.67099
G1 X126.148 Y106.319 E4.69434
G1 X126.336 Y107.22 E4.72495
G1 X126.419 Y107.841 E4.74579
G1 X126.483 Y108.458 E4.76642
G1 X126.542 Y109.186 E4.79072
G1 X126.57 Y110.106 E4.82133
G1 X126.545 Y110.717 E4.84167
G1 X126.5 Y111.354 E4.86291
G1 X126.431 Y112.078 E4.8871
G1 X126.299 Y112.989 E4.91771
G1 X126.165 Y113.596 E4.93839
G1 X126.014 Y114.197 E4.959
G1 X125.824 Y114.89 E4.9829
G1 X125.536 Y115.765 E5.01354
G1 X125.297 Y116.343 E5.03434
G1 X125.038 Y116.922 E5.05544
G1 X124.73 Y117.571 E5.07933
G1 X124.294 Y118.382 E5.10995
G1 X123.967 Y118.898 E5.13027
G1 X123.63 Y119.397 E5.1503
G1 X123.2 Y120.003 E5.17501
G1 X122.631 Y120.726 E5.20562
G1 X122.194 Y121.204 E5.22716
G1 X121.742 Y121.669 E5.24872
G1 X121.227 Y122.175 E5.27274
G1 X120.539 Y122.786 E5.30334
G1 X120.073 Y123.143 E5.32287
G1 X119.611 Y123.478 E5.34185
G1 X118.975 Y123.917 E5.36755
G1 X118.193 Y124.402 E5.39816
G1 X117.647 Y124.688 E5.41866
G1 X117.068 Y124.97 E5.44008
G1 X116.428 Y125.264 E5.4635
G1 X115.573 Y125.605 E5.49412
G1 X114.984 Y125.792 E5.51467
G1 X114.354 Y125.972 E5.53646
G1 X113.681 Y126.148 E5.5596
G1 X112.78 Y126.336 E5.59021
G1 X112.164 Y126.419 E5.61089
G1 X111.531 Y126.485 E5.63206
G1 X110.787 Y126.544 E5.65688
G1 X109.867 Y126.57 E5.68749
G1 X109.279 Y126.544 E5.70707
G1 X108.644 Y126.499 E5.72824
G1 X107.922 Y126.431 E5.75236
G1 X107.011 Y126.299 E5.78298
G1 X106.404 Y126.165 E5.80365
G1 X105.803 Y126.014 E5.82426
G1 X105.116 Y125.826 E5.84795
G1 X104.241 Y125.538 E5.87859
G1 X103.65 Y125.294 E5.89986
G1 X103.063 Y125.031 E5.92125
G1 X102.419 Y124.725 E5.94496
G1 X101.608 Y124.289 E5.97559
G1 X101.096 Y123.963 E5.99578
G1 X100.599 Y123.627 E6.01573
G1 X99.991 Y123.196 E6.04052
G1 X99.268 Y122.626 E6.07114
G1 X98.793 Y122.192 E6.09254
G1 X98.334 Y121.746 E6.11383
G1 X97.857 Y121.263 E6.1364
G1 X97.244 Y120.576 E6.16703
G1 X96.863 Y120.082 E6.18778
G1 X96.476 Y119.548 E6.20971
G1 X96.057 Y118.938 E6.23433
G1 X95.576 Y118.154 E6.26492
G1 X95.316 Y117.656 E6.2836
G1 X95.035 Y117.08 E6.30492
G1 X94.729 Y116.411 E6.32939
G1 X94.389 Y115.555 E6.36002
G1 X94.209 Y114.987 E6.37984
G1 X94.029 Y114.358 E6.4016
G1 X93.852 Y113.681 E6.42487
G1 X93.664 Y112.78 E6.45549
G1 X93.581 Y112.164 E6.47616
G1 X93.515 Y111.531 E6.49733
G1 X93.456 Y110.793 E6.52195
G1 X93.43 Y109.872 E6.5526
G1 X93.455 Y109.283 E6.57221
G1 X93.5 Y108.646 E6.59344
G1 X93.569 Y107.922 E6.61763
G1 X93.701 Y107.011 E6.64825
G1 X93.835 Y106.404 E6.66893
G1 X93.986 Y105.803 E6.68954
G1 X94.176 Y105.11 E6.71344
G1 X94.464 Y104.235 E6.74407
G1 X94.703 Y103.657 E6.76488
G1 X94.966 Y103.069 E6.7863
G1 X95.274 Y102.421 E6.81016
G1 X95.71 Y101.611 E6.84076
G1 X96.033 Y101.102 E6.86081
G1 X96.37 Y100.603 E6.88084
G1 X96.804 Y99.991 E6.90579
G1 X97.374 Y99.268 E6.93641
G1 X97.7 Y98.911 E6.95249
G0 F1620 X97.808 Y98.793
G0 X98.254 Y98.334
G0 F9000 X98.541 Y98.613
G1 F1800 X99.017 Y98.143 E6.97474
G1 X99.691 Y97.542 E7.00478
G1 X100.153 Y97.187 E7.02416
G1 X100.676 Y96.808 E7.04564
G1 X101.275 Y96.396 E7.06982
G1 X102.045 Y95.923 E7.09988
G1 X102.52 Y95.676 E7.11768
G1 X103.094 Y95.396 E7.13892
G1 X103.751 Y95.095 E7.16296
G1 X104.59 Y94.762 E7.19298
G1 X105.123 Y94.594 E7.21157
G1 X105.752 Y94.414 E7.23333
G1 X106.418 Y94.239 E7.25623
G1 X107.302 Y94.056 E7.28626
G1 X107.877 Y93.979 E7.30555
G1 X108.51 Y93.913 E7.32672
G1 X109.242 Y93.855 E7.35114
G1 X110.144 Y93.83 E7.38116
G1 X110.693 Y93.855 E7.39944
G1 X111.328 Y93.9 E7.42061
G1 X112.038 Y93.967 E7.44433
G1 X112.931 Y94.097 E7.47434
G1 X113.498 Y94.222 E7.49365
G1 X114.099 Y94.373 E7.51426
G1 X114.776 Y94.56 E7.53762
G1 X115.634 Y94.842 E7.56766
G1 X116.187 Y95.071 E7.58757
G1 X116.774 Y95.334 E7.60897
G1 X117.404 Y95.634 E7.63217
G1 X118.199 Y96.062 E7.6622
G1 X118.674 Y96.364 E7.68093
G1 X119.173 Y96.701 E7.70095
G1 X119.769 Y97.124 E7.72526
G1 X120.478 Y97.683 E7.75529
G1 X120.926 Y98.093 E7.77549
G1 X121.391 Y98.545 E7.79706
G1 X121.887 Y99.051 E7.82062
G1 X122.486 Y99.727 E7.85066
G1 X122.816 Y100.156 E7.86867
G1 X123.15 Y100.616 E7.88757
G1 X123.591 Y101.255 E7.9134
G1 X124.065 Y102.024 E7.94344
G1 X124.325 Y102.522 E7.96213
G1 X124.605 Y103.096 E7.98337
G1 X124.902 Y103.742 E8.00702
G1 X125.235 Y104.582 E8.03707
G1 X125.405 Y105.118 E8.05577
G1 X125.586 Y105.75 E8.07764
G1 X125.761 Y106.418 E8.10061
G1 X125.944 Y107.302 E8.13063
G1 X126.022 Y107.883 E8.15013
G1 X126.086 Y108.5 E8.17076
G1 X126.143 Y109.216 E8.19465
G1 X126.17 Y110.118 E8.22466
G1 X126.146 Y110.689 E8.24367
G1 X126.101 Y111.326 E8.26491
G1 X126.033 Y112.038 E8.2887
G1 X125.903 Y112.931 E8.31872
G1 X125.778 Y113.498 E8.33803
G1 X125.627 Y114.099 E8.35864
G1 X125.439 Y114.782 E8.3822
G1 X125.155 Y115.639 E8.41223
G1 X124.932 Y116.18 E8.43169
G1 X124.673 Y116.759 E8.45279
G1 X124.37 Y117.397 E8.47628
G1 X123.942 Y118.193 E8.50634
G1 X123.636 Y118.674 E8.5253
G1 X123.299 Y119.173 E8.54533
G1 X122.876 Y119.769 E8.56963
G1 X122.317 Y120.478 E8.59966
G1 X121.907 Y120.926 E8.61986
G1 X121.455 Y121.391 E8.64143
G1 X120.949 Y121.887 E8.665
G1 X120.273 Y122.486 E8.69504
G1 X119.839 Y122.82 E8.71325
G1 X119.377 Y123.155 E8.73223
G1 X118.75 Y123.587 E8.75756
G1 X117.982 Y124.062 E8.78759
G1 X117.472 Y124.328 E8.80672
G1 X116.893 Y124.61 E8.82814
G1 X116.263 Y124.899 E8.8512
G1 X115.424 Y125.233 E8.88123
G1 X114.874 Y125.408 E8.90043
G1 X114.244 Y125.588 E8.92222
G1 X113.582 Y125.761 E8.94498
G1 X112.698 Y125.944 E8.975
G1 X112.123 Y126.021 E8.9943
G1 X111.49 Y126.087 E9.01547
G1 X110.758 Y126.145 E9.03989
G1 X109.856 Y126.17 E9.0699
G1 X109.307 Y126.145 E9.08818
G1 X108.672 Y126.1 E9.10935
G1 X107.962 Y126.033 E9.13307
G1 X107.069 Y125.903 E9.16309
G1 X106.502 Y125.778 E9.1824
G1 X105.901 Y125.627 E9.20301
G1 X105.224 Y125.44 E9.22637
G1 X104.366 Y125.158 E9.25641
G1 X103.813 Y124.929 E9.27632
G1 X103.226 Y124.666 E9.29771
G1 X102.593 Y124.365 E9.32102
G1 X101.798 Y123.936 E9.35107
G1 X101.32 Y123.632 E9.36991
G1 X100.823 Y123.296 E9.38986
G1 X100.225 Y122.871 E9.41427
G1 X99.516 Y122.312 E9.4443
G1 X99.072 Y121.905 E9.46433
G1 X98.613 Y121.459 E9.48561
G1 X98.143 Y120.983 E9.50786
G1 X97.542 Y120.309 E9.5379
G1 X97.187 Y119.848 E9.55725
G1 X96.8 Y119.314 E9.57919
G1 X96.389 Y118.715 E9.60335
G1 X95.917 Y117.944 E9.63341
G1 X95.676 Y117.48 E9.6508
G1 X95.395 Y116.904 E9.67212
G1 X95.094 Y116.247 E9.69616
G1 X94.761 Y115.408 E9.72618
G1 X94.594 Y114.877 E9.74469
G1 X94.414 Y114.248 E9.76645
G1 X94.239 Y113.582 E9.78936
G1 X94.056 Y112.698 E9.81938
G1 X93.979 Y112.123 E9.83868
G1 X93.913 Y111.49 E9.85985
G1 X93.855 Y110.764 E9.88407
G1 X93.83 Y109.861 E9.91412
G1 X93.854 Y109.311 E9.93243
G1 X93.899 Y108.674 E9.95367
G1 X93.967 Y107.962 E9.97745
G1 X94.097 Y107.069 E10.00747
G1 X94.222 Y106.502 E10.02678
G1 X94.373 Y105.901 E10.04739
G1 X94.561 Y105.218 E10.07095
G1 X94.845 Y104.361 E10.10098
G1 X95.068 Y103.82 E10.12044
G1 X95.331 Y103.232 E10.14187
G1 X95.634 Y102.596 E10.1653
G1 X96.062 Y101.801 E10.19533
G1 X96.364 Y101.326 E10.21405
G1 X96.701 Y100.827 E10.23408
G1 X97.129 Y100.225 E10.25864
G1 X97.688 Y99.516 E10.28867
G1 X97.987 Y99.19 E10.30339
G0 F1620 X98.095 Y99.072
G0 X98.541 Y98.613
G1 F2400 E7.10339
;MESH:Marble_5mm_Square_Inside.stl
G0 F9000 X105.279 Y105.352
G0 X106.045 Y106.118
G0 X105.807 Y106.468
G0 X105.574 Y106.279
;TYPE:WALL-OUTER
G1 F1440 E10.30339
G1 F1800 X106.279 Y105.574 E10.33655
G1 X107.111 Y104.992 E10.37032
G1 X108.023 Y104.566 E10.4038
G1 X108.997 Y104.305 E10.43734
G1 X110 Y104.217 E10.47082
G1 X111.003 Y104.305 E10.50431
G1 X111.977 Y104.566 E10.53785
G1 X112.889 Y104.992 E10.57133
G1 X113.718 Y105.572 E10.60498
G1 X114.427 Y106.283 E10.63838
G1 X115.008 Y107.111 E10.67202
G1 X115.434 Y108.023 E10.7055
G1 X115.695 Y108.997 E10.73904
G1 X115.783 Y110 E10.77253
G1 X115.695 Y111.003 E10.80601
G1 X115.434 Y111.977 E10.83955
G1 X115.008 Y112.889 E10.87303
G1 X114.428 Y113.718 E10.90668
G1 X113.717 Y114.427 E10.94008
G1 X112.889 Y115.008 E10.97372
G1 X111.977 Y115.434 E11.0072
G1 X111.003 Y115.695 E11.04074
G1 X110 Y115.783 E11.07423
G1 X108.997 Y115.695 E11.10771
G1 X108.023 Y115.434 E11.14125
G1 X107.111 Y115.008 E11.17473
G1 X106.279 Y114.426 E11.2085
G1 X105.574 Y113.721 E11.24166
G1 X104.992 Y112.889 E11.27543
G1 X104.566 Y111.977 E11.30891
G1 X104.305 Y111.003 E11.34245
G1 X104.217 Y110 E11.37594
G1 X104.305 Y108.997 E11.40943
G1 X104.566 Y108.023 E11.44297
G1 X104.992 Y107.111 E11.47645
G1 X105.116 Y106.934 E11.48363
G0 F1620 X105.574 Y106.279
G0 F9000 X105.807 Y106.468
G0 X107.298 Y106.997
G0 X107.298 Y107.297
G1 F1800 X107.298 Y112.702 E11.66341
G1 X112.703 Y112.702 E11.84318
G1 X112.703 Y107.297 E12.02295
G1 X108.098 Y107.297 E12.17611
G0 F1620 X107.298 Y107.297
G0 F9000 X106.898 Y106.897
;TYPE:WALL-INNER
G1 F1800 X106.898 Y113.102 E12.38249
G1 X113.103 Y113.102 E12.58887
G1 X113.103 Y106.897 E12.79525
G1 X107.698 Y106.897 E12.97502
G0 F1620 X106.898 Y106.897
G0 F9000 X106.538 Y105.881
G1 F1800 X107.314 Y105.338 E13.00652
G1 X108.159 Y104.943 E13.03754
G1 X109.068 Y104.7 E13.06884
G1 X110 Y104.618 E13.09996
G1 X110.932 Y104.7 E13.13108
G1 X111.841 Y104.943 E13.16237
G1 X112.686 Y105.338 E13.19339
