;FLAVOR:Marlin
;TIME:1533
;Filament used: 1.03638m
;Layer height: 0.2
;MINX:80.976
;MINY:77.557
;MINZ:0.2
;MAXX:142.425
;MAXY:142.441
;MAXZ:5.88
;Generated with Cura_SteamEngine 4.8.0
M82 ;absolute extrusion mode
M201 X500.00 Y500.00 Z100.00 E5000.00 ;Setup machine max acceleration
M203 X500.00 Y500.00 Z10.00 E50.00 ;Setup machine max feedrate
M204 P500.00 R1000.00 T500.00 ;Setup Print/Retract/Travel acceleration
M205 X8.00 Y8.00 Z0.40 E5.00 ;Setup Jerk
M220 S100 ;Reset Feedrate
M221 S100 ;Reset Flowrate

;*** Start Dual Nozzle/Bed Preheating ***
M140 S50 ; start preheating the bed
M104 S195 ﻿T0 ; start preheating hotend
M190 S50 ; heat to Cura Bed setting and WAIT
M109 S195 ﻿T0 ; heat to Cura Hotend and WAIT
;*** End Preheating ***

G28 ; home

G92 E0 ;Reset Extruder
G1 Z2.0 F3000 ;Move Z Axis up

;*** Single Print Start Tone
M300 S1000 P500 ; chirp to indicate starting to print
;*** End Single Start Tone

G1 X10.1 Y20 Z0.28 F5000.0 ;Move to start position
G1 X10.1 Y200.0 Z0.28 F1500.0 E15 ;Draw the first line
G1 X10.4 Y200.0 Z0.28 F5000.0 ;Move to side a little
G1 X10.4 Y20 Z0.28 F1500.0 E30 ;Draw the second line
G92 E0 ;Reset Extruder
G1 Z2.0 F3000 ;Move Z Axis up
G92 E0
G92 E0
G1 F2400 E-3.2
;LAYER_COUNT:29
;LAYER:0
M106 S63.8
M204 S500
M205 X6 Y6
G0 F9000 X94.41 Y86.34 Z0.2
;TYPE:SKIRT
G1 F1440 E0
G1 F1800 X94.862 Y85.875 E0.02157
G1 X95.377 Y85.369 E0.04558
G1 X96.065 Y84.758 E0.07619
G1 X96.531 Y84.401 E0.09571
G1 X96.993 Y84.066 E0.11469
G1 X97.629 Y83.627 E0.14039
G1 X98.411 Y83.142 E0.171
G1 X98.957 Y82.856 E0.1915
G1 X99.536 Y82.574 E0.21292
G1 X100.188 Y82.276 E0.23676
G1 X101.043 Y81.935 E0.26738
G1 X101.617 Y81.753 E0.28741
G1 X102.246 Y81.573 E0.30917
G1 X102.969 Y81.386 E0.33401
G1 X103.24 Y81.321 E0.34328
G1 X104.25 Y81.095 E0.3777
G1 X106.772 Y80.495 E0.46392
G1 X109.199 Y79.844 E0.5475
G1 X111.631 Y79.119 E0.63191
G1 X112.476 Y78.838 E0.66152
G1 X113.642 Y78.465 E0.70224
G1 X113.96 Y78.369 E0.71329
G1 X114.709 Y78.155 E0.7392
G1 X115.382 Y77.979 E0.76233
G1 X116.283 Y77.791 E0.79295
G1 X116.899 Y77.708 E0.81362
G1 X117.532 Y77.642 E0.83479
G1 X118.276 Y77.583 E0.85961
G1 X119.196 Y77.557 E0.89022
G1 X119.784 Y77.583 E0.9098
G1 X120.419 Y77.628 E0.93097
G1 X121.141 Y77.696 E0.95509
G1 X122.052 Y77.828 E0.98571
G1 X122.659 Y77.962 E1.00638
G1 X123.26 Y78.113 E1.02699
G1 X123.947 Y78.301 E1.05068
G1 X124.822 Y78.589 E1.08132
G1 X125.413 Y78.833 E1.10259
G1 X126 Y79.096 E1.12398
G1 X126.642 Y79.401 E1.14762
G1 X127.452 Y79.837 E1.17822
G1 X127.961 Y80.16 E1.19827
G1 X128.46 Y80.497 E1.2183
G1 X129.066 Y80.927 E1.24301
G1 X129.789 Y81.496 E1.27361
G1 X130.267 Y81.933 E1.29515
G1 X130.732 Y82.385 E1.31672
G1 X131.238 Y82.9 E1.34073
G1 X131.849 Y83.588 E1.37134
G1 X132.202 Y84.048 E1.39062
G1 X132.536 Y84.508 E1.40953
G1 X132.984 Y85.157 E1.43576
G1 X133.469 Y85.94 E1.46639
G1 X133.748 Y86.474 E1.48643
G1 X134.026 Y87.044 E1.50753
G1 X134.327 Y87.701 E1.53156
G1 X134.669 Y88.556 E1.56219
G1 X134.852 Y89.135 E1.58239
G1 X135.033 Y89.767 E1.60425
G1 X135.225 Y90.506 E1.62965
G1 X135.285 Y90.763 E1.63842
G1 X135.543 Y91.917 E1.67775
G1 X136.164 Y94.527 E1.76699
G1 X136.823 Y96.987 E1.85169
G1 X137.53 Y99.355 E1.93389
G1 X137.744 Y100.005 E1.95665
G1 X138.125 Y101.206 E1.99856
G1 X138.212 Y101.495 E2.00859
G1 X138.426 Y102.243 E2.03447
G1 X138.614 Y102.967 E2.05935
G1 X138.681 Y103.248 E2.06896
G1 X138.937 Y104.397 E2.10811
G1 X139.54 Y106.927 E2.19462
G1 X140.195 Y109.371 E2.27877
G1 X140.914 Y111.781 E2.36242
G1 X141.14 Y112.463 E2.38632
G1 X141.522 Y113.664 E2.42823
G1 X141.612 Y113.961 E2.43856
G1 X141.826 Y114.709 E2.46443
G1 X142.005 Y115.394 E2.48798
G1 X142.193 Y116.295 E2.51859
G1 X142.274 Y116.909 E2.53919
G1 X142.338 Y117.526 E2.55982
G1 X142.397 Y118.254 E2.58412
G1 X142.425 Y119.174 E2.61473
G1 X142.4 Y119.785 E2.63507
G1 X142.355 Y120.422 E2.65631
G1 X142.286 Y121.146 E2.6805
G1 X142.154 Y122.057 E2.71111
G1 X142.02 Y122.664 E2.73179
G1 X141.869 Y123.265 E2.7524
G1 X141.679 Y123.958 E2.7763
G1 X141.391 Y124.833 E2.80694
G1 X141.152 Y125.411 E2.82774
G1 X140.889 Y125.999 E2.84917
G1 X140.581 Y126.647 E2.87303
G1 X140.145 Y127.457 E2.90362
G1 X139.822 Y127.966 E2.92367
G1 X139.485 Y128.465 E2.9437
G1 X139.051 Y129.077 E2.96866
G1 X138.481 Y129.8 E2.99928
G1 X138.047 Y130.275 E3.02068
G1 X137.601 Y130.734 E3.04196
G1 X137.118 Y131.211 E3.06454
G1 X136.431 Y131.824 E3.09517
G1 X135.94 Y132.203 E3.1158
G1 X135.427 Y132.575 E3.13687
G1 X134.808 Y133.001 E3.16186
G1 X134.024 Y133.484 E3.19249
G1 X133.509 Y133.752 E3.2118
G1 X132.941 Y134.029 E3.23282
G1 X132.286 Y134.33 E3.25679
G1 X131.431 Y134.672 E3.28742
G1 X130.839 Y134.86 E3.30808
G1 X130.209 Y135.04 E3.32987
G1 X129.486 Y135.227 E3.35471
G1 X129.215 Y135.292 E3.36398
G1 X127.977 Y135.569 E3.40618
G1 X125.45 Y136.17 E3.49257
G1 X123.036 Y136.818 E3.5757
G1 X120.601 Y137.545 E3.66022
G1 X119.994 Y137.745 E3.68148
G1 X118.793 Y138.126 E3.72339
G1 X118.496 Y138.215 E3.7337
G1 X117.746 Y138.429 E3.75964
G1 X117.029 Y138.615 E3.78428
G1 X116.746 Y138.683 E3.79396
G1 X115.753 Y138.905 E3.8278
G1 X113.217 Y139.509 E3.91451
G1 X110.776 Y140.164 E3.99857
G1 X108.37 Y140.883 E4.08209
G1 X107.534 Y141.159 E4.11137
G1 X106.369 Y141.532 E4.15205
G1 X106.049 Y141.629 E4.16318
G1 X105.3 Y141.843 E4.18908
G1 X104.627 Y142.019 E4.21222
G1 X103.726 Y142.207 E4.24283
G1 X103.11 Y142.29 E4.26351
G1 X102.477 Y142.356 E4.28467
G1 X101.733 Y142.415 E4.3095
G1 X100.813 Y142.441 E4.34011
G1 X100.225 Y142.415 E4.35969
G1 X99.59 Y142.37 E4.38086
G1 X98.868 Y142.302 E4.40498
G1 X97.957 Y142.17 E4.4356
G1 X97.35 Y142.036 E4.45627
G1 X96.749 Y141.885 E4.47688
G1 X96.062 Y141.697 E4.50057
G1 X95.187 Y141.409 E4.53121
G1 X94.596 Y141.165 E4.55248
G1 X94.009 Y140.902 E4.57387
G1 X93.365 Y140.596 E4.59758
G1 X92.554 Y140.16 E4.62821
G1 X92.042 Y139.834 E4.6484
G1 X91.545 Y139.498 E4.66835
G1 X90.937 Y139.067 E4.69314
G1 X90.214 Y138.497 E4.72376
G1 X89.739 Y138.063 E4.74516
G1 X89.28 Y137.617 E4.76645
G1 X88.803 Y137.134 E4.78902
G1 X88.19 Y136.447 E4.81965
G1 X87.809 Y135.953 E4.8404
G1 X87.422 Y135.419 E4.86233
G1 X87.003 Y134.809 E4.88695
G1 X86.522 Y134.025 E4.91754
G1 X86.262 Y133.525 E4.93628
G1 X85.985 Y132.957 E4.9573
G1 X85.679 Y132.291 E4.98168
G1 X85.338 Y131.436 E5.01229
G1 X85.155 Y130.858 E5.03246
G1 X84.975 Y130.229 E5.05422
G1 X84.783 Y129.49 E5.07961
G1 X84.719 Y129.22 E5.08884
G1 X84.458 Y128.055 E5.12855
G1 X83.856 Y125.524 E5.21508
G1 X83.206 Y123.103 E5.29846
G1 X82.478 Y120.663 E5.38315
G1 X82.261 Y120.007 E5.40613
G1 X81.879 Y118.806 E5.44805
G1 X81.788 Y118.505 E5.4585
G1 X81.574 Y117.756 E5.48441
G1 X81.398 Y117.083 E5.50755
G1 X81.21 Y116.182 E5.53816
G1 X81.127 Y115.566 E5.55884
G1 X81.061 Y114.933 E5.58
G1 X81.002 Y114.195 E5.60463
G1 X80.976 Y113.274 E5.63527
G1 X81.001 Y112.685 E5.65488
G1 X81.046 Y112.048 E5.67612
G1 X81.115 Y111.324 E5.70031
G1 X81.247 Y110.413 E5.73093
G1 X81.381 Y109.806 E5.7516
G1 X81.532 Y109.205 E5.77221
G1 X81.722 Y108.512 E5.79611
G1 X82.01 Y107.637 E5.82675
G1 X82.249 Y107.059 E5.84755
G1 X82.512 Y106.471 E5.86898
G1 X82.816 Y105.83 E5.89257
G1 X83.252 Y105.019 E5.9232
G1 X83.582 Y104.497 E5.94374
G1 X84.459 Y103.2 E5.99581
G1 X85.893 Y101.01 E6.08288
G1 X87.188 Y98.906 E6.16505
G1 X88.472 Y96.68 E6.25052
G1 X89.676 Y94.453 E6.33472
G1 X90.819 Y92.183 E6.41926
G1 X91.582 Y90.578 E6.47836
G1 X91.884 Y89.955 E6.50139
G1 X92.321 Y89.145 E6.532
G1 X92.629 Y88.659 E6.55114
G1 X92.965 Y88.16 E6.57115
G1 X93.404 Y87.541 E6.59639
G1 X93.879 Y86.938 E6.62192
G0 F1620 X93.973 Y86.818
G0 X94.41 Y86.34
G0 F9000 X94.697 Y86.618
G1 F1800 X95.149 Y86.153 E6.64349
G1 X95.655 Y85.657 E6.66705
G1 X96.331 Y85.058 E6.69709
G1 X96.765 Y84.724 E6.71531
G1 X97.227 Y84.389 E6.73429
G1 X97.854 Y83.957 E6.75961
G1 X98.622 Y83.482 E6.78965
G1 X99.132 Y83.216 E6.80878
G1 X99.711 Y82.934 E6.8302
G1 X100.352 Y82.64 E6.85366
G1 X101.191 Y82.307 E6.88368
G1 X101.727 Y82.138 E6.90237
G1 X102.356 Y81.958 E6.92413
G1 X103.066 Y81.774 E6.94853
G1 X103.327 Y81.712 E6.95745
G1 X104.281 Y81.499 E6.98996
G1 X106.871 Y80.882 E7.07851
G1 X109.346 Y80.219 E7.16374
G1 X111.717 Y79.511 E7.24604
G1 X112.598 Y79.219 E7.27691
G1 X113.764 Y78.846 E7.31762
G1 X114.07 Y78.753 E7.32826
G1 X114.819 Y78.539 E7.35417
G1 X115.481 Y78.366 E7.37693
G1 X116.365 Y78.183 E7.40695
G1 X116.94 Y78.106 E7.42625
G1 X117.573 Y78.04 E7.44742
G1 X118.305 Y77.982 E7.47184
G1 X119.207 Y77.957 E7.50185
G1 X119.756 Y77.982 E7.52013
G1 X120.391 Y78.027 E7.5413
G1 X121.101 Y78.094 E7.56502
G1 X121.994 Y78.224 E7.59504
G1 X122.561 Y78.349 E7.61435
G1 X123.162 Y78.5 E7.63496
G1 X123.839 Y78.687 E7.65832
G1 X124.697 Y78.969 E7.68836
G1 X125.25 Y79.198 E7.70827
G1 X125.837 Y79.461 E7.72966
G1 X126.467 Y79.761 E7.75287
G1 X127.262 Y80.189 E7.7829
G1 X127.737 Y80.491 E7.80162
G1 X128.236 Y80.828 E7.82165
G1 X128.832 Y81.251 E7.84595
G1 X129.541 Y81.81 E7.87598
G1 X129.989 Y82.22 E7.89618
G1 X130.454 Y82.672 E7.91775
G1 X130.95 Y83.178 E7.94132
G1 X131.549 Y83.854 E7.97136
G1 X131.879 Y84.283 E7.98936
G1 X132.213 Y84.743 E8.00827
G1 X132.654 Y85.382 E8.03409
G1 X133.128 Y86.151 E8.06414
G1 X133.389 Y86.65 E8.08287
G1 X133.667 Y87.22 E8.10396
G1 X133.963 Y87.865 E8.12756
G1 X134.297 Y88.704 E8.1576
G1 X134.468 Y89.245 E8.17647
G1 X134.649 Y89.877 E8.19833
G1 X134.836 Y90.603 E8.22327
G1 X134.895 Y90.85 E8.23172
G1 X135.178 Y92.115 E8.27483
G1 X135.771 Y94.61 E8.36013
G1 X136.43 Y97.066 E8.4447
G1 X137.155 Y99.499 E8.52914
G1 X137.362 Y100.126 E8.5511
G1 X137.743 Y101.327 E8.59301
G1 X137.828 Y101.605 E8.60268
G1 X138.042 Y102.353 E8.62855
G1 X138.226 Y103.065 E8.65301
G1 X138.29 Y103.336 E8.66228
G1 X138.529 Y104.408 E8.69881
G1 X139.158 Y107.051 E8.78917
G1 X139.801 Y109.451 E8.87181
G1 X140.534 Y111.905 E8.95699
G1 X140.759 Y112.584 E8.98078
G1 X141.141 Y113.785 E9.0227
G1 X141.228 Y114.071 E9.03264
G1 X141.442 Y114.819 E9.05852
G1 X141.617 Y115.492 E9.08165
G1 X141.8 Y116.377 E9.1117
G1 X141.877 Y116.951 E9.13097
G1 X141.941 Y117.568 E9.1516
G1 X141.998 Y118.284 E9.17549
G1 X142.025 Y119.186 E9.2055
G1 X142.001 Y119.757 E9.22451
G1 X141.956 Y120.394 E9.24575
G1 X141.888 Y121.106 E9.26954
G1 X141.758 Y121.999 E9.29955
G1 X141.633 Y122.566 E9.31886
G1 X141.482 Y123.167 E9.33948
G1 X141.294 Y123.85 E9.36304
G1 X141.01 Y124.707 E9.39307
G1 X140.787 Y125.248 E9.41253
G1 X140.524 Y125.836 E9.43395
G1 X140.221 Y126.472 E9.45738
G1 X139.793 Y127.267 E9.48741
G1 X139.491 Y127.742 E9.50613
G1 X139.154 Y128.241 E9.52616
G1 X138.726 Y128.843 E9.55073
G1 X138.167 Y129.552 E9.58076
G1 X137.76 Y129.996 E9.60079
G1 X137.314 Y130.455 E9.62208
G1 X136.838 Y130.925 E9.64433
G1 X136.164 Y131.526 E9.67436
G1 X135.705 Y131.879 E9.69362
G1 X135.192 Y132.251 E9.7147
G1 X134.584 Y132.67 E9.73926
G1 X133.814 Y133.143 E9.76931
G1 X133.334 Y133.393 E9.78731
G1 X132.766 Y133.67 E9.80833
G1 X132.121 Y133.966 E9.83194
G1 X131.282 Y134.3 E9.86197
G1 X130.729 Y134.476 E9.88127
G1 X130.099 Y134.656 E9.90307
G1 X129.389 Y134.839 E9.92745
G1 X129.128 Y134.901 E9.93637
G1 X127.946 Y135.165 E9.97666
G1 X125.36 Y135.781 E10.06507
G1 X122.88 Y136.447 E10.15048
G1 X120.496 Y137.158 E10.23322
G1 X119.873 Y137.363 E10.25504
G1 X118.672 Y137.744 E10.29695
G1 X118.387 Y137.831 E10.30686
G1 X117.637 Y138.045 E10.3328
G1 X116.931 Y138.228 E10.35706
G1 X116.659 Y138.292 E10.36635
G1 X115.721 Y138.502 E10.39832
G1 X113.118 Y139.121 E10.48731
G1 X110.663 Y139.78 E10.57185
G1 X108.235 Y140.506 E10.65614
G1 X107.412 Y140.778 E10.68497
G1 X106.247 Y141.151 E10.72566
G1 X105.939 Y141.245 E10.73637
G1 X105.19 Y141.459 E10.76228
G1 X104.528 Y141.632 E10.78503
G1 X103.644 Y141.815 E10.81506
G1 X103.069 Y141.892 E10.83436
G1 X102.436 Y141.958 E10.85552
G1 X101.704 Y142.016 E10.87995
G1 X100.802 Y142.041 E10.90996
G1 X100.253 Y142.016 E10.92824
G1 X99.618 Y141.971 E10.94941
G1 X98.908 Y141.904 E10.97313
G1 X98.015 Y141.774 E11.00314
G1 X97.448 Y141.649 E11.02246
G1 X96.847 Y141.498 E11.04307
G1 X96.17 Y141.311 E11.06643
G1 X95.312 Y141.029 E11.09647
G1 X94.759 Y140.8 E11.11637
G1 X94.172 Y140.537 E11.13777
G1 X93.539 Y140.236 E11.16108
G1 X92.744 Y139.807 E11.19113
G1 X92.266 Y139.503 E11.20997
G1 X91.769 Y139.167 E11.22992
G1 X91.171 Y138.742 E11.25432
G1 X90.462 Y138.183 E11.28435
G1 X90.018 Y137.776 E11.30438
G1 X89.559 Y137.33 E11.32567
G1 X89.089 Y136.854 E11.34792
G1 X88.488 Y136.18 E11.37795
G1 X88.133 Y135.719 E11.39731
G1 X87.746 Y135.185 E11.41924
G1 X87.335 Y134.586 E11.4434
G1 X86.863 Y133.815 E11.47347
G1 X86.621 Y133.35 E11.4909
G1 X86.344 Y132.782 E11.51192
G1 X86.044 Y132.127 E11.53588
G1 X85.71 Y131.287 E11.56595
G1 X85.54 Y130.748 E11.58475
G1 X85.36 Y130.119 E11.60651
G1 X85.171 Y129.392 E11.63149
G1 X85.11 Y129.133 E11.64034
G1 X84.868 Y128.049 E11.67728
G1 X84.243 Y125.425 E11.767
G1 X83.584 Y122.966 E11.85167
G1 X82.871 Y120.58 E11.9345
G1 X82.642 Y119.886 E11.95881
G1 X82.26 Y118.685 E12.00072
G1 X82.172 Y118.395 E12.0108
G1 X81.958 Y117.646 E12.03671
G1 X81.785 Y116.984 E12.05947
G1 X81.602 Y116.1 E12.0895
G1 X81.525 Y115.525 E12.10879
G1 X81.459 Y114.892 E12.12996
G1 X81.401 Y114.166 E12.15418
G1 X81.376 Y113.263 E12.18423
G1 X81.4 Y112.713 E12.20254
G1 X81.445 Y112.076 E12.22378
G1 X81.513 Y111.364 E12.24757
G1 X81.643 Y110.471 E12.27758
G1 X81.768 Y109.904 E12.29689
G1 X81.919 Y109.303 E12.3175
G1 X82.107 Y108.62 E12.34106
G1 X82.391 Y107.763 E12.37109
G1 X82.614 Y107.222 E12.39055
G1 X82.877 Y106.634 E12.41198
G1 X83.176 Y106.004 E12.43517
G1 X83.604 Y105.208 E12.46523
G1 X83.914 Y104.721 E12.48443
G1 X84.782 Y103.437 E12.53598
G1 X86.209 Y101.258 E12.62261
G1 X87.557 Y99.068 E12.70815
G1 X88.813 Y96.891 E12.79174
G1 X90.028 Y94.644 E12.8767
G1 X91.179 Y92.356 E12.96189
G1 X91.942 Y90.753 E13.02094
G1 X92.244 Y90.13 E13.04396
G1 X92.673 Y89.335 E13.07401
G1 X92.961 Y88.882 E13.09186
G1 X93.297 Y88.383 E13.11187
G1 X93.728 Y87.775 E13.13666
G1 X94.168 Y87.217 E13.16029
G0 F1620 X94.287 Y87.066
G0 X94.697 Y86.618
G1 F2400 E9.96029
;MESH:Marble_5mm_Square_Inside.stl(3)
G0 F9000 X101.58 Y93.199
G0 X102.346 Y93.966
G0 X102.407 Y94.018
G0 X102.176 Y93.826
;TYPE:WALL-OUTER
G1 F1440 E13.16029
G1 F1800 X102.887 Y93.117 E13.19369
G1 X103.715 Y92.536 E13.22733
G1 X104.627 Y92.11 E13.26081
G1 X105.601 Y91.849 E13.29435
G1 X106.604 Y91.761 E13.32784
G1 X107.607 Y91.849 E13.36133
G1 X108.581 Y92.11 E13.39487
G1 X109.493 Y92.536 E13.42834
G1 X110.322 Y93.116 E13.462
G1 X111.031 Y93.827 E13.49539
G1 X111.612 Y94.655 E13.52903
G1 X112.038 Y95.567 E13.56251
G1 X112.299 Y96.541 E13.59605
G1 X112.387 Y97.544 E13.62954
G1 X112.299 Y98.547 E13.66303
G1 X112.038 Y99.521 E13.69657
G1 X111.612 Y100.433 E13.73005
G1 X111.03 Y101.265 E13.76382
G1 X110.325 Y101.97 E13.79698
G1 X109.493 Y102.552 E13.83075
G1 X108.581 Y102.978 E13.86423
G1 X107.607 Y103.239 E13.89777
G1 X106.604 Y103.327 E13.93125
G1 X105.601 Y103.239 E13.96474
G1 X104.627 Y102.978 E13.99828
G1 X103.715 Y102.552 E14.03176
G1 X102.883 Y101.97 E14.06553
G1 X102.178 Y101.265 E14.09869
G1 X101.596 Y100.433 E14.13246
G1 X101.17 Y99.521 E14.16594
G1 X100.909 Y98.547 E14.19948
G1 X100.821 Y97.544 E14.23297
G1 X100.909 Y96.541 E14.26646
G1 X101.17 Y95.567 E14.29999
G1 X101.596 Y94.655 E14.33347
G1 X101.718 Y94.481 E14.34054
G0 F1620 X102.176 Y93.826
G0 F9000 X102.407 Y94.018
G0 X103.901 Y94.541
G0 X103.901 Y94.841
G1 F1800 X103.901 Y100.246 E14.52031
G1 X109.306 Y100.246 E14.70008
G1 X109.306 Y94.841 E14.87985
G1 X104.701 Y94.841 E15.03302
G0 F1620 X103.901 Y94.841
G0 F9000 X103.501 Y94.441
;TYPE:WALL-INNER
G1 F1800 X103.501 Y100.646 E15.2394
G1 X109.706 Y100.646 E15.44578
G1 X109.706 Y94.441 E15.65216
G1 X104.301 Y94.441 E15.83193
G0 F1620 X103.501 Y94.441
G0 F9000 X103.144 Y93.425
G1 F1800 X103.917 Y92.882 E15.86335
G1 X104.763 Y92.487 E15.8944
G1 X105.672 Y92.244 E15.92569
G1 X106.604 Y92.162 E15.95681
G1 X107.536 Y92.244 E15.98793
G1 X108.445 Y92.487 E16.01923
G1 X109.29 Y92.882 E16.05025
G1 X110.066 Y93.425 E16.08175
G1 X110.723 Y94.084 E16.1127
G1 X111.266 Y94.857 E16.14412
G1 X111.661 Y95.703 E16.17518
G1 X111.904 Y96.612 E16.20647
G1 X111.986 Y97.544 E16.23759
