;FLAVOR:Marlin
;TIME:8830
;Filament used: 4.59924m
;Layer height: 0.16
;MINX:58
;MINY:81.997
;MINZ:0.2
;MAXX:147.999
;MAXY:174.652
;MAXZ:13.88
;Generated with Cura_SteamEngine 4.4.1
M140 S40
M105
M190 S40
M104 S215
M105
M109 S215
M82 ;absolute extrusion mode
M201 X500.00 Y500.00 Z100.00 E5000.00 ;Setup machine max acceleration
M203 X500.00 Y500.00 Z10.00 E50.00 ;Setup machine max feedrate
M204 P500.00 R1000.00 T500.00 ;Setup Print/Retract/Travel acceleration
M205 X8.00 Y8.00 Z0.40 E5.00 ;Setup Jerk
M220 S100 ;Reset Feedrate
M221 S100 ;Reset Flowrate

G28 ;Home

G92 E0 ;Reset Extruder
G1 Z2.0 F3000 ;Move Z Axis up
G1 X10.1 Y20 Z0.28 F5000.0 ;Move to start position
G1 X10.1 Y200.0 Z0.28 F1500.0 E15 ;Draw the first line
G1 X10.4 Y200.0 Z0.28 F5000.0 ;Move to side a little
G1 X10.4 Y20 Z0.28 F1500.0 E30 ;Draw the second line
G92 E0 ;Reset Extruder
G1 Z2.0 F3000 ;Move Z Axis up

G92 E0
G92 E0
G1 F1800 E-3
;LAYER_COUNT:90
;LAYER:0
M107
G0 F6000 X75.887 Y87.377 Z0.2
;TYPE:SKIRT
G1 F1800 E0
G1 F1200 X76.627 Y86.8 E0.03121
G1 X77.413 Y86.289 E0.06239
G1 X78.24 Y85.847 E0.09358
G1 X78.767 Y85.61 E0.1128
G1 X79.412 Y85.34 E0.13606
G1 X81.731 Y84.331 E0.22017
G1 X83.846 Y83.328 E0.29802
G1 X83.963 Y83.273 E0.30232
G1 X84.509 Y83.022 E0.32231
G1 X85.378 Y82.667 E0.35353
G1 X86.273 Y82.388 E0.38471
G1 X87.188 Y82.185 E0.41589
G1 X88.365 Y82.042 E0.45532
G1 X88.573 Y82.028 E0.46226
G1 X89.201 Y82.004 E0.48316
G1 X89.498 Y82.001 E0.49304
G1 X89.599 Y82 E0.4964
G1 X92.968 Y81.997 E0.60845
G1 X92.983 Y81.997 E0.60895
G1 X99.203 Y82 E0.81583
G1 X99.348 Y82.001 E0.82065
G1 X100.009 Y82.01 E0.84264
G1 X100.806 Y82.05 E0.86918
G1 X103.636 Y82.295 E0.96366
G1 X106.172 Y82.44 E1.04814
G1 X108.65 Y82.511 E1.1306
G1 X111.173 Y82.513 E1.21451
G1 X113.704 Y82.442 E1.29872
G1 X116.231 Y82.301 E1.3829
G1 X118.282 Y82.134 E1.45135
G1 X119.122 Y82.056 E1.47941
G1 X119.946 Y82.011 E1.50685
G1 X120.523 Y82.001 E1.52605
G1 X120.707 Y81.999 E1.53217
G1 X123.952 Y81.997 E1.6401
G1 X123.964 Y81.997 E1.64049
G1 X130.202 Y82 E1.84797
G1 X130.347 Y82.001 E1.85279
G1 X131.006 Y82.01 E1.87471
G1 X131.943 Y82.063 E1.90593
G1 X132.871 Y82.195 E1.93711
G1 X133.785 Y82.406 E1.9683
G1 X134.677 Y82.694 E1.99948
G1 X135.521 Y83.047 E2.02991
G1 X136.546 Y83.527 E2.06755
G1 X136.69 Y83.596 E2.07286
G1 X137.081 Y83.786 E2.08732
G1 X139.381 Y84.825 E2.17126
G1 X140.601 Y85.335 E2.21524
G1 X140.741 Y85.395 E2.22031
G1 X141.351 Y85.66 E2.24243
G1 X142.194 Y86.07 E2.27361
G1 X143 Y86.55 E2.30481
G1 X143.762 Y87.098 E2.33603
G1 X144.474 Y87.708 E2.36721
G1 X145.132 Y88.376 E2.3984
G1 X145.73 Y89.099 E2.42961
G1 X146.265 Y89.869 E2.46079
G1 X146.732 Y90.682 E2.49198
G1 X147.128 Y91.532 E2.52316
G1 X147.45 Y92.413 E2.55436
G1 X147.696 Y93.318 E2.58555
G1 X147.864 Y94.241 E2.61676
G1 X147.921 Y94.729 E2.6331
G1 X147.952 Y95.062 E2.64422
G1 X147.999 Y96.082 E2.67818
G1 X147.999 Y126.345 E3.68474
G1 X147.998 Y126.503 E3.68999
G1 X147.988 Y127.201 E3.71321
G1 X147.934 Y128.137 E3.74439
G1 X147.802 Y129.065 E3.77557
G1 X147.59 Y129.979 E3.80677
G1 X147.301 Y130.871 E3.83796
G1 X146.938 Y131.736 E3.86916
G1 X146.374 Y132.781 E3.90866
G1 X145.871 Y133.603 E3.94071
G1 X144.499 Y135.905 E4.02984
G1 X143.261 Y138.123 E4.11433
G1 X142.124 Y140.303 E4.1961
G1 X140.997 Y142.62 E4.2818
G1 X139.982 Y144.866 E4.36378
G1 X138.992 Y147.23 E4.44902
G1 X138.089 Y149.578 E4.53269
G1 X137.267 Y151.907 E4.61484
G1 X136.48 Y154.354 E4.70033
G1 X135.789 Y156.73 E4.78263
G1 X135.148 Y159.193 E4.86728
G1 X134.578 Y161.659 E4.95146
G1 X134.094 Y164.086 E5.03377
G1 X134.071 Y164.219 E5.03826
G1 X134.042 Y164.381 E5.04374
G1 X133.804 Y165.658 E5.08694
G1 X133.593 Y166.572 E5.11814
G1 X133.305 Y167.465 E5.14935
G1 X132.942 Y168.33 E5.18055
G1 X132.506 Y169.16 E5.21173
G1 X132.002 Y169.951 E5.24293
G1 X131.432 Y170.696 E5.27413
G1 X130.8 Y171.389 E5.30532
G1 X130.112 Y172.026 E5.33651
G1 X129.372 Y172.602 E5.36769
G1 X128.586 Y173.113 E5.39888
G1 X127.759 Y173.556 E5.43008
G1 X126.897 Y173.926 E5.46128
G1 X126.007 Y174.221 E5.49247
G1 X125.095 Y174.44 E5.52366
G1 X124.167 Y174.58 E5.55488
G1 X123.299 Y174.639 E5.58381
G1 X122.979 Y174.648 E5.59446
G1 X122.67 Y174.652 E5.60474
G1 X69.707 Y174.652 E7.36629
G1 X69.549 Y174.651 E7.37155
G1 X68.851 Y174.641 E7.39477
G1 X67.915 Y174.587 E7.42595
G1 X66.987 Y174.455 E7.45713
G1 X66.073 Y174.243 E7.48833
G1 X65.181 Y173.954 E7.51952
G1 X64.316 Y173.591 E7.55072
G1 X63.486 Y173.155 E7.5819
G1 X62.695 Y172.65 E7.61312
G1 X61.951 Y172.079 E7.64431
G1 X61.258 Y171.447 E7.6755
G1 X60.621 Y170.759 E7.70669
G1 X60.046 Y170.018 E7.73789
G1 X59.535 Y169.232 E7.76907
G1 X59.093 Y168.404 E7.80028
G1 X58.724 Y167.542 E7.83147
G1 X58.429 Y166.652 E7.86266
G1 X58.211 Y165.74 E7.89384
G1 X58.071 Y164.812 E7.92506
G1 X58.013 Y163.94 E7.95413
G1 X58.004 Y163.608 E7.96517
G1 X58 Y163.31 E7.97508
G1 X58 Y133.055 E8.98137
G1 X58.001 Y132.897 E8.98663
G1 X58.011 Y132.199 E9.00984
G1 X58.065 Y131.263 E9.04103
G1 X58.197 Y130.335 E9.0722
G1 X58.409 Y129.421 E9.10341
G1 X58.698 Y128.529 E9.1346
G1 X59.061 Y127.664 E9.1658
G1 X59.624 Y126.621 E9.20522
G1 X60.15 Y125.761 E9.23875
G1 X61.517 Y123.466 E9.32759
G1 X62.74 Y121.273 E9.41111
G1 X63.901 Y119.046 E9.49464
G1 X65.004 Y116.776 E9.57858
G1 X66.039 Y114.485 E9.6622
G1 X67.023 Y112.135 E9.74693
G1 X67.909 Y109.826 E9.82919
G1 X68.748 Y107.449 E9.91303
G1 X69.523 Y105.039 E9.99723
G1 X70.217 Y102.65 E10.07997
G1 X70.86 Y100.176 E10.16499
G1 X71.429 Y97.712 E10.2491
G1 X71.916 Y95.274 E10.33179
G1 X71.946 Y95.097 E10.33776
G1 X71.972 Y94.954 E10.3426
G1 X72.197 Y93.745 E10.3835
G1 X72.407 Y92.832 E10.41466
G1 X72.695 Y91.939 E10.44587
G1 X73.058 Y91.074 E10.47707
G1 X73.493 Y90.243 E10.50826
G1 X73.998 Y89.453 E10.53945
G1 X74.567 Y88.708 E10.57063
G1 X75.199 Y88.014 E10.60185
G1 X75.887 Y87.377 E10.63303
G0 F6000 X76.249 Y87.595
G1 F1200 X76.983 Y87.039 E10.66366
G1 X77.763 Y86.549 E10.6943
G1 X78.921 Y85.979 E10.73723
G1 X79.518 Y85.729 E10.75875
G1 X81.946 Y84.672 E10.84683
G1 X84.018 Y83.69 E10.92309
G1 X84.131 Y83.637 E10.92724
G1 X84.677 Y83.386 E10.94723
G1 X85.529 Y83.038 E10.97784
G1 X86.408 Y82.765 E11.00845
G1 X87.308 Y82.57 E11.03908
G1 X88.392 Y82.441 E11.07539
G1 X88.6 Y82.427 E11.08232
G1 X89.205 Y82.404 E11.10246
G1 X89.502 Y82.401 E11.11234
G1 X89.6 Y82.4 E11.1156
G1 X92.969 Y82.397 E11.22765
G1 X92.983 Y82.397 E11.22812
G1 X99.203 Y82.4 E11.435
G1 X99.342 Y82.401 E11.43962
G1 X100.003 Y82.41 E11.46161
G1 X100.772 Y82.448 E11.48722
G1 X103.615 Y82.694 E11.58213
G1 X106.137 Y82.838 E11.66615
G1 X108.674 Y82.911 E11.75056
G1 X111.184 Y82.913 E11.83405
G1 X113.739 Y82.842 E11.91906
G1 X116.243 Y82.701 E12.00247
G1 X118.266 Y82.537 E12.06998
G1 X119.159 Y82.454 E12.09981
G1 X119.953 Y82.411 E12.12626
G1 X120.53 Y82.401 E12.14545
G1 X120.707 Y82.399 E12.15134
G1 X123.952 Y82.397 E12.25927
G1 X123.964 Y82.397 E12.25967
G1 X130.202 Y82.4 E12.46714
G1 X130.342 Y82.401 E12.4718
G1 X131.001 Y82.41 E12.49372
G1 X131.92 Y82.463 E12.52434
G1 X132.831 Y82.595 E12.55495
G1 X133.727 Y82.805 E12.58556
G1 X134.602 Y83.093 E12.6162
G1 X135.351 Y83.409 E12.64324
G1 X136.376 Y83.889 E12.68088
G1 X136.515 Y83.956 E12.68601
G1 X136.92 Y84.153 E12.70099
G1 X139.198 Y85.182 E12.78413
G1 X140.447 Y85.704 E12.82916
G1 X140.582 Y85.762 E12.83404
G1 X141.192 Y86.027 E12.85616
G1 X142.019 Y86.43 E12.88676
G1 X142.809 Y86.903 E12.91739
G1 X143.554 Y87.444 E12.94801
G1 X144.25 Y88.046 E12.97862
G1 X144.891 Y88.707 E13.00924
G1 X145.472 Y89.421 E13.03986
G1 X145.989 Y90.183 E13.07048
G1 X146.438 Y90.987 E13.10111
G1 X146.816 Y91.827 E13.13175
G1 X147.119 Y92.696 E13.16236
G1 X147.345 Y93.588 E13.19297
G1 X147.522 Y94.766 E13.23259
G1 X147.553 Y95.099 E13.24371
G1 X147.599 Y96.082 E13.27644
G1 X147.599 Y126.345 E14.28299
G1 X147.598 Y126.497 E14.28805
G1 X147.588 Y127.195 E14.31126
G1 X147.535 Y128.114 E14.34188
G1 X147.402 Y129.025 E14.3725
G1 X147.191 Y129.921 E14.40312
G1 X146.903 Y130.795 E14.43373
G1 X146.54 Y131.642 E14.46438
G1 X146.033 Y132.572 E14.49961
G1 X145.49 Y133.461 E14.53425
G1 X144.149 Y135.711 E14.62137
G1 X142.929 Y137.895 E14.70458
G1 X141.753 Y140.15 E14.78916
G1 X140.651 Y142.416 E14.87297
G1 X139.607 Y144.726 E14.95729
G1 X138.609 Y147.11 E15.04324
G1 X137.726 Y149.405 E15.12503
G1 X136.881 Y151.799 E15.20947
G1 X136.101 Y154.224 E15.2942
G1 X135.404 Y156.622 E15.37725
G1 X134.757 Y159.107 E15.46266
G1 X134.19 Y161.563 E15.5465
G1 X133.695 Y164.04 E15.63051
G1 X133.676 Y164.152 E15.63429
G1 X133.649 Y164.308 E15.63956
G1 X133.411 Y165.585 E15.68276
G1 X133.203 Y166.482 E15.71339
G1 X132.918 Y167.357 E15.74399
G1 X132.558 Y168.205 E15.77463
G1 X132.126 Y169.018 E15.80526
G1 X131.625 Y169.79 E15.83587
G1 X131.059 Y170.517 E15.86651
G1 X130.432 Y171.191 E15.89713
G1 X129.749 Y171.808 E15.92774
G1 X129.015 Y172.364 E15.95837
G1 X128.236 Y172.854 E15.98898
G1 X127.417 Y173.274 E16.01959
G1 X126.565 Y173.622 E16.0502
G1 X125.685 Y173.895 E16.08084
G1 X124.785 Y174.09 E16.11147
G1 X123.872 Y174.206 E16.14208
G1 X123.288 Y174.239 E16.16154
G1 X122.968 Y174.248 E16.17219
G1 X122.67 Y174.252 E16.1821
G1 X69.707 Y174.252 E17.94365
G1 X69.555 Y174.251 E17.94871
G1 X68.857 Y174.241 E17.97193
G1 X67.938 Y174.188 E18.00255
G1 X67.027 Y174.055 E18.03317
G1 X66.131 Y173.844 E18.06378
G1 X65.257 Y173.556 E18.09439
G1 X64.41 Y173.193 E18.12504
G1 X63.599 Y172.758 E18.15565
G1 X62.829 Y172.254 E18.18626
G1 X62.105 Y171.685 E18.21688
G1 X61.433 Y171.055 E18.24752
G1 X60.818 Y170.37 E18.27814
G1 X60.265 Y169.634 E18.30876
G1 X59.778 Y168.853 E18.33937
G1 X59.361 Y168.032 E18.37
G1 X59.016 Y167.178 E18.40063
G1 X58.747 Y166.298 E18.43124
G1 X58.555 Y165.397 E18.46188
G1 X58.442 Y164.484 E18.49248
G1 X58.413 Y163.929 E18.51096
G1 X58.404 Y163.597 E18.52201
G1 X58.4 Y163.31 E18.53155
G1 X58.4 Y133.055 E19.53784
G1 X58.401 Y132.903 E19.5429
G1 X58.411 Y132.205 E19.56611
G1 X58.464 Y131.286 E19.59673
G1 X58.597 Y130.375 E19.62735
G1 X58.808 Y129.479 E19.65797
G1 X59.096 Y128.605 E19.68857
G1 X59.459 Y127.758 E19.71922
G1 X59.965 Y126.83 E19.75438
G1 X60.515 Y125.93 E19.78946
G1 X61.852 Y123.687 E19.87631
G1 X63.086 Y121.474 E19.96059
G1 X64.272 Y119.199 E20.04592
G1 X65.357 Y116.966 E20.12849
G1 X66.408 Y114.638 E20.21344
G1 X67.39 Y112.295 E20.29794
G1 X68.288 Y109.954 E20.38134
G1 X69.13 Y107.567 E20.46552
G1 X69.905 Y105.158 E20.54969
G1 X70.612 Y102.725 E20.63396
G1 X71.243 Y100.295 E20.71746
G1 X71.817 Y97.808 E20.80235
G1 X72.308 Y95.349 E20.88576
G1 X72.34 Y95.165 E20.89197
G1 X72.365 Y95.028 E20.8966
G1 X72.59 Y93.819 E20.9375
G1 X72.798 Y92.922 E20.96813
G1 X73.082 Y92.046 E20.99876
G1 X73.442 Y91.199 E21.02937
G1 X73.873 Y90.385 E21.06
G1 X74.374 Y89.613 E21.09061
G1 X74.94 Y88.887 E21.12123
G1 X75.567 Y88.212 E21.15187
G1 X76.249 Y87.595 E21.18246
G0 F6000 X76.611 Y87.816
G1 F1200 X77.339 Y87.281 E21.21251
G1 X78.111 Y86.812 E21.24255
G1 X79.076 Y86.348 E21.27816
G1 X79.683 Y86.094 E21.30005
G1 X82.085 Y85.048 E21.38719
G1 X84.189 Y84.051 E21.46463
G1 X84.298 Y84 E21.46863
G1 X84.844 Y83.749 E21.48862
G1 X85.68 Y83.409 E21.51863
G1 X86.543 Y83.144 E21.54866
G1 X87.427 Y82.956 E21.57872
G1 X88.419 Y82.84 E21.61194
G1 X88.627 Y82.826 E21.61887
G1 X89.209 Y82.804 E21.63824
G1 X89.506 Y82.801 E21.64812
G1 X89.6 Y82.8 E21.65125
G1 X92.969 Y82.797 E21.7633
G1 X92.983 Y82.797 E21.76377
G1 X99.203 Y82.8 E21.97064
G1 X99.337 Y82.801 E21.9751
G1 X99.998 Y82.81 E21.99709
G1 X100.737 Y82.847 E22.0217
G1 X103.591 Y83.094 E22.11698
G1 X106.103 Y83.238 E22.20066
G1 X108.662 Y83.311 E22.28581
G1 X111.195 Y83.313 E22.37006
G1 X113.736 Y83.242 E22.45461
G1 X116.3 Y83.098 E22.54002
G1 X118.332 Y82.933 E22.60783
G1 X119.196 Y82.853 E22.63669
G1 X119.96 Y82.811 E22.66214
G1 X120.537 Y82.801 E22.68133
G1 X120.708 Y82.799 E22.68702
G1 X123.953 Y82.797 E22.79495
G1 X123.964 Y82.797 E22.79531
G1 X130.202 Y82.8 E23.00279
G1 X130.336 Y82.801 E23.00725
G1 X130.995 Y82.81 E23.02917
G1 X131.897 Y82.862 E23.05922
G1 X132.79 Y82.994 E23.08924
G1 X133.669 Y83.204 E23.1193
G1 X134.525 Y83.492 E23.14934
G1 X135.182 Y83.772 E23.17309
G1 X136.207 Y84.252 E23.21074
G1 X136.34 Y84.315 E23.21563
G1 X136.746 Y84.513 E23.23066
G1 X139.071 Y85.562 E23.31549
G1 X140.292 Y86.073 E23.35952
G1 X140.422 Y86.129 E23.36422
G1 X141.032 Y86.394 E23.38634
G1 X141.844 Y86.79 E23.41639
G1 X142.617 Y87.256 E23.44641
G1 X143.346 Y87.789 E23.47645
G1 X144.025 Y88.385 E23.5065
G1 X144.649 Y89.038 E23.53654
G1 X145.213 Y89.743 E23.56657
G1 X145.711 Y90.496 E23.59659
G1 X146.142 Y91.29 E23.62664
G1 X146.5 Y92.119 E23.65668
G1 X146.784 Y92.976 E23.6867
G1 X146.991 Y93.856 E23.71677
G1 X147.124 Y94.804 E23.74861
G1 X147.155 Y95.137 E23.75974
G1 X147.199 Y96.082 E23.7912
G1 X147.199 Y126.345 E24.79775
G1 X147.198 Y126.491 E24.80261
G1 X147.188 Y127.189 E24.82583
G1 X147.135 Y128.091 E24.85588
G1 X147.003 Y128.984 E24.8859
G1 X146.792 Y129.862 E24.91594
G1 X146.504 Y130.718 E24.94597
G1 X146.142 Y131.545 E24.976
G1 X145.691 Y132.364 E25.0071
G1 X145.123 Y133.293 E25.04331
G1 X143.814 Y135.49 E25.12837
G1 X142.568 Y137.722 E25.21339
G1 X141.396 Y139.969 E25.29768
G1 X140.284 Y142.255 E25.38224
G1 X139.244 Y144.556 E25.46622
G1 X138.247 Y146.937 E25.55208
G1 X137.348 Y149.277 E25.63545
G1 X136.499 Y151.68 E25.72022
G1 X135.719 Y154.105 E25.80494
G1 X135.019 Y156.515 E25.88841
G1 X134.366 Y159.022 E25.97458
G1 X133.803 Y161.46 E26.0578
G1 X133.301 Y163.973 E26.14303
G1 X133.282 Y164.084 E26.14678
G1 X133.255 Y164.235 E26.15188
G1 X133.017 Y165.512 E26.19509
G1 X132.813 Y166.391 E26.2251
G1 X132.531 Y167.25 E26.25517
G1 X132.175 Y168.079 E26.28518
G1 X131.746 Y168.874 E26.31522
G1 X131.249 Y169.628 E26.34526
G1 X130.687 Y170.335 E26.3753
G1 X130.065 Y170.99 E26.40534
G1 X129.388 Y171.587 E26.43536
G1 X128.66 Y172.122 E26.46541
G1 X127.888 Y172.59 E26.49544
G1 X127.077 Y172.988 E26.52548
G1 X126.234 Y173.313 E26.55553
G1 X125.366 Y173.562 E26.58557
G1 X124.48 Y173.734 E26.61559
G1 X123.277 Y173.839 E26.65575
G1 X122.957 Y173.848 E26.6664
G1 X122.67 Y173.852 E26.67595
G1 X69.707 Y173.852 E28.4375
G1 X69.561 Y173.851 E28.44236
G1 X68.863 Y173.841 E28.46558
G1 X67.961 Y173.788 E28.49563
G1 X67.068 Y173.656 E28.52565
G1 X66.19 Y173.445 E28.55569
G1 X65.334 Y173.157 E28.58573
G1 X64.507 Y172.795 E28.61575
G1 X63.715 Y172.36 E28.6458
G1 X62.964 Y171.858 E28.67585
G1 X62.261 Y171.291 E28.70589
G1 X61.611 Y170.664 E28.73593
G1 X61.019 Y169.982 E28.76596
G1 X60.489 Y169.251 E28.796
G1 X60.027 Y168.475 E28.82603
G1 X59.634 Y167.662 E28.85607
G1 X59.316 Y166.817 E28.8861
G1 X59.073 Y165.947 E28.91614
G1 X58.908 Y165.059 E28.94618
G1 X58.813 Y163.918 E28.98426
G1 X58.804 Y163.586 E28.99531
G1 X58.8 Y163.31 E29.00449
G1 X58.8 Y133.055 E30.01077
G1 X58.801 Y132.909 E30.01563
G1 X58.811 Y132.211 E30.03885
G1 X58.864 Y131.309 E30.0689
G1 X58.996 Y130.416 E30.09892
G1 X59.207 Y129.538 E30.12896
G1 X59.495 Y128.682 E30.159
G1 X59.857 Y127.855 E30.18902
G1 X60.307 Y127.038 E30.22005
G1 X60.866 Y126.124 E30.25568
G1 X62.202 Y123.88 E30.34254
G1 X63.432 Y121.675 E30.42652
G1 X64.629 Y119.38 E30.51261
G1 X65.724 Y117.127 E30.59593
G1 X66.771 Y114.808 E30.68055
G1 X67.756 Y112.456 E30.76537
G1 X68.663 Y110.094 E30.84952
G1 X69.513 Y107.685 E30.93448
G1 X70.287 Y105.276 E31.01864
G1 X70.995 Y102.841 E31.10298
G1 X71.636 Y100.371 E31.18786
G1 X72.204 Y97.911 E31.27183
G1 X72.702 Y95.417 E31.35642
G1 X72.734 Y95.233 E31.36263
G1 X72.758 Y95.101 E31.36709
G1 X72.983 Y93.892 E31.40799
G1 X73.188 Y93.012 E31.43805
G1 X73.469 Y92.154 E31.46808
G1 X73.825 Y91.324 E31.49811
G1 X74.253 Y90.529 E31.52814
G1 X74.75 Y89.775 E31.55818
G1 X75.312 Y89.068 E31.58822
G1 X75.934 Y88.413 E31.61826
G1 X76.611 Y87.816 E31.64828
G0 F6000 X89.2 Y93.2
G1 F1200 X92.978 Y93.197 E31.77394
G1 X99.782 Y93.2 E32.00024
G1 X99.8 Y93.218 E32.00109
G1 X99.8 Y94.752 E32.05211
G1 X89.2 Y94.752 E32.40467
G1 X89.2 Y93.2 E32.45629
G0 F6000 X89.6 Y93.6
G1 F1200 X92.978 Y93.597 E32.56864
G1 X99.4 Y93.6 E32.78224
G1 X99.4 Y94.352 E32.80725
G1 X89.6 Y94.352 E33.1332
G1 X89.6 Y93.6 E33.15821
G1 F1800 E30.15821
G0 F6000 X120.2 Y93.217
G1 F1800 E33.15821
