;FLAVOR:Marlin
;TIME:8365
;Filament used: 5.53111m
;Layer height: 0.16
;MINX:57.846
;MINY:55.205
;MINZ:0.2
;MAXX:162.159
;MAXY:164.795
;MAXZ:17.96
;Generated with Cura_SteamEngine 4.4.1
M140 S60
M105
M190 S60
M104 S200
M105
M109 S200
M82 ;absolute extrusion mode
M201 X500.00 Y500.00 Z100.00 E5000.00 ;Setup machine max acceleration
M203 X500.00 Y500.00 Z10.00 E50.00 ;Setup machine max feedrate
M204 P500.00 R1000.00 T500.00 ;Setup Print/Retract/Travel acceleration
M205 X8.00 Y8.00 Z0.40 E5.00 ;Setup Jerk
M220 S100 ;Reset Feedrate
M221 S100 ;Reset Flowrate

G28 ;Home

G92 E0 ;Reset Extruder
G1 Z2.0 F3000 ;Move Z Axis up
G1 X10.1 Y20 Z0.28 F5000.0 ;Move to start position
G1 X10.1 Y200.0 Z0.28 F1500.0 E15 ;Draw the first line
G1 X10.4 Y200.0 Z0.28 F5000.0 ;Move to side a little
G1 X10.4 Y20 Z0.28 F1500.0 E30 ;Draw the second line
G92 E0 ;Reset Extruder
G1 Z2.0 F3000 ;Move Z Axis up

G92 E0
G92 E0
G1 F1800 E-3
;LAYER_COUNT:125
;LAYER:0
M107
G0 F6000 X61.59 Y59.57 Z0.2
;TYPE:SKIRT
G1 F1800 E0
G1 F1200 X62.298 Y58.868 E0.03316
G1 X62.886 Y58.341 E0.05942
G1 X63.316 Y58.018 E0.07731
G1 X64.17 Y57.42 E0.11199
G1 X64.839 Y57 E0.13826
G1 X65.336 Y56.745 E0.15684
G1 X66.282 Y56.302 E0.19158
G1 X67.013 Y56.004 E0.21784
G1 X67.548 Y55.838 E0.23647
G1 X68.51 Y55.577 E0.26962
G1 X69.281 Y55.409 E0.29587
G1 X69.827 Y55.339 E0.31418
G1 X70.866 Y55.242 E0.34888
G1 X71.586 Y55.208 E0.37286
G1 X76.001 Y55.205 E0.5197
G1 X76.006 Y55.205 E0.51987
G1 X127.252 Y55.206 E2.22432
G1 X127.922 Y55.235 E2.24662
G1 X128.919 Y55.321 E2.2799
G1 X129.702 Y55.428 E2.30619
G1 X130.216 Y55.544 E2.32371
G1 X131.225 Y55.807 E2.3584
G1 X131.978 Y56.045 E2.38466
G1 X132.492 Y56.257 E2.40315
G1 X133.438 Y56.688 E2.43773
G1 X134.139 Y57.051 E2.46399
G1 X134.665 Y57.387 E2.48475
G1 X135.563 Y58.013 E2.52115
G1 X136.187 Y58.497 E2.54742
G1 X136.598 Y58.877 E2.56604
G1 X137.302 Y59.576 E2.59903
G1 X137.833 Y60.16 E2.62529
G1 X138.176 Y60.61 E2.64411
G1 X138.247 Y60.71 E2.64818
G1 X149.359 Y60.71 E3.01777
G1 X149.598 Y60.714 E3.02572
G1 X149.891 Y60.723 E3.03547
G1 X150.369 Y60.752 E3.0514
G1 X150.694 Y60.782 E3.06225
G1 X151.186 Y60.843 E3.07874
G1 X151.511 Y60.894 E3.08969
G1 X152.03 Y60.994 E3.10726
G1 X152.347 Y61.066 E3.11808
G1 X152.834 Y61.193 E3.13482
G1 X153.148 Y61.286 E3.14571
G1 X153.612 Y61.439 E3.16196
G1 X153.921 Y61.552 E3.1729
G1 X154.45 Y61.768 E3.19191
G1 X154.747 Y61.902 E3.20274
G1 X155.169 Y62.108 E3.21836
G1 X155.46 Y62.261 E3.2293
G1 X155.899 Y62.511 E3.2461
G1 X156.177 Y62.681 E3.25694
G1 X156.594 Y62.954 E3.27352
G1 X156.86 Y63.141 E3.28433
G1 X157.34 Y63.507 E3.30441
G1 X157.644 Y63.758 E3.31752
G1 X158.019 Y64.088 E3.33413
G1 X158.234 Y64.29 E3.34394
G1 X158.572 Y64.628 E3.35984
G1 X158.797 Y64.867 E3.37076
G1 X159.154 Y65.273 E3.38874
G1 X159.339 Y65.499 E3.39846
G1 X159.608 Y65.848 E3.41311
G1 X159.801 Y66.113 E3.42402
G1 X160.094 Y66.545 E3.44138
G1 X160.268 Y66.821 E3.45223
G1 X160.524 Y67.258 E3.46907
G1 X160.681 Y67.547 E3.48001
G1 X160.91 Y68.004 E3.49701
G1 X161.046 Y68.299 E3.50782
G1 X161.241 Y68.759 E3.52444
G1 X161.359 Y69.065 E3.53534
G1 X161.531 Y69.562 E3.55284
G1 X161.628 Y69.875 E3.56374
G1 X161.758 Y70.343 E3.57989
G1 X161.835 Y70.66 E3.59074
G1 X161.944 Y71.188 E3.60867
G1 X161.999 Y71.51 E3.61954
G1 X162.068 Y72.016 E3.63652
G1 X162.102 Y72.343 E3.64746
G1 X162.138 Y72.84 E3.66403
G1 X162.151 Y73.167 E3.67492
G1 X162.157 Y73.473 E3.6851
G1 X162.159 Y77.276 E3.81158
G1 X162.159 Y149.397 E6.21034
G1 X162.155 Y149.636 E6.21829
G1 X162.146 Y149.93 E6.22807
G1 X162.117 Y150.406 E6.24393
G1 X162.087 Y150.732 E6.25482
G1 X162.026 Y151.226 E6.27138
G1 X161.975 Y151.551 E6.28232
G1 X161.869 Y152.098 E6.30085
G1 X161.796 Y152.414 E6.31164
G1 X161.675 Y152.873 E6.32742
G1 X161.582 Y153.187 E6.33832
G1 X161.429 Y153.651 E6.35457
G1 X161.316 Y153.96 E6.36551
G1 X161.113 Y154.46 E6.38346
G1 X160.98 Y154.758 E6.39431
G1 X160.76 Y155.21 E6.41103
G1 X160.608 Y155.499 E6.42189
G1 X160.359 Y155.937 E6.43865
G1 X160.189 Y156.215 E6.44949
G1 X159.909 Y156.641 E6.46644
G1 X159.72 Y156.909 E6.47735
G1 X159.37 Y157.368 E6.49655
G1 X159.12 Y157.672 E6.50964
G1 X158.781 Y158.059 E6.52675
G1 X158.579 Y158.274 E6.53656
G1 X158.216 Y158.635 E6.55359
G1 X157.976 Y158.859 E6.56451
G1 X157.611 Y159.18 E6.58068
G1 X157.385 Y159.366 E6.59041
G1 X157.004 Y159.659 E6.6064
G1 X156.739 Y159.851 E6.61728
G1 X156.334 Y160.126 E6.63356
G1 X156.059 Y160.3 E6.64439
G1 X155.63 Y160.553 E6.66095
G1 X155.341 Y160.711 E6.67191
G1 X154.865 Y160.95 E6.68962
G1 X154.57 Y161.086 E6.70043
G1 X154.102 Y161.284 E6.71733
G1 X153.795 Y161.402 E6.72827
G1 X153.306 Y161.571 E6.74548
G1 X152.993 Y161.668 E6.75638
G1 X152.508 Y161.802 E6.77311
G1 X152.192 Y161.878 E6.78392
G1 X151.673 Y161.984 E6.80154
G1 X151.349 Y162.039 E6.81247
G1 X150.853 Y162.107 E6.82912
G1 X150.527 Y162.141 E6.84002
G1 X150.029 Y162.177 E6.85663
G1 X149.703 Y162.19 E6.86748
G1 X149.401 Y162.196 E6.87753
G1 X147.679 Y162.198 E6.9348
G1 X147.671 Y162.198 E6.93507
G1 X135.261 Y162.199 E7.34783
G1 X134.729 Y162.572 E7.36944
G1 X134.061 Y162.993 E7.3957
G1 X133.559 Y163.25 E7.41446
G1 X132.612 Y163.694 E7.44924
G1 X131.881 Y163.993 E7.47551
G1 X131.325 Y164.165 E7.49487
G1 X130.32 Y164.435 E7.52948
G1 X129.548 Y164.601 E7.55574
G1 X128.95 Y164.675 E7.57579
G1 X127.844 Y164.768 E7.6127
G1 X127.19 Y164.795 E7.63447
G1 X71.636 Y164.795 E9.48221
G1 X70.947 Y164.765 E9.50514
G1 X69.909 Y164.673 E9.5398
G1 X69.127 Y164.563 E9.56607
G1 X68.588 Y164.44 E9.58446
G1 X67.583 Y164.172 E9.61905
G1 X66.831 Y163.93 E9.64533
G1 X66.297 Y163.705 E9.6646
G1 X65.351 Y163.264 E9.69931
G1 X64.653 Y162.894 E9.72559
G1 X64.174 Y162.584 E9.74457
G1 X63.324 Y161.989 E9.77908
G1 X62.701 Y161.504 E9.80534
G1 X62.289 Y161.122 E9.82402
G1 X61.551 Y160.386 E9.85869
G1 X61.021 Y159.801 E9.88494
G1 X60.67 Y159.337 E9.90429
G1 X60.072 Y158.483 E9.93897
G1 X59.652 Y157.814 E9.96524
G1 X59.402 Y157.327 E9.98345
G1 X58.955 Y156.376 E10.0184
G1 X58.656 Y155.645 E10.04467
G1 X58.482 Y155.084 E10.0642
G1 X58.209 Y154.069 E10.09916
G1 X58.042 Y153.297 E10.12543
G1 X57.97 Y152.711 E10.14507
G1 X57.875 Y151.605 E10.18199
G1 X57.846 Y150.937 E10.20423
G1 X57.846 Y69.011 E12.9291
G1 X57.876 Y68.331 E12.95174
G1 X57.968 Y67.28 E12.98683
G1 X58.076 Y66.498 E13.01309
G1 X58.206 Y65.932 E13.0324
G1 X58.476 Y64.929 E13.06695
G1 X58.72 Y64.178 E13.09321
G1 X58.937 Y63.665 E13.11174
G1 X59.382 Y62.709 E13.14681
G1 X59.751 Y62.011 E13.17307
G1 X60.078 Y61.506 E13.19308
G1 X60.707 Y60.614 E13.22938
G1 X61.195 Y59.992 E13.25568
G1 X61.59 Y59.57 E13.2749
G0 F6000 X61.872 Y59.854
G1 F1200 X62.58 Y59.152 E13.30806
G1 X63.153 Y58.64 E13.33362
G1 X63.545 Y58.345 E13.34994
G1 X64.399 Y57.747 E13.38462
G1 X65.052 Y57.34 E13.41021
G1 X65.506 Y57.107 E13.42718
G1 X66.452 Y56.664 E13.46192
G1 X67.164 Y56.375 E13.48748
G1 X67.652 Y56.224 E13.50447
G1 X68.614 Y55.963 E13.53762
G1 X69.366 Y55.801 E13.56321
G1 X69.864 Y55.737 E13.57991
G1 X70.903 Y55.64 E13.61462
G1 X71.586 Y55.608 E13.63736
G1 X76.001 Y55.605 E13.7842
G1 X76.006 Y55.605 E13.78437
G1 X127.252 Y55.606 E15.48882
G1 X127.888 Y55.633 E15.50999
G1 X128.885 Y55.719 E15.54327
G1 X129.647 Y55.825 E15.56886
G1 X130.115 Y55.931 E15.58482
G1 X131.124 Y56.194 E15.6195
G1 X131.858 Y56.427 E15.64512
G1 X132.326 Y56.621 E15.66197
G1 X133.272 Y57.052 E15.69654
G1 X133.954 Y57.407 E15.72211
G1 X134.436 Y57.715 E15.74114
G1 X135.334 Y58.341 E15.77755
G1 X135.941 Y58.813 E15.80312
G1 X136.316 Y59.161 E15.82014
G1 X137.02 Y59.86 E15.85313
G1 X137.537 Y60.429 E15.8787
G1 X137.85 Y60.841 E15.89591
G1 X138.04 Y61.11 E15.90687
G1 X149.359 Y61.11 E16.28334
G1 X149.586 Y61.113 E16.29089
G1 X149.879 Y61.122 E16.30064
G1 X150.332 Y61.15 E16.31574
G1 X150.657 Y61.18 E16.32659
G1 X151.124 Y61.238 E16.34224
G1 X151.449 Y61.289 E16.35318
G1 X151.941 Y61.384 E16.36985
G1 X152.258 Y61.456 E16.38066
G1 X152.72 Y61.577 E16.39655
G1 X153.034 Y61.67 E16.40744
G1 X153.475 Y61.815 E16.42288
G1 X153.784 Y61.928 E16.43382
G1 X154.285 Y62.133 E16.45183
G1 X154.582 Y62.267 E16.46266
G1 X154.983 Y62.462 E16.47749
G1 X155.274 Y62.615 E16.48843
G1 X155.691 Y62.852 E16.50438
G1 X155.969 Y63.022 E16.51522
G1 X156.364 Y63.281 E16.53093
G1 X156.63 Y63.468 E16.54175
G1 X157.085 Y63.816 E16.5608
G1 X157.389 Y64.067 E16.57391
G1 X157.745 Y64.38 E16.58968
G1 X157.96 Y64.582 E16.59949
G1 X158.281 Y64.903 E16.61459
G1 X158.506 Y65.142 E16.6255
G1 X158.844 Y65.527 E16.64254
G1 X159.029 Y65.753 E16.65226
G1 X159.285 Y66.084 E16.66618
G1 X159.478 Y66.349 E16.67708
G1 X159.756 Y66.759 E16.69356
G1 X159.93 Y67.035 E16.70441
G1 X160.172 Y67.449 E16.72036
G1 X160.329 Y67.738 E16.7313
G1 X160.547 Y68.172 E16.74745
G1 X160.683 Y68.467 E16.75825
G1 X160.867 Y68.903 E16.77399
G1 X160.985 Y69.209 E16.7849
G1 X161.149 Y69.68 E16.80149
G1 X161.246 Y69.993 E16.81239
G1 X161.369 Y70.437 E16.82771
G1 X161.446 Y70.754 E16.83856
G1 X161.549 Y71.255 E16.85557
G1 X161.604 Y71.577 E16.86644
G1 X161.67 Y72.058 E16.88259
G1 X161.704 Y72.385 E16.89352
G1 X161.738 Y72.856 E16.90923
G1 X161.751 Y73.183 E16.92011
G1 X161.757 Y73.473 E16.92976
G1 X161.759 Y77.276 E17.05625
G1 X161.759 Y149.397 E19.455
G1 X161.756 Y149.623 E19.46252
G1 X161.747 Y149.917 E19.4723
G1 X161.719 Y150.369 E19.48737
G1 X161.689 Y150.695 E19.49825
G1 X161.631 Y151.164 E19.51397
G1 X161.58 Y151.489 E19.52491
G1 X161.479 Y152.008 E19.5425
G1 X161.406 Y152.324 E19.55329
G1 X161.291 Y152.759 E19.56825
G1 X161.198 Y153.073 E19.57914
G1 X161.053 Y153.514 E19.59458
G1 X160.94 Y153.823 E19.60553
G1 X160.748 Y154.297 E19.62254
G1 X160.615 Y154.595 E19.63339
G1 X160.406 Y155.024 E19.64926
G1 X160.254 Y155.313 E19.66012
G1 X160.018 Y155.729 E19.67603
G1 X159.848 Y156.007 E19.68687
G1 X159.582 Y156.411 E19.70296
G1 X159.393 Y156.679 E19.71386
G1 X159.062 Y157.114 E19.73204
G1 X158.812 Y157.418 E19.74514
G1 X158.489 Y157.785 E19.7614
G1 X158.287 Y158 E19.77121
G1 X157.943 Y158.343 E19.78737
G1 X157.703 Y158.567 E19.79828
G1 X157.356 Y158.871 E19.81363
G1 X157.13 Y159.057 E19.82336
G1 X156.77 Y159.335 E19.83849
G1 X156.505 Y159.527 E19.84938
G1 X156.12 Y159.788 E19.86485
G1 X155.845 Y159.962 E19.87567
G1 X155.438 Y160.202 E19.89139
G1 X155.149 Y160.36 E19.90234
G1 X154.697 Y160.587 E19.91916
G1 X154.402 Y160.723 E19.92997
G1 X153.959 Y160.91 E19.94596
G1 X153.652 Y161.028 E19.9569
G1 X153.188 Y161.189 E19.97323
G1 X152.875 Y161.286 E19.98413
G1 X152.414 Y161.413 E20.00004
G1 X152.098 Y161.489 E20.01085
G1 X151.606 Y161.59 E20.02755
G1 X151.282 Y161.645 E20.03848
G1 X150.812 Y161.709 E20.05426
G1 X150.486 Y161.743 E20.06516
G1 X150.013 Y161.777 E20.08093
G1 X149.687 Y161.79 E20.09179
G1 X149.401 Y161.796 E20.1013
G1 X147.679 Y161.798 E20.15857
G1 X147.67 Y161.798 E20.15887
G1 X135.135 Y161.799 E20.57579
G1 X134.499 Y162.245 E20.60163
G1 X133.848 Y162.654 E20.6272
G1 X133.389 Y162.888 E20.64433
G1 X132.442 Y163.332 E20.67912
G1 X131.73 Y163.622 E20.70469
G1 X131.221 Y163.779 E20.72241
G1 X130.216 Y164.049 E20.75702
G1 X129.464 Y164.209 E20.78259
G1 X128.916 Y164.276 E20.80095
G1 X127.81 Y164.369 E20.83787
G1 X127.19 Y164.395 E20.85851
G1 X71.636 Y164.395 E22.70624
G1 X70.983 Y164.366 E22.72798
G1 X69.945 Y164.274 E22.76264
G1 X69.183 Y164.166 E22.78824
G1 X68.691 Y164.053 E22.80503
G1 X67.686 Y163.785 E22.83962
G1 X66.954 Y163.549 E22.8652
G1 X66.466 Y163.342 E22.88283
G1 X65.52 Y162.901 E22.91755
G1 X64.841 Y162.54 E22.94313
G1 X64.403 Y162.256 E22.96049
G1 X63.553 Y161.661 E22.995
G1 X62.947 Y161.188 E23.02057
G1 X62.572 Y160.839 E23.0376
G1 X61.834 Y160.103 E23.07227
G1 X61.318 Y159.532 E23.09787
G1 X60.997 Y159.108 E23.11556
G1 X60.399 Y158.254 E23.15023
G1 X59.992 Y157.601 E23.17582
G1 X59.764 Y157.157 E23.19242
G1 X59.317 Y156.206 E23.22737
G1 X59.026 Y155.494 E23.25296
G1 X58.868 Y154.98 E23.27084
G1 X58.595 Y153.965 E23.3058
G1 X58.434 Y153.213 E23.33138
G1 X58.368 Y152.676 E23.34937
G1 X58.273 Y151.57 E23.3863
G1 X58.246 Y150.937 E23.40737
G1 X58.246 Y69.011 E26.13224
G1 X58.274 Y68.366 E26.15371
G1 X58.366 Y67.315 E26.1888
G1 X58.473 Y66.553 E26.21439
G1 X58.592 Y66.036 E26.23204
G1 X58.862 Y65.033 E26.26659
G1 X59.101 Y64.302 E26.29217
G1 X59.299 Y63.834 E26.30907
G1 X59.744 Y62.878 E26.34414
G1 X60.105 Y62.199 E26.36972
G1 X60.405 Y61.736 E26.38807
G1 X61.034 Y60.844 E26.42437
G1 X61.51 Y60.24 E26.44995
G1 X61.872 Y59.854 E26.46755
G0 F6000 X62.153 Y60.138
G1 F1200 X62.861 Y59.436 E26.50071
G1 X63.42 Y58.939 E26.52559
G1 X63.775 Y58.673 E26.54034
G1 X64.629 Y58.075 E26.57502
G1 X65.264 Y57.679 E26.59991
G1 X65.675 Y57.47 E26.61524
G1 X66.621 Y57.027 E26.64999
G1 X67.315 Y56.746 E26.67489
G1 X67.757 Y56.61 E26.69027
G1 X68.719 Y56.349 E26.72342
G1 X69.45 Y56.192 E26.74829
G1 X69.901 Y56.135 E26.76341
G1 X70.94 Y56.038 E26.79812
G1 X71.586 Y56.008 E26.81963
G1 X76.001 Y56.005 E26.96647
G1 X76.006 Y56.005 E26.96664
G1 X127.252 Y56.006 E28.67109
G1 X127.854 Y56.032 E28.69113
G1 X128.851 Y56.118 E28.72441
G1 X129.591 Y56.222 E28.74927
G1 X130.015 Y56.318 E28.76372
G1 X131.024 Y56.581 E28.79841
G1 X131.736 Y56.808 E28.82326
G1 X132.16 Y56.985 E28.83854
G1 X133.106 Y57.416 E28.87312
G1 X133.769 Y57.762 E28.89799
G1 X134.207 Y58.044 E28.91532
G1 X135.105 Y58.67 E28.95173
G1 X135.695 Y59.13 E28.97661
G1 X136.034 Y59.445 E28.992
G1 X136.738 Y60.144 E29.025
G1 X137.24 Y60.698 E29.04986
G1 X137.523 Y61.072 E29.06546
G1 X137.832 Y61.51 E29.08329
G1 X149.359 Y61.51 E29.46668
G1 X149.574 Y61.513 E29.47383
G1 X149.867 Y61.522 E29.48358
G1 X150.295 Y61.549 E29.49785
G1 X150.62 Y61.579 E29.5087
G1 X151.062 Y61.634 E29.52352
G1 X151.387 Y61.685 E29.53446
G1 X151.852 Y61.774 E29.5502
G1 X152.169 Y61.846 E29.56102
G1 X152.607 Y61.96 E29.57607
G1 X152.921 Y62.053 E29.58696
G1 X153.337 Y62.191 E29.60154
G1 X153.646 Y62.304 E29.61248
G1 X154.121 Y62.497 E29.62954
G1 X154.418 Y62.631 E29.64037
G1 X154.797 Y62.816 E29.6544
G1 X155.088 Y62.969 E29.66533
G1 X155.482 Y63.193 E29.68041
G1 X155.76 Y63.363 E29.69125
G1 X156.134 Y63.608 E29.70612
G1 X156.4 Y63.795 E29.71693
G1 X156.831 Y64.124 E29.73497
G1 X157.135 Y64.375 E29.74808
G1 X157.471 Y64.671 E29.76297
G1 X157.686 Y64.873 E29.77278
G1 X157.99 Y65.177 E29.78708
G1 X158.215 Y65.416 E29.798
G1 X158.535 Y65.78 E29.81412
G1 X158.72 Y66.006 E29.82383
G1 X158.961 Y66.319 E29.83697
G1 X159.154 Y66.584 E29.84788
G1 X159.417 Y66.972 E29.86347
G1 X159.591 Y67.248 E29.87432
G1 X159.821 Y67.639 E29.88941
G1 X159.978 Y67.928 E29.90035
G1 X160.184 Y68.339 E29.91564
G1 X160.32 Y68.634 E29.92644
G1 X160.494 Y69.046 E29.94132
G1 X160.612 Y69.352 E29.95222
G1 X160.767 Y69.799 E29.96796
G1 X160.864 Y70.112 E29.97886
G1 X160.98 Y70.532 E29.99335
G1 X161.057 Y70.849 E30.0042
G1 X161.155 Y71.322 E30.02027
G1 X161.21 Y71.644 E30.03113
G1 X161.272 Y72.099 E30.04641
G1 X161.306 Y72.426 E30.05734
G1 X161.338 Y72.872 E30.07221
G1 X161.351 Y73.199 E30.0831
G1 X161.357 Y73.473 E30.09221
G1 X161.359 Y77.276 E30.2187
G1 X161.359 Y149.397 E32.61746
G1 X161.356 Y149.611 E32.62457
G1 X161.347 Y149.905 E32.63436
G1 X161.321 Y150.332 E32.64859
G1 X161.291 Y150.658 E32.65947
G1 X161.235 Y151.102 E32.67436
G1 X161.184 Y151.427 E32.6853
G1 X161.089 Y151.918 E32.70193
G1 X161.016 Y152.234 E32.71272
G1 X160.908 Y152.646 E32.72689
G1 X160.815 Y152.96 E32.73778
G1 X160.677 Y153.376 E32.75236
G1 X160.564 Y153.685 E32.7633
G1 X160.382 Y154.134 E32.77941
G1 X160.249 Y154.432 E32.79027
G1 X160.052 Y154.837 E32.80525
G1 X159.9 Y155.126 E32.81611
G1 X159.677 Y155.52 E32.83117
G1 X159.507 Y155.798 E32.842
G1 X159.256 Y156.18 E32.85721
G1 X159.067 Y156.448 E32.86811
G1 X158.753 Y156.86 E32.88534
G1 X158.503 Y157.164 E32.89843
G1 X158.198 Y157.511 E32.9138
G1 X157.996 Y157.726 E32.92361
G1 X157.67 Y158.05 E32.9389
G1 X157.43 Y158.274 E32.94982
G1 X157.102 Y158.562 E32.96434
G1 X156.876 Y158.748 E32.97407
G1 X156.535 Y159.012 E32.98841
G1 X156.27 Y159.204 E32.9993
G1 X155.906 Y159.45 E33.01391
G1 X155.631 Y159.624 E33.02473
G1 X155.246 Y159.851 E33.0396
G1 X154.957 Y160.009 E33.05055
G1 X154.53 Y160.224 E33.06646
G1 X154.235 Y160.36 E33.07726
G1 X153.815 Y160.537 E33.09242
G1 X153.508 Y160.655 E33.10336
