;FLAVOR:Marlin
;TIME:16125
;Filament used: 3.94069m
;Layer height: 0.2
;MINX:36.176
;MINY:68.549
;MINZ:0.16
;MAXX:183.834
;MAXY:149.927
;MAXZ:11.16
;Generated with Cura_SteamEngine 4.5.0
M140 S70
M105
M190 S70
M104 S200
M105
M109 S200
M82 ;absolute extrusion mode
M201 X500.00 Y500.00 Z100.00 E5000.00 ;Setup machine max acceleration
M203 X500.00 Y500.00 Z10.00 E50.00 ;Setup machine max feedrate
M204 P500.00 R1000.00 T500.00 ;Setup Print/Retract/Travel acceleration
M205 X8.00 Y8.00 Z0.40 E5.00 ;Setup Jerk
M220 S100 ;Reset Feedrate
M221 S100 ;Reset Flowrate

G28 ;Home

G92 E0 ;Reset Extruder
G1 Z2.0 F3000 ;Move Z Axis up
G1 X10.1 Y20 Z0.28 F5000.0 ;Move to start position
G1 X10.1 Y200.0 Z0.28 F1500.0 E15 ;Draw the first line
G1 X10.4 Y200.0 Z0.28 F5000.0 ;Move to side a little
G1 X10.4 Y20 Z0.28 F1500.0 E30 ;Draw the second line
G92 E0 ;Reset Extruder
G1 Z2.0 F3000 ;Move Z Axis up

G92 E0
G92 E0
;LAYER_COUNT:64
;LAYER:0
M107
G0 F6000 X45.289 Y71.35 Z0.16
;TYPE:SKIRT
G1 F3000 X46.051 Y70.908 E0.04254
G1 X46.635 Y70.605 E0.07432
G1 X47.601 Y70.15 E0.12588
G1 X48.29 Y69.865 E0.16189
G1 X49.411 Y69.478 E0.21917
G1 X50.176 Y69.258 E0.25761
G1 X50.974 Y69.049 E0.29745
G1 X51.888 Y68.856 E0.34256
G1 X52.43 Y68.78 E0.36899
G1 X53.057 Y68.708 E0.39947
G1 X54.077 Y68.616 E0.44893
G1 X54.759 Y68.578 E0.48192
G1 X55.814 Y68.553 E0.53288
G1 X164.092 Y68.549 E5.76203
G1 X164.884 Y68.559 E5.80028
G1 X165.528 Y68.587 E5.83141
G1 X166.359 Y68.648 E5.87165
G1 X167.298 Y68.741 E5.91722
G1 X168.198 Y68.874 E5.96116
G1 X168.909 Y69.02 E5.99621
G1 X169.497 Y69.16 E6.0254
G1 X170.176 Y69.346 E6.0594
G1 X170.771 Y69.529 E6.08946
G1 X171.504 Y69.783 E6.12693
G1 X172.524 Y70.201 E6.18016
G1 X173.833 Y70.851 E6.25074
G1 X174.485 Y71.225 E6.28704
G1 X175.076 Y71.583 E6.32041
G1 X176.032 Y72.242 E6.37649
G1 X176.479 Y72.587 E6.40376
G1 X177.197 Y73.173 E6.44852
G1 X177.894 Y73.803 E6.49389
G1 X178.298 Y74.201 E6.52128
G1 X178.827 Y74.748 E6.55803
G1 X179.622 Y75.681 E6.61722
G1 X180.014 Y76.197 E6.64852
G1 X180.569 Y76.966 E6.69432
G1 X181.134 Y77.844 E6.74474
G1 X181.431 Y78.358 E6.77341
G1 X181.84 Y79.138 E6.81594
G1 X182.064 Y79.61 E6.84117
G1 X182.29 Y80.112 E6.86776
G1 X182.521 Y80.684 E6.89755
G1 X182.754 Y81.322 E6.93035
G1 X183.079 Y82.326 E6.98132
G1 X183.25 Y82.979 E7.01392
G1 X183.392 Y83.591 E7.04426
G1 X183.529 Y84.284 E7.07837
G1 X183.706 Y85.576 E7.14135
G1 X183.777 Y86.435 E7.18298
G1 X183.818 Y87.219 E7.22089
G1 X183.833 Y88.084 E7.26267
G1 X183.834 Y130.179 E9.2956
G1 X183.82 Y131.253 E9.34747
G1 X183.78 Y132.124 E9.38958
G1 X183.727 Y132.743 E9.41958
G1 X183.628 Y133.556 E9.45913
G1 X183.45 Y134.622 E9.51133
G1 X183.29 Y135.336 E9.54666
G1 X183.159 Y135.854 E9.57247
G1 X182.993 Y136.441 E9.60193
G1 X182.761 Y137.143 E9.63763
G1 X182.543 Y137.739 E9.66828
G1 X182.186 Y138.599 E9.71325
G1 X181.959 Y139.076 E9.73876
G1 X181.716 Y139.555 E9.7647
G1 X181.372 Y140.207 E9.8003
G1 X180.762 Y141.226 E9.85766
G1 X180.384 Y141.776 E9.88989
G1 X179.803 Y142.562 E9.93709
G1 X179.174 Y143.329 E9.98499
G1 X178.613 Y143.952 E10.02548
G1 X178.18 Y144.406 E10.05578
G1 X177.507 Y145.043 E10.10053
G1 X176.782 Y145.661 E10.14654
G1 X176.252 Y146.076 E10.17905
G1 X175.628 Y146.53 E10.21632
G1 X174.66 Y147.153 E10.27191
G1 X174.225 Y147.403 E10.29614
G1 X173.552 Y147.771 E10.33318
G1 X172.663 Y148.198 E10.38081
G1 X171.969 Y148.494 E10.41725
G1 X171.425 Y148.711 E10.44553
G1 X170.498 Y149.023 E10.49277
G1 X169.739 Y149.241 E10.53091
G1 X168.977 Y149.44 E10.56894
G1 X168.063 Y149.629 E10.61401
G1 X167.54 Y149.701 E10.63951
G1 X166.897 Y149.774 E10.67076
G1 X165.8 Y149.871 E10.72395
G1 X165.113 Y149.906 E10.75717
G1 X164.153 Y149.925 E10.80354
G1 X55.908 Y149.927 E16.03109
G1 X55.135 Y149.917 E16.06843
G1 X54.496 Y149.889 E16.09932
G1 X53.584 Y149.822 E16.14348
G1 X52.677 Y149.73 E16.1875
G1 X51.73 Y149.586 E16.23376
G1 X51.103 Y149.462 E16.26463
G1 X50.182 Y149.238 E16.31041
G1 X49.682 Y149.093 E16.33555
G1 X48.956 Y148.854 E16.37246
G1 X48.287 Y148.608 E16.40688
G1 X47.424 Y148.248 E16.45204
G1 X46.852 Y147.98 E16.48255
G1 X46.08 Y147.58 E16.52454
G1 X45.594 Y147.303 E16.55155
G1 X44.854 Y146.85 E16.59346
G1 X44.316 Y146.488 E16.62477
G1 X43.177 Y145.622 E16.69387
G1 X42.534 Y145.072 E16.73473
G1 X42.098 Y144.681 E16.76302
G1 X41.542 Y144.134 E16.80069
G1 X41.032 Y143.58 E16.83705
G1 X40.384 Y142.804 E16.88587
G1 X39.986 Y142.288 E16.91735
G1 X39.58 Y141.736 E16.95044
G1 X39.065 Y140.959 E16.99546
G1 X38.661 Y140.268 E17.03411
G1 X38.305 Y139.614 E17.07007
G1 X37.895 Y138.776 E17.11513
G1 X37.581 Y137.976 E17.15663
G1 X37.369 Y137.365 E17.18786
G1 X37.078 Y136.478 E17.23295
G1 X36.835 Y135.705 E17.27208
G1 X36.595 Y134.803 E17.31716
G1 X36.468 Y134.126 E17.35042
G1 X36.359 Y133.424 E17.38473
G1 X36.285 Y132.873 E17.41158
G1 X36.204 Y131.735 E17.46668
G1 X36.194 Y131.212 E17.49194
G1 X36.191 Y129.956 E17.55259
G1 X36.176 Y87.778 E19.58953
G1 X36.19 Y86.938 E19.6301
G1 X36.249 Y85.998 E19.67558
G1 X36.302 Y85.498 E19.69987
G1 X36.412 Y84.648 E19.74126
G1 X36.505 Y84.076 E19.76925
G1 X36.655 Y83.353 E19.80491
G1 X36.912 Y82.352 E19.85482
G1 X37.089 Y81.772 E19.8841
G1 X37.283 Y81.198 E19.91336
G1 X37.532 Y80.539 E19.94738
G1 X38.072 Y79.336 E20.01107
G1 X38.448 Y78.611 E20.05051
G1 X38.856 Y77.87 E20.09136
G1 X39.532 Y76.811 E20.15203
G1 X39.92 Y76.274 E20.18403
G1 X40.338 Y75.726 E20.21731
G1 X40.952 Y75.001 E20.2632
G1 X41.554 Y74.351 E20.30598
G1 X41.961 Y73.932 E20.33419
G1 X42.7 Y73.253 E20.38266
G1 X43.239 Y72.802 E20.4166
G1 X43.651 Y72.472 E20.44209
G1 X44.18 Y72.079 E20.47392
G1 X44.728 Y71.708 E20.50588
G0 F2700 X44.79 Y71.667
G0 X45.289 Y71.35
G0 F6000 X45.611 Y71.856
G1 F3000 X46.33 Y71.439 E20.54602
G1 X46.899 Y71.144 E20.57697
G1 X47.835 Y70.703 E20.62694
G1 X48.506 Y70.425 E20.66201
G1 X49.577 Y70.054 E20.71675
G1 X50.342 Y69.834 E20.75519
G1 X51.123 Y69.63 E20.79418
G1 X52.011 Y69.444 E20.83799
G1 X53.126 Y69.304 E20.89226
G1 X54.128 Y69.213 E20.94085
G1 X54.773 Y69.178 E20.97205
G1 X55.828 Y69.153 E21.02301
G1 X164.092 Y69.149 E26.25148
G1 X164.875 Y69.159 E26.2893
G1 X165.484 Y69.186 E26.31874
G1 X166.315 Y69.247 E26.35898
G1 X167.235 Y69.338 E26.40363
G1 X168.086 Y69.463 E26.44517
G1 X168.77 Y69.604 E26.47889
G1 X169.358 Y69.744 E26.50808
G1 X170 Y69.919 E26.54022
G1 X170.595 Y70.102 E26.57028
G1 X171.287 Y70.342 E26.60565
G1 X172.273 Y70.746 E26.65711
G1 X173.534 Y71.372 E26.7251
G1 X174.186 Y71.746 E26.7614
G1 X174.762 Y72.094 E26.7939
G1 X175.665 Y72.717 E26.84689
G1 X176.112 Y73.062 E26.87415
G1 X176.814 Y73.635 E26.91792
G1 X177.473 Y74.231 E26.96083
G1 X177.877 Y74.629 E26.98822
G1 X178.393 Y75.163 E27.02408
G1 X179.145 Y76.044 E27.08002
G1 X179.537 Y76.56 E27.11131
G1 X180.081 Y77.315 E27.15625
G1 X180.614 Y78.144 E27.20385
G1 X180.911 Y78.658 E27.23252
G1 X181.298 Y79.395 E27.27272
G1 X181.522 Y79.867 E27.29795
G1 X181.74 Y80.353 E27.32367
G1 X181.959 Y80.893 E27.35181
G1 X182.187 Y81.516 E27.38385
G1 X182.501 Y82.487 E27.43314
G1 X182.665 Y83.115 E27.46448
G1 X182.807 Y83.727 E27.49482
G1 X182.937 Y84.381 E27.52703
G1 X183.108 Y85.626 E27.58772
G1 X183.179 Y86.485 E27.62934
G1 X183.218 Y87.242 E27.66595
G1 X183.233 Y88.092 E27.707
G1 X183.234 Y130.179 E29.73954
G1 X183.22 Y131.245 E29.79103
G1 X183.181 Y132.09 E29.83188
G1 X183.131 Y132.675 E29.86023
G1 X183.035 Y133.469 E29.89886
G1 X182.863 Y134.497 E29.94919
G1 X182.709 Y135.189 E29.98343
G1 X182.578 Y135.707 E30.00923
G1 X182.421 Y136.262 E30.03709
G1 X182.197 Y136.937 E30.07144
G1 X181.979 Y137.533 E30.10208
G1 X181.642 Y138.346 E30.14459
G1 X181.423 Y138.807 E30.16923
G1 X181.186 Y139.275 E30.19457
G1 X180.842 Y139.927 E30.23017
G1 X180.265 Y140.89 E30.28439
G1 X179.897 Y141.426 E30.31579
G1 X179.323 Y142.203 E30.36244
G1 X178.728 Y142.927 E30.4077
G1 X178.167 Y143.55 E30.44818
G1 X177.758 Y143.98 E30.47684
G1 X177.112 Y144.592 E30.51982
G1 X176.397 Y145.2 E30.56514
G1 X175.897 Y145.593 E30.59586
G1 X175.286 Y146.037 E30.63233
G1 X174.361 Y146.633 E30.68547
G1 X173.926 Y146.883 E30.7097
G1 X173.268 Y147.242 E30.7459
G1 X172.428 Y147.646 E30.79092
G1 X171.734 Y147.942 E30.82735
G1 X171.209 Y148.152 E30.85466
G1 X170.332 Y148.447 E30.89935
G1 X169.573 Y148.665 E30.93748
G1 X168.83 Y148.858 E30.97456
G1 X167.942 Y149.041 E31.01834
G1 X166.829 Y149.178 E31.0725
G1 X165.75 Y149.273 E31.12481
G1 X165.101 Y149.306 E31.15619
G1 X164.141 Y149.325 E31.20256
G1 X55.908 Y149.327 E36.42954
G1 X55.144 Y149.317 E36.46644
G1 X54.54 Y149.29 E36.49564
G1 X53.628 Y149.223 E36.5398
G1 X52.741 Y149.134 E36.58285
G1 X51.847 Y148.997 E36.62653
G1 X51.22 Y148.873 E36.6574
G1 X50.349 Y148.661 E36.70069
G1 X49.849 Y148.516 E36.72583
G1 X49.163 Y148.291 E36.7607
G1 X48.494 Y148.045 E36.79512
G1 X47.679 Y147.705 E36.83777
G1 X47.107 Y147.437 E36.86827
G1 X46.377 Y147.059 E36.90797
G1 X45.891 Y146.782 E36.93499
G1 X45.174 Y146.342 E36.97561
G1 X44.665 Y146 E37.00523
G1 X43.567 Y145.166 E37.07182
G1 X42.924 Y144.616 E37.11268
G1 X42.503 Y144.239 E37.13997
G1 X41.978 Y143.722 E37.17556
G1 X41.486 Y143.187 E37.21066
G1 X40.859 Y142.438 E37.25783
G1 X40.461 Y141.922 E37.2893
G1 X40.066 Y141.384 E37.32154
G1 X39.579 Y140.649 E37.36412
G1 X39.188 Y139.981 E37.4015
G1 X38.832 Y139.327 E37.43746
G1 X38.434 Y138.512 E37.48126
G1 X38.148 Y137.779 E37.51926
G1 X37.936 Y137.168 E37.55049
G1 X37.648 Y136.292 E37.59502
G1 X37.408 Y135.526 E37.63379
G1 X37.176 Y134.649 E37.6776
G1 X37.061 Y134.034 E37.70782
G1 X36.952 Y133.332 E37.74212
G1 X36.881 Y132.799 E37.76809
G1 X36.804 Y131.724 E37.82014
G1 X36.794 Y131.201 E37.8454
G1 X36.791 Y129.956 E37.90553
G1 X36.776 Y87.778 E39.94246
G1 X36.79 Y86.95 E39.98245
G1 X36.845 Y86.061 E40.02547
G1 X36.898 Y85.561 E40.04975
G1 X37.007 Y84.729 E40.09028
G1 X37.094 Y84.188 E40.11674
G1 X37.238 Y83.493 E40.15102
G1 X37.487 Y82.524 E40.19933
G1 X37.66 Y81.959 E40.22787
G1 X37.847 Y81.402 E40.25624
G1 X38.087 Y80.767 E40.28903
G1 X38.605 Y79.612 E40.35016
G1 X38.981 Y78.887 E40.3896
G1 X39.38 Y78.163 E40.42952
G1 X40.018 Y77.163 E40.48681
G1 X40.406 Y76.626 E40.5188
G1 X40.812 Y76.093 E40.55116
G1 X41.392 Y75.409 E40.59447
G1 X41.994 Y74.759 E40.63726
G1 X42.387 Y74.355 E40.66448
G1 X43.085 Y73.714 E40.71024
G1 X43.624 Y73.263 E40.74418
G1 X44.023 Y72.943 E40.76888
G1 X44.523 Y72.572 E40.79895
G1 X45.05 Y72.215 E40.82969
G0 F2700 X45.112 Y72.173
G0 X45.611 Y71.856
;MESH:iPhone5sBumper_tpu.stl
G0 F6000 X108.516 Y87.359
G0 X152.682 Y87.409
G0 X155.212 Y89.935
G0 X155.289 Y98.887
G0 X162.199 Y100.591
G0 X160.442 Y101.979
G0 X162.765 Y103.357
;TYPE:WALL-INNER
G1 F600 X163.722 Y103.537 E40.87672
G1 X164.838 Y103.564 E40.93063
G1 X165.446 Y103.496 E40.96018
G1 X165.967 Y103.372 E40.98604
G1 X166.676 Y103.094 E41.02282
G1 X167.567 Y102.513 E41.07419
G1 X168.122 Y101.959 E41.11206
G1 X168.561 Y101.342 E41.14863
G1 X168.905 Y100.631 E41.18678
G1 X169.126 Y99.834 E41.22672
G1 X169.198 Y99.088 E41.26291
G1 X169.198 Y88.744 E41.76246
G1 X169.054 Y87.716 E41.81259
G1 X168.663 Y86.724 E41.86409
G1 X168.184 Y85.985 E41.90662
G1 X167.579 Y85.361 E41.94859
G1 X166.822 Y84.865 E41.9923
G1 X166.012 Y84.504 E42.03513
G1 X164.916 Y84.307 E42.0889
G1 X163.891 Y84.305 E42.13841
G1 X162.87 Y84.474 E42.18838
G1 X162.11 Y84.771 E42.22779
G1 X161.219 Y85.354 E42.27921
G1 X160.663 Y85.909 E42.31715
G1 X160.211 Y86.546 E42.35487
G1 X159.822 Y87.427 E42.40138
G1 X159.643 Y88.176 E42.43857
G1 X159.589 Y88.781 E42.46791
G1 X159.589 Y99.079 E42.96524
G1 X159.646 Y99.754 E42.99795
G1 X159.782 Y100.334 E43.02672
G1 X160.064 Y101.054 E43.06406
G1 X160.592 Y101.86 E43.1106
G1 X161.192 Y102.489 E43.15258
G1 X161.843 Y102.938 E43.19077
G1 X162.159 Y103.082 E43.20754
G0 F540 X162.765 Y103.357
G0 F6000 X162.947 Y102.781
G1 F600 X163.785 Y102.938 E43.24871
G1 X164.812 Y102.963 E43.29833
G1 X165.343 Y102.904 E43.32413
G1 X165.787 Y102.798 E43.34617
G1 X166.4 Y102.558 E43.37797
G1 X167.187 Y102.045 E43.42333
G1 X167.662 Y101.57 E43.45578
G1 X168.043 Y101.035 E43.48749
G1 X168.341 Y100.418 E43.52059
G1 X168.534 Y99.724 E43.55537
G1 X168.598 Y99.059 E43.58764
G1 X168.598 Y88.786 E44.08376
G1 X168.47 Y87.87 E44.12842
G1 X168.127 Y87 E44.17359
G1 X167.712 Y86.361 E44.21038
G1 X167.194 Y85.826 E44.24635
G1 X166.534 Y85.393 E44.28447
G1 X165.834 Y85.082 E44.32146
G1 X164.862 Y84.907 E44.36916
G1 X163.94 Y84.905 E44.41368
G1 X163.03 Y85.056 E44.45823
G1 X162.386 Y85.307 E44.49161
G1 X161.599 Y85.822 E44.53703
G1 X161.123 Y86.298 E44.56954
G1 X160.735 Y86.844 E44.60189
G1 X160.393 Y87.619 E44.6428
G1 X160.237 Y88.273 E44.67527
G1 X160.189 Y88.808 E44.70121
G1 X160.189 Y99.054 E45.19603
G1 X160.24 Y99.66 E45.2254
G1 X160.356 Y100.155 E45.24995
G1 X160.6 Y100.777 E45.28222
G1 X161.064 Y101.486 E45.32314
G1 X161.583 Y102.03 E45.35945
G1 X162.14 Y102.414 E45.39212
G1 X162.341 Y102.506 E45.4028
G0 F540 X162.947 Y102.781
G0 F6000 X163.129 Y102.205
;TYPE:WALL-OUTER
G1 F600 X163.848 Y102.339 E45.43812
G1 X164.786 Y102.362 E45.48343
G1 X165.24 Y102.312 E45.50549
G1 X165.607 Y102.224 E45.52372
G1 X166.124 Y102.022 E45.55052
G1 X166.807 Y101.576 E45.58992
G1 X167.203 Y101.181 E45.61693
G1 X167.525 Y100.729 E45.64373
G1 X167.777 Y100.206 E45.67177
G1 X167.942 Y99.614 E45.70145
G1 X167.998 Y99.03 E45.72978
G1 X167.998 Y88.828 E46.22247
G1 X167.886 Y88.024 E46.26168
G1 X167.591 Y87.276 E46.30051
G1 X167.241 Y86.737 E46.33154
G1 X166.809 Y86.291 E46.36153
G1 X166.246 Y85.922 E46.39404
G1 X165.656 Y85.66 E46.42522
G1 X164.808 Y85.507 E46.46683
G1 X163.989 Y85.505 E46.50638
G1 X163.19 Y85.638 E46.5455
G1 X162.662 Y85.843 E46.57285
G1 X161.98 Y86.29 E46.61223
G1 X161.583 Y86.687 E46.63935
G1 X161.259 Y87.142 E46.66632
G1 X160.964 Y87.811 E46.70163
G1 X160.831 Y88.37 E46.72938
G1 X160.789 Y88.835 E46.75193
G1 X160.789 Y99.029 E47.24424
G1 X160.834 Y99.566 E47.27026
G1 X160.93 Y99.976 E47.2906
G1 X161.136 Y100.5 E47.31779
G1 X161.536 Y101.112 E47.3531
G1 X161.974 Y101.571 E47.38374
G1 X162.437 Y101.89 E47.41089
G1 X162.523 Y101.929 E47.41545
G0 F540 X163.129 Y102.205
G0 F6000 X162.931 Y102.834
G0 X160.442 Y101.979
G0 X162.199 Y100.591
G0 X155.502 Y103.939
G0 X156.469 Y103.555
G0 X166.322 Y112.787
G0 X166.704 Y113.221
G0 X167.097 Y113.821
G0 X167.324 Y114.396
G0 X167.474 Y115.405
G0 X167.438 Y129.04
G0 X167.233 Y129.848
G0 X166.968 Y130.391
G0 X166.617 Y130.882
G0 X166.065 Y131.392
G0 X165.316 Y131.835
G0 X164.553 Y132.076
G0 X164.191 Y132.113
G0 X57.081 Y133.104
;TYPE:WALL-INNER
G1 F600 X163.964 Y133.104 E52.57723
G1 X164.75 Y133.02 E52.6154
G1 X165.71 Y132.719 E52.66399
G1 X166.644 Y132.167 E52.71639
G1 X167.34 Y131.521 E52.76225
G1 X167.796 Y130.884 E52.80008
G1 X168.139 Y130.182 E52.83781
G1 X168.389 Y129.197 E52.88689
G1 X168.435 Y128.614 E52.91513
G1 X168.435 Y115.369 E53.55478
G1 X168.401 Y114.907 E53.57715
G1 X168.251 Y114.127 E53.61551
G1 X167.955 Y113.377 E53.65445
G1 X167.47 Y112.637 E53.69718
G1 X167.007 Y112.112 E53.73099
G1 X157.812 Y103.751 E54.33118
G1 X157.557 Y103.466 E54.34965
G1 X157.417 Y103.234 E54.36273
G1 X157.323 Y102.999 E54.37496
G1 X157.265 Y102.721 E54.38867
G1 X157.251 Y102.527 E54.39807
G1 X157.251 Y89.862 E55.00971
G1 X157.198 Y89.196 E55.04197
G1 X157.052 Y88.588 E55.07217
G1 X156.755 Y87.865 E55.10992
G1 X156.412 Y87.29 E55.14225
G1 X156.001 Y86.782 E55.17381
G1 X155.414 Y86.269 E55.21146
G1 X154.71 Y85.834 E55.25142
G1 X154.006 Y85.56 E55.2879
G1 X153.375 Y85.421 E55.31911
G1 X152.765 Y85.37 E55.34867
G1 X57.067 Y85.37 E59.97028
G1 X56.483 Y85.42 E59.99859
G1 X55.805 Y85.563 E60.03205
G1 X54.982 Y85.921 E60.0754
G1 X54.291 Y86.373 E60.11527
G1 X53.718 Y86.913 E60.1533
G1 X53.258 Y87.536 E60.1907
G1 X52.861 Y88.351 E60.23448
G1 X52.657 Y89.118 E60.27281
G1 X52.584 Y89.814 E60.3066
G1 X52.582 Y128.606 E62.18001
G1 X52.618 Y129.136 E62.20567
G1 X52.768 Y129.854 E62.24109
G1 X53.054 Y130.581 E62.27882
G1 X53.54 Y131.331 E62.32198
G1 X54.153 Y132.001 E62.36584
G1 X54.849 Y132.495 E62.40705
G1 X55.734 Y132.881 E62.45368
G1 X56.419 Y133.04 E62.48764
G0 F540 X56.533 Y133.066
G0 X57.081 Y133.104
G0 F6000 X57.102 Y132.504
G1 F600 X163.932 Y132.504 E67.64686
G1 X164.627 Y132.43 E67.68061
