;FLAVOR:Marlin
;TIME:4340
;Filament used: 4.40796m
;Layer height: 0.16
;MINX:78.394
;MINY:23.5
;MINZ:0.24
;MAXX:141.599
;MAXY:196.5
;MAXZ:4.84
;Generated with Cura_SteamEngine 4.5.0
M140 S50
M105
M190 S50
M104 S215
M105
M109 S215
M82 ;absolute extrusion mode
M201 X500.00 Y500.00 Z100.00 E5000.00 ;Setup machine max acceleration
M203 X500.00 Y500.00 Z10.00 E50.00 ;Setup machine max feedrate
M204 P500.00 R1000.00 T500.00 ;Setup Print/Retract/Travel acceleration
M205 X8.00 Y8.00 Z0.40 E5.00 ;Setup Jerk
M220 S100 ;Reset Feedrate
M221 S100 ;Reset Flowrate

G28 ;Home

G92 E0 ;Reset Extruder
G1 Z2.0 F3000 ;Move Z Axis up
G1 X10.1 Y20 Z0.28 F5000.0 ;Move to start position
G1 X10.1 Y200.0 Z0.28 F1500.0 E15 ;Draw the first line
G1 X10.4 Y200.0 Z0.28 F5000.0 ;Move to side a little
G1 X10.4 Y20 Z0.28 F1500.0 E30 ;Draw the second line
G92 E0 ;Reset Extruder
G1 Z2.0 F3000 ;Move Z Axis up

G92 E0
G92 E0
G1 F1800 E-3
;LAYER_COUNT:25
;LAYER:0
M106 S63.8
M204 S500
M205 X6 Y6
G0 F9000 X93.567 Y66.897 Z0.24
;TYPE:SKIRT
G1 F1800 E0
G1 X94.085 Y66.238 E0.05018
G1 X94.667 Y65.639 E0.10018
G1 X95.335 Y65.081 E0.15229
G1 X96.038 Y64.614 E0.20282
G1 X96.782 Y64.226 E0.25305
G1 X97.561 Y63.918 E0.30321
G1 X98.365 Y63.693 E0.35319
G1 X99.195 Y63.554 E0.40357
G1 X100.026 Y63.502 E0.45342
G1 X108.106 Y63.5 E0.93715
G1 X108.864 Y63.538 E0.98259
G1 X109.692 Y63.66 E1.0327
G1 X110.503 Y63.869 E1.08284
G1 X111.289 Y64.163 E1.13308
G1 X112.036 Y64.535 E1.18304
G1 X112.742 Y64.982 E1.23306
G1 X113.401 Y65.506 E1.28347
G1 X113.972 Y66.065 E1.33131
G1 X114.504 Y66.703 E1.38104
G1 X114.969 Y67.399 E1.43115
G1 X115.36 Y68.137 E1.48115
G1 X115.673 Y68.916 E1.53142
G1 X115.901 Y69.717 E1.58128
G1 X116.045 Y70.545 E1.63159
G1 X116.101 Y71.382 E1.68181
G1 X116.056 Y71.993 E1.71849
G1 X115.814 Y72.789 E1.7683
G1 X115.434 Y73.37 E1.80986
G1 X115.092 Y73.73 E1.83959
G1 X114.698 Y74.026 E1.86909
G1 X114.271 Y74.25 E1.89796
G1 X113.815 Y74.402 E1.92674
G1 X113.355 Y74.479 E1.95466
G1 X111.121 Y74.5 E2.08841
G1 X110.677 Y74.462 E2.11509
G1 X109.865 Y74.216 E2.16588
G1 X109.45 Y73.987 E2.19426
G1 X109.082 Y73.7 E2.2222
G1 X108.749 Y73.339 E2.2516
G1 X108.476 Y72.922 E2.28144
G1 X108.277 Y72.468 E2.31112
G1 X108.149 Y71.896 E2.34621
G1 X108.056 Y71.509 E2.37004
G1 X100.121 Y71.521 E2.8451
G1 X100.106 Y107.25 E4.98413
G1 X100.066 Y107.594 E5.00486
G1 X99.949 Y107.919 E5.02554
G1 X99.76 Y108.209 E5.04626
G1 X99.509 Y108.447 E5.06697
G1 X99.211 Y108.622 E5.08766
G1 X98.881 Y108.725 E5.10836
G1 X92.406 Y108.75 E5.49601
G1 X92.406 Y111.25 E5.64568
G1 X98.606 Y111.25 E6.01686
G1 X98.95 Y111.29 E6.0376
G1 X99.275 Y111.407 E6.05828
G1 X99.565 Y111.596 E6.079
G1 X99.803 Y111.846 E6.09966
G1 X99.978 Y112.145 E6.12041
G1 X100.081 Y112.475 E6.1411
G1 X100.106 Y148.345 E8.28858
G1 X100.134 Y148.479 E8.29677
G1 X108.069 Y148.485 E8.77183
G1 X108.277 Y147.532 E8.83022
G1 X108.488 Y147.061 E8.86112
G1 X108.779 Y146.63 E8.89226
G1 X109.12 Y146.271 E8.9219
G1 X109.513 Y145.975 E8.95135
G1 X109.941 Y145.75 E8.9803
G1 X110.397 Y145.598 E9.00908
G1 X110.857 Y145.521 E9.037
G1 X113.091 Y145.5 E9.17075
G1 X113.535 Y145.538 E9.19743
G1 X114.347 Y145.784 E9.24823
G1 X114.761 Y146.012 E9.27652
G1 X115.13 Y146.299 E9.30451
G1 X115.464 Y146.661 E9.334
G1 X115.737 Y147.078 E9.36384
G1 X115.937 Y147.535 E9.3937
G1 X116.056 Y148.009 E9.42296
G1 X116.1 Y148.427 E9.44812
G1 X116.073 Y149.197 E9.49425
G1 X115.953 Y150.047 E9.54564
G1 X115.747 Y150.858 E9.59574
G1 X115.461 Y151.641 E9.64564
G1 X115.09 Y152.394 E9.6959
G1 X114.647 Y153.101 E9.74585
G1 X114.128 Y153.762 E9.79616
G1 X113.522 Y154.385 E9.84819
G1 X112.87 Y154.925 E9.89888
G1 X112.173 Y155.387 E9.94894
G1 X111.432 Y155.773 E9.99896
G1 X110.652 Y156.082 E10.04919
G1 X109.848 Y156.307 E10.09917
G1 X109.018 Y156.446 E10.14956
G1 X108.185 Y156.498 E10.19952
G1 X100.106 Y156.5 E10.6832
G1 X99.348 Y156.462 E10.72864
G1 X98.521 Y156.34 E10.77868
G1 X97.71 Y156.131 E10.82882
G1 X96.924 Y155.837 E10.87906
G1 X96.175 Y155.465 E10.92913
G1 X95.47 Y155.017 E10.97914
G1 X94.812 Y154.494 E11.02946
G1 X94.216 Y153.911 E11.07937
G1 X93.703 Y153.288 E11.12769
G1 X93.243 Y152.601 E11.17719
G1 X92.851 Y151.861 E11.22732
G1 X92.539 Y151.084 E11.27745
G1 X92.311 Y150.283 E11.32731
G1 X92.167 Y149.45 E11.37792
G1 X92.111 Y148.621 E11.42766
G1 X92.106 Y131.591 E12.44722
G1 X92.048 Y131.119 E12.47569
G1 X91.856 Y130.681 E12.50432
G1 X91.512 Y130.312 E12.53452
G1 X90.597 Y129.707 E12.60019
G1 X79.069 Y122.102 E13.427
G1 X78.804 Y121.88 E13.4477
G1 X78.597 Y121.602 E13.46845
G1 X78.46 Y121.285 E13.48913
G1 X78.398 Y120.945 E13.50982
G1 X78.416 Y120.6 E13.5305
G1 X78.513 Y120.268 E13.55121
G1 X78.726 Y119.91 E13.57615
G1 X78.99 Y119.581 E13.6014
G1 X79.875 Y118.218 E13.69869
G1 X80.657 Y116.702 E13.80082
G1 X81.274 Y115.118 E13.90259
G1 X81.727 Y113.464 E14.00526
G1 X82 Y111.791 E14.10674
G1 X82.098 Y110.072 E14.20982
G1 X82.021 Y108.385 E14.31093
G1 X81.761 Y106.69 E14.41359
G1 X81.328 Y105.044 E14.51548
G1 X80.723 Y103.446 E14.61778
G1 X79.959 Y101.926 E14.71963
G1 X79.031 Y100.481 E14.82244
G1 X78.539 Y99.795 E14.87298
G1 X78.428 Y99.468 E14.89366
G1 X78.394 Y99.123 E14.91441
G1 X78.44 Y98.781 E14.93507
G1 X78.564 Y98.458 E14.95578
G1 X78.758 Y98.171 E14.97652
G1 X79.067 Y97.9 E15.00113
G1 X79.648 Y97.516 E15.04282
G1 X91.518 Y89.684 E15.89421
G1 X91.855 Y89.321 E15.92386
G1 X92.043 Y88.903 E15.9513
G1 X92.096 Y88.441 E15.97914
G1 X92.106 Y71.499 E16.99343
G1 X92.141 Y70.779 E17.03659
G1 X92.259 Y69.955 E17.08642
G1 X92.465 Y69.142 E17.13663
G1 X92.751 Y68.359 E17.18654
G1 X93.122 Y67.606 E17.2368
G1 X93.567 Y66.897 E17.28691
G0 F9000 X94.072 Y67.222
G1 F1800 X94.553 Y66.614 E17.33332
G1 X95.093 Y66.061 E17.3796
G1 X95.715 Y65.546 E17.42794
G1 X96.365 Y65.117 E17.47457
G1 X97.054 Y64.761 E17.521
G1 X97.776 Y64.478 E17.56743
G1 X98.52 Y64.273 E17.61363
G1 X99.288 Y64.147 E17.66022
G1 X100.058 Y64.101 E17.7064
G1 X108.106 Y64.1 E18.18822
G1 X108.833 Y64.137 E18.2318
G1 X109.599 Y64.253 E18.27818
G1 X110.348 Y64.449 E18.32453
G1 X111.074 Y64.723 E18.37099
G1 X111.764 Y65.069 E18.4172
G1 X112.415 Y65.486 E18.46349
G1 X113.023 Y65.972 E18.51009
G1 X113.549 Y66.49 E18.55428
G1 X114.039 Y67.083 E18.60034
G1 X114.468 Y67.728 E18.64671
G1 X114.827 Y68.412 E18.69296
G1 X115.114 Y69.134 E18.73948
G1 X115.323 Y69.876 E18.78563
G1 X115.453 Y70.642 E18.83214
G1 X115.502 Y71.416 E18.87857
G1 X115.474 Y71.847 E18.90443
G1 X115.355 Y72.32 E18.93363
G1 X115.228 Y72.604 E18.95226
G1 X114.937 Y73.035 E18.98339
G1 X114.732 Y73.251 E19.00122
G1 X114.338 Y73.547 E19.03072
G1 X114.082 Y73.681 E19.04802
G1 X113.626 Y73.833 E19.0768
G1 X113.349 Y73.879 E19.09361
G1 X111.115 Y73.9 E19.22736
G1 X110.533 Y73.818 E19.26255
G1 X110.068 Y73.651 E19.29213
G1 X109.819 Y73.514 E19.30914
G1 X109.451 Y73.227 E19.33708
G1 X109.251 Y73.01 E19.35475
G1 X108.978 Y72.593 E19.38459
G1 X108.859 Y72.321 E19.40236
G1 X108.728 Y71.722 E19.43907
G1 X108.626 Y71.228 E19.46927
G1 X108.494 Y71.064 E19.48187
G1 X108.324 Y70.957 E19.4939
G1 X108.126 Y70.907 E19.50612
G1 X100.133 Y70.921 E19.98465
G1 X99.812 Y70.994 E20.00436
G1 X99.675 Y71.101 E20.01477
G1 X99.566 Y71.268 E20.02671
G1 X99.511 Y71.484 E20.04005
G1 X99.506 Y107.25 E22.1813
G1 X99.466 Y107.515 E22.19734
G1 X99.35 Y107.756 E22.21336
G1 X99.169 Y107.952 E22.22933
G1 X98.937 Y108.087 E22.2454
G1 X98.606 Y108.15 E22.26557
G1 X91.806 Y108.15 E22.67267
G1 X91.806 Y111.85 E22.89419
G1 X98.606 Y111.85 E23.30129
G1 X98.871 Y111.89 E23.31734
G1 X99.112 Y112.006 E23.33335
G1 X99.308 Y112.187 E23.34932
G1 X99.443 Y112.419 E23.36539
G1 X99.506 Y112.75 E23.38556
G1 X99.506 Y148.406 E25.52022
G1 X99.574 Y148.736 E25.5404
G1 X99.675 Y148.895 E25.55167
G1 X99.84 Y149.02 E25.56407
G1 X100.018 Y149.079 E25.57529
G1 X108.106 Y149.085 E26.05951
G1 X108.505 Y148.932 E26.08509
G1 X108.624 Y148.779 E26.09669
G1 X108.73 Y148.228 E26.13029
G1 X108.859 Y147.679 E26.16405
G1 X108.985 Y147.396 E26.1826
G1 X109.276 Y146.965 E26.21373
G1 X109.481 Y146.75 E26.23151
G1 X109.874 Y146.454 E26.26097
G1 X110.13 Y146.319 E26.2783
G1 X110.586 Y146.167 E26.30707
G1 X110.863 Y146.121 E26.32388
G1 X113.097 Y146.1 E26.45764
G1 X113.679 Y146.182 E26.49282
G1 X114.144 Y146.349 E26.5224
G1 X114.393 Y146.486 E26.53942
G1 X114.762 Y146.773 E26.5674
G1 X114.962 Y146.99 E26.58507
G1 X115.235 Y147.407 E26.61491
G1 X115.355 Y147.681 E26.63282
G1 X115.5 Y148.406 E26.67708
G1 X115.473 Y149.176 E26.72321
G1 X115.36 Y149.956 E26.77039
G1 X115.167 Y150.705 E26.8167
G1 X114.899 Y151.429 E26.86292
G1 X114.555 Y152.124 E26.90935
G1 X114.142 Y152.777 E26.9556
G1 X113.66 Y153.386 E27.0021
G1 X113.096 Y153.963 E27.05041
G1 X112.492 Y154.459 E27.0972
G1 X111.847 Y154.883 E27.14341
G1 X111.16 Y155.239 E27.18973
G1 X110.437 Y155.522 E27.23621
G1 X109.693 Y155.727 E27.28242
G1 X108.925 Y155.853 E27.32901
G1 X108.154 Y155.899 E27.37525
G1 X100.106 Y155.9 E27.85707
G1 X99.38 Y155.863 E27.90059
G1 X98.614 Y155.747 E27.94697
G1 X97.865 Y155.551 E27.99332
G1 X97.139 Y155.277 E28.03978
G1 X96.447 Y154.93 E28.08613
G1 X95.797 Y154.514 E28.13233
G1 X95.19 Y154.028 E28.17888
G1 X94.64 Y153.486 E28.22511
G1 X94.17 Y152.911 E28.26957
G1 X93.744 Y152.271 E28.3156
G1 X93.384 Y151.586 E28.36193
G1 X93.098 Y150.866 E28.40831
G1 X92.889 Y150.124 E28.45446
G1 X92.76 Y149.355 E28.50114
G1 X92.71 Y148.587 E28.54722
G1 X92.706 Y131.551 E29.56713
G1 X92.638 Y130.99 E29.60096
G1 X92.525 Y130.657 E29.62202
G1 X92.361 Y130.353 E29.6427
G1 X92.139 Y130.071 E29.66418
G1 X91.876 Y129.835 E29.68534
G1 X90.928 Y129.207 E29.75342
G1 X79.399 Y121.601 E30.58031
G1 X79.2 Y121.422 E30.59634
G1 X79.063 Y121.193 E30.61231
G1 X78.999 Y120.933 E30.62834
G1 X79.014 Y120.666 E30.64435
G1 X79.194 Y120.286 E30.66953
G1 X79.475 Y119.937 E30.69635
G1 X80.394 Y118.521 E30.79741
G1 X81.205 Y116.947 E30.90342
G1 X81.846 Y115.303 E31.00906
G1 X82.313 Y113.597 E31.11495
G1 X82.598 Y111.85 E31.22092
G1 X82.699 Y110.079 E31.32712
G1 X82.618 Y108.322 E31.43242
G1 X82.348 Y106.562 E31.53902
G1 X81.903 Y104.868 E31.64388
G1 X81.271 Y103.2 E31.75067
G1 X80.479 Y101.625 E31.85621
G1 X79.526 Y100.14 E31.96185
G1 X79.202 Y99.727 E31.99328
G1 X79.057 Y99.482 E32.01032
G1 X78.997 Y99.221 E32.02635
G1 X79.016 Y98.954 E32.04238
G1 X79.112 Y98.705 E32.05835
G1 X79.398 Y98.4 E32.08339
G1 X79.979 Y98.016 E32.12508
G1 X91.89 Y90.157 E32.97941
G1 X92.151 Y89.917 E33.00063
G1 X92.36 Y89.65 E33.02093
G1 X92.528 Y89.338 E33.04215
G1 X92.631 Y89.038 E33.06114
G1 X92.696 Y88.476 E33.09501
G1 X92.706 Y71.499 E34.11139
G1 X92.74 Y70.81 E34.15269
G1 X92.852 Y70.045 E34.19898
G1 X93.045 Y69.295 E34.24534
G1 X93.313 Y68.571 E34.29156
G1 X93.657 Y67.876 E34.33799
G1 X94.072 Y67.222 E34.38436
G0 F9000 X94.577 Y67.546
G1 F1800 X95.021 Y66.989 E34.427
G1 X95.52 Y66.483 E34.46955
G1 X96.095 Y66.01 E34.51412
G1 X96.692 Y65.62 E34.55682
G1 X97.326 Y65.296 E34.59944
G1 X97.991 Y65.038 E34.64215
G1 X98.676 Y64.852 E34.68464
G1 X99.381 Y64.74 E34.72738
G1 X100.09 Y64.7 E34.76989
G1 X108.122 Y64.7 E35.25075
G1 X108.801 Y64.736 E35.29146
G1 X109.506 Y64.846 E35.33418
G1 X110.192 Y65.028 E35.37667
G1 X110.859 Y65.283 E35.41942
G1 X111.491 Y65.604 E35.46186
G1 X112.089 Y65.989 E35.50444
G1 X112.645 Y66.438 E35.54722
G1 X113.125 Y66.915 E35.58773
G1 X113.574 Y67.462 E35.6301
G1 X113.966 Y68.057 E35.67276
G1 X114.294 Y68.687 E35.71528
G1 X114.555 Y69.352 E35.75805
G1 X114.744 Y70.035 E35.80048
G1 X114.861 Y70.739 E35.8432
G1 X114.903 Y71.449 E35.88578
G1 X114.892 Y71.7 E35.90083
G1 X114.731 Y72.268 E35.93617
G1 X114.44 Y72.699 E35.9673
G1 X113.977 Y73.067 E36.00271
G1 X113.436 Y73.264 E36.03718
G1 X111.11 Y73.3 E36.17645
G1 X110.736 Y73.253 E36.19902
G1 X110.188 Y73.041 E36.2342
G1 X109.753 Y72.681 E36.268
G1 X109.44 Y72.174 E36.30367
G1 X109.312 Y71.602 E36.33876
G1 X109.286 Y71.303 E36.35673
G1 X109.16 Y70.933 E36.38013
G1 X108.899 Y70.611 E36.40495
G1 X108.564 Y70.398 E36.42871
G1 X108.192 Y70.306 E36.45166
G1 X100.115 Y70.321 E36.93521
G1 X99.893 Y70.328 E36.94851
G1 X99.52 Y70.461 E36.97222
G1 X99.227 Y70.689 E36.99444
G1 X99.01 Y71.021 E37.01819
G1 X98.911 Y71.412 E37.04234
G1 X98.906 Y107.25 E39.18789
G1 X98.867 Y107.399 E39.19712
G1 X98.759 Y107.508 E39.2063
G1 X98.606 Y107.55 E39.2158
G1 X91.206 Y107.55 E39.65883
G1 X91.206 Y112.45 E39.95218
G1 X98.606 Y112.45 E40.39521
G1 X98.755 Y112.489 E40.40443
G1 X98.864 Y112.597 E40.41361
G1 X98.906 Y112.75 E40.42311
G1 X98.906 Y148.466 E42.56137
G1 X99.009 Y148.966 E42.59193
G1 X99.227 Y149.309 E42.61626
G1 X99.557 Y149.558 E42.64101
G1 X99.921 Y149.679 E42.66397
G1 X100.49 Y149.679 E42.69804
G1 X108.106 Y149.685 E43.154
G1 X108.217 Y149.688 E43.16064
G1 X108.605 Y149.583 E43.18471
G1 X108.917 Y149.38 E43.20699
G1 X109.158 Y149.069 E43.23055
G1 X109.286 Y148.696 E43.25416
G1 X109.32 Y148.3 E43.27795
G1 X109.482 Y147.732 E43.31331
G1 X109.773 Y147.301 E43.34445
G1 X110.235 Y146.933 E43.37981
G1 X110.776 Y146.736 E43.41428
G1 X113.102 Y146.7 E43.55355
G1 X113.476 Y146.747 E43.57611
G1 X114.024 Y146.959 E43.61129
G1 X114.46 Y147.319 E43.64514
G1 X114.773 Y147.827 E43.68086
G1 X114.901 Y148.385 E43.71514
G1 X114.874 Y149.155 E43.76127
G1 X114.767 Y149.865 E43.80425
G1 X114.587 Y150.552 E43.84677
G1 X114.338 Y151.218 E43.88934
G1 X114.019 Y151.854 E43.93193
G1 X113.637 Y152.454 E43.97452
G1 X113.192 Y153.011 E44.0172
G1 X112.669 Y153.541 E44.06178
G1 X112.115 Y153.992 E44.10455
G1 X111.52 Y154.38 E44.14707
G1 X110.887 Y154.704 E44.18964
G1 X110.222 Y154.962 E44.23235
G1 X109.537 Y155.148 E44.27484
G1 X108.832 Y155.26 E44.31758
G1 X108.122 Y155.3 E44.36015
G1 X100.09 Y155.3 E44.84101
G1 X99.412 Y155.264 E44.88166
G1 X98.707 Y155.154 E44.92438
G1 X98.021 Y154.972 E44.96687
G1 X97.354 Y154.717 E45.00962
G1 X96.719 Y154.395 E45.05225
G1 X96.124 Y154.011 E45.09464
G1 X95.568 Y153.562 E45.13743
G1 X95.064 Y153.061 E45.17997
G1 X94.637 Y152.534 E45.22058
G1 X94.245 Y151.942 E45.26309
G1 X93.917 Y151.311 E45.30566
G1 X93.657 Y150.648 E45.3483
G1 X93.468 Y149.965 E45.39073
G1 X93.352 Y149.259 E45.43356
G1 X93.309 Y148.552 E45.47596
G1 X93.306 Y131.519 E46.4957
G1 X93.225 Y130.851 E46.53598
G1 X93.079 Y130.42 E46.56323
G1 X92.864 Y130.021 E46.59036
G1 X92.577 Y129.658 E46.61807
G1 X92.245 Y129.358 E46.64486
G1 X91.259 Y128.706 E46.71562
G1 X79.729 Y121.1 E47.54257
G1 X79.627 Y120.985 E47.55177
G1 X79.595 Y120.835 E47.56095
G1 X79.661 Y120.662 E47.57204
G1 X79.964 Y120.285 E47.601
G1 X80.912 Y118.824 E47.70526
G1 X81.754 Y117.192 E47.81521
G1 X82.417 Y115.49 E47.92456
G1 X82.899 Y113.728 E48.03392
G1 X83.195 Y111.922 E48.14349
G1 X83.299 Y110.086 E48.25358
G1 X83.216 Y108.26 E48.36302
G1 X82.936 Y106.441 E48.4732
G1 X82.474 Y104.683 E48.58202
G1 X81.823 Y102.962 E48.69218
G1 X81 Y101.325 E48.80187
G1 X80.013 Y99.788 E48.91123
G1 X79.674 Y99.356 E48.9441
G1 X79.598 Y99.198 E48.9546
G1 X79.613 Y99.045 E48.9638
G1 X79.729 Y98.901 E48.97487
G1 X80.31 Y98.517 E49.01657
G1 X92.259 Y90.633 E49.87362
G1 X92.593 Y90.327 E49.90074
G1 X92.864 Y89.978 E49.92719
G1 X93.078 Y89.581 E49.95419
G1 X93.22 Y89.169 E49.98028
G1 X93.296 Y88.51 E50.02
G1 X93.306 Y71.5 E51.03835
G1 X93.339 Y70.841 E51.07786
G1 X93.445 Y70.136 E51.12054
G1 X93.625 Y69.448 E51.16311
G1 X93.874 Y68.782 E51.20568
G1 X94.193 Y68.146 E51.24828
G1 X94.577 Y67.546 E51.29093
G1 F1800 E48.29093
G0 F9000 X94.289 Y67.319
G0 X94.758 Y66.734
G0 X95.286 Y66.202
G0 X95.894 Y65.704
G0 X96.523 Y65.295
G0 X97.192 Y64.954
G0 X98.617 Y64.491
G0 X100.088 Y64.336
G0 X108.855 Y64.375
G0 X109.596 Y64.491
G0 X111.021 Y64.954
G0 X111.689 Y65.295
G0 X112.318 Y65.703
G0 X113.199 Y66.495
G0 X121.685 Y76.278
G1 F1800 E51.29093
G1 X122.169 Y75.324 E51.35497
G1 X122.568 Y74.297 E51.42093
G1 X122.86 Y73.231 E51.4871
G1 X123.037 Y72.155 E51.55239
G1 X123.102 Y71.011 E51.62099
G1 X123.106 Y31.5 E53.98644
G1 X123.141 Y30.779 E54.02966
G1 X123.259 Y29.955 E54.07949
G1 X123.465 Y29.142 E54.1297
G1 X123.751 Y28.359 E54.17961
G1 X124.122 Y27.606 E54.22986
G1 X124.567 Y26.897 E54.27998
G1 X125.085 Y26.238 E54.33016
G1 X125.667 Y25.639 E54.38016
G1 X126.335 Y25.081 E54.43227
G1 X127.038 Y24.614 E54.4828
