;FLAVOR:Marlin
;TIME:1672
;Filament used: 0.763064m
;Layer height: 0.12
;MINX:80.026
;MINY:80.775
;MINZ:0.28
;MAXX:139.974
;MAXY:127.433
;MAXZ:4.96
;Generated with Cura_SteamEngine main
M82 ;absolute extrusion mode
M201 X500.00 Y500.00 Z100.00 E5000.00 ;Setup machine max acceleration
M203 X500.00 Y500.00 Z10.00 E50.00 ;Setup machine max feedrate
M204 P500.00 R1000.00 T500.00 ;Setup Print/Retract/Travel acceleration
M205 X8.00 Y8.00 Z0.40 E5.00 ;Setup Jerk
M220 S100 ;Reset Feedrate
M221 S100 ;Reset Flowrate

;*** Start Dual Nozzle/Bed Preheating ***
M140 S50 ; start preheating the bed
M104 S200 ?T0 ; start preheating hotend
M190 S50 ; heat to Cura Bed setting and WAIT
M109 S200 ?T0 ; heat to Cura Hotend and WAIT
;*** End Preheating ***


;*** Single Print Start Tone
M300 S1000 P500 ; chirp to indicate starting to print
;*** End Single Start Tone

G28 ;Home

G92 E0 ;Reset Extruder
G1 Z2.0 F3000 ;Move Z Axis up
G1 X10.1 Y20 Z0.28 F5000.0 ;Move to start position
G1 X10.1 Y200.0 Z0.28 F1500.0 E15 ;Draw the first line
G1 X10.4 Y200.0 Z0.28 F5000.0 ;Move to side a little
G1 X10.4 Y20 Z0.28 F1500.0 E30 ;Draw the second line
G92 E0 ;Reset Extruder
G1 Z2.0 F3000 ;Move Z Axis up
G92 E0
G92 E0
G1 F1500 E-6
;LAYER_COUNT:40
;LAYER:0
M107
M204 S500
M205 X5 Y5
G0 F7500 X83.908 Y98.392 Z0.28
G0 X80.026 Y107.17
M205 X8 Y8
;TYPE:SKIRT
G1 F1500 E0
G1 X80.036 Y106.468 E0.03319
G1 X80.089 Y105.546 E0.07685
G1 X80.222 Y104.631 E0.12057
G1 X80.433 Y103.732 E0.16422
G1 X80.721 Y102.854 E0.20791
G1 X81.084 Y102.004 E0.25161
G1 X81.52 Y101.189 E0.2953
G1 X82.024 Y100.415 E0.33897
G1 X82.593 Y99.687 E0.38265
G1 X83.222 Y99.011 E0.42631
G1 X83.908 Y98.392 E0.46999
G1 X84.645 Y97.835 E0.51367
G1 X85.194 Y97.481 E0.54455
G1 X85.898 Y97.057 E0.5834
G1 X90.458 Y94.398 E0.83296
G1 X91.266 Y93.941 E0.87685
G1 X91.798 Y93.66 E0.90529
G1 X92.941 Y93.098 E0.96551
G1 X95.256 Y91.918 E1.08835
G1 X97.494 Y90.696 E1.20891
G1 X99.662 Y89.432 E1.32755
G1 X101.827 Y88.085 E1.4481
G1 X103.975 Y86.665 E1.56984
G1 X104.935 Y86.009 E1.62481
G1 X105.439 Y85.685 E1.65313
G1 X106.148 Y85.258 E1.69226
G1 X110.708 Y82.599 E1.94182
G1 X111.493 Y82.155 E1.98446
G1 X112.316 Y81.736 E2.02812
G1 X113.173 Y81.389 E2.07183
G1 X114.056 Y81.118 E2.1155
G1 X114.96 Y80.925 E2.1592
G1 X115.876 Y80.81 E2.20285
G1 X116.8 Y80.775 E2.24656
G1 X117.722 Y80.82 E2.2902
G1 X118.638 Y80.945 E2.33391
G1 X119.539 Y81.148 E2.37758
G1 X120.42 Y81.428 E2.42128
G1 X121.272 Y81.784 E2.46494
G1 X121.943 Y82.128 E2.50058
G1 X122.975 Y82.706 E2.55651
G1 X127.438 Y85.31 E2.80079
G1 X128.055 Y85.682 E2.83485
G1 X128.825 Y86.193 E2.87854
G1 X129.547 Y86.768 E2.92218
G1 X130.218 Y87.404 E2.96589
G1 X130.831 Y88.096 E3.0096
G1 X131.381 Y88.837 E3.05322
G1 X131.866 Y89.624 E3.09693
G1 X132.093 Y90.054 E3.11992
G1 X132.582 Y91.033 E3.17165
G1 X133.763 Y93.316 E3.29317
G1 X134.978 Y95.513 E3.41187
G1 X136.275 Y97.706 E3.53232
G1 X137.656 Y99.9 E3.65489
G1 X138.24 Y100.798 E3.70553
G1 X138.709 Y101.594 E3.74921
G1 X139.108 Y102.427 E3.79287
G1 X139.434 Y103.292 E3.83658
G1 X139.683 Y104.181 E3.88022
G1 X139.855 Y105.089 E3.92392
G1 X139.964 Y106.451 E3.98851
G1 X139.974 Y107.094 E4.01892
G1 X139.974 Y112.83 E4.2901
G1 X139.964 Y113.532 E4.32329
G1 X139.911 Y114.454 E4.36695
G1 X139.778 Y115.369 E4.41066
G1 X139.567 Y116.268 E4.45432
G1 X139.279 Y117.146 E4.49801
G1 X138.916 Y117.996 E4.5417
G1 X138.48 Y118.811 E4.5854
G1 X137.976 Y119.585 E4.62907
G1 X137.407 Y120.313 E4.67275
G1 X136.778 Y120.989 E4.71641
G1 X136.092 Y121.608 E4.76009
G1 X135.355 Y122.165 E4.80377
G1 X134.806 Y122.519 E4.83465
G1 X134.102 Y122.943 E4.8735
G1 X129.542 Y125.602 E5.12306
G1 X128.747 Y126.052 E5.16625
G1 X127.924 Y126.471 E5.20991
G1 X127.068 Y126.818 E5.25358
G1 X126.184 Y127.089 E5.29729
G1 X125.281 Y127.283 E5.34096
G1 X124.364 Y127.398 E5.38465
G1 X123.441 Y127.433 E5.42832
G1 X122.914 Y127.417 E5.45324
G1 X121.173 Y127.322 E5.53568
G1 X118.631 Y127.232 E5.65593
G1 X116.086 Y127.213 E5.77625
G1 X113.555 Y127.267 E5.89594
G1 X110.651 Y127.413 E6.03341
G1 X109.422 Y127.417 E6.09151
G1 X107.68 Y127.322 E6.17399
G1 X105.131 Y127.232 E6.29457
G1 X102.586 Y127.213 E6.4149
G1 X100.055 Y127.267 E6.53458
G1 X97.166 Y127.412 E6.67134
G1 X96.242 Y127.428 E6.71503
G1 X95.321 Y127.365 E6.75867
G1 X94.408 Y127.221 E6.80237
G1 X93.511 Y127 E6.84605
G1 X92.637 Y126.701 E6.88972
G1 X91.791 Y126.328 E6.93343
G1 X91.314 Y126.077 E6.95891
G1 X90.275 Y125.495 E7.01522
G1 X85.825 Y122.899 E7.25878
G1 X85.211 Y122.53 E7.29265
G1 X84.441 Y122.02 E7.33631
G1 X83.717 Y121.446 E7.37999
G1 X83.046 Y120.811 E7.42367
G1 X82.432 Y120.12 E7.46737
G1 X81.88 Y119.379 E7.51106
G1 X81.395 Y118.593 E7.55472
G1 X80.979 Y117.768 E7.5984
G1 X80.636 Y116.91 E7.64209
G1 X80.368 Y116.026 E7.68576
G1 X80.178 Y115.122 E7.72943
G1 X80.067 Y114.205 E7.7731
G1 X80.036 Y113.545 E7.80434
G1 X80.026 Y112.899 E7.83488
G1 X80.026 Y107.17 E8.10574
M205 X5 Y5
G0 F7500 X80.476 Y107.176
M205 X8 Y8
G1 F1500 X80.486 Y106.474 E8.13893
G1 X80.539 Y105.572 E8.18164
G1 X80.671 Y104.677 E8.22442
G1 X80.882 Y103.798 E8.26715
G1 X81.17 Y102.941 E8.3099
G1 X81.532 Y102.112 E8.35266
G1 X81.966 Y101.319 E8.3954
G1 X82.469 Y100.567 E8.43817
G1 X83.036 Y99.863 E8.48091
G1 X83.663 Y99.211 E8.52367
G1 X84.345 Y98.618 E8.5664
G1 X85.427 Y97.866 E8.6287
G1 X86.124 Y97.446 E8.66717
G1 X90.684 Y94.787 E8.91673
G1 X91.487 Y94.333 E8.96034
G1 X91.997 Y94.064 E8.9876
G1 X93.113 Y93.515 E9.0464
G1 X95.475 Y92.311 E9.17174
G1 X97.721 Y91.085 E9.29271
G1 X99.885 Y89.823 E9.41115
G1 X102.055 Y88.474 E9.53195
G1 X104.242 Y87.027 E9.65592
G1 X105.188 Y86.381 E9.71008
G1 X105.671 Y86.07 E9.73724
G1 X106.374 Y85.647 E9.77603
G1 X111.057 Y82.917 E10.0323
G1 X111.714 Y82.546 E10.06797
G1 X112.521 Y82.137 E10.11075
G1 X113.36 Y81.801 E10.15347
G1 X114.225 Y81.54 E10.19619
G1 X115.111 Y81.356 E10.23897
G1 X116.009 Y81.251 E10.28172
G1 X116.913 Y81.226 E10.32447
G1 X117.815 Y81.281 E10.36719
G1 X118.71 Y81.416 E10.40999
G1 X119.588 Y81.629 E10.4527
G1 X120.445 Y81.919 E10.49547
G1 X121.272 Y82.283 E10.53819
G1 X121.724 Y82.521 E10.56234
G1 X122.749 Y83.095 E10.61788
G1 X127.205 Y85.695 E10.86179
G1 X127.822 Y86.067 E10.89585
G1 X128.575 Y86.568 E10.93861
G1 X129.281 Y87.133 E10.98136
G1 X129.934 Y87.759 E11.02412
G1 X130.53 Y88.439 E11.06687
G1 X131.062 Y89.17 E11.10962
G1 X131.69 Y90.255 E11.16889
G1 X132.167 Y91.21 E11.21935
G1 X133.366 Y93.529 E11.34278
G1 X134.591 Y95.744 E11.46244
G1 X135.886 Y97.933 E11.58269
G1 X137.283 Y100.152 E11.70665
G1 X137.862 Y101.043 E11.75689
G1 X138.321 Y101.822 E11.79964
G1 X138.709 Y102.639 E11.8424
G1 X139.024 Y103.487 E11.88517
G1 X139.263 Y104.359 E11.92791
G1 X139.423 Y105.249 E11.97066
G1 X139.514 Y106.458 E12.02798
G1 X139.524 Y107.101 E12.05839
G1 X139.524 Y112.824 E12.32895
G1 X139.514 Y113.526 E12.36214
G1 X139.461 Y114.428 E12.40486
G1 X139.329 Y115.323 E12.44763
G1 X139.118 Y116.202 E12.49037
G1 X138.83 Y117.059 E12.53311
G1 X138.468 Y117.888 E12.57588
G1 X138.034 Y118.681 E12.61862
G1 X137.531 Y119.433 E12.66139
G1 X136.964 Y120.137 E12.70413
G1 X136.337 Y120.789 E12.74689
G1 X135.655 Y121.382 E12.78962
G1 X134.573 Y122.134 E12.85191
G1 X133.876 Y122.554 E12.89039
G1 X129.316 Y125.213 E13.13995
G1 X128.526 Y125.66 E13.18286
G1 X127.72 Y126.07 E13.22561
G1 X126.881 Y126.407 E13.26836
G1 X126.015 Y126.668 E13.31112
G1 X125.13 Y126.852 E13.35385
G1 X124.232 Y126.957 E13.3966
G1 X122.939 Y126.968 E13.45773
G1 X121.215 Y126.874 E13.53936
G1 X118.615 Y126.782 E13.66235
G1 X116.08 Y126.763 E13.7822
G1 X113.523 Y126.817 E13.90312
G1 X111.13 Y126.933 E14.01639
G1 X110.623 Y126.964 E14.0404
G1 X109.447 Y126.968 E14.096
G1 X107.721 Y126.874 E14.17772
G1 X105.115 Y126.782 E14.301
G1 X102.58 Y126.763 E14.42085
G1 X100.023 Y126.817 E14.54177
G1 X97.629 Y126.933 E14.65508
G1 X97.139 Y126.963 E14.67829
G1 X96.235 Y126.978 E14.72103
G1 X95.333 Y126.913 E14.76379
G1 X94.44 Y126.769 E14.80655
G1 X93.564 Y126.546 E14.84929
G1 X92.711 Y126.247 E14.89202
G1 X91.533 Y125.685 E14.95373
G1 X90.668 Y125.202 E15.00057
G1 X86.057 Y122.513 E15.25292
G1 X85.443 Y122.144 E15.28679
G1 X84.689 Y121.645 E15.32954
G1 X83.983 Y121.08 E15.37229
G1 X83.329 Y120.456 E15.41502
G1 X82.732 Y119.776 E15.4578
G1 X82.199 Y119.046 E15.50053
G1 X81.731 Y118.272 E15.5433
G1 X81.334 Y117.46 E15.58603
G1 X81.01 Y116.616 E15.62877
G1 X80.763 Y115.746 E15.67153
G1 X80.592 Y114.858 E15.71428
G1 X80.486 Y113.538 E15.77689
G1 X80.476 Y112.892 E15.80743
G1 X80.476 Y107.176 E16.07767
M205 X5 Y5
G1 F1500 E10.07767
;MESH:M7_nut.stl(2)
G0 F7500 X92.995 Y109.658
G0 X93.032 Y109.959
G1 F1500 E16.07767
G0 F7500 X93.173 Y109.952
M205 X8 Y8
;TYPE:WALL-INNER
G1 F1500 X93.39 Y108.86 E16.13615
G1 X93.494 Y108.607 E16.15052
G1 X94.131 Y107.653 E16.21078
G1 X95.142 Y106.971 E16.27484
G1 X95.359 Y106.889 E16.28703
G1 X96.499 Y106.663 E16.34808
G1 X97.773 Y106.915 E16.4163
G1 X98.745 Y107.564 E16.47769
G1 X98.936 Y107.756 E16.49192
G1 X99.504 Y108.604 E16.54553
G1 X99.609 Y108.856 E16.55987
G1 X99.838 Y110.003 E16.62132
G1 X99.605 Y111.151 E16.68285
G1 X99.5 Y111.401 E16.69709
G1 X98.866 Y112.348 E16.75696
G1 X97.858 Y113.029 E16.82086
G1 X97.64 Y113.111 E16.8331
G1 X96.496 Y113.336 E16.89434
G1 X95.227 Y113.085 E16.96229
G1 X94.255 Y112.436 E17.02369
G1 X94.064 Y112.244 E17.03792
G1 X93.495 Y111.394 E17.09165
G1 X93.39 Y111.14 E17.10608
G1 X93.191 Y110.137 E17.1598
G1 X93.173 Y109.952 E17.16956
M205 X5 Y5
G0 F7500 X93.46 Y110.083
M205 X8 Y8
;TYPE:WALL-OUTER
G1 F1500 X93.46 Y109.917 E17.17741
G1 X93.659 Y108.913 E17.2258
G1 X93.723 Y108.759 E17.23369
G1 X94.332 Y107.847 E17.28553
G1 X95.33 Y107.174 E17.34244
G1 X96.5 Y106.944 E17.39881
G1 X97.668 Y107.174 E17.45509
G1 X98.591 Y107.792 E17.50761
G1 X98.708 Y107.909 E17.51543
G1 X99.276 Y108.757 E17.56368
G1 X99.34 Y108.91 E17.57152
G1 X99.557 Y110.005 E17.6243
G1 X99.335 Y111.096 E17.67694
G1 X99.272 Y111.248 E17.68472
G1 X98.666 Y112.154 E17.73625
G1 X97.669 Y112.826 E17.79309
G1 X96.496 Y113.056 E17.8496
G1 X95.332 Y112.826 E17.9057
G1 X94.409 Y112.208 E17.95821
G1 X94.292 Y112.091 E17.96603
G1 X93.723 Y111.241 E18.01439
G1 X93.659 Y111.087 E18.02228
G1 X93.46 Y110.083 E18.07067
M205 X5 Y5
G0 F7500 X93.46 Y109.917
G0 X93.466 Y109.884
G1 F1500 E12.07067
G0 F7500 X93.049 Y109.8
G0 X93.239 Y108.782
G0 X94.121 Y107.459
G0 X95.053 Y106.833
G0 X96.318 Y106.464
G0 X95.696 Y104.803
G0 X96.5 Y104.234
G1 F1500 E18.07067
G0 F7500 X96.5 Y104.044
M205 X8 Y8
;TYPE:WALL-INNER
G1 F1500 X91.4 Y107.018 E18.38079
G1 X91.4 Y107.719 E18.41762
G1 X91.401 Y112.981 E18.69403
G1 X96.5 Y115.956 E19.00414
G1 X101.6 Y112.982 E19.31427
G1 X101.6 Y107.019 E19.6275
G1 X96.5 Y104.044 E19.93766
M205 X5 Y5
G0 F7500 X96.5 Y103.726
M205 X8 Y8
;TYPE:WALL-OUTER
G1 F1500 X91.125 Y106.861 E20.23184
G1 X91.125 Y107.719 E20.2724
G1 X91.126 Y113.139 E20.52864
G1 X96.5 Y116.274 E20.82278
G1 X101.875 Y113.139 E21.11696
G1 X101.875 Y106.861 E21.41377
G1 X96.5 Y103.726 E21.70795
M205 X5 Y5
G0 F7500 X96.328 Y103.826
G0 X96.498 Y104.349
M205 X8 Y8
;TYPE:SKIN
G1 F1500 X91.663 Y107.168 E21.85495
G1 X91.663 Y112.831 E22.00369
G1 X96.499 Y115.651 E22.15073
G1 X101.338 Y112.83 E22.29784
G1 X101.338 Y107.17 E22.4465
G1 X96.498 Y104.349 E22.59364
M205 X5 Y5
G1 F1500 E16.59364
G0 F7500 X96.443 Y104.252
G0 X91.142 Y106.868
G0 X93.163 Y108.816
G0 X93.084 Y109.416
G0 X93.044 Y110.167
G1 F1500 E22.59364
G0 F7500 X92.932 Y110.187
M205 X8 Y8
G1 F1500 X92.935 Y109.8 E22.60381
G1 X93.137 Y108.791 E22.63084
G1 X93.277 Y108.456 E22.64037
G1 X93.838 Y107.616 E22.6669
G1 X94.045 Y107.387 E22.67501
G1 X95.003 Y106.748 E22.70526
G1 X95.319 Y106.628 E22.71413
G1 X96.501 Y106.396 E22.74577
G1 X97.87 Y106.668 E22.78243
G1 X98.88 Y107.337 E22.81425
G1 X99.147 Y107.602 E22.82413
G1 X99.731 Y108.474 E22.8517
G1 X99.862 Y108.788 E22.86063
G1 X100.104 Y110.008 E22.8933
G1 X99.864 Y111.195 E22.92511
G1 X99.727 Y111.531 E22.93464
G1 X99.159 Y112.386 E22.9616
G1 X98.953 Y112.614 E22.96967
G1 X97.998 Y113.251 E22.99982
G1 X97.679 Y113.372 E23.00878
G1 X96.498 Y113.601 E23.04038
G1 X95.132 Y113.333 E23.07694
G1 X94.12 Y112.663 E23.10882
G1 X93.853 Y112.398 E23.1187
G1 X93.267 Y111.523 E23.14636
G1 X93.13 Y111.185 E23.15594
G1 X92.932 Y110.187 E23.18266
M205 X5 Y5
G1 F1500 E17.18266
G0 F7500 X93.044 Y110.167
G0 X93.021 Y109.876
G0 X93.239 Y108.782
G0 X94.121 Y107.459
G0 X95.053 Y106.833
G0 X96.318 Y106.464
G0 X95.438 Y104.953
G0 X95.942 Y104.545
G1 F1500 E23.18266
G0 F7500 X96.059 Y104.75
M205 X8 Y8
G1 F1500 X96.938 Y104.75 E23.20575
M205 X5 Y5
G0 F7500 X97.367 Y105
M205 X8 Y8
G1 F1500 X95.631 Y105 E23.25134
M205 X5 Y5
G0 F7500 X95.202 Y105.25
M205 X8 Y8
G1 F1500 X97.796 Y105.25 E23.31948
M205 X5 Y5
G0 F7500 X98.225 Y105.5
M205 X8 Y8
G1 F1500 X94.773 Y105.5 E23.41014
M205 X5 Y5
G0 F7500 X94.344 Y105.75
M205 X8 Y8
G1 F1500 X98.654 Y105.75 E23.52335
M205 X5 Y5
G0 F7500 X99.082 Y106
M205 X8 Y8
G1 F1500 X93.915 Y106 E23.65906
M205 X5 Y5
G0 F7500 X93.487 Y106.25
M205 X8 Y8
G1 F1500 X99.511 Y106.25 E23.81728
M205 X5 Y5
G0 F7500 X99.94 Y106.5
M205 X8 Y8
G1 F1500 X97.675 Y106.5 E23.87677
M205 X5 Y5
G0 F7500 X98.224 Y106.75
M205 X8 Y8
G1 F1500 X100.369 Y106.75 E23.93311
M205 X5 Y5
G0 F7500 X100.798 Y107
M205 X8 Y8
G1 F1500 X98.599 Y107 E23.99087
M205 X5 Y5
G0 F7500 X98.966 Y107.25
M205 X8 Y8
G1 F1500 X101.213 Y107.25 E24.04988
M205 X5 Y5
G0 F7500 X101.213 Y107.5
M205 X8 Y8
G1 F1500 X99.221 Y107.5 E24.1022
M205 X5 Y5
G0 F7500 X99.395 Y107.75
M205 X8 Y8
G1 F1500 X101.213 Y107.75 E24.14995
M205 X5 Y5
G0 F7500 X101.213 Y108
M205 X8 Y8
G1 F1500 X99.564 Y108 E24.19326
M205 X5 Y5
G0 F7500 X99.733 Y108.25
M205 X8 Y8
G1 F1500 X101.213 Y108.25 E24.23214
M205 X5 Y5
G0 F7500 X101.213 Y108.5
M205 X8 Y8
G1 F1500 X99.872 Y108.5 E24.26736
M205 X5 Y5
G0 F7500 X99.976 Y108.75
M205 X8 Y8
G1 F1500 X101.213 Y108.75 E24.29985
M205 X5 Y5
G0 F7500 X101.213 Y109
M205 X8 Y8
G1 F1500 X100.033 Y109 E24.33084
M205 X5 Y5
G0 F7500 X100.081 Y109.25
M205 X8 Y8
G1 F1500 X101.213 Y109.25 E24.36057
M205 X5 Y5
G0 F7500 X101.213 Y109.5
M205 X8 Y8
G1 F1500 X100.13 Y109.5 E24.38902
M205 X5 Y5
G0 F7500 X100.178 Y109.75
M205 X8 Y8
G1 F1500 X101.213 Y109.75 E24.4162
M205 X5 Y5
G0 F7500 X101.213 Y110
M205 X8 Y8
G1 F1500 X100.227 Y110 E24.4421
M205 X5 Y5
G0 F7500 X100.18 Y110.25
M205 X8 Y8
G1 F1500 X101.213 Y110.25 E24.46923
M205 X5 Y5
G0 F7500 X101.213 Y110.5
M205 X8 Y8
G1 F1500 X100.129 Y110.5 E24.4977
M205 X5 Y5
G0 F7500 X100.079 Y110.75
M205 X8 Y8
G1 F1500 X101.213 Y110.75 E24.52749
M205 X5 Y5
G0 F7500 X101.213 Y111
M205 X8 Y8
G1 F1500 X100.028 Y111 E24.55861
M205 X5 Y5
G0 F7500 X99.977 Y111.25
M205 X8 Y8
G1 F1500 X101.213 Y111.25 E24.59108
M205 X5 Y5
G0 F7500 X101.213 Y111.5
M205 X8 Y8
G1 F1500 X99.872 Y111.5 E24.6263
M205 X5 Y5
G0 F7500 X99.734 Y111.75
M205 X8 Y8
G1 F1500 X101.213 Y111.75 E24.66514
M205 X5 Y5
G0 F7500 X101.213 Y112
M205 X8 Y8
G1 F1500 X99.567 Y112 E24.70838
M205 X5 Y5
G0 F7500 X99.4 Y112.25
M205 X8 Y8
G1 F1500 X101.213 Y112.25 E24.75599
M205 X5 Y5
G0 F7500 X101.213 Y112.5
M205 X8 Y8
G1 F1500 X99.224 Y112.5 E24.80824
M205 X5 Y5
G0 F7500 X98.977 Y112.75
M205 X8 Y8
G1 F1500 X101.213 Y112.75 E24.86696
M205 X5 Y5
G0 F7500 X100.797 Y113
M205 X8 Y8
G1 F1500 X98.602 Y113 E24.92462
M205 X5 Y5
G0 F7500 X98.227 Y113.25
M205 X8 Y8
G1 F1500 X100.369 Y113.25 E24.98088
M205 X5 Y5
G0 F7500 X99.94 Y113.5
M205 X8 Y8
G1 F1500 X97.677 Y113.5 E25.04031
M205 X5 Y5
G0 F7500 X97.632 Y113.266
G0 X96.623 Y113.479
G0 X95.283 Y113.262
G0 X94.128 Y112.547
G0 X93.334 Y111.447
G0 X93.021 Y110.124
G0 X93.239 Y108.782
G0 X94.121 Y107.459
G0 X94.875 Y106.953
G0 X95.365 Y106.734
G0 X95.32 Y106.5
M205 X8 Y8
G1 F1500 X93.058 Y106.5 E25.09973
M205 X5 Y5
G0 F7500 X92.629 Y106.75
M205 X8 Y8
G1 F1500 X94.775 Y106.75 E25.15609
M205 X5 Y5
G0 F7500 X94.4 Y107
M205 X8 Y8
G1 F1500 X92.2 Y107 E25.21387
M205 X5 Y5
G0 F7500 X91.788 Y107.25
M205 X8 Y8
G1 F1500 X94.025 Y107.25 E25.27263
M205 X5 Y5
G0 F7500 X93.775 Y107.5
M205 X8 Y8
G1 F1500 X91.788 Y107.5 E25.32482
M205 X5 Y5
G0 F7500 X91.788 Y107.75
M205 X8 Y8
G1 F1500 X93.597 Y107.75 E25.37233
M205 X5 Y5
G0 F7500 X93.431 Y108
M205 X8 Y8
G1 F1500 X91.788 Y108 E25.41549
