;FLAVOR:Marlin
;TIME:3049
;Filament used: 3.99149m
;Layer height: 0.28
;MINX:73.582
;MINY:91.364
;MINZ:0.28
;MAXX:139.773
;MAXY:128.634
;MAXZ:47.88
;Generated with Cura_SteamEngine main
M82 ;absolute extrusion mode
M201 X500.00 Y500.00 Z100.00 E5000.00 ;Setup machine max acceleration
M203 X500.00 Y500.00 Z10.00 E50.00 ;Setup machine max feedrate
M204 P500.00 R1000.00 T500.00 ;Setup Print/Retract/Travel acceleration
M205 X8.00 Y8.00 Z0.40 E5.00 ;Setup Jerk
M220 S100 ;Reset Feedrate
M221 S100 ;Reset Flowrate

;*** Start Dual Nozzle/Bed Preheating ***
M140 S60 ; start preheating the bed
M104 S200 ?T0 ; start preheating hotend
M190 S60 ; heat to Cura Bed setting and WAIT
M109 S200 ?T0 ; heat to Cura Hotend and WAIT
;*** End Preheating ***


;*** Single Print Start Tone
M300 S1000 P500 ; chirp to indicate starting to print
;*** End Single Start Tone

G28 ;Home

G92 E0 ;Reset Extruder
G1 Z2.0 F3000 ;Move Z Axis up
G1 X10.1 Y20 Z0.28 F5000.0 ;Move to start position
G1 X10.1 Y200.0 Z0.28 F1500.0 E15 ;Draw the first line
G1 X10.4 Y200.0 Z0.28 F5000.0 ;Move to side a little
G1 X10.4 Y20 Z0.28 F1500.0 E30 ;Draw the second line
G92 E0 ;Reset Extruder
G1 Z2.0 F3000 ;Move Z Axis up
G92 E0
G92 E0
G1 F2700 E-3.05
;LAYER_COUNT:171
;LAYER:0
M107
M204 S500
M205 X5 Y5
G0 F7500 X78.228 Y95.457 Z0.28
G0 X73.583 Y105.667
M205 X8 Y8
;TYPE:SKIRT
G1 F2700 E0
G1 F1500 X73.593 Y104.972 E0.03286
G1 X73.642 Y104.094 E0.07444
G1 X73.672 Y103.785 E0.08911
G1 X73.801 Y102.871 E0.13275
G1 X73.949 Y102.183 E0.16602
G1 X74.196 Y101.292 E0.20974
G1 X74.698 Y100.024 E0.27421
G1 X74.894 Y99.609 E0.29591
G1 X75.325 Y98.792 E0.33958
G1 X75.824 Y98.014 E0.38328
G1 X76.584 Y97.058 E0.44101
G1 X76.884 Y96.722 E0.46231
G1 X77.529 Y96.06 E0.50601
G1 X78.228 Y95.457 E0.54965
G1 X79.05 Y94.868 E0.59746
G1 X79.401 Y94.641 E0.61722
G1 X80.198 Y94.174 E0.66089
G1 X81.032 Y93.776 E0.70458
G1 X81.897 Y93.453 E0.74824
G1 X82.451 Y93.289 E0.77555
G1 X82.789 Y93.199 E0.79209
G1 X83.691 Y93.001 E0.83575
G1 X84.658 Y92.876 E0.88184
G1 X85.761 Y92.785 E0.93417
G1 X108.07 Y91.425 E1.99083
G1 X109.238 Y91.376 E2.0461
G1 X109.646 Y91.367 E2.0654
G1 X110.472 Y91.364 E2.10445
G1 X111.131 Y91.378 E2.13561
G1 X111.62 Y91.403 E2.15876
G1 X112.231 Y91.449 E2.18773
G1 X112.829 Y91.511 E2.21615
G1 X113.729 Y91.63 E2.25907
G1 X114.512 Y91.756 E2.29656
G1 X114.901 Y91.829 E2.31528
G1 X115.701 Y91.995 E2.3539
G1 X116.37 Y92.156 E2.38643
G1 X117.338 Y92.423 E2.43391
G1 X117.957 Y92.614 E2.46453
G1 X118.626 Y92.843 E2.49796
G1 X119.144 Y93.036 E2.5241
G1 X119.772 Y93.288 E2.55609
G1 X120.436 Y93.574 E2.59027
G1 X121.417 Y94.041 E2.64164
G1 X121.78 Y94.226 E2.6609
G1 X122.7 Y94.722 E2.71031
G1 X123.222 Y95.027 E2.73889
G1 X123.87 Y95.43 E2.77497
G1 X124.613 Y95.93 E2.81731
G1 X125.215 Y96.363 E2.85237
G1 X125.596 Y96.649 E2.87489
G1 X126.08 Y97.031 E2.90404
G1 X126.47 Y97.355 E2.92801
G1 X126.967 Y97.794 E2.95936
G1 X127.758 Y98.527 E3.01035
G1 X128.193 Y98.952 E3.0391
G1 X128.526 Y99.3 E3.06187
G1 X128.991 Y99.809 E3.09446
G1 X129.284 Y100.143 E3.11547
G1 X129.877 Y100.849 E3.15906
G1 X130.344 Y101.438 E3.1946
G1 X130.63 Y101.823 E3.21727
G1 X130.955 Y102.283 E3.2439
G1 X131.264 Y102.746 E3.27022
G1 X131.849 Y103.673 E3.32204
G1 X132.307 Y104.475 E3.3657
G1 X132.739 Y105.423 E3.41495
G1 X132.936 Y105.918 E3.44014
G1 X133.241 Y106.79 E3.48382
G1 X133.468 Y107.686 E3.52752
G1 X133.617 Y108.597 E3.57116
G1 X133.687 Y109.519 E3.61487
G1 X133.652 Y110.799 E3.67541
G1 X133.621 Y111.152 E3.69216
G1 X133.5 Y112.068 E3.73585
G1 X133.216 Y113.291 E3.7952
G1 X132.881 Y114.281 E3.84462
G1 X132.511 Y115.127 E3.88827
G1 X132.274 Y115.583 E3.91257
G1 X132.038 Y116.011 E3.93567
G1 X131.729 Y116.539 E3.9646
G1 X131.498 Y116.906 E3.9851
G1 X131.125 Y117.473 E4.01718
G1 X130.866 Y117.85 E4.03881
G1 X130.517 Y118.334 E4.06702
G1 X129.905 Y119.126 E4.11434
G1 X129.607 Y119.488 E4.13651
G1 X129.083 Y120.09 E4.17424
G1 X128.479 Y120.749 E4.2165
G1 X128.024 Y121.221 E4.2475
G1 X127.718 Y121.521 E4.26775
G1 X127.279 Y121.934 E4.29625
G1 X126.876 Y122.294 E4.3218
G1 X126.153 Y122.901 E4.36643
G1 X125.599 Y123.342 E4.39991
G1 X125.04 Y123.758 E4.43285
G1 X124.104 Y124.408 E4.48672
G1 X123.565 Y124.763 E4.51724
G1 X123.159 Y125.011 E4.53973
G1 X122.643 Y125.311 E4.56795
G1 X121.988 Y125.674 E4.60335
G1 X121.522 Y125.915 E4.62815
G1 X120.957 Y126.19 E4.65786
G1 X120.436 Y126.427 E4.68492
G1 X119.505 Y126.82 E4.7327
G1 X118.98 Y127.029 E4.75941
G1 X118.433 Y127.225 E4.78688
G1 X117.863 Y127.412 E4.81524
G1 X116.964 Y127.681 E4.85961
G1 X116.557 Y127.792 E4.87955
G1 X115.768 Y127.99 E4.91801
G1 X115.098 Y128.135 E4.95042
G1 X114.097 Y128.311 E4.99847
G1 X113.107 Y128.454 E5.04576
G1 X112.557 Y128.519 E5.07195
G1 X112.067 Y128.564 E5.09521
G1 X111.175 Y128.619 E5.13746
G1 X110.667 Y128.634 E5.16149
G1 X109.486 Y128.633 E5.21732
G1 X108.366 Y128.595 E5.2703
G1 X85.696 Y127.211 E6.34407
G1 X84.936 Y127.154 E6.3801
G1 X84.188 Y127.076 E6.41566
G1 X83.276 Y126.928 E6.45934
G1 X82.38 Y126.702 E6.50303
G1 X81.507 Y126.399 E6.54671
G1 X81.049 Y126.206 E6.57021
G1 X80.53 Y125.972 E6.59713
G1 X79.705 Y125.556 E6.64081
G1 X78.919 Y125.07 E6.6845
G1 X78.178 Y124.518 E6.72818
G1 X77.344 Y123.763 E6.78137
G1 X77.052 Y123.469 E6.80096
G1 X76.43 Y122.785 E6.84467
G1 X75.646 Y121.719 E6.90723
G1 X75.493 Y121.481 E6.9206
G1 X75.028 Y120.683 E6.96427
G1 X74.643 Y119.87 E7.0068
G1 X74.502 Y119.537 E7.02389
G1 X74.179 Y118.672 E7.06755
G1 X73.84 Y117.342 E7.13244
G1 X73.783 Y117.038 E7.14706
G1 X73.652 Y116.124 E7.19071
G1 X73.602 Y115.258 E7.23172
G1 X73.582 Y114.045 E7.28908
G1 X73.583 Y105.667 E7.68517
M205 X5 Y5
G0 F7500 X74.033 Y105.674
M205 X8 Y8
G1 F1500 X74.043 Y104.979 E7.71803
G1 X74.09 Y104.138 E7.75785
G1 X74.12 Y103.829 E7.77253
G1 X74.35 Y102.422 E7.83993
G1 X74.63 Y101.413 E7.88943
G1 X75.105 Y100.216 E7.95032
G1 X75.301 Y99.801 E7.97202
G1 X75.723 Y99.002 E8.01473
G1 X76.214 Y98.242 E8.05751
G1 X76.92 Y97.358 E8.111
G1 X77.22 Y97.022 E8.13229
G1 X77.851 Y96.375 E8.17502
G1 X78.537 Y95.786 E8.21777
G1 X79.294 Y95.246 E8.26173
G1 X79.645 Y95.019 E8.28149
G1 X80.426 Y94.562 E8.32427
G1 X81.243 Y94.176 E8.36699
G1 X82.092 Y93.863 E8.40977
G1 X82.567 Y93.724 E8.43317
G1 X82.905 Y93.634 E8.4497
G1 X83.788 Y93.44 E8.49245
G1 X84.695 Y93.325 E8.53567
G1 X86.017 Y93.218 E8.59837
G1 X107.895 Y91.885 E9.63462
G1 X109.256 Y91.826 E9.69903
G1 X109.648 Y91.817 E9.71756
G1 X110.474 Y91.814 E9.75662
G1 X111.118 Y91.827 E9.78707
G1 X111.587 Y91.852 E9.80927
G1 X112.198 Y91.898 E9.83824
G1 X112.77 Y91.957 E9.86543
G1 X113.67 Y92.076 E9.90835
G1 X114.437 Y92.199 E9.94507
G1 X115.609 Y92.435 E10.00159
G1 X116.251 Y92.59 E10.03282
G1 X117.219 Y92.857 E10.08029
G1 X117.811 Y93.04 E10.10959
G1 X118.48 Y93.269 E10.14302
G1 X118.977 Y93.454 E10.16809
G1 X119.924 Y93.84 E10.21644
G1 X120.585 Y94.138 E10.25071
G1 X121.221 Y94.446 E10.28412
G1 X121.568 Y94.623 E10.30254
G1 X122.476 Y95.112 E10.3513
G1 X122.987 Y95.411 E10.37929
G1 X123.623 Y95.806 E10.41468
G1 X124.351 Y96.295 E10.45614
G1 X124.953 Y96.728 E10.4912
G1 X125.317 Y97.003 E10.51277
G1 X125.801 Y97.385 E10.54192
G1 X126.175 Y97.694 E10.56486
G1 X126.661 Y98.124 E10.59554
G1 X127.452 Y98.857 E10.64652
G1 X127.875 Y99.27 E10.67447
G1 X128.194 Y99.603 E10.69627
G1 X128.659 Y100.112 E10.72886
G1 X128.94 Y100.433 E10.74903
G1 X129.533 Y101.139 E10.79262
G1 X129.989 Y101.714 E10.82732
G1 X130.262 Y102.083 E10.84902
G1 X130.587 Y102.543 E10.87565
G1 X130.883 Y102.986 E10.90084
G1 X131.468 Y103.913 E10.95266
G1 X131.916 Y104.698 E10.99539
G1 X132.321 Y105.589 E11.04166
G1 X132.518 Y106.084 E11.06685
G1 X132.815 Y106.938 E11.1096
G1 X133.035 Y107.815 E11.15234
G1 X133.177 Y108.708 E11.19509
G1 X133.24 Y109.61 E11.23784
G1 X133.204 Y110.76 E11.29223
G1 X133.173 Y111.113 E11.30899
G1 X133.054 Y112.009 E11.35172
G1 X132.784 Y113.166 E11.40789
G1 X132.455 Y114.137 E11.45636
G1 X132.09 Y114.964 E11.4991
G1 X131.88 Y115.365 E11.5205
G1 X131.644 Y115.793 E11.5436
G1 X131.344 Y116.307 E11.57174
G1 X130.749 Y117.226 E11.6235
G1 X130.501 Y117.586 E11.64417
G1 X130.152 Y118.07 E11.67238
G1 X129.551 Y118.848 E11.71886
G1 X129.266 Y119.195 E11.74008
G1 X128.751 Y119.786 E11.77715
G1 X128.147 Y120.445 E11.81941
G1 X127.702 Y120.906 E11.8497
G1 X126.97 Y121.606 E11.89758
G1 X126.585 Y121.951 E11.92202
G1 X125.873 Y122.549 E11.96598
G1 X125.319 Y122.99 E11.99946
G1 X124.783 Y123.389 E12.03105
G1 X123.847 Y124.039 E12.08493
G1 X123.321 Y124.384 E12.11467
G1 X122.933 Y124.622 E12.13619
G1 X122.417 Y124.922 E12.1644
G1 X121.771 Y125.28 E12.19932
G1 X121.325 Y125.511 E12.22307
G1 X120.76 Y125.786 E12.25277
G1 X120.261 Y126.012 E12.27867
G1 X119.33 Y126.405 E12.32645
G1 X118.817 Y126.61 E12.35257
G1 X118.292 Y126.798 E12.37893
G1 X117.722 Y126.985 E12.40729
G1 X116.838 Y127.249 E12.45091
G1 X116.448 Y127.355 E12.47002
G1 X115.659 Y127.553 E12.50847
G1 X115.017 Y127.693 E12.53954
G1 X114.033 Y127.866 E12.58677
G1 X113.043 Y128.009 E12.63406
G1 X112.516 Y128.071 E12.65915
G1 X111.627 Y128.145 E12.70133
G1 X111.151 Y128.17 E12.72386
G1 X110.665 Y128.184 E12.74685
G1 X109.499 Y128.184 E12.80197
G1 X108.393 Y128.146 E12.85429
G1 X85.871 Y126.772 E13.92105
G1 X84.969 Y126.705 E13.96381
G1 X84.24 Y126.629 E13.99846
G1 X83.348 Y126.483 E14.04119
G1 X82.472 Y126.26 E14.08393
G1 X81.234 Y125.795 E14.14645
G1 X80.715 Y125.561 E14.17337
G1 X79.908 Y125.154 E14.2161
G1 X79.14 Y124.676 E14.25886
G1 X78.418 Y124.133 E14.30157
G1 X77.663 Y123.445 E14.34987
G1 X77.371 Y123.151 E14.36946
G1 X76.763 Y122.482 E14.41219
G1 X76.025 Y121.475 E14.47122
G1 X75.872 Y121.237 E14.4846
G1 X75.417 Y120.456 E14.52733
G1 X75.057 Y119.695 E14.56713
G1 X74.916 Y119.362 E14.58423
G1 X74.601 Y118.514 E14.62699
G1 X74.282 Y117.259 E14.68821
G1 X74.225 Y116.955 E14.70284
G1 X74.098 Y116.06 E14.74557
G1 X74.052 Y115.25 E14.78393
G1 X74.032 Y114.045 E14.84091
G1 X74.033 Y105.674 E15.23666
M205 X5 Y5
G1 F2700 E12.18666
;MESH:Benchy_PLA_Glass.stl
G0 F7500 X102.712 Y108.635
G0 X103.174 Y110.826
G1 F2700 E15.23666
G0 F7500 X103.049 Y110.953
M205 X8 Y8
;TYPE:WALL-INNER
G1 F1175.5 X103.121 Y110.951 E15.24149
G1 X103.4 Y110.913 E15.26036
G1 X103.484 Y110.866 E15.26682
G1 X103.595 Y110.719 E15.27916
G1 X103.686 Y110.29 E15.30856
G1 F1168.2 X103.696 Y109.943 E15.33197
G1 X103.682 Y109.545 E15.35883
G1 F1173.7 X103.616 Y109.285 E15.37684
G1 X103.527 Y109.074 E15.39222
G1 X103.433 Y109.013 E15.39974
G1 X103.044 Y108.978 E15.42596
G1 F1175.5 X103.049 Y110.953 E15.55834
M205 X5 Y5
G1 F2700 E12.50834
G0 F7500 X103.174 Y110.826
G0 X103.17 Y109.105
G1 F2700 E15.55834
G0 F7500 X102.5 Y108.416
M205 X8 Y8
;TYPE:WALL-OUTER
G1 F1500 X102.505 Y111.215 E15.69067
G1 X102.489 Y111.479 E15.70317
G1 X102.506 Y111.507 E15.70472
G1 X103.159 Y111.495 E15.7356
G1 X103.578 Y111.438 E15.75559
G1 X103.848 Y111.284 E15.77029
G1 X104.035 Y111.041 E15.78478
G1 X104.154 Y110.707 E15.80155
G1 X104.228 Y110.358 E15.81841
G1 X104.245 Y109.956 E15.83744
G1 X104.223 Y109.465 E15.86067
G1 X104.134 Y109.112 E15.87788
G1 X103.988 Y108.765 E15.89568
G1 X103.83 Y108.606 E15.90628
G1 X103.59 Y108.482 E15.91905
G1 X103.143 Y108.436 E15.94029
G1 X102.5 Y108.416 E15.97071
M205 X5 Y5
G0 F7500 X102.5 Y108.616
G1 F2700 E12.92071
G0 F7500 X103.17 Y109.105
G0 X103.945 Y110.642
G0 X107.553 Y110.958
G0 X108.197 Y112.437
M205 X8 Y8
G1 F2700 E15.97071
G1 F1190.5 X108.186 Y112.682 E15.98532
M205 X5 Y5
G0 F7500 X108.15 Y113.208
G0 X108.618 Y114.041
G0 X112.276 Y113.71
G0 X112.046 Y114.061
M205 X8 Y8
;TYPE:WALL-INNER
G1 F1861 X112.307 Y113.929 E15.9977
G1 F1712.3 X112.568 Y113.797 E16.01116
G1 F1527.5 X112.736 Y113.708 E16.02097
G1 F1467.7 X112.877 Y113.42 E16.03818
G1 F1503 X113.141 Y112.71 E16.07789
G1 F1509.1 X113.036 Y112.404 E16.09479
G1 F1540 X112.931 Y112.097 E16.11139
G1 F1572.3 X112.825 Y111.79 E16.12766
G1 F1549.6 X112.724 Y111.552 E16.14081
G1 F1482.2 X112.623 Y111.314 E16.15455
G1 F1420.5 X112.521 Y111.075 E16.16897
G1 F1363.6 X112.42 Y110.837 E16.18391
G1 F1311.2 X112.318 Y110.598 E16.19952
G1 F1284.2 X112.229 Y110.361 E16.21506
G1 X112.098 Y110.049 E16.23582
G1 X111.964 Y110.282 E16.25231
G1 F1313.5 X111.712 Y110.691 E16.28113
G1 F1356.2 X111.838 Y110.933 E16.29698
G1 F1376.1 X111.964 Y111.175 E16.3126
G1 F1396.6 X112.09 Y111.417 E16.328
G1 F1428.6 X112.225 Y111.655 E16.34309
G1 F1470.6 X112.36 Y111.893 E16.35775
G1 F1518.2 X112.515 Y112.36 E16.38329
G1 F1428.6 X112.559 Y112.698 E16.40209
G1 F1420.5 X112.476 Y113.097 E16.42469
G1 F1476.4 X112.323 Y113.378 E16.44177
G1 F1589 X112.046 Y113.627 E16.46024
G1 F1781.5 X111.577 Y113.881 E16.48383
G1 F1626.9 X111.314 Y113.941 E16.4969
G1 F1500 X111.104 Y113.947 E16.50793
G1 X110.577 Y113.798 E16.5367
G1 X110.209 Y113.483 E16.56215
G1 X110.114 Y113.355 E16.57052
G1 X109.716 Y113.726 E16.5991
G1 X109.37 Y113.892 E16.61926
G1 X109.187 Y113.92 E16.62898
G1 X108.786 Y113.892 E16.6501
G1 X108.531 Y113.824 E16.66396
G1 X108.168 Y113.597 E16.68645
G1 X107.618 Y114.018 E16.72284
G1 X107.166 Y114.177 E16.74801
G1 X106.481 Y114.233 E16.78411
G1 X105.879 Y113.996 E16.8181
G1 X105.439 Y113.656 E16.84731
G1 X105.056 Y113.165 E16.88002
G1 X104.52 Y113.468 E16.91236
G1 X103.97 Y113.622 E16.94236
G1 X103.449 Y113.707 E16.97009
G1 X102.879 Y113.734 E17.00007
G1 X102.058 Y113.727 E17.0432
G1 X101.465 Y113.784 E17.07449
G1 X101.247 Y113.753 E17.08606
G1 X100.765 Y113.5 E17.11466
G1 X100.536 Y113.265 E17.13189
G1 X100.317 Y112.767 E17.16047
G1 X100.266 Y112.427 E17.17853
G1 X100.041 Y112.815 E17.20209
G1 X99.625 Y113.269 E17.23444
G1 X99.168 Y113.594 E17.26389
G1 X98.628 Y113.799 E17.29424
G1 X97.988 Y113.914 E17.32839
G1 X97.058 Y113.873 E17.37729
G1 X96.41 Y113.672 E17.41293
G1 X95.981 Y113.43 E17.43881
G1 X95.62 Y113.055 E17.46615
G1 X95.44 Y112.669 E17.48852
G1 X95.376 Y112.428 E17.50162
G1 X95.377 Y111.979 E17.52521
G1 X95.424 Y111.715 E17.5393
G1 X95.643 Y111.329 E17.56261
G1 X95.786 Y111.151 E17.5746
G1 X95.992 Y111.024 E17.58731
G1 F1506 X96.526 Y110.827 E17.61709
G1 F1582.3 X96.972 Y110.902 E17.63962
G1 F1637.6 X96.723 Y110.815 E17.65231
G1 F1595.7 X96.473 Y110.727 E17.66539
G1 F1536.9 X96.241 Y110.442 E17.68424
G1 F1500 X96.08 Y110.082 E17.70495
G1 X96.049 Y109.87 E17.71621
G1 X96.067 Y109.364 E17.7428
G1 X96.261 Y108.966 E17.76606
G1 X96.083 Y108.895 E17.77613
G1 X95.729 Y108.631 E17.79933
G1 X95.608 Y108.446 E17.81094
G1 X95.285 Y108.706 E17.83272
G1 X94.824 Y108.839 E17.85792
G1 X94.08 Y108.865 E17.89703
G1 X94.077 Y111.527 E18.03687
G1 X94.098 Y112.422 E18.08389
G1 X93.976 Y112.967 E18.11323
G1 X93.647 Y113.424 E18.14281
G1 X93.435 Y113.57 E18.15633
G1 X93.012 Y113.726 E18.18002
G1 X92.524 Y113.769 E18.20575
G1 X92.044 Y113.591 E18.23264
G1 X91.749 Y113.393 E18.25131
G1 X91.456 Y112.909 E18.28103
G1 X91.399 Y112.494 E18.30303
G1 X91.451 Y111.949 E18.33179
G1 X91.437 Y111.356 E18.36295
G1 X91.442 Y109.679 E18.45104
G1 X91.433 Y109.108 E18.48104
G1 X91.45 Y108.833 E18.49551
G1 X90.962 Y108.896 E18.52136
G1 X90.513 Y108.858 E18.54503
G1 X90.147 Y108.684 E18.56632
G1 X90 Y108.571 E18.57606
G1 X89.903 Y108.73 E18.58584
G1 X89.554 Y109.056 E18.61093
G1 X89.341 Y109.175 E18.62375
G1 X88.801 Y109.243 E18.65234
G1 X88.597 Y109.232 E18.66307
G1 X88.057 Y109.023 E18.69349
G1 X87.617 Y108.747 E18.72077
G1 X87.383 Y108.741 E18.73307
G1 X87.126 Y108.911 E18.74925
G1 X87.032 Y109.102 E18.76044
G1 X86.933 Y109.478 E18.78086
G1 X86.913 Y109.936 E18.80494
G1 X86.919 Y110.208 E18.81923
G1 X86.95 Y110.541 E18.8368
G1 X87.02 Y110.824 E18.85212
G1 X87.107 Y110.984 E18.86168
G1 X87.243 Y111.119 E18.87175
G1 X87.483 Y111.204 E18.88512
G1 X87.734 Y111.19 E18.89833
G1 X88.038 Y110.9 E18.9204
G1 X88.644 Y110.673 E18.95439
G1 X89.118 Y110.725 E18.97944
G1 X89.481 Y110.849 E18.99959
G1 X89.765 Y111.047 E19.01778
G1 X89.937 Y111.228 E19.03089
G1 X90.158 Y111.611 E19.05412
G1 X90.236 Y112.059 E19.07801
G1 X90.163 Y112.33 E19.09275
G1 X89.975 Y112.734 E19.11616
G1 X89.622 Y113.195 E19.14666
G1 X89.063 Y113.591 E19.18265
G1 X88.554 Y113.789 E19.21134
G1 X88.083 Y113.878 E19.23652
G1 X87.607 Y113.915 E19.2616
G1 X86.916 Y113.862 E19.298
G1 X86.196 Y113.642 E19.33755
