;FLAVOR:Marlin
;TIME:17144
;Filament used: 8.73941m
;Layer height: 0.2
;MINX:6.427
;MINY:11.561
;MINZ:0.3
;MAXX:203.433
;MAXY:208.476
;MAXZ:2.34
;Generated with Cura_SteamEngine 4.8.0
M82 ;absolute extrusion mode
M201 X500.00 Y500.00 Z100.00 E5000.00 ;Setup machine max acceleration
M203 X500.00 Y500.00 Z10.00 E50.00 ;Setup machine max feedrate
M204 P500.00 R1000.00 T500.00 ;Setup Print/Retract/Travel acceleration
M205 X8.00 Y8.00 Z0.40 E5.00 ;Setup Jerk
M220 S100 ;Reset Feedrate
M221 S100 ;Reset Flowrate

;*** Start Dual Nozzle/Bed Preheating ***
M140 S50 ; start preheating the bed
M104 S220 ﻿T0 ; start preheating hotend
G28 ; home
M190 S50 ; heat to Cura Bed setting and WAIT
M109 S220 ﻿T0 ; heat to Cura Hotend and WAIT
;*** End Preheating ***


G92 E0 ;Reset Extruder
G1 Z2.0 F3000 ;Move Z Axis up

;*** Single Print Start Tone
M300 S1000 P500 ; chirp to indicate starting to print
;*** End Single Start Tone

G1 X10.1 Y20 Z0.28 F5000.0 ;Move to start position
G1 X10.1 Y200.0 Z0.28 F1500.0 E15 ;Draw the first line
G1 X10.4 Y200.0 Z0.28 F5000.0 ;Move to side a little
G1 X10.4 Y20 Z0.28 F1500.0 E30 ;Draw the second line
G92 E0 ;Reset Extruder
G1 Z2.0 F3000 ;Move Z Axis up
G92 E0
G92 E0
G1 F3000 E-5
;LAYER_COUNT:13
;LAYER:0
M106 S255
M204 S500
M205 X5 Y5
G1 F300 Z0.5
G0 F3000 X15.31 Y76.644 Z0.5
M205 X0.7 Y0.7
;TYPE:SKIRT
G1 F300 Z0.3
G1 F3000 E0.01663
G1 F600 X16.421 Y76.506 E0.08994
G1 X19.124 Y76.312 E0.26739
G1 X21.636 Y76.059 E0.43271
G1 X24.176 Y75.731 E0.60041
G1 X26.626 Y75.345 E0.76282
G1 X29.127 Y74.877 E0.92943
G1 X31.584 Y74.344 E1.09406
G1 X34.026 Y73.744 E1.25872
G1 X36.487 Y73.063 E1.42592
G1 X38.891 Y72.324 E1.59061
G1 X41.26 Y71.522 E1.75438
G1 X43.676 Y70.628 E1.92307
G1 X45.991 Y69.695 E2.0865
G1 X48.292 Y68.692 E2.25087
G1 X50.585 Y67.614 E2.41678
G1 X52.853 Y66.468 E2.58317
G1 X55.074 Y65.267 E2.74851
G1 X57.225 Y64.022 E2.91125
G1 X59.406 Y62.677 E3.07903
G1 X61.493 Y61.307 E3.24251
G1 X63.578 Y59.851 E3.40903
G1 X65.605 Y58.35 E3.57419
G1 X67.599 Y56.785 E3.74017
G1 X69.517 Y55.189 E3.90356
G1 X71.419 Y53.513 E4.06955
G1 X73.267 Y51.789 E4.23504
G1 X75.07 Y50.01 E4.4009
G1 X76.805 Y48.197 E4.56522
G1 X78.506 Y46.317 E4.73124
G1 X80.151 Y44.391 E4.89709
G1 X81.735 Y42.428 E5.06226
G1 X83.253 Y40.432 E5.22646
G1 X84.726 Y38.379 E5.39192
G1 X86.145 Y36.277 E5.55799
G1 X87.484 Y34.167 E5.72162
G1 X88.792 Y31.972 E5.88894
G1 X90.008 Y29.792 E6.05239
G1 X91.191 Y27.523 E6.21995
G1 X92.279 Y25.288 E6.38272
G1 X93.34 Y22.938 E6.55155
G1 X94.31 Y20.619 E6.71615
G1 X95.09 Y18.591 E6.85843
G1 X95.207 Y18.301 E6.87891
G1 X95.59 Y17.457 E6.9396
G1 X96.045 Y16.649 E7.00032
G1 X96.568 Y15.883 E7.06105
G1 X97.155 Y15.166 E7.12173
G1 X97.802 Y14.501 E7.18249
G1 X98.503 Y13.895 E7.24316
G1 X99.254 Y13.351 E7.30388
G1 X100.049 Y12.874 E7.36459
G1 X100.882 Y12.468 E7.42527
G1 X101.748 Y12.134 E7.48605
G1 X102.23 Y11.985 E7.51909
G1 X103.131 Y11.769 E7.57976
G1 X104.048 Y11.631 E7.64048
G1 X104.862 Y11.576 E7.6939
G1 X105.484 Y11.562 E7.73464
G1 X169.012 Y11.561 E11.89451
G1 X169.865 Y11.572 E11.95037
G1 X170.79 Y11.625 E12.01104
G1 X171.708 Y11.758 E12.07178
G1 X172.611 Y11.969 E12.1325
G1 X173.492 Y12.258 E12.19321
G1 X174.345 Y12.621 E12.25392
G1 X175.163 Y13.056 E12.31458
G1 X175.942 Y13.561 E12.37537
G1 X176.673 Y14.13 E12.43603
G1 X177.353 Y14.76 E12.49673
G1 X177.976 Y15.447 E12.55746
G1 X178.538 Y16.185 E12.6182
G1 X179.034 Y16.968 E12.67889
G1 X179.46 Y17.791 E12.73957
G1 X179.814 Y18.648 E12.80029
G1 X180.093 Y19.532 E12.86099
G1 X180.295 Y20.437 E12.92171
G1 X180.418 Y21.356 E12.98242
G1 X180.457 Y22.018 E13.02585
G1 X180.47 Y22.64 E13.06658
G1 X180.47 Y38.871 E14.1294
G1 X180.507 Y41.49 E14.30092
G1 X180.613 Y43.987 E14.46457
G1 X180.791 Y46.501 E14.6296
G1 X181.043 Y49.042 E14.7968
G1 X181.36 Y51.518 E14.96026
G1 X181.755 Y54.032 E15.1269
G1 X182.218 Y56.523 E15.2928
G1 X182.745 Y58.974 E15.45696
G1 X183.337 Y61.389 E15.61978
G1 X184.017 Y63.86 E15.7876
G1 X184.759 Y66.284 E15.9536
G1 X185.56 Y68.658 E16.11766
G1 X186.435 Y71.031 E16.28327
G1 X187.379 Y73.381 E16.4491
G1 X188.379 Y75.68 E16.61327
G1 X189.468 Y78.001 E16.78115
G1 X190.596 Y80.242 E16.94543
G1 X191.78 Y82.433 E17.10851
G1 X193.061 Y84.655 E17.27645
G1 X194.367 Y86.778 E17.43967
G1 X195.762 Y88.91 E17.6065
G1 X197.208 Y90.985 E17.77211
G1 X198.106 Y92.215 E17.87183
G1 X198.62 Y92.987 E17.93256
G1 X199.066 Y93.8 E17.99328
G1 X199.44 Y94.649 E18.05403
G1 X199.739 Y95.526 E18.11471
G1 X199.923 Y96.243 E18.16318
G1 X200.537 Y98.901 E18.34181
G1 X201.179 Y101.359 E18.50816
G1 X201.871 Y103.734 E18.67014
G1 X202.449 Y105.484 E18.79082
G1 X202.492 Y105.636 E18.80117
G1 X202.901 Y106.901 E18.88822
G1 X203.148 Y107.794 E18.94889
G1 X203.317 Y108.706 E19.00963
G1 X203.416 Y109.862 E19.0856
G1 X203.433 Y110.55 E19.13067
G1 X203.433 Y174.19 E23.29787
G1 X203.423 Y174.909 E23.34495
G1 X203.37 Y175.835 E23.40569
G1 X203.238 Y176.753 E23.46642
G1 X203.027 Y177.656 E23.52714
G1 X202.858 Y178.203 E23.56463
G1 X202.769 Y178.465 E23.58275
G1 X201.964 Y180.969 E23.75498
G1 X201.27 Y183.359 E23.91794
G1 X200.632 Y185.809 E24.08372
G1 X200.004 Y188.542 E24.26734
G1 X199.986 Y188.627 E24.27303
G1 X199.751 Y189.523 E24.33369
G1 X199.44 Y190.397 E24.39443
G1 X199.054 Y191.24 E24.45514
G1 X198.597 Y192.047 E24.51587
G1 X198.073 Y192.811 E24.57654
G1 X197.484 Y193.527 E24.63725
G1 X196.836 Y194.19 E24.69795
G1 X196.133 Y194.795 E24.75868
G1 X195 Y195.575 E24.84876
G1 X194.2 Y196.053 E24.90978
G1 X176.001 Y206.56 E26.28581
G1 X175.278 Y206.965 E26.34008
G1 X174.172 Y207.504 E26.42064
G1 X173.861 Y207.634 E26.44271
G1 X172.991 Y207.955 E26.50344
G1 X172.096 Y208.199 E26.56418
G1 X171.184 Y208.365 E26.62488
G1 X169.98 Y208.463 E26.70398
G1 X169.31 Y208.476 E26.74786
G1 X131.099 Y208.475 E29.24995
G1 X130.396 Y208.465 E29.29599
G1 X129.47 Y208.412 E29.35672
G1 X128.553 Y208.279 E29.4174
G1 X127.65 Y208.068 E29.47812
G1 X126.769 Y207.779 E29.53883
G1 X125.916 Y207.416 E29.59954
G1 X125.097 Y206.981 E29.66026
G1 X124.319 Y206.477 E29.72096
G1 X123.691 Y205.995 E29.7728
G1 X123.32 Y205.688 E29.80433
G1 X121.317 Y204.071 E29.97289
G1 X119.306 Y202.541 E30.13835
G1 X117.248 Y201.065 E30.30419
G1 X115.179 Y199.668 E30.46766
G1 X113.023 Y198.299 E30.63489
G1 X110.845 Y197.001 E30.80092
G1 X108.677 Y195.791 E30.96349
G1 X106.394 Y194.6 E31.13211
G1 X104.168 Y193.518 E31.29417
G1 X101.853 Y192.472 E31.46052
G1 X99.516 Y191.495 E31.62638
G1 X97.135 Y190.577 E31.79348
G1 X94.8 Y189.754 E31.95559
G1 X92.38 Y188.976 E32.12205
G1 X89.954 Y188.271 E32.28747
G1 X87.502 Y187.634 E32.45336
G1 X85.058 Y187.07 E32.6176
G1 X82.578 Y186.572 E32.78324
G1 X80.086 Y186.146 E32.94878
G1 X77.593 Y185.792 E33.11366
G1 X75.1 Y185.508 E33.27796
G1 X72.564 Y185.293 E33.44462
G1 X70.053 Y185.151 E33.60931
G1 X67.516 Y185.079 E33.7755
G1 X65.013 Y185.079 E33.9394
G1 X62.476 Y185.151 E34.10559
G1 X59.919 Y185.296 E34.27329
G1 X58.032 Y185.45 E34.39726
G1 X57.36 Y185.512 E34.44145
G1 X56.723 Y185.551 E34.48324
G1 X55.941 Y185.566 E34.53446
G1 X17.889 Y185.567 E37.02614
G1 X17.052 Y185.557 E37.08095
G1 X16.126 Y185.505 E37.14168
G1 X15.208 Y185.374 E37.2024
G1 X14.305 Y185.164 E37.26311
G1 X13.424 Y184.877 E37.32378
G1 X12.57 Y184.515 E37.38452
G1 X11.751 Y184.08 E37.44524
G1 X10.972 Y183.577 E37.50596
G1 X10.24 Y183.009 E37.56663
G1 X9.559 Y182.379 E37.62738
G1 X8.935 Y181.694 E37.68805
G1 X8.372 Y180.957 E37.74878
G1 X7.875 Y180.174 E37.80951
G1 X7.447 Y179.352 E37.8702
G1 X7.092 Y178.495 E37.93094
G1 X6.812 Y177.611 E37.99166
G1 X6.609 Y176.707 E38.05232
G1 X6.485 Y175.788 E38.11305
G1 X6.444 Y175.098 E38.15831
G1 X6.431 Y174.475 E38.19911
G1 X6.43 Y110.349 E42.39814
G1 X6.427 Y109.876 E42.42911
G1 X6.432 Y87.757 E43.87748
G1 X6.442 Y87.071 E43.92241
G1 X6.496 Y86.146 E43.98308
G1 X6.629 Y85.228 E44.04382
G1 X6.84 Y84.325 E44.10454
G1 X7.129 Y83.444 E44.16526
G1 X7.492 Y82.591 E44.22596
G1 X7.928 Y81.773 E44.28666
G1 X8.432 Y80.995 E44.34736
G1 X9.002 Y80.264 E44.40805
G1 X9.633 Y79.584 E44.4688
G1 X10.319 Y78.961 E44.52948
G1 X11.057 Y78.4 E44.59018
G1 X11.841 Y77.904 E44.65093
G1 X12.664 Y77.478 E44.71161
G1 X13.521 Y77.124 E44.77233
G1 X14.405 Y76.845 E44.83303
G1 X15.31 Y76.644 E44.89373
M205 X5 Y5
G0 F3000 X15.734 Y77.082
M205 X0.7 Y0.7
G1 F600 X16.457 Y77.004 E44.94135
G1 X19.174 Y76.809 E45.11972
G1 X21.714 Y76.553 E45.28688
G1 X24.213 Y76.231 E45.45187
G1 X26.76 Y75.829 E45.62072
G1 X29.22 Y75.369 E45.78459
G1 X31.662 Y74.839 E45.94822
G1 X34.182 Y74.22 E46.11813
G1 X36.621 Y73.545 E46.28385
G1 X39.051 Y72.799 E46.45029
G1 X41.426 Y71.994 E46.6145
G1 X43.826 Y71.106 E46.78207
G1 X46.198 Y70.15 E46.94953
G1 X48.525 Y69.136 E47.11574
G1 X50.786 Y68.073 E47.27934
G1 X53.093 Y66.908 E47.44857
G1 X55.284 Y65.722 E47.61171
G1 X57.529 Y64.423 E47.78155
G1 X59.666 Y63.105 E47.94596
G1 X61.761 Y61.73 E48.11005
G1 X63.885 Y60.246 E48.27971
G1 X65.895 Y58.758 E48.44347
G1 X67.911 Y57.176 E48.61127
G1 X69.854 Y55.559 E48.7768
G1 X71.754 Y53.884 E48.94266
G1 X73.605 Y52.157 E49.10842
G1 X75.428 Y50.358 E49.27613
G1 X77.184 Y48.524 E49.4424
G1 X78.87 Y46.661 E49.60693
G1 X80.533 Y44.713 E49.77464
G1 X82.122 Y42.745 E49.94027
G1 X83.653 Y40.731 E50.10593
G1 X85.147 Y38.649 E50.27373
G1 X86.561 Y36.556 E50.43912
G1 X87.92 Y34.412 E50.60534
G1 X89.218 Y32.235 E50.77131
G1 X90.456 Y30.015 E50.93775
G1 X91.631 Y27.763 E51.10408
G1 X92.737 Y25.489 E51.26966
G1 X93.79 Y23.157 E51.43721
G1 X94.766 Y20.823 E51.60287
G1 X95.553 Y18.778 E51.74635
G1 X95.67 Y18.488 E51.76682
G1 X96.046 Y17.664 E51.82613
G1 X96.493 Y16.877 E51.8854
G1 X97.007 Y16.132 E51.94467
G1 X97.585 Y15.435 E52.00396
G1 X98.223 Y14.792 E52.06327
G1 X98.914 Y14.208 E52.12251
G1 X99.655 Y13.687 E52.18183
G1 X100.438 Y13.234 E52.24106
G1 X101.259 Y12.851 E52.30038
G1 X102.367 Y12.465 E52.37721
G1 X103.248 Y12.255 E52.43652
G1 X104.143 Y12.124 E52.49575
G1 X104.877 Y12.076 E52.54391
G1 X105.484 Y12.062 E52.58367
G1 X169.012 Y12.061 E56.74354
G1 X169.858 Y12.072 E56.79894
G1 X170.761 Y12.125 E56.85817
G1 X171.657 Y12.257 E56.91748
G1 X172.537 Y12.468 E56.97673
G1 X173.396 Y12.756 E57.03606
G1 X174.225 Y13.119 E57.09532
G1 X175.02 Y13.553 E57.15463
G1 X175.773 Y14.055 E57.21389
G1 X176.478 Y14.623 E57.27317
G1 X177.131 Y15.25 E57.33245
G1 X177.726 Y15.932 E57.39171
G1 X178.259 Y16.664 E57.45101
G1 X178.725 Y17.441 E57.51033
G1 X179.12 Y18.255 E57.56958
G1 X179.442 Y19.101 E57.62885
G1 X179.688 Y19.972 E57.68812
G1 X179.857 Y20.862 E57.74744
G1 X179.957 Y22.032 E57.82433
G1 X179.97 Y22.64 E57.86415
G1 X179.97 Y38.878 E58.92743
G1 X180.007 Y41.483 E59.09802
G1 X180.116 Y44.046 E59.266
G1 X180.293 Y46.547 E59.43018
G1 X180.545 Y49.089 E59.59745
G1 X180.865 Y51.589 E59.76249
G1 X181.264 Y54.131 E59.93098
G1 X181.72 Y56.582 E60.09423
G1 X182.259 Y59.086 E60.26195
G1 X182.859 Y61.537 E60.42718
G1 X183.537 Y64.002 E60.59458
G1 X184.285 Y66.443 E60.76176
G1 X185.084 Y68.812 E60.92547
G1 X185.973 Y71.223 E61.09373
G1 X186.918 Y73.575 E61.25971
G1 X187.928 Y75.896 E61.42546
G1 X189.002 Y78.187 E61.59114
G1 X190.146 Y80.459 E61.75771
G1 X191.362 Y82.711 E61.92529
G1 X192.617 Y84.889 E62.08989
G1 X193.939 Y87.037 E62.25505
G1 X195.35 Y89.192 E62.42372
G1 X196.789 Y91.258 E62.58858
G1 X197.703 Y92.51 E62.69009
G1 X198.204 Y93.264 E62.74937
G1 X198.636 Y94.06 E62.80867
G1 X198.997 Y94.89 E62.86794
G1 X199.283 Y95.749 E62.92722
G1 X199.446 Y96.404 E62.97142
G1 X200.053 Y99.028 E63.14778
G1 X200.69 Y101.468 E63.31291
G1 X201.386 Y103.855 E63.47572
G1 X201.975 Y105.64 E63.5988
G1 X202.024 Y105.814 E63.61064
G1 X202.425 Y107.055 E63.69604
G1 X202.665 Y107.927 E63.75526
G1 X202.827 Y108.818 E63.81456
G1 X202.917 Y109.878 E63.88422
G1 X202.933 Y110.55 E63.92823
G1 X202.933 Y174.184 E68.09504
G1 X202.923 Y174.903 E68.14213
G1 X202.87 Y175.806 E68.20136
G1 X202.738 Y176.702 E68.26067
G1 X202.528 Y177.582 E68.31991
G1 X201.486 Y180.823 E68.54283
G1 X200.789 Y183.222 E68.70641
G1 X200.139 Y185.72 E68.87543
G1 X199.545 Y188.304 E69.04905
G1 X199.498 Y188.521 E69.06359
G1 X199.267 Y189.396 E69.12284
G1 X198.96 Y190.248 E69.18215
G1 X198.579 Y191.069 E69.24141
G1 X198.128 Y191.854 E69.30069
G1 X197.608 Y192.595 E69.35997
G1 X197.026 Y193.288 E69.41923
G1 X196.384 Y193.927 E69.47854
G1 X195.689 Y194.507 E69.53782
G1 X194.744 Y195.146 E69.61252
G1 X193.95 Y195.62 E69.67307
G1 X175.634 Y206.193 E71.0579
G1 X175.034 Y206.529 E71.10293
G1 X173.979 Y207.043 E71.17977
G1 X173.668 Y207.173 E71.20184
G1 X172.818 Y207.485 E71.26113
G1 X171.944 Y207.721 E71.32041
G1 X171.053 Y207.878 E71.37966
G1 X169.968 Y207.963 E71.45092
G1 X169.31 Y207.976 E71.49402
G1 X131.106 Y207.975 E73.99565
G1 X130.403 Y207.965 E74.04169
G1 X129.499 Y207.912 E74.10098
G1 X128.604 Y207.78 E74.16022
G1 X127.723 Y207.569 E74.21954
G1 X126.865 Y207.281 E74.2788
G1 X126.035 Y206.919 E74.3381
G1 X125.241 Y206.485 E74.39735
G1 X124.488 Y205.982 E74.45665
G1 X124.01 Y205.61 E74.49631
G1 X123.64 Y205.304 E74.52775
G1 X121.617 Y203.671 E74.69799
G1 X119.584 Y202.124 E74.86527
G1 X117.558 Y200.671 E75.02852
G1 X115.433 Y199.236 E75.19643
G1 X113.295 Y197.878 E75.36228
G1 X111.12 Y196.583 E75.52803
G1 X108.888 Y195.336 E75.69545
G1 X106.662 Y194.175 E75.85984
G1 X104.353 Y193.053 E76.02794
G1 X102.028 Y192.003 E76.19499
G1 X99.74 Y191.046 E76.35739
G1 X97.313 Y190.11 E76.52772
G1 X94.939 Y189.274 E76.69253
G1 X92.526 Y188.498 E76.85851
G1 X90.082 Y187.787 E77.02518
G1 X87.636 Y187.152 E77.19065
G1 X85.163 Y186.582 E77.35683
G1 X82.656 Y186.078 E77.52428
G1 X80.165 Y185.653 E77.68975
G1 X77.653 Y185.296 E77.85589
G1 X75.128 Y185.008 E78.0223
G1 X72.634 Y184.796 E78.1862
G1 X70.06 Y184.651 E78.35501
G1 X67.53 Y184.579 E78.52075
G1 X64.999 Y184.579 E78.68648
G1 X62.469 Y184.651 E78.85221
G1 X59.889 Y184.797 E79.02142
G1 X57.969 Y184.954 E79.14756
G1 X57.314 Y185.014 E79.19063
G1 X56.707 Y185.052 E79.23046
G1 X55.935 Y185.066 E79.28102
G1 X17.889 Y185.067 E81.7723
G1 X17.058 Y185.057 E81.82672
G1 X16.154 Y185.006 E81.88601
G1 X15.258 Y184.874 E81.94532
G1 X14.378 Y184.665 E82.00454
G1 X13.519 Y184.378 E82.06385
G1 X12.689 Y184.017 E82.12311
G1 X11.894 Y183.584 E82.18239
G1 X11.14 Y183.082 E82.24171
G1 X10.434 Y182.516 E82.30096
G1 X9.78 Y181.89 E82.36024
G1 X9.184 Y181.208 E82.41955
G1 X8.65 Y180.477 E82.47882
G1 X8.183 Y179.701 E82.53813
G1 X7.787 Y178.888 E82.59734
G1 X7.464 Y178.042 E82.65664
G1 X7.216 Y177.171 E82.71594
G1 X7.047 Y176.282 E82.7752
G1 X6.944 Y175.085 E82.85387
G1 X6.931 Y174.475 E82.89382
G1 X6.93 Y110.345 E87.09311
G1 X6.927 Y109.876 E87.12382
G1 X6.932 Y87.765 E88.57167
G1 X6.942 Y87.079 E88.61659
G1 X6.995 Y86.175 E88.67589
G1 X7.128 Y85.279 E88.7352
G1 X7.339 Y84.399 E88.79446
G1 X7.627 Y83.541 E88.85372
G1 X7.99 Y82.711 E88.91304
G1 X8.424 Y81.917 E88.97229
G1 X8.927 Y81.164 E89.03159
G1 X9.494 Y80.459 E89.09083
G1 X10.122 Y79.806 E89.15016
G1 X10.804 Y79.211 E89.20942
G1 X11.537 Y78.679 E89.26873
G1 X12.313 Y78.213 E89.328
G1 X13.127 Y77.818 E89.38725
G1 X13.974 Y77.496 E89.44658
G1 X14.845 Y77.25 E89.50585
G1 X15.734 Y77.082 E89.56509
M205 X5 Y5
G1 F3000 E84.56509
G1 F300 Z0.5
;MESH:GreekMeanderLamp_part1.stl
G0 F3000 X17.43 Y109.628 Z0.5
M205 X0.7 Y0.7
;TYPE:WALL-OUTER
G1 F300 Z0.3
G1 F3000 E89.58172
G1 F600 X17.431 Y87.468 E91.03277
G1 X81.482 Y87.467 E95.22689
G1 X81.482 Y109.628 E96.67801
G1 X17.43 Y109.628 E100.8722
M205 X5 Y5
G1 F3000 E95.8722
G0 X17.5 Y109.558
G0 X18.178 Y91.317
G0 X34.927 Y91.317
G0 X34.927 Y102.427
G0 X25.013 Y102.427
G0 X25.013 Y98.02
G0 X27.841 Y98.02
G0 X27.841 Y99.695
G0 X32.099 Y99.695
G0 X32.099 Y94.049
G0 X20.755 Y94.049
G0 X20.755 Y106.398
G0 X38.469 Y105.778
G0 X39.185 Y91.317
G0 X56.184 Y91.317
G0 X56.899 Y103.047
G0 X45.555 Y103.047
G0 X45.555 Y97.4
G0 X49.813 Y97.4
G0 X49.813 Y99.076
G0 X52.641 Y99.076
G0 X52.641 Y94.668
G0 X42.728 Y94.668
G0 X42.728 Y105.778
G0 X59.727 Y105.778
G0 X60.442 Y91.317
G0 X77.441 Y91.317
G0 X77.441 Y102.427
G0 X67.528 Y102.427
G0 X67.528 Y98.02
G0 X70.355 Y98.02
G0 X70.355 Y99.695
G0 X74.613 Y99.695
G0 X74.613 Y94.614
G0 X63.311 Y94.091
G0 X62.991 Y93.771
M205 X0.7 Y0.7
G1 F3000 E100.88883
