;FLAVOR:Marlin
;TIME:20577
;Filament used: 10.5233m
;Layer height: 0.2
;MINX:11.451
;MINY:11.464
;MINZ:0.3
;MAXX:208.559
;MAXY:208.535
;MAXZ:2.34
;Generated with Cura_SteamEngine 4.8.0
M82 ;absolute extrusion mode
M201 X500.00 Y500.00 Z100.00 E5000.00 ;Setup machine max acceleration
M203 X500.00 Y500.00 Z10.00 E50.00 ;Setup machine max feedrate
M204 P500.00 R1000.00 T500.00 ;Setup Print/Retract/Travel acceleration
M205 X8.00 Y8.00 Z0.40 E5.00 ;Setup Jerk
M220 S100 ;Reset Feedrate
M221 S100 ;Reset Flowrate

;*** Start Dual Nozzle/Bed Preheating ***
M140 S50 ; start preheating the bed
M104 S220 ﻿T0 ; start preheating hotend
G28 ; home
M190 S50 ; heat to Cura Bed setting and WAIT
M109 S220 ﻿T0 ; heat to Cura Hotend and WAIT
;*** End Preheating ***


G92 E0 ;Reset Extruder
G1 Z2.0 F3000 ;Move Z Axis up

;*** Single Print Start Tone
M300 S1000 P500 ; chirp to indicate starting to print
;*** End Single Start Tone

G1 X10.1 Y20 Z0.28 F5000.0 ;Move to start position
G1 X10.1 Y200.0 Z0.28 F1500.0 E15 ;Draw the first line
G1 X10.4 Y200.0 Z0.28 F5000.0 ;Move to side a little
G1 X10.4 Y20 Z0.28 F1500.0 E30 ;Draw the second line
G92 E0 ;Reset Extruder
G1 Z2.0 F3000 ;Move Z Axis up
G92 E0
G92 E0
G1 F3000 E-5
;LAYER_COUNT:13
;LAYER:0
M106 S255
M204 S500
M205 X5 Y5
G1 F300 Z0.5
G0 F3000 X14.659 Y14.579 Z0.5
M205 X0.7 Y0.7
;TYPE:SKIRT
G1 F300 Z0.3
G1 F3000 E0.01663
G1 F600 X15.345 Y13.956 E0.07731
G1 X16.084 Y13.395 E0.13806
G1 X16.867 Y12.9 E0.19872
G1 X17.691 Y12.473 E0.25949
G1 X18.548 Y12.12 E0.32018
G1 X19.432 Y11.841 E0.38088
G1 X20.337 Y11.64 E0.44159
G1 X21.256 Y11.518 E0.50229
G1 X21.864 Y11.481 E0.54218
G1 X22.521 Y11.465 E0.58521
G1 X86.212 Y11.465 E4.75576
G1 X86.934 Y11.476 E4.80304
G1 X87.835 Y11.528 E4.86213
G1 X88.933 Y11.638 E4.93439
G1 X89.71 Y11.726 E4.9856
G1 X92.231 Y11.939 E5.15126
G1 X94.74 Y12.08 E5.31581
G1 X97.275 Y12.151 E5.48187
G1 X99.777 Y12.149 E5.6457
G1 X102.316 Y12.076 E5.81203
G1 X104.848 Y11.932 E5.9781
G1 X107.381 Y11.715 E6.14457
G1 X109.029 Y11.538 E6.2531
G1 X109.875 Y11.479 E6.30863
G1 X110.498 Y11.465 E6.34944
G1 X174.025 Y11.464 E10.50924
G1 X174.899 Y11.476 E10.56648
G1 X175.825 Y11.531 E10.62722
G1 X176.742 Y11.665 E10.6879
G1 X177.645 Y11.877 E10.74864
G1 X178.195 Y12.048 E10.78635
G1 X180.756 Y12.871 E10.9625
G1 X183.157 Y13.568 E11.12621
G1 X185.603 Y14.203 E11.29168
G1 X188.244 Y14.809 E11.46911
G1 X188.694 Y14.906 E11.49925
G1 X189.592 Y15.139 E11.56
G1 X190.465 Y15.449 E11.62067
G1 X191.309 Y15.834 E11.68141
G1 X192.117 Y16.289 E11.74213
G1 X192.882 Y16.812 E11.80281
G1 X193.6 Y17.4 E11.86358
G1 X194.264 Y18.047 E11.92429
G1 X194.869 Y18.749 E11.98497
G1 X195.413 Y19.5 E12.04569
G1 X195.663 Y19.898 E12.07647
G1 X196.128 Y20.678 E12.13593
G1 X206.73 Y39.043 E13.52449
G1 X207.055 Y39.624 E13.56808
G1 X207.472 Y40.452 E13.62879
G1 X207.817 Y41.313 E13.68952
G1 X208.058 Y42.096 E13.74317
G1 X208.235 Y42.814 E13.79159
G1 X208.407 Y43.726 E13.85236
G1 X208.511 Y44.931 E13.93156
G1 X208.526 Y45.587 E13.97453
G1 X208.525 Y109.256 E18.14363
G1 X208.515 Y109.953 E18.18928
G1 X208.465 Y110.846 E18.24784
G1 X208.36 Y111.908 E18.31772
G1 X208.276 Y112.642 E18.3661
G1 X208.061 Y115.132 E18.52975
G1 X207.915 Y117.665 E18.69589
G1 X207.843 Y120.159 E18.85927
G1 X207.84 Y122.703 E19.02585
G1 X207.909 Y125.24 E19.19204
G1 X208.047 Y127.715 E19.35436
G1 X208.266 Y130.338 E19.52671
G1 X208.413 Y131.715 E19.61739
G1 X208.478 Y132.279 E19.65456
G1 X208.545 Y133.202 E19.71516
G1 X208.558 Y133.823 E19.75583
G1 X208.559 Y172.126 E22.26395
G1 X208.549 Y172.827 E22.30986
G1 X208.496 Y173.753 E22.37059
G1 X208.363 Y174.671 E22.43133
G1 X208.152 Y175.573 E22.49199
G1 X207.863 Y176.454 E22.5527
G1 X207.5 Y177.308 E22.61346
G1 X207.065 Y178.126 E22.67413
G1 X206.561 Y178.904 E22.73483
G1 X205.991 Y179.636 E22.79558
G1 X205.361 Y180.316 E22.85628
G1 X204.674 Y180.939 E22.91701
G1 X203.937 Y181.5 E22.97766
G1 X203.153 Y181.996 E23.03841
G1 X202.33 Y182.423 E23.09912
G1 X201.473 Y182.777 E23.15983
G1 X200.25 Y183.141 E23.24339
G1 X199.837 Y183.236 E23.27114
G1 X197.715 Y183.695 E23.4133
G1 X195.298 Y184.291 E23.57631
G1 X192.82 Y184.975 E23.74464
G1 X190.44 Y185.708 E23.90771
G1 X188.033 Y186.522 E24.07409
G1 X185.685 Y187.392 E24.23805
G1 X183.327 Y188.341 E24.40449
G1 X181.021 Y189.347 E24.56924
G1 X178.722 Y190.429 E24.73562
G1 X176.495 Y191.554 E24.89899
G1 X174.234 Y192.776 E25.06728
G1 X172.086 Y194.019 E25.22979
G1 X169.943 Y195.342 E25.3947
G1 X167.811 Y196.741 E25.56168
G1 X165.743 Y198.185 E25.72684
G1 X163.729 Y199.676 E25.89093
G1 X161.706 Y201.265 E26.05937
G1 X159.829 Y202.828 E26.21931
G1 X157.404 Y204.978 E26.43153
G1 X156.62 Y205.697 E26.50118
G1 X155.911 Y206.293 E26.56183
G1 X155.152 Y206.827 E26.6226
G1 X154.351 Y207.293 E26.68328
G1 X153.512 Y207.688 E26.744
G1 X152.643 Y208.01 E26.80469
G1 X151.749 Y208.255 E26.86539
G1 X150.837 Y208.423 E26.92611
G1 X149.733 Y208.519 E26.99867
G1 X148.978 Y208.535 E27.04812
G1 X110.887 Y208.535 E29.54236
G1 X110.036 Y208.524 E29.59808
G1 X109.11 Y208.471 E29.65882
G1 X108.193 Y208.338 E29.71949
G1 X107.29 Y208.126 E29.78023
G1 X106.409 Y207.838 E29.84092
G1 X105.556 Y207.475 E29.90163
G1 X104.737 Y207.039 E29.96238
G1 X103.959 Y206.535 E30.02308
G1 X103.227 Y205.966 E30.08379
G1 X102.548 Y205.335 E30.14449
G1 X101.925 Y204.649 E30.20517
G1 X101.363 Y203.911 E30.26591
G1 X100.867 Y203.127 E30.32666
G1 X100.441 Y202.304 E30.38734
G1 X100.167 Y201.661 E30.43311
G1 X99.744 Y200.57 E30.50973
G1 X98.769 Y198.153 E30.68039
G1 X97.762 Y195.845 E30.84527
G1 X96.687 Y193.56 E31.01063
G1 X95.54 Y191.291 E31.17711
G1 X94.344 Y189.079 E31.34177
G1 X93.087 Y186.911 E31.50587
G1 X91.758 Y184.756 E31.67166
G1 X90.356 Y182.622 E31.83885
G1 X88.935 Y180.584 E32.00154
G1 X87.431 Y178.555 E32.16692
G1 X85.851 Y176.543 E32.33443
G1 X84.237 Y174.605 E32.49958
G1 X82.592 Y172.739 E32.66247
G1 X80.857 Y170.879 E32.82903
G1 X79.072 Y169.072 E32.99535
G1 X77.271 Y167.349 E33.15855
G1 X75.374 Y165.634 E33.32601
G1 X73.456 Y163.996 E33.49117
G1 X71.497 Y162.417 E33.65593
G1 X69.502 Y160.899 E33.82008
G1 X67.44 Y159.421 E33.9862
G1 X65.335 Y158 E34.15251
G1 X63.207 Y156.65 E34.31753
G1 X61.065 Y155.375 E34.48075
G1 X58.837 Y154.132 E34.64781
G1 X56.608 Y152.97 E34.81241
G1 X54.325 Y151.861 E34.97861
G1 X52.039 Y150.829 E35.14285
G1 X49.705 Y149.854 E35.30848
G1 X47.324 Y148.936 E35.47557
G1 X44.976 Y148.11 E35.63856
G1 X42.547 Y147.33 E35.80561
G1 X40.148 Y146.634 E35.96918
G1 X37.693 Y145.996 E36.13527
G1 X35.237 Y145.43 E36.30031
G1 X32.731 Y144.928 E36.46766
G1 X30.29 Y144.512 E36.62981
G1 X27.782 Y144.156 E36.79568
G1 X25.247 Y143.869 E36.96273
G1 X22.738 Y143.655 E37.12762
G1 X21.447 Y143.563 E37.21237
G1 X20.526 Y143.457 E37.27308
G1 X19.617 Y143.272 E37.33382
G1 X18.728 Y143.01 E37.39451
G1 X17.865 Y142.671 E37.45522
G1 X17.034 Y142.26 E37.51593
G1 X16.242 Y141.779 E37.57661
G1 X15.494 Y141.231 E37.63732
G1 X14.795 Y140.621 E37.69807
G1 X14.153 Y139.953 E37.75874
G1 X13.57 Y139.232 E37.81945
G1 X13.051 Y138.463 E37.8802
G1 X12.601 Y137.653 E37.94088
G1 X12.222 Y136.807 E38.00158
G1 X11.917 Y135.931 E38.06232
G1 X11.689 Y135.033 E38.12299
G1 X11.539 Y134.118 E38.1837
G1 X11.467 Y133.139 E38.24798
G1 X11.454 Y132.517 E38.28872
G1 X11.454 Y45.297 E43.99996
G1 X11.451 Y44.818 E44.03133
G1 X11.456 Y22.74 E45.47702
G1 X11.466 Y22.066 E45.52115
G1 X11.52 Y21.14 E45.58189
G1 X11.653 Y20.222 E45.64263
G1 X11.865 Y19.32 E45.70331
G1 X12.154 Y18.439 E45.76402
G1 X12.517 Y17.586 E45.82472
G1 X12.953 Y16.768 E45.88542
G1 X13.458 Y15.99 E45.94615
G1 X14.028 Y15.258 E46.0069
G1 X14.659 Y14.579 E46.0676
M205 X5 Y5
G0 F3000 X15.148 Y14.801
M205 X0.7 Y0.7
G1 F600 X15.83 Y14.206 E46.12686
G1 X16.563 Y13.674 E46.18617
G1 X17.339 Y13.209 E46.24541
G1 X18.154 Y12.814 E46.30471
G1 X19 Y12.492 E46.36399
G1 X19.871 Y12.246 E46.42325
G1 X20.761 Y12.079 E46.48255
G1 X21.88 Y11.98 E46.55611
G1 X22.521 Y11.965 E46.59809
G1 X86.204 Y11.965 E50.76811
G1 X86.926 Y11.976 E50.81539
G1 X87.786 Y12.025 E50.8718
G1 X88.876 Y12.135 E50.94353
G1 X89.644 Y12.222 E50.99415
G1 X92.196 Y12.437 E51.16185
G1 X94.734 Y12.58 E51.3283
G1 X97.261 Y12.651 E51.49383
G1 X99.792 Y12.649 E51.65957
G1 X102.357 Y12.576 E51.82759
G1 X104.851 Y12.433 E51.99117
G1 X107.432 Y12.213 E52.16079
G1 X109.083 Y12.035 E52.26953
G1 X109.89 Y11.979 E52.3225
G1 X110.498 Y11.965 E52.36232
G1 X174.025 Y11.964 E56.52212
G1 X174.891 Y11.976 E56.57883
G1 X175.795 Y12.03 E56.63814
G1 X176.691 Y12.164 E56.69746
G1 X177.957 Y12.495 E56.78314
G1 X178.123 Y12.55 E56.79459
G1 X180.611 Y13.349 E56.96571
G1 X183.029 Y14.051 E57.13058
G1 X185.496 Y14.692 E57.29748
G1 X188.113 Y15.293 E57.47331
G1 X188.589 Y15.395 E57.50518
G1 X189.465 Y15.624 E57.56447
G1 X190.318 Y15.929 E57.62379
G1 X191.14 Y16.308 E57.68306
G1 X191.925 Y16.759 E57.74234
G1 X192.667 Y17.277 E57.8016
G1 X193.361 Y17.858 E57.86086
G1 X194.001 Y18.499 E57.92018
G1 X194.582 Y19.193 E57.97944
G1 X195.234 Y20.155 E58.05554
G1 X195.695 Y20.928 E58.11448
G1 X206.294 Y39.287 E59.5026
G1 X206.619 Y39.868 E59.54619
G1 X207.025 Y40.677 E59.60546
G1 X207.359 Y41.518 E59.66471
G1 X207.575 Y42.225 E59.71312
G1 X207.748 Y42.928 E59.76053
G1 X207.915 Y43.818 E59.81982
G1 X208.011 Y44.946 E59.89395
G1 X208.026 Y45.587 E59.93594
G1 X208.025 Y109.249 E64.10458
G1 X208.015 Y109.946 E64.15022
G1 X207.967 Y110.797 E64.20604
G1 X207.863 Y111.851 E64.27539
G1 X207.78 Y112.577 E64.32324
G1 X207.563 Y115.096 E64.4888
G1 X207.417 Y117.622 E64.65448
G1 X207.343 Y120.18 E64.82205
G1 X207.34 Y122.716 E64.98811
G1 X207.409 Y125.247 E65.1539
G1 X207.55 Y127.785 E65.32035
G1 X207.764 Y130.344 E65.4885
G1 X207.917 Y131.772 E65.58254
G1 X207.982 Y132.336 E65.61971
G1 X208.045 Y133.216 E65.67749
G1 X208.058 Y133.823 E65.71724
G1 X208.059 Y172.119 E68.2249
G1 X208.049 Y172.82 E68.2708
G1 X207.996 Y173.724 E68.3301
G1 X207.864 Y174.62 E68.38941
G1 X207.653 Y175.5 E68.44866
G1 X207.365 Y176.358 E68.50792
G1 X207.003 Y177.188 E68.56722
G1 X206.568 Y177.982 E68.6265
G1 X206.066 Y178.735 E68.68576
G1 X205.499 Y179.441 E68.74505
G1 X204.872 Y180.094 E68.80433
G1 X204.189 Y180.689 E68.86365
G1 X203.457 Y181.221 E68.9229
G1 X202.681 Y181.687 E68.98217
G1 X201.866 Y182.083 E69.0415
G1 X201.02 Y182.405 E69.10078
G1 X200.136 Y182.654 E69.16092
G1 X199.732 Y182.747 E69.18806
G1 X197.628 Y183.202 E69.32902
G1 X195.15 Y183.813 E69.49614
G1 X192.677 Y184.495 E69.66412
G1 X190.279 Y185.234 E69.82843
G1 X187.867 Y186.05 E69.99516
G1 X185.516 Y186.921 E70.15933
G1 X183.138 Y187.878 E70.32718
G1 X180.789 Y188.904 E70.49503
G1 X178.536 Y189.963 E70.65804
G1 X176.241 Y191.122 E70.8264
G1 X174.024 Y192.321 E70.99144
G1 X171.8 Y193.608 E71.1597
G1 X169.684 Y194.914 E71.32252
G1 X167.528 Y196.329 E71.49139
G1 X165.436 Y197.79 E71.65847
G1 X163.439 Y199.268 E71.82116
G1 X161.393 Y200.875 E71.99151
G1 X159.478 Y202.469 E72.15467
G1 X157.088 Y204.588 E72.36382
G1 X156.282 Y205.328 E72.43547
G1 X155.589 Y205.91 E72.49472
G1 X154.847 Y206.429 E72.55402
G1 X154.062 Y206.88 E72.6133
G1 X153.24 Y207.26 E72.6726
G1 X152.388 Y207.566 E72.73188
G1 X151.512 Y207.796 E72.79118
G1 X150.62 Y207.947 E72.85042
G1 X149.716 Y208.02 E72.90981
G1 X148.972 Y208.035 E72.95854
G1 X110.887 Y208.035 E75.45238
G1 X110.043 Y208.024 E75.50765
G1 X109.139 Y207.971 E75.56694
G1 X108.244 Y207.839 E75.62618
G1 X107.363 Y207.628 E75.6855
G1 X106.505 Y207.34 E75.74477
G1 X105.675 Y206.977 E75.80409
G1 X104.881 Y206.543 E75.86334
G1 X104.128 Y206.04 E75.92263
G1 X103.422 Y205.473 E75.98193
G1 X102.769 Y204.846 E76.04121
G1 X102.174 Y204.164 E76.10047
G1 X101.642 Y203.431 E76.15978
G1 X101.176 Y202.655 E76.21905
G1 X100.633 Y201.481 E76.30375
G1 X100.184 Y200.323 E76.38508
G1 X99.237 Y197.976 E76.5508
G1 X98.205 Y195.612 E76.7197
G1 X97.132 Y193.33 E76.88482
G1 X95.994 Y191.079 E77.04999
G1 X94.778 Y188.831 E77.21734
G1 X93.514 Y186.65 E77.38241
G1 X92.176 Y184.48 E77.54934
G1 X90.78 Y182.355 E77.71583
G1 X89.342 Y180.295 E77.88033
G1 X87.826 Y178.248 E78.04713
G1 X86.225 Y176.21 E78.21683
G1 X84.627 Y174.292 E78.3803
G1 X82.946 Y172.385 E78.54676
G1 X81.208 Y170.522 E78.7136
G1 X79.456 Y168.749 E78.87681
G1 X77.581 Y166.955 E79.04674
G1 X75.718 Y165.271 E79.21118
G1 X73.778 Y163.614 E79.37824
G1 X71.814 Y162.031 E79.54342
G1 X69.762 Y160.469 E79.71229
G1 X67.734 Y159.015 E79.87569
G1 X65.63 Y157.596 E80.04186
G1 X63.493 Y156.24 E80.20759
G1 X61.27 Y154.917 E80.37698
G1 X59.102 Y153.707 E80.53956
G1 X56.805 Y152.51 E80.70917
G1 X54.583 Y151.43 E80.87094
G1 X52.214 Y150.361 E81.04113
G1 X49.899 Y149.394 E81.20541
G1 X47.473 Y148.458 E81.37568
G1 X45.148 Y147.64 E81.53707
G1 X42.702 Y146.855 E81.70528
G1 X40.276 Y146.151 E81.87069
G1 X37.818 Y145.512 E82.03699
G1 X35.342 Y144.942 E82.20337
G1 X32.809 Y144.434 E82.37253
G1 X30.369 Y144.018 E82.53461
G1 X27.842 Y143.659 E82.70174
G1 X25.31 Y143.372 E82.8686
G1 X22.738 Y143.154 E83.03762
G1 X21.483 Y143.064 E83.12001
G1 X20.583 Y142.96 E83.17934
G1 X19.697 Y142.776 E83.23859
G1 X18.83 Y142.516 E83.29786
G1 X17.989 Y142.179 E83.35719
G1 X17.182 Y141.77 E83.41643
G1 X16.413 Y141.291 E83.47575
G1 X15.69 Y140.747 E83.535
G1 X15.018 Y140.14 E83.5943
G1 X14.402 Y139.477 E83.65356
G1 X13.847 Y138.762 E83.71283
G1 X13.357 Y138.001 E83.77209
G1 X12.936 Y137.199 E83.8314
G1 X12.588 Y136.363 E83.8907
G1 X12.314 Y135.5 E83.94999
G1 X12.118 Y134.617 E84.00922
G1 X12.001 Y133.719 E84.06852
G1 X11.967 Y133.125 E84.10747
G1 X11.954 Y132.517 E84.1473
G1 X11.954 Y45.357 E89.85461
G1 X11.951 Y44.821 E89.88971
G1 X11.956 Y22.747 E91.33513
G1 X11.966 Y22.073 E91.37927
G1 X12.02 Y21.169 E91.43857
G1 X12.152 Y20.274 E91.49781
G1 X12.364 Y19.393 E91.55715
G1 X12.652 Y18.535 E91.61641
G1 X13.015 Y17.706 E91.67567
G1 X13.45 Y16.912 E91.73495
G1 X13.953 Y16.159 E91.79425
G1 X14.52 Y15.454 E91.85349
G1 X15.148 Y14.801 E91.91282
M205 X5 Y5
G1 F3000 E86.91282
G1 F300 Z0.5
;MESH:GreekMeanderLamp_part2.stl
G0 F3000 X22.454 Y44.625 Z0.5
M205 X0.7 Y0.7
;TYPE:WALL-OUTER
G1 F300 Z0.3
G1 F3000 E91.92945
G1 F600 X22.455 Y22.465 E93.3805
G1 X86.506 Y22.464 E97.57462
G1 X86.507 Y44.628 E99.02594
G1 X22.454 Y44.625 E103.22019
M205 X5 Y5
G1 F3000 E98.22019
G0 X22.524 Y44.555
G0 X23.13 Y41.673
G0 X23.23 Y41.673
M205 X0.7 Y0.7
G1 F3000 E103.23682
G1 F600 X23.23 Y43.848 E103.37924
G1 X85.73 Y43.848 E107.47179
G1 X85.73 Y26.592 E108.60173
G1 X69.288 Y26.592 E109.67837
G1 X69.288 Y37.146 E110.36945
G1 X78.645 Y37.146 E110.98216
G1 X78.645 Y33.294 E111.23439
G1 X76.373 Y33.294 E111.38316
G1 X76.373 Y34.97 E111.49291
G1 X71.559 Y34.97 E111.80813
G1 X71.559 Y28.767 E112.21431
G1 X83.459 Y28.767 E112.99353
G1 X83.459 Y41.673 E113.83863
G1 X64.473 Y41.673 E115.08185
G1 X64.473 Y26.592 E116.06937
G1 X48.03 Y26.592 E117.14607
G1 X48.03 Y37.146 E117.83715
G1 X57.388 Y37.146 E118.44993
G1 X57.388 Y33.294 E118.70216
G1 X55.116 Y33.294 E118.85093
G1 X55.116 Y34.97 E118.96068
G1 X50.302 Y34.97 E119.2759
G1 X50.302 Y28.767 E119.68208
G1 X62.202 Y28.767 E120.4613
G1 X62.202 Y41.673 E121.3064
G1 X43.216 Y41.673 E122.54962
G1 X43.216 Y26.592 E123.53714
G1 X26.773 Y26.592 E124.61384
G1 X26.773 Y37.146 E125.30492
G1 X36.13 Y37.146 E125.91763
G1 X36.13 Y33.294 E126.16986
G1 X33.859 Y33.294 E126.31857
G1 X33.859 Y34.97 E126.42831
G1 X29.045 Y34.97 E126.74354
G1 X29.045 Y28.767 E127.14972
G1 X40.945 Y28.767 E127.92894
G1 X40.945 Y41.673 E128.77404
G1 X23.23 Y41.673 E129.93403
M205 X5 Y5
G0 F3000 X23.13 Y41.673
G0 X23.13 Y40.497
G0 X23.23 Y40.497
M205 X0.7 Y0.7
G1 F600 X39.673 Y40.497 E131.01073
G1 X39.673 Y29.943 E131.70182
G1 X30.316 Y29.943 E132.31452
G1 X30.316 Y33.794 E132.56669
G1 X32.587 Y33.794 E132.7154
G1 X32.587 Y32.119 E132.82508
G1 X37.402 Y32.119 E133.14037
G1 X37.402 Y38.321 E133.54648
G1 X25.502 Y38.321 E134.3257
G1 X25.502 Y25.416 E135.17073
G1 X44.487 Y25.416 E136.41389
G1 X44.487 Y40.497 E137.4014
G1 X60.93 Y40.497 E138.47811
G1 X60.93 Y29.943 E139.16919
G1 X51.573 Y29.943 E139.7819
G1 X51.573 Y33.794 E140.03406
G1 X53.845 Y33.794 E140.18284
G1 X53.845 Y32.119 E140.29252
G1 X58.659 Y32.119 E140.60774
G1 X58.659 Y38.321 E141.01385
G1 X46.759 Y38.321 E141.79308
