;FLAVOR:Marlin
;TIME:2541
;Filament used: 1.44237m
;Layer height: 0.2
;MINX:71.251
;MINY:66.913
;MINZ:0.24
;MAXX:148.749
;MAXY:153.086
;MAXZ:2.04
;Generated with Cura_SteamEngine 4.8.0
M82 ;absolute extrusion mode
M201 X500.00 Y500.00 Z100.00 E5000.00 ;Setup machine max acceleration
M203 X500.00 Y500.00 Z10.00 E50.00 ;Setup machine max feedrate
M204 P500.00 R1000.00 T500.00 ;Setup Print/Retract/Travel acceleration
M205 X8.00 Y8.00 Z0.40 E5.00 ;Setup Jerk
M220 S100 ;Reset Feedrate
M221 S100 ;Reset Flowrate

;*** Start Dual Nozzle/Bed Preheating ***
M140 S50 ; start preheating the bed
M104 S215 ﻿T0 ; start preheating hotend
G28 ; home
M190 S50 ; heat to Cura Bed setting and WAIT
M109 S215 ﻿T0 ; heat to Cura Hotend and WAIT
;*** End Preheating ***


G92 E0 ;Reset Extruder
G1 Z2.0 F3000 ;Move Z Axis up

;*** Single Print Start Tone
M300 S1000 P500 ; chirp to indicate starting to print
;*** End Single Start Tone

G1 X10.1 Y20 Z0.28 F5000.0 ;Move to start position
G1 X10.1 Y200.0 Z0.28 F1500.0 E15 ;Draw the first line
G1 X10.4 Y200.0 Z0.28 F5000.0 ;Move to side a little
G1 X10.4 Y20 Z0.28 F1500.0 E30 ;Draw the second line
G92 E0 ;Reset Extruder
G1 Z2.0 F3000 ;Move Z Axis up
G92 E0
G92 E0
G1 F2400 E-3
;LAYER_COUNT:12
;LAYER:0
M106 S63.8
M204 S500
M205 X6 Y6
G1 F300 Z0.44
G0 F9000 X74.447 Y83.173 Z0.44
;TYPE:SKIRT
G1 F300 Z0.24
G1 F2400 E0
G1 F1800 X75.132 Y82.558 E0.03674
G1 X75.868 Y82.005 E0.07349
G1 X76.421 Y81.652 E0.09967
G1 X77.158 Y81.212 E0.13393
G1 X99.013 Y68.596 E1.14111
G1 X99.62 Y68.257 E1.16886
G1 X100.443 Y67.844 E1.20561
G1 X101.298 Y67.503 E1.24235
G1 X102.18 Y67.238 E1.27911
G1 X103.081 Y67.05 E1.31584
G1 X103.996 Y66.942 E1.35262
G1 X104.916 Y66.913 E1.38935
G1 X105.835 Y66.964 E1.42609
G1 X106.746 Y67.094 E1.46282
G1 X107.643 Y67.303 E1.49958
G1 X108.518 Y67.59 E1.53633
G1 X109.365 Y67.951 E1.57308
G1 X109.941 Y68.248 E1.59895
G1 X110.529 Y68.575 E1.6258
G1 X142.817 Y87.213 E3.11377
G1 X143.548 Y87.646 E3.14768
G1 X144.319 Y88.15 E3.18445
G1 X145.043 Y88.718 E3.22117
G1 X145.715 Y89.348 E3.25794
G1 X146.329 Y90.033 E3.29465
G1 X146.882 Y90.769 E3.3314
G1 X147.369 Y91.551 E3.36817
G1 X147.786 Y92.371 E3.40488
G1 X148.131 Y93.225 E3.44164
G1 X148.4 Y94.106 E3.47841
G1 X148.592 Y95.006 E3.51514
G1 X148.705 Y95.92 E3.5519
G1 X148.737 Y96.602 E3.57915
G1 X148.749 Y97.495 E3.61479
G1 X148.748 Y122.687 E4.62026
G1 X148.738 Y123.387 E4.6482
G1 X148.685 Y124.307 E4.68498
G1 X148.552 Y125.218 E4.72173
G1 X148.341 Y126.114 E4.75846
G1 X148.053 Y126.988 E4.79519
G1 X147.69 Y127.834 E4.83194
G1 X147.255 Y128.646 E4.8687
G1 X146.751 Y129.416 E4.90543
G1 X146.182 Y130.14 E4.94219
G1 X145.553 Y130.812 E4.97892
G1 X144.867 Y131.427 E5.01569
G1 X144.131 Y131.98 E5.05244
G1 X143.574 Y132.337 E5.07884
G1 X142.931 Y132.721 E5.10873
G1 X110.542 Y151.417 E6.60136
G1 X109.964 Y151.74 E6.62778
G1 X109.141 Y152.154 E6.66455
G1 X108.286 Y152.495 E6.70129
G1 X107.405 Y152.76 E6.73801
G1 X106.503 Y152.948 E6.77479
G1 X105.589 Y153.057 E6.81152
G1 X104.669 Y153.086 E6.84826
G1 X103.75 Y153.036 E6.88499
G1 X102.838 Y152.905 E6.92177
G1 X101.942 Y152.696 E6.95849
G1 X101.067 Y152.41 E6.99523
G1 X100.22 Y152.05 E7.03196
G1 X99.655 Y151.758 E7.05735
G1 X98.847 Y151.309 E7.09424
G1 X77.043 Y138.72 E8.09912
G1 X76.453 Y138.37 E8.1265
G1 X75.682 Y137.866 E8.16327
G1 X74.958 Y137.297 E8.20002
G1 X74.286 Y136.668 E8.23676
G1 X73.671 Y135.983 E8.2735
G1 X73.118 Y135.247 E8.31024
G1 X72.631 Y134.465 E8.34701
G1 X72.214 Y133.645 E8.38373
G1 X71.869 Y132.791 E8.42049
G1 X71.6 Y131.911 E8.45721
G1 X71.408 Y131.01 E8.49398
G1 X71.295 Y130.097 E8.5307
G1 X71.262 Y129.408 E8.55823
G1 X71.251 Y128.567 E8.5918
G1 X71.252 Y91.299 E10.07925
G1 X71.262 Y90.598 E10.10723
G1 X71.315 Y89.679 E10.14397
G1 X71.448 Y88.768 E10.18071
G1 X71.659 Y87.872 E10.21745
G1 X71.947 Y86.997 E10.25422
G1 X72.31 Y86.151 E10.29096
G1 X72.745 Y85.34 E10.32769
G1 X73.249 Y84.569 E10.36446
G1 X73.818 Y83.845 E10.40121
G1 X74.447 Y83.173 E10.43795
G0 F9000 X74.838 Y83.352
G1 F1800 X75.52 Y82.759 E10.47402
G1 X76.626 Y81.995 E10.52767
G1 X77.358 Y81.558 E10.56169
G1 X99.082 Y69.017 E11.56285
G1 X99.816 Y68.607 E11.59641
G1 X100.623 Y68.202 E11.63245
G1 X101.463 Y67.87 E11.6685
G1 X102.329 Y67.613 E11.70455
G1 X103.214 Y67.434 E11.74059
G1 X104.111 Y67.335 E11.77661
G1 X105.014 Y67.314 E11.81266
G1 X105.915 Y67.374 E11.8487
G1 X106.808 Y67.514 E11.88477
G1 X107.684 Y67.731 E11.92079
G1 X108.538 Y68.026 E11.95685
G1 X109.746 Y68.598 E12.0102
G1 X110.476 Y69.005 E12.04356
G1 X142.724 Y87.622 E13.52973
G1 X143.344 Y87.99 E13.55851
G1 X144.1 Y88.485 E13.59457
G1 X144.808 Y89.044 E13.63058
G1 X145.465 Y89.665 E13.66666
G1 X146.064 Y90.34 E13.70268
G1 X146.601 Y91.067 E13.73875
G1 X147.071 Y91.838 E13.77479
G1 X147.472 Y92.647 E13.81083
G1 X147.799 Y93.489 E13.84688
G1 X148.05 Y94.356 E13.88291
G1 X148.224 Y95.242 E13.91894
G1 X148.319 Y96.14 E13.95498
G1 X148.337 Y96.608 E13.97368
G1 X148.349 Y97.495 E14.00908
G1 X148.348 Y122.682 E15.01435
G1 X148.338 Y123.382 E15.04229
G1 X148.285 Y124.283 E15.07831
G1 X148.153 Y125.177 E15.11438
G1 X147.942 Y126.055 E15.15042
G1 X147.654 Y126.911 E15.18647
G1 X147.292 Y127.738 E15.2225
G1 X146.858 Y128.53 E15.25855
G1 X146.355 Y129.28 E15.29459
G1 X145.788 Y129.983 E15.33064
G1 X145.162 Y130.634 E15.36668
G1 X144.48 Y131.226 E15.40273
G1 X143.369 Y131.993 E15.45661
G1 X142.595 Y132.454 E15.49257
G1 X110.347 Y151.068 E16.97868
G1 X109.769 Y151.391 E17.00511
G1 X108.962 Y151.796 E17.04114
G1 X108.122 Y152.128 E17.07719
G1 X107.256 Y152.385 E17.11325
G1 X106.371 Y152.564 E17.14929
G1 X105.473 Y152.664 E17.18535
G1 X104.57 Y152.685 E17.2214
G1 X103.669 Y152.625 E17.25744
G1 X102.777 Y152.486 E17.29347
G1 X101.9 Y152.268 E17.32954
G1 X101.047 Y151.974 E17.36555
G1 X99.849 Y151.409 E17.41842
G1 X99.203 Y151.051 E17.44789
G1 X77.247 Y138.376 E18.45974
G1 X76.657 Y138.026 E18.48712
G1 X75.901 Y137.531 E18.52319
G1 X75.193 Y136.971 E18.55922
G1 X74.536 Y136.351 E18.59527
G1 X73.937 Y135.675 E18.63132
G1 X73.4 Y134.949 E18.66736
G1 X72.929 Y134.179 E18.70339
G1 X72.528 Y133.369 E18.73946
G1 X72.201 Y132.528 E18.77548
G1 X71.949 Y131.66 E18.81155
G1 X71.775 Y130.774 E18.84759
G1 X71.68 Y129.876 E18.88363
G1 X71.662 Y129.402 E18.90256
G1 X71.651 Y128.567 E18.93589
G1 X71.652 Y91.305 E20.4231
G1 X71.662 Y90.604 E20.45108
G1 X71.715 Y89.702 E20.48714
G1 X71.847 Y88.809 E20.52317
G1 X72.058 Y87.93 E20.55925
G1 X72.346 Y87.074 E20.5953
G1 X72.708 Y86.247 E20.63133
G1 X73.142 Y85.455 E20.66737
G1 X73.645 Y84.705 E20.70342
G1 X74.212 Y84.002 E20.73946
G1 X74.838 Y83.352 E20.77548
G1 F2400 E17.77548
G1 F300 Z0.44
G0 F9000 X119.554 Y90.411 Z0.44
G1 F300 Z0.24
G1 F2400 E20.77548
G1 F1800 X119.584 Y90.428 E20.77686
G1 X116.962 Y94.969 E20.98614
G1 X116.932 Y94.952 E20.98752
G1 X119.554 Y90.411 E21.1968
G0 F9000 X119.407 Y89.865
G1 F1800 X120.131 Y90.282 E21.23015
G1 X117.105 Y95.521 E21.47162
G1 X116.831 Y95.354 E21.48443
G1 X116.381 Y95.106 E21.50494
G1 X119.407 Y89.865 E21.74648
G0 F9000 X119.261 Y89.318
G1 F1800 X120.678 Y90.136 E21.81178
G1 X117.245 Y96.079 E22.08571
G1 X117.215 Y96.058 E22.08717
G1 X116.781 Y95.79 E22.10753
G1 X116.638 Y95.704 E22.11419
G1 X115.944 Y95.321 E22.14583
G1 X115.829 Y95.262 E22.15099
G1 X119.261 Y89.318 E22.42493
G0 F9000 X119.114 Y88.772
G1 F1800 X121.225 Y89.99 E22.5222
G1 X117.376 Y96.653 E22.82932
G1 X117.005 Y96.399 E22.84727
G1 X116.571 Y96.131 E22.86762
G1 X116.444 Y96.054 E22.87355
G1 X115.752 Y95.672 E22.9051
G1 X115.271 Y95.429 E22.92661
G1 X119.114 Y88.772 E23.2334
G0 F9000 X118.968 Y88.225
G1 F1800 X121.771 Y89.843 E23.36257
G1 X117.506 Y97.227 E23.70291
G1 X116.902 Y96.812 E23.73216
G1 X116.795 Y96.739 E23.73733
G1 X116.361 Y96.471 E23.75769
G1 X116.251 Y96.404 E23.76283
G1 X115.56 Y96.024 E23.79431
G1 X115.045 Y95.764 E23.81733
G1 X114.703 Y95.612 E23.83227
G1 X118.968 Y88.225 E24.17271
G0 F9000 X118.822 Y87.679
G1 F1800 X122.317 Y89.696 E24.33377
G1 X117.627 Y97.816 E24.70803
G1 X117.33 Y97.591 E24.7229
G1 X116.675 Y97.141 E24.75462
G1 X116.585 Y97.079 E24.75898
G1 X116.151 Y96.811 E24.77934
G1 X116.058 Y96.755 E24.78367
G1 X115.312 Y96.345 E24.81765
G1 X114.758 Y96.07 E24.84233
G1 X114.132 Y95.801 E24.86953
G1 X118.822 Y87.679 E25.24386
G0 F9000 X118.675 Y87.133
G1 F1800 X122.864 Y89.551 E25.4369
G1 X117.742 Y98.418 E25.84561
G1 X117.603 Y98.302 E25.85283
G1 X117.165 Y97.965 E25.87489
G1 X117.104 Y97.921 E25.87789
G1 X116.375 Y97.42 E25.9132
G1 X115.941 Y97.152 E25.93355
G1 X115.865 Y97.105 E25.93712
G1 X115.133 Y96.703 E25.97045
G1 X114.6 Y96.438 E25.99421
G1 X113.795 Y96.092 E26.02918
G1 X113.554 Y96.001 E26.03946
G1 X118.675 Y87.133 E26.44818
G0 F9000 X118.529 Y86.586
G1 F1800 X123.41 Y89.404 E26.67313
G1 X117.848 Y99.034 E27.11698
G1 X117.359 Y98.619 E27.14258
G1 X116.921 Y98.282 E27.16464
G1 X116.164 Y97.76 E27.20134
G1 X115.672 Y97.455 E27.22444
G1 X114.986 Y97.077 E27.2557
G1 X114.442 Y96.805 E27.27998
G1 X113.637 Y96.459 E27.31495
G1 X113.167 Y96.283 E27.33498
G1 X112.97 Y96.214 E27.34331
G1 X118.529 Y86.586 E27.78704
G0 F9000 X118.383 Y86.04
G1 F1800 X123.956 Y89.257 E28.04387
G1 X117.948 Y99.66 E28.52334
G1 X117.774 Y99.496 E28.53289
G1 X117.115 Y98.936 E28.5674
G1 X116.651 Y98.58 E28.59075
G1 X115.954 Y98.1 E28.62452
G1 X115.479 Y97.806 E28.64682
G1 X114.775 Y97.418 E28.6789
G1 X114.284 Y97.173 E28.7008
G1 X113.479 Y96.827 E28.73577
G1 X113.01 Y96.651 E28.75577
G1 X112.94 Y96.625 E28.75875
G1 X112.374 Y96.447 E28.78243
G1 X118.383 Y86.04 E29.26206
G0 F9000 X118.236 Y85.493
G1 F1800 X124.504 Y89.111 E29.55092
G1 X118.037 Y100.305 E30.06689
G1 X117.91 Y100.177 E30.07409
G1 X117.515 Y99.801 E30.09585
G1 X116.871 Y99.253 E30.1296
G1 X116.424 Y98.91 E30.15209
G1 X115.766 Y98.457 E30.18398
G1 X115.286 Y98.156 E30.20659
G1 X114.604 Y97.78 E30.23767
G1 X114.126 Y97.54 E30.25902
G1 X113.321 Y97.194 E30.29399
G1 X112.85 Y97.018 E30.31406
G1 X112.82 Y97.006 E30.31535
G1 X111.999 Y96.748 E30.3497
G1 X111.771 Y96.689 E30.3591
G1 X118.236 Y85.493 E30.8751
G1 F2400 E27.8751
G1 F300 Z0.44
G0 F9000 X113.179 Y97.569 Z0.44
;TYPE:SUPPORT-INTERFACE
G1 F300 Z0.24
G1 F2400 E30.8751
G1 F1800 X113.963 Y97.906 E30.90916
G1 X113.967 Y97.908 E30.90934
G1 X114.411 Y98.131 E30.92917
G1 X114.422 Y98.137 E30.92967
G1 X115.084 Y98.502 E30.95984
G1 X115.092 Y98.508 E30.96024
G1 X115.523 Y98.774 E30.98046
G1 X115.536 Y98.785 E30.98114
G1 X116.189 Y99.234 E31.01277
G1 X116.202 Y99.244 E31.01342
G1 X116.626 Y99.57 E31.03477
G1 X116.635 Y99.577 E31.03522
G1 X117.255 Y100.105 E31.06772
G1 X117.256 Y100.106 E31.06778
G1 X117.643 Y100.476 E31.08915
G1 X117.654 Y100.486 E31.08974
G1 X117.83 Y100.665 E31.09976
G1 X117.512 Y101.215 E31.12512
G1 X117.508 Y101.227 E31.12562
G1 X117.331 Y101.535 E31.1398
G1 X117.052 Y101.243 E31.15592
G1 X116.562 Y100.773 E31.18302
G1 X116.081 Y100.365 E31.20819
G1 X115.554 Y99.958 E31.23477
G1 X115.033 Y99.601 E31.25998
G1 X114.454 Y99.248 E31.28704
G1 X113.895 Y98.943 E31.31246
G1 X113.325 Y98.672 E31.33765
G1 X112.696 Y98.409 E31.36486
G1 X112.11 Y98.203 E31.38965
G1 X111.451 Y98.009 E31.41707
G1 X111.062 Y97.914 E31.43305
G1 X111.241 Y97.605 E31.44731
G1 X111.247 Y97.599 E31.44764
G1 X111.564 Y97.049 E31.47298
G1 X111.897 Y97.136 E31.48672
G1 X111.908 Y97.138 E31.48716
G1 X112.693 Y97.386 E31.52002
G1 X112.705 Y97.391 E31.52054
G1 X113.171 Y97.567 E31.54042
G1 X113.179 Y97.569 E31.54075
G0 F9000 X112.796 Y97.638
G1 F1800 X112.356 Y98.078 E31.56559
G1 F2400 E28.56559
G1 F300 Z0.44
G0 F9000 X114.677 Y99.151 Z0.44
G1 F300 Z0.24
G1 F2400 E31.56559
G1 F1800 X115.088 Y98.74 E31.58878
G1 F2400 E28.58878
G1 F300 Z0.44
G0 F9000 X116.642 Y100.58 Z0.44
G1 F300 Z0.24
G1 F2400 E31.58878
G1 F1800 X117.039 Y100.183 E31.61119
G1 F2400 E28.61119
G1 F300 Z0.44
;MESH:GreekMeanderLamp_base_tower_.7x.stl
G0 F9000 X117.89 Y85.293 Z0.44
;TYPE:WALL-OUTER
G1 F300 Z0.24
G1 F2400 E31.61119
G1 F1800 X110.445 Y98.184 E32.20534
G1 X110.829 Y98.269 E32.22104
G1 X111.345 Y98.394 E32.24223
G1 X111.984 Y98.583 E32.26883
G1 X112.55 Y98.782 E32.29277
G1 X113.16 Y99.037 E32.31916
G1 X113.711 Y99.298 E32.34349
G1 X114.252 Y99.593 E32.36809
G1 X114.813 Y99.935 E32.39431
G1 X115.316 Y100.28 E32.41866
G1 X115.827 Y100.674 E32.44441
G1 X116.292 Y101.069 E32.46876
G1 X116.767 Y101.523 E32.49499
G1 X117.409 Y102.199 E32.5322
G1 X124.85 Y89.311 E33.12616
G1 X137.949 Y96.872 E33.72982
G1 X137.949 Y123.128 E34.77775
G1 X104.79 Y142.269 E36.30587
G1 X82.051 Y129.142 E37.3538
G1 X82.051 Y90.858 E38.8818
G1 X104.79 Y77.731 E39.92974
G1 X117.89 Y85.293 E40.53345
G0 F9000 X117.344 Y85.439
;TYPE:WALL-INNER
G1 F1800 X117.245 Y85.611 E40.54137
G1 X109.962 Y98.222 E41.12261
G1 X109.826 Y98.457 E41.13344
G1 X110.091 Y98.515 E41.13989
G1 X110.743 Y98.66 E41.16655
G1 X111.239 Y98.78 E41.18692
G1 X111.871 Y98.967 E41.21323
G1 X112.405 Y99.155 E41.23582
G1 X113.006 Y99.406 E41.26182
G1 X113.527 Y99.653 E41.28483
G1 X114.044 Y99.935 E41.30833
G1 X114.6 Y100.274 E41.33432
G1 X115.08 Y100.603 E41.35755
G1 X115.574 Y100.984 E41.38245
G1 X116.033 Y101.374 E41.40649
G1 X116.483 Y101.805 E41.43136
G1 X117.305 Y102.67 E41.47899
G1 X117.488 Y102.863 E41.4896
G1 X117.62 Y102.633 E41.49593
G1 X117.621 Y102.632 E41.49599
G1 X124.996 Y89.857 E42.08473
G1 X137.549 Y97.103 E42.66323
G1 X137.549 Y122.897 E43.69272
G1 X104.99 Y141.692 E45.1932
G1 X104.79 Y141.808 E45.20242
G1 X82.451 Y128.911 E46.23194
G1 X82.451 Y91.089 E47.7415
G1 X104.59 Y78.308 E48.76179
G1 X104.79 Y78.192 E48.77102
G1 X117.172 Y85.34 E49.34165
G1 X117.344 Y85.439 E49.34677
G0 F9000 X116.798 Y85.585
G1 F1800 X109.481 Y98.257 E49.9308
G1 X109.343 Y98.495 E49.94178
G1 X109.207 Y98.73 E49.95261
G1 X109.472 Y98.788 E49.95907
G1 X110.657 Y99.051 E50.00751
G1 X111.133 Y99.166 E50.02706
G1 X111.758 Y99.351 E50.05307
G1 X112.26 Y99.528 E50.07432
G1 X112.852 Y99.775 E50.09992
G1 X113.335 Y100.004 E50.12125
G1 X113.84 Y100.28 E50.14422
G1 X114.392 Y100.616 E50.17002
G1 X114.844 Y100.926 E50.19189
G1 X115.32 Y101.294 E50.2159
G1 X115.763 Y101.669 E50.23907
G1 X116.206 Y102.094 E50.26357
G1 X117.384 Y103.334 E50.33184
G1 X117.567 Y103.527 E50.34245
G1 X117.699 Y103.297 E50.34878
G1 X117.7 Y103.296 E50.34884
G1 X125.043 Y90.575 E50.93508
G1 X125.142 Y90.403 E50.943
G1 X125.314 Y90.502 E50.94812
G1 X137.149 Y97.334 E51.49353
G1 X137.149 Y122.666 E52.50459
G1 X104.79 Y141.347 E53.99587
G1 X82.851 Y128.68 E55.00698
G1 X82.851 Y91.32 E56.4981
G1 X104.79 Y78.653 E57.5092
G1 X116.798 Y85.585 E58.06259
G0 F9000 X116.265 Y85.728
;TYPE:SKIN
G1 F1800 X108.603 Y98.995 E58.67407
G1 X110.573 Y99.432 E58.75461
G1 X111.031 Y99.543 E58.77342
G1 X111.637 Y99.722 E58.79864
G1 X112.13 Y99.896 E58.8195
G1 X112.689 Y100.13 E58.84369
G1 X113.162 Y100.354 E58.86458
G1 X113.645 Y100.618 E58.88655
G1 X114.18 Y100.944 E58.91155
G1 X114.623 Y101.247 E58.93297
G1 X115.068 Y101.592 E58.95545
G1 X115.502 Y101.959 E58.97813
G1 X115.923 Y102.363 E59.00142
G1 X117.643 Y104.174 E59.10111
G1 X125.285 Y90.936 E59.71118
G1 X136.759 Y97.559 E60.23995
G1 X136.759 Y122.441 E61.23304
G1 X104.79 Y140.896 E62.70634
G1 X83.241 Y128.455 E63.69945
G1 X83.241 Y91.545 E65.17261
G1 X104.79 Y79.104 E66.16572
G1 X116.265 Y85.728 E66.69455
G1 F2400 E63.69455
G1 F300 Z0.44
G0 F9000 X136.598 Y98.131 Z0.44
G1 F300 Z0.24
G1 F2400 E66.69455
G1 F1800 X135.461 Y96.994 E66.75872
G1 F2400 E63.75872
G1 F300 Z0.44
G0 F9000 X134.123 Y96.222 Z0.44
G1 F300 Z0.24
G1 F2400 E66.75872
G1 F1800 X136.598 Y98.697 E66.89842
G0 F9000 X136.598 Y99.262
G1 F1800 X132.785 Y95.45 E67.11362
G1 F2400 E64.11362
G1 F300 Z0.44
G0 F9000 X131.447 Y94.678 Z0.44
G1 F300 Z0.24
G1 F2400 E67.11362
G1 F1800 X136.598 Y99.828 E67.40433
G0 F9000 X136.598 Y100.394
G1 F1800 X130.109 Y93.905 E67.7706
G1 F2400 E64.7706
G1 F300 Z0.44
G0 F9000 X128.771 Y93.133 Z0.44
G1 F300 Z0.24
G1 F2400 E67.7706
G1 F1800 X136.598 Y100.959 E68.21236
G0 F9000 X136.598 Y101.525
G1 F1800 X127.433 Y92.36 E68.72967
G1 F2400 E65.72967
G1 F300 Z0.44
G0 F9000 X126.095 Y91.588 Z0.44
G1 F300 Z0.24
G1 F2400 E68.72967
G1 F1800 X136.598 Y102.091 E69.32251
G0 F9000 X136.598 Y102.657
G1 F1800 X125.251 Y91.31 E69.96298
