;FLAVOR:Marlin
;TIME:48
;Filament used: 0.0217494m
;Layer height: 0.16
;MINX:103.959
;MINY:103.908
;MINZ:0.24
;MAXX:116.041
;MAXY:116.092
;MAXZ:2.64
;Generated with Cura_SteamEngine 4.8.0
M82 ;absolute extrusion mode
M201 X500.00 Y500.00 Z100.00 E5000.00 ;Setup machine max acceleration
M203 X500.00 Y500.00 Z10.00 E50.00 ;Setup machine max feedrate
M204 P500.00 R1000.00 T500.00 ;Setup Print/Retract/Travel acceleration
M205 X8.00 Y8.00 Z0.40 E5.00 ;Setup Jerk
M220 S100 ;Reset Feedrate
M221 S100 ;Reset Flowrate

;*** Start Dual Nozzle/Bed Preheating ***
M140 S50 ; start preheating the bed
M104 S215 ﻿T0 ; start preheating hotend
G28 ; home
M190 S50 ; heat to Cura Bed setting and WAIT
M109 S215 ﻿T0 ; heat to Cura Hotend and WAIT
;*** End Preheating ***


G92 E0 ;Reset Extruder
G1 Z2.0 F3000 ;Move Z Axis up

;*** Single Print Start Tone
M300 S1000 P500 ; chirp to indicate starting to print
;*** End Single Start Tone

G1 X10.1 Y20 Z0.28 F5000.0 ;Move to start position
G1 X10.1 Y200.0 Z0.28 F1500.0 E15 ;Draw the first line
G1 X10.4 Y200.0 Z0.28 F5000.0 ;Move to side a little
G1 X10.4 Y20 Z0.28 F1500.0 E30 ;Draw the second line
G92 E0 ;Reset Extruder
G1 Z2.0 F3000 ;Move Z Axis up
G92 E0
G92 E0
G1 F2400 E-3
;LAYER_COUNT:14
;LAYER:0
M106 S63.8
M204 S500
M205 X6 Y6
G1 F300 Z0.44
G0 F9000 X105.009 Y105.79 Z0.44
;TYPE:SKIRT
G1 F300 Z0.24
G1 F2400 E0
G1 F1800 X105.418 Y105.42 E0.02201
G1 X105.876 Y105.114 E0.044
G1 X106.613 Y104.792 E0.0761
G1 X108.857 Y104.084 E0.17001
G1 X109.393 Y103.957 E0.192
G1 X109.942 Y103.908 E0.214
G1 X110.492 Y103.94 E0.23598
G1 X111.143 Y104.084 E0.2626
G1 X113.387 Y104.792 E0.35651
G1 X113.899 Y104.996 E0.37851
G1 X114.377 Y105.271 E0.40052
G1 X114.809 Y105.612 E0.42248
G1 X115.188 Y106.013 E0.44451
G1 X115.504 Y106.464 E0.46649
G1 X115.752 Y106.956 E0.48848
G1 X115.927 Y107.479 E0.51049
G1 X116.023 Y108.021 E0.53246
G1 X116.041 Y108.572 E0.55446
G1 X115.923 Y109.367 E0.58654
G1 X114.921 Y113.243 E0.74632
G1 X114.745 Y113.765 E0.76831
G1 X114.495 Y114.256 E0.7903
G1 X114.177 Y114.706 E0.81229
G1 X113.797 Y115.105 E0.83428
G1 X113.363 Y115.445 E0.85629
G1 X112.885 Y115.719 E0.87828
G1 X112.372 Y115.92 E0.90027
G1 X111.835 Y116.045 E0.92228
G1 X111.242 Y116.092 E0.94602
G1 X110.565 Y116.092 E0.97304
G1 X110.015 Y116.052 E0.99505
G1 X109.436 Y116.092 E1.01821
G1 X108.758 Y116.092 E1.04527
G1 X108.208 Y116.052 E1.06728
G1 X107.67 Y115.933 E1.08927
G1 X107.155 Y115.737 E1.11127
G1 X106.674 Y115.469 E1.13324
G1 X106.236 Y115.135 E1.15523
G1 X105.852 Y114.74 E1.17722
G1 X105.528 Y114.294 E1.19922
G1 X105.273 Y113.806 E1.22119
G1 X105.079 Y113.243 E1.24496
G1 X104.077 Y109.367 E1.40475
G1 X103.978 Y108.825 E1.42674
G1 X103.959 Y108.274 E1.44874
G1 X104.019 Y107.727 E1.4707
G1 X104.158 Y107.194 E1.49269
G1 X104.373 Y106.686 E1.5147
G1 X104.658 Y106.215 E1.53668
G1 X105.009 Y105.79 E1.55868
G0 F9000 X105.439 Y105.928
G1 F1800 X105.847 Y105.603 E1.5795
G1 X106.299 Y105.344 E1.60029
G1 X106.733 Y105.174 E1.61889
G1 X108.977 Y104.466 E1.71281
G1 X109.485 Y104.347 E1.73363
G1 X110.004 Y104.308 E1.7544
G1 X110.524 Y104.349 E1.77522
G1 X111.023 Y104.466 E1.79568
G1 X113.267 Y105.174 E1.88959
G1 X113.751 Y105.368 E1.9104
G1 X114.199 Y105.634 E1.9312
G1 X114.601 Y105.965 E1.95198
G1 X114.948 Y106.354 E1.97279
G1 X115.231 Y106.792 E1.9936
G1 X115.444 Y107.267 E2.01438
G1 X115.582 Y107.77 E2.0352
G1 X115.642 Y108.288 E2.05601
G1 X115.621 Y108.809 E2.07682
G1 X115.536 Y109.267 E2.09541
G1 X114.534 Y113.143 E2.2552
G1 X114.365 Y113.636 E2.276
G1 X114.123 Y114.098 E2.29681
G1 X113.813 Y114.517 E2.31762
G1 X113.443 Y114.883 E2.33839
G1 X113.021 Y115.189 E2.35919
G1 X112.557 Y115.427 E2.38001
G1 X112.063 Y115.591 E2.40078
G1 X111.549 Y115.678 E2.42159
G1 X111.242 Y115.692 E2.43385
G1 X110.565 Y115.692 E2.46087
G1 X110.045 Y115.652 E2.48169
G1 X109.436 Y115.692 E2.50605
G1 X108.758 Y115.692 E2.53311
G1 X108.238 Y115.652 E2.55392
G1 X107.731 Y115.533 E2.57471
G1 X107.248 Y115.338 E2.5955
G1 X106.8 Y115.072 E2.61629
G1 X106.398 Y114.74 E2.6371
G1 X106.052 Y114.35 E2.65791
G1 X105.769 Y113.912 E2.67873
G1 X105.556 Y113.437 E2.6995
G1 X105.466 Y113.143 E2.71177
G1 X104.464 Y109.267 E2.87156
G1 X104.373 Y108.754 E2.89235
G1 X104.361 Y108.233 E2.91315
G1 X104.429 Y107.716 E2.93397
G1 X104.575 Y107.216 E2.95476
G1 X104.796 Y106.744 E2.97556
G1 X105.086 Y106.311 E2.99636
G1 X105.439 Y105.928 E3.01715
G0 F9000 X105.515 Y106.422
G1 F1800 X105.869 Y106.084 E3.03668
G1 X106.273 Y105.808 E3.05621
G1 X106.853 Y105.555 E3.08146
G1 X109.097 Y104.847 E3.17538
G1 X109.575 Y104.738 E3.19495
G1 X110.063 Y104.709 E3.21446
G1 X110.55 Y104.759 E3.234
G1 X110.903 Y104.847 E3.24852
G1 X113.147 Y105.555 E3.34243
G1 X113.6 Y105.74 E3.36196
G1 X114.017 Y105.996 E3.38149
G1 X114.387 Y106.317 E3.40104
G1 X114.7 Y106.693 E3.42057
G1 X114.947 Y107.115 E3.44008
G1 X115.123 Y107.572 E3.45963
G1 X115.222 Y108.052 E3.47919
G1 X115.241 Y108.541 E3.49872
G1 X115.149 Y109.167 E3.52398
G1 X114.147 Y113.043 E3.68376
G1 X113.986 Y113.505 E3.70329
G1 X113.752 Y113.935 E3.72283
G1 X113.451 Y114.322 E3.7424
G1 X113.092 Y114.654 E3.76191
G1 X112.683 Y114.923 E3.78145
G1 X112.236 Y115.123 E3.801
G1 X111.763 Y115.246 E3.8205
G1 X111.242 Y115.292 E3.84138
G1 X110.565 Y115.292 E3.8684
G1 X109.981 Y115.229 E3.89184
G1 X109.436 Y115.292 E3.91374
G1 X108.758 Y115.292 E3.9408
G1 X108.27 Y115.252 E3.96034
G1 X107.795 Y115.133 E3.97989
G1 X107.346 Y114.939 E3.99941
G1 X106.934 Y114.674 E4.01896
G1 X106.571 Y114.346 E4.03849
G1 X106.266 Y113.963 E4.05803
G1 X106.028 Y113.535 E4.07757
G1 X105.853 Y113.043 E4.09841
G1 X104.851 Y109.167 E4.2582
G1 X104.768 Y108.685 E4.27772
G1 X104.764 Y108.195 E4.29728
G1 X104.84 Y107.711 E4.31683
G1 X104.993 Y107.247 E4.33633
G1 X105.22 Y106.813 E4.35588
G1 X105.515 Y106.422 E4.37543
G0 F9000 X105.944 Y106.551
G1 F1800 X106.298 Y106.264 E4.39362
G1 X106.696 Y106.042 E4.41181
G1 X106.974 Y105.936 E4.42368
G1 X109.218 Y105.228 E4.5176
G1 X109.663 Y105.13 E4.53578
G1 X110.118 Y105.111 E4.55396
G1 X110.782 Y105.228 E4.58087
G1 X113.026 Y105.936 E4.67478
G1 X113.447 Y106.111 E4.69298
G1 X113.831 Y106.357 E4.71118
G1 X114.166 Y106.665 E4.72935
G1 X114.442 Y107.028 E4.74755
G1 X114.651 Y107.433 E4.76574
G1 X114.786 Y107.868 E4.78391
G1 X114.842 Y108.32 E4.80209
G1 X114.819 Y108.775 E4.82028
G1 X114.761 Y109.067 E4.83216
G1 X113.759 Y112.943 E4.99194
G1 X113.607 Y113.372 E5.01011
G1 X113.382 Y113.768 E5.02829
G1 X113.092 Y114.119 E5.04646
G1 X112.744 Y114.414 E5.06467
G1 X112.351 Y114.644 E5.08284
G1 X111.923 Y114.801 E5.10104
G1 X111.242 Y114.892 E5.12846
G1 X110.565 Y114.892 E5.15548
G1 X110.006 Y114.827 E5.17794
G1 X109.994 Y114.831 E5.17845
G1 X109.436 Y114.892 E5.20085
G1 X108.758 Y114.892 E5.22791
G1 X108.304 Y114.852 E5.2461
G1 X107.864 Y114.734 E5.26428
G1 X107.452 Y114.54 E5.28246
G1 X107.079 Y114.277 E5.30067
G1 X106.758 Y113.954 E5.31885
G1 X106.499 Y113.579 E5.33704
G1 X106.241 Y112.943 E5.36443
G1 X105.239 Y109.067 E5.52422
G1 X105.164 Y108.617 E5.54242
G1 X105.168 Y108.162 E5.56059
G1 X105.253 Y107.714 E5.57879
G1 X105.414 Y107.288 E5.59696
G1 X105.647 Y106.896 E5.61516
G1 X105.944 Y106.551 E5.63333
G0 F9000 X106.075 Y106.997
G1 F1800 X106.374 Y106.704 E5.65004
G1 X106.724 Y106.473 E5.66678
G1 X107.094 Y106.318 E5.68279
G1 X109.338 Y105.61 E5.7767
G1 X109.748 Y105.522 E5.79344
G1 X110.167 Y105.514 E5.81017
G1 X110.662 Y105.61 E5.83029
G1 X112.906 Y106.318 E5.92421
G1 X113.292 Y106.482 E5.94094
G1 X113.64 Y106.715 E5.95766
G1 X113.937 Y107.011 E5.9744
G1 X114.172 Y107.357 E5.99109
G1 X114.338 Y107.742 E6.00782
G1 X114.428 Y108.151 E6.02454
G1 X114.439 Y108.57 E6.04127
G1 X114.374 Y108.967 E6.05732
G1 X113.372 Y112.843 E6.21711
G1 X113.229 Y113.237 E6.23384
G1 X113.014 Y113.596 E6.25054
G1 X112.734 Y113.908 E6.26727
G1 X112.401 Y114.162 E6.28399
G1 X112.025 Y114.348 E6.30073
G1 X111.621 Y114.459 E6.31745
G1 X111.242 Y114.492 E6.33263
G1 X110.565 Y114.492 E6.35966
G1 X109.989 Y114.413 E6.38286
G1 X109.436 Y114.492 E6.40516
G1 X108.758 Y114.492 E6.43222
G1 X108.341 Y114.452 E6.44894
G1 X107.939 Y114.334 E6.46566
G1 X107.567 Y114.141 E6.48238
G1 X107.238 Y113.882 E6.4991
G1 X106.964 Y113.565 E6.51582
G1 X106.755 Y113.202 E6.53254
G1 X106.628 Y112.843 E6.54774
G1 X105.626 Y108.967 E6.70752
G1 X105.56 Y108.553 E6.72425
G1 X105.574 Y108.134 E6.74099
G1 X105.667 Y107.725 E6.75773
G1 X105.836 Y107.342 E6.77443
G1 X106.075 Y106.997 E6.79119
G0 F9000 X106.504 Y107.123
G1 F1800 X106.802 Y106.889 E6.80631
G1 X107.214 Y106.699 E6.82442
G1 X109.458 Y105.991 E6.91833
G1 X109.83 Y105.916 E6.93348
G1 X110.209 Y105.92 E6.9486
G1 X110.542 Y105.991 E6.96219
G1 X112.786 Y106.699 E7.05611
G1 X113.133 Y106.851 E7.07123
G1 X113.441 Y107.072 E7.08636
G1 X113.696 Y107.352 E7.10147
G1 X113.886 Y107.68 E7.1166
G1 X114.004 Y108.04 E7.13172
G1 X114.044 Y108.417 E7.14686
G1 X113.987 Y108.867 E7.16496
G1 X112.985 Y112.743 E7.32474
G1 X112.852 Y113.097 E7.33984
G1 X112.647 Y113.417 E7.35501
G1 X112.381 Y113.686 E7.3701
G1 X112.064 Y113.893 E7.38522
G1 X111.71 Y114.03 E7.40037
G1 X111.242 Y114.092 E7.41921
G1 X110.565 Y114.092 E7.44623
G1 X110.041 Y114.014 E7.46737
G1 X109.985 Y113.997 E7.46971
G1 X109.76 Y114.063 E7.47907
G1 X109.436 Y114.092 E7.49205
G1 X108.758 Y114.092 E7.51911
G1 X108.381 Y114.052 E7.53424
G1 X108.021 Y113.934 E7.54936
G1 X107.694 Y113.744 E7.56446
G1 X107.413 Y113.489 E7.5796
G1 X107.193 Y113.18 E7.59474
G1 X107.015 Y112.743 E7.61357
G1 X106.013 Y108.867 E7.77336
G1 X105.958 Y108.492 E7.78849
G1 X105.982 Y108.113 E7.80364
G1 X106.084 Y107.749 E7.81873
G1 X106.261 Y107.414 E7.83385
G1 X106.504 Y107.123 E7.84898
G0 F9000 X106.689 Y107.51
G1 F1800 X106.934 Y107.283 E7.86232
G1 X107.335 Y107.081 E7.88024
G1 X109.579 Y106.373 E7.97415
G1 X109.907 Y106.311 E7.98747
G1 X110.421 Y106.373 E8.00814
G1 X112.665 Y107.081 E8.10205
G1 X112.97 Y107.219 E8.11541
G1 X113.233 Y107.425 E8.12875
G1 X113.439 Y107.687 E8.14205
G1 X113.578 Y107.991 E8.15539
G1 X113.641 Y108.319 E8.16872
G1 X113.599 Y108.766 E8.18664
G1 X112.597 Y112.642 E8.34643
G1 X112.476 Y112.954 E8.35978
G1 X112.284 Y113.227 E8.3731
G1 X112.033 Y113.447 E8.38642
G1 X111.737 Y113.602 E8.39976
G1 X111.242 Y113.692 E8.41984
G1 X110.565 Y113.692 E8.44686
G1 X109.987 Y113.579 E8.47037
G1 X109.649 Y113.676 E8.4844
G1 X109.436 Y113.692 E8.49293
G1 X108.758 Y113.692 E8.51999
G1 X108.426 Y113.652 E8.53333
G1 X108.114 Y113.535 E8.54663
G1 X107.837 Y113.347 E8.56
G1 X107.614 Y113.099 E8.57331
G1 X107.403 Y112.642 E8.5934
G1 X106.401 Y108.766 E8.75318
G1 X106.356 Y108.435 E8.76651
G1 X106.391 Y108.103 E8.77984
G1 X106.504 Y107.789 E8.79316
G1 X106.689 Y107.51 E8.80652
G0 F9000 X107.118 Y107.646
G1 F1800 X107.455 Y107.462 E8.82184
G1 X109.699 Y106.754 E8.91576
G1 X109.977 Y106.708 E8.92701
G1 X110.301 Y106.754 E8.94007
G1 X112.545 Y107.462 E9.03398
G1 X112.799 Y107.584 E9.04523
G1 X113.009 Y107.773 E9.0565
G1 X113.159 Y108.012 E9.06777
G1 X113.235 Y108.284 E9.07904
G1 X113.212 Y108.666 E9.09431
G1 X112.21 Y112.542 E9.2541
G1 X112.102 Y112.803 E9.26537
G1 X111.925 Y113.023 E9.27664
G1 X111.694 Y113.184 E9.28788
G1 X111.426 Y113.275 E9.29918
G1 X111.242 Y113.292 E9.30655
G1 X110.565 Y113.292 E9.33357
G1 X110.08 Y113.19 E9.35335
G1 X109.987 Y113.146 E9.35746
G1 X109.436 Y113.292 E9.38021
G1 X108.758 Y113.292 E9.40727
G1 X108.479 Y113.252 E9.41852
G1 X108.222 Y113.136 E9.42977
G1 X108.007 Y112.953 E9.44104
G1 X107.853 Y112.717 E9.45229
G1 X107.79 Y112.542 E9.45971
G1 X106.788 Y108.666 E9.6195
G1 X106.756 Y108.386 E9.63074
G1 X106.805 Y108.108 E9.64201
G1 X106.929 Y107.854 E9.65329
G1 X107.118 Y107.646 E9.66451
G0 F9000 X107.357 Y107.968
G1 F1800 X107.575 Y107.844 E9.67452
G1 X109.819 Y107.136 E9.76843
G1 X110.036 Y107.109 E9.77716
G1 X110.181 Y107.136 E9.78305
G1 X112.425 Y107.844 E9.87696
G1 X112.617 Y107.946 E9.88564
G1 X112.761 Y108.111 E9.89438
G1 X112.836 Y108.316 E9.90309
G1 X112.825 Y108.566 E9.91308
G1 X111.823 Y112.442 E10.07287
G1 X111.731 Y112.64 E10.08158
G1 X111.574 Y112.792 E10.0903
G1 X111.242 Y112.892 E10.10414
G1 X110.565 Y112.892 E10.13116
G1 X110.196 Y112.807 E10.14628
G1 X109.998 Y112.682 E10.15562
G1 X109.665 Y112.847 E10.17045
G1 X109.436 Y112.892 E10.17977
G1 X108.758 Y112.892 E10.20683
G1 X108.543 Y112.852 E10.21556
G1 X108.357 Y112.739 E10.22424
G1 X108.177 Y112.442 E10.23811
G1 X107.175 Y108.566 E10.39789
G1 X107.16 Y108.349 E10.40657
G1 X107.223 Y108.14 E10.41528
G1 X107.357 Y107.968 E10.42399
G0 F9000 X107.57 Y108.341
G1 F1800 X107.696 Y108.225 E10.43082
G1 X109.94 Y107.517 E10.52474
G1 X110.06 Y107.517 E10.52953
G1 X112.304 Y108.225 E10.62344
G1 X112.406 Y108.298 E10.62845
G1 X112.438 Y108.466 E10.63527
G1 X111.436 Y112.342 E10.79506
G1 X111.368 Y112.447 E10.80005
G1 X111.242 Y112.492 E10.80539
G1 X110.565 Y112.492 E10.83241
G1 X110.313 Y112.424 E10.84283
G1 X110 Y112.125 E10.86011
G1 X109.759 Y112.375 E10.87397
G1 X109.436 Y112.492 E10.88768
G1 X108.758 Y112.492 E10.91474
G1 X108.639 Y112.453 E10.91974
G1 X108.564 Y112.342 E10.92508
G1 X107.562 Y108.466 E11.08487
G1 X107.57 Y108.341 E11.08987
G1 F2400 E8.08987
G1 F300 Z0.44
;MESH:GreekMeanderLamp_assistant_clip.stl
G0 F9000 X110 Y107.918 Z0.44
M104 S215
;TYPE:WALL-OUTER
G1 F300 Z0.24
G1 F2400 E11.08987
G1 F1800 X112.003 Y108.55 E11.1737
G1 X111.087 Y112.092 E11.31972
G1 X110.593 Y112.092 E11.33943
G1 X110.483 Y112.058 E11.34403
G1 X110.293 Y111.851 E11.35524
G1 X110.288 Y111.792 E11.35761
G1 X110.855 Y111.792 E11.38024
G1 X111.641 Y108.749 E11.50567
G1 X110 Y108.232 E11.57434
G1 X108.359 Y108.749 E11.64301
G1 X109.145 Y111.792 E11.76845
G1 X109.714 Y111.792 E11.79116
G1 X109.709 Y111.85 E11.79349
G1 X109.555 Y112.031 E11.80297
G1 X109.425 Y112.092 E11.8087
G1 X108.913 Y112.092 E11.82914
G1 X107.997 Y108.55 E11.97516
G1 X110 Y107.918 E12.05899
;TIME_ELAPSED:16.556249
;LAYER:1
M140 S40
M106 S127.5
;MESH:GreekMeanderLamp_assistant_clip.stl
G0 F9000 X110 Y107.918 Z0.44
;TYPE:WALL-OUTER
G1 F600 X112.003 Y108.55 E12.12884
G1 X111.087 Y112.092 E12.25053
G1 X110.593 Y112.092 E12.26696
G1 X110.481 Y112.058 E12.27085
G1 X110.296 Y111.856 E12.27996
G1 X110.29 Y111.792 E12.2821
G1 X110.855 Y111.792 E12.30089
G1 X111.641 Y108.749 E12.40542
G1 X110 Y108.232 E12.46265
G1 X108.359 Y108.749 E12.51987
G1 X109.145 Y111.792 E12.6244
G1 X109.714 Y111.792 E12.64333
G1 X109.709 Y111.846 E12.64513
G1 X109.524 Y112.052 E12.65434
G1 X109.402 Y112.092 E12.65861
G1 X108.913 Y112.092 E12.67488
G1 X107.997 Y108.55 E12.79656
G1 X110 Y107.918 E12.86642
;TIME_ELAPSED:19.147047
;LAYER:2
M106 S191.3
;MESH:GreekMeanderLamp_assistant_clip.stl
G0 F9000 X110 Y107.918 Z0.64
;TYPE:WALL-OUTER
G1 F600 X112.003 Y108.55 E12.93627
G1 X111.087 Y112.092 E13.05796
G1 X110.593 Y112.092 E13.07439
G1 X110.482 Y112.058 E13.07825
G1 X110.297 Y111.858 E13.08731
G1 X110.291 Y111.792 E13.08952
G1 X110.855 Y111.792 E13.10827
G1 X111.641 Y108.749 E13.21281
G1 X110 Y108.232 E13.27003
G1 X108.359 Y108.749 E13.32726
G1 X109.145 Y111.792 E13.43179
G1 X109.714 Y111.792 E13.45071
G1 X109.709 Y111.847 E13.45255
G1 X109.527 Y112.05 E13.46162
G1 X109.404 Y112.092 E13.46594
G1 X108.913 Y112.092 E13.48227
G1 X107.997 Y108.55 E13.60395
G1 X110 Y107.918 E13.67381
;TIME_ELAPSED:21.737716
;LAYER:3
M106 S255
;MESH:GreekMeanderLamp_assistant_clip.stl
G0 F9000 X110 Y107.918 Z0.84
;TYPE:WALL-OUTER
G1 F600 X112.003 Y108.55 E13.74367
G1 X111.087 Y112.092 E13.86535
G1 X110.593 Y112.092 E13.88178
G1 X110.48 Y112.058 E13.88571
G1 X110.297 Y111.861 E13.89465
G1 X110.288 Y111.792 E13.89697
G1 X110.855 Y111.792 E13.91582
G1 X111.641 Y108.749 E14.02036
G1 X110 Y108.232 E14.07758
G1 X108.359 Y108.749 E14.13481
G1 X109.145 Y111.792 E14.23934
G1 X109.714 Y111.792 E14.25826
G1 X109.709 Y111.848 E14.26013
G1 X109.532 Y112.047 E14.26899
G1 X109.402 Y112.092 E14.27357
G1 X108.913 Y112.092 E14.28983
G1 X107.997 Y108.55 E14.41151
G1 X110 Y107.918 E14.48137
G1 F2400 E11.48137
G1 F300 Z1.04
;MESH:NONMESH
G0 F9000 X110.299 Y111.863 Z1.04
;TIME_ELAPSED:24.622941
;LAYER:4
;TYPE:WALL-OUTER
;MESH:GreekMeanderLamp_assistant_clip.stl
G1 F300 Z1.04
G1 F2400 E14.48137
G1 F600 X110.289 Y111.792 E14.48376
