;FLAVOR:Marlin
;TIME:6124
;Filament used: 4.99471m
;Layer height: 0.2
;MINX:84.066
;MINY:80.157
;MINZ:0.24
;MAXX:135.934
;MAXY:139.843
;MAXZ:63.28
;Generated with Cura_SteamEngine 4.8.0
M82 ;absolute extrusion mode
M201 X500.00 Y500.00 Z100.00 E5000.00 ;Setup machine max acceleration
M203 X500.00 Y500.00 Z10.00 E50.00 ;Setup machine max feedrate
M204 P500.00 R1000.00 T500.00 ;Setup Print/Retract/Travel acceleration
M205 X8.00 Y8.00 Z0.40 E5.00 ;Setup Jerk
M220 S100 ;Reset Feedrate
M221 S100 ;Reset Flowrate

;*** Start Dual Nozzle/Bed Preheating ***
M140 S50 ; start preheating the bed
M104 S215 ﻿T0 ; start preheating hotend
G28 ; home
M190 S50 ; heat to Cura Bed setting and WAIT
M109 S215 ﻿T0 ; heat to Cura Hotend and WAIT
;*** End Preheating ***


G92 E0 ;Reset Extruder
G1 Z2.0 F3000 ;Move Z Axis up

;*** Single Print Start Tone
M300 S1000 P500 ; chirp to indicate starting to print
;*** End Single Start Tone

G1 X10.1 Y20 Z0.28 F5000.0 ;Move to start position
G1 X10.1 Y200.0 Z0.28 F1500.0 E15 ;Draw the first line
G1 X10.4 Y200.0 Z0.28 F5000.0 ;Move to side a little
G1 X10.4 Y20 Z0.28 F1500.0 E30 ;Draw the second line
G92 E0 ;Reset Extruder
G1 Z2.0 F3000 ;Move Z Axis up
G92 E0
G92 E0
G1 F2400 E-3
;LAYER_COUNT:269
;LAYER:0
M106 S63.8
M204 S500
M205 X6 Y6
G1 F300 Z0.44
G0 F9000 X84.219 Y92.266 Z0.44
;TYPE:SKIRT
G1 F300 Z0.24
G1 F2400 E0
G1 F1800 X84.366 Y92.147 E0.00755
G1 X105.011 Y80.23 E0.95896
G1 X105.217 Y80.157 E0.96768
G1 X105.435 Y80.163 E0.97639
G1 X105.611 Y80.23 E0.9839
G1 X135.634 Y97.561 E2.3675
G1 X135.8 Y97.703 E2.37622
G1 X135.904 Y97.895 E2.38494
G1 X135.934 Y98.081 E2.39246
G1 X135.934 Y121.919 E3.34388
G1 X135.894 Y122.134 E3.35261
G1 X135.781 Y122.32 E3.3613
G1 X135.634 Y122.439 E3.36885
G1 X105.611 Y139.77 E4.75245
G1 X105.405 Y139.843 E4.76117
G1 X105.187 Y139.837 E4.76988
G1 X105.011 Y139.77 E4.77739
G1 X84.366 Y127.853 E5.7288
G1 X84.2 Y127.711 E5.73752
G1 X84.096 Y127.519 E5.74624
G1 X84.066 Y127.333 E5.75376
G1 X84.066 Y92.667 E7.13735
G1 X84.106 Y92.452 E7.14608
G1 X84.219 Y92.266 E7.15477
G0 F9000 X84.505 Y92.548
G1 F1800 X84.566 Y92.494 E7.15802
G1 X105.211 Y80.577 E8.10943
G1 X105.333 Y80.551 E8.11441
G1 X105.411 Y80.577 E8.11769
G1 X135.434 Y97.908 E9.50129
G1 X135.517 Y98.001 E9.50626
G1 X135.534 Y98.081 E9.50953
G1 X135.534 Y121.919 E10.46095
G1 X135.495 Y122.038 E10.46595
G1 X135.434 Y122.092 E10.4692
G1 X105.411 Y139.423 E11.85281
G1 X105.289 Y139.449 E11.85779
G1 X105.211 Y139.423 E11.86107
G1 X84.566 Y127.506 E12.81248
G1 X84.483 Y127.413 E12.81745
G1 X84.466 Y127.333 E12.82072
G1 X84.466 Y92.667 E14.20431
G1 X84.505 Y92.548 E14.20931
G1 F2400 E11.20931
G1 F300 Z0.44
;MESH:GreekMeanderLamp_base_tower_.7x.stl
G0 F9000 X84.866 Y127.217 Z0.44
;TYPE:WALL-OUTER
G1 F300 Z0.24
G1 F2400 E14.20931
G1 F1800 X84.866 Y92.783 E15.58364
G1 X105.311 Y80.981 E16.52585
G1 X135.134 Y98.197 E17.90024
G1 X135.134 Y121.803 E18.84241
G1 X105.311 Y139.019 E20.2168
G1 X84.866 Y127.217 E21.159
G0 F9000 X85.276 Y126.946
G0 X85.266 Y126.986
;TYPE:WALL-INNER
G1 F1800 X85.266 Y93.014 E22.5149
G1 X105.111 Y81.558 E23.42946
G1 X105.311 Y81.442 E23.43869
G1 X134.734 Y98.428 E24.79466
G1 X134.734 Y121.572 E25.71839
G1 X105.511 Y138.442 E27.06514
G1 X105.311 Y138.558 E27.07437
G1 X85.266 Y126.986 E27.99816
G0 F9000 X85.666 Y126.755
G1 F1800 X85.666 Y93.245 E29.33561
G1 X105.311 Y81.903 E30.24098
G1 X134.334 Y98.659 E31.57855
G1 X134.334 Y121.341 E32.48383
G1 X105.311 Y138.097 E33.8214
G1 X85.666 Y126.755 E34.72677
G0 F9000 X86.056 Y126.53
;TYPE:SKIN
G1 F1800 X86.056 Y93.47 E36.04626
G1 X105.311 Y82.354 E36.93364
G1 X133.944 Y98.884 E38.25321
G1 X133.944 Y121.116 E39.14054
G1 X105.311 Y137.646 E40.46011
G1 X86.056 Y126.53 E41.34749
G0 F9000 X86.216 Y126.379
G1 F1800 X86.352 Y126.516 E41.3552
G0 F9000 X86.216 Y125.814
G1 F1800 X87.691 Y127.289 E41.43845
G1 F2400 E38.43845
G1 F300 Z0.44
G0 F9000 X89.028 Y128.061 Z0.44
G1 F300 Z0.24
G1 F2400 E41.43845
G1 F1800 X86.216 Y125.248 E41.5972
G0 F9000 X86.216 Y124.682
G1 F1800 X90.367 Y128.834 E41.83153
G1 F2400 E38.83153
G1 F300 Z0.44
G0 F9000 X91.705 Y129.606 Z0.44
G1 F300 Z0.24
G1 F2400 E41.83153
G1 F1800 X86.216 Y124.117 E42.14135
G0 F9000 X86.216 Y123.551
G1 F1800 X93.043 Y130.378 E42.5267
G1 F2400 E39.5267
G1 F300 Z0.44
G0 F9000 X94.381 Y131.151 Z0.44
G1 F300 Z0.24
G1 F2400 E42.5267
G1 F1800 X86.216 Y122.985 E42.9876
G0 F9000 X86.216 Y122.419
G1 F1800 X95.719 Y131.923 E43.52401
G1 F2400 E40.52401
G1 F300 Z0.44
G0 F9000 X97.057 Y132.695 Z0.44
G1 F300 Z0.24
G1 F2400 E43.52401
G1 F1800 X86.216 Y121.854 E44.13593
G0 F9000 X86.216 Y121.288
G1 F1800 X98.396 Y133.468 E44.82342
G1 F2400 E41.82342
G1 F300 Z0.44
G0 F9000 X99.733 Y134.24 Z0.44
G1 F300 Z0.24
G1 F2400 E44.82342
G1 F1800 X86.216 Y120.722 E45.58641
G0 F9000 X86.216 Y120.157
G1 F1800 X101.071 Y135.012 E46.42489
G1 F2400 E43.42489
G1 F300 Z0.44
G0 F9000 X102.41 Y135.785 Z0.44
G1 F300 Z0.24
G1 F2400 E46.42489
G1 F1800 X86.216 Y119.591 E47.33894
G0 F9000 X86.216 Y119.025
G1 F1800 X103.748 Y136.557 E48.32853
G1 F2400 E45.32853
G1 F300 Z0.44
G0 F9000 X105.086 Y137.33 Z0.44
G1 F300 Z0.24
G1 F2400 E48.32853
G1 F1800 X86.216 Y118.46 E49.39363
G0 F9000 X86.216 Y117.894
G1 F1800 X105.609 Y137.287 E50.48826
G0 F9000 X105.967 Y137.08
G1 F1800 X86.216 Y117.328 E51.60312
G0 F9000 X86.216 Y116.763
G1 F1800 X106.326 Y136.873 E52.73821
G0 F9000 X106.684 Y136.666
G1 F1800 X86.216 Y116.197 E53.89354
G0 F9000 X86.216 Y115.631
G1 F1800 X107.043 Y136.459 E55.06914
G0 F9000 X107.402 Y136.252
G1 F1800 X86.216 Y115.066 E56.26497
G0 F9000 X86.216 Y114.5
G1 F1800 X107.76 Y136.045 E57.48103
G0 F9000 X108.119 Y135.838
G1 F1800 X86.216 Y113.934 E58.71736
G0 F9000 X86.216 Y113.369
G1 F1800 X108.477 Y135.63 E59.97386
G0 F9000 X108.837 Y135.424
G1 F1800 X86.216 Y112.803 E61.25069
G0 F9000 X86.216 Y112.237
G1 F1800 X109.195 Y135.217 E62.54775
G0 F9000 X109.554 Y135.01
G1 F1800 X86.216 Y111.671 E63.86508
G0 F9000 X86.216 Y111.106
G1 F1800 X109.912 Y134.802 E65.20258
G0 F9000 X110.271 Y134.595
G1 F1800 X86.216 Y110.54 E66.56035
G0 F9000 X86.216 Y109.974
G1 F1800 X110.63 Y134.389 E67.93841
G0 F9000 X110.988 Y134.181
G1 F1800 X86.216 Y109.409 E69.33665
G0 F9000 X86.216 Y108.843
G1 F1800 X111.347 Y133.974 E70.75515
G0 F9000 X111.705 Y133.767
G1 F1800 X86.216 Y108.277 E72.19389
G0 F9000 X86.216 Y107.712
G1 F1800 X112.065 Y133.561 E73.65292
G0 F9000 X112.423 Y133.353
G1 F1800 X86.216 Y107.146 E75.13216
G0 F9000 X86.216 Y106.58
G1 F1800 X112.782 Y133.146 E76.63166
G0 F9000 X113.14 Y132.939
G1 F1800 X86.216 Y106.015 E78.15136
G0 F9000 X86.216 Y105.449
G1 F1800 X113.499 Y132.732 E79.69133
G0 F9000 X113.858 Y132.525
G1 F1800 X86.216 Y104.883 E81.25157
G0 F9000 X86.216 Y104.318
G1 F1800 X114.216 Y132.318 E82.83201
G0 F9000 X114.575 Y132.111
G1 F1800 X86.216 Y103.752 E84.43271
G0 F9000 X86.216 Y103.186
G1 F1800 X114.933 Y131.904 E86.05365
G0 F9000 X115.292 Y131.697
G1 F1800 X86.216 Y102.62 E87.69486
G0 F9000 X86.216 Y102.055
G1 F1800 X115.651 Y131.49 E89.35629
G0 F9000 X116.01 Y131.283
G1 F1800 X86.216 Y101.489 E91.038
G0 F9000 X86.216 Y100.923
G1 F1800 X116.368 Y131.076 E92.73993
G0 F9000 X116.727 Y130.869
G1 F1800 X86.216 Y100.358 E94.46211
G0 F9000 X86.216 Y99.792
G1 F1800 X117.085 Y130.662 E96.20451
G0 F9000 X117.444 Y130.455
G1 F1800 X86.216 Y99.226 E97.96719
G0 F9000 X86.216 Y98.661
G1 F1800 X117.803 Y130.248 E99.75009
G0 F9000 X118.161 Y130.041
G1 F1800 X86.216 Y98.095 E101.55324
G0 F9000 X86.216 Y97.529
G1 F1800 X118.52 Y129.833 E103.37661
G0 F9000 X118.878 Y129.626
G1 F1800 X86.216 Y96.964 E105.2202
G0 F9000 X86.216 Y96.398
G1 F1800 X119.238 Y129.42 E107.0841
G0 F9000 X119.596 Y129.213
G1 F1800 X86.216 Y95.832 E108.96824
G0 F9000 X86.216 Y95.267
G1 F1800 X119.955 Y129.005 E110.87259
G0 F9000 X120.313 Y128.798
G1 F1800 X86.216 Y94.701 E112.79717
G0 F9000 X86.216 Y94.135
G1 F1800 X120.672 Y128.592 E114.74204
G0 F9000 X121.031 Y128.385
G1 F1800 X86.216 Y93.57 E116.70715
G0 F9000 X86.569 Y93.357
G1 F1800 X121.389 Y128.177 E118.67254
G0 F9000 X121.748 Y127.97
G1 F1800 X86.928 Y93.15 E120.63794
G0 F9000 X87.287 Y92.944
G1 F1800 X122.106 Y127.763 E122.60327
G0 F9000 X122.465 Y127.557
G1 F1800 X87.645 Y92.737 E124.56866
G0 F9000 X88.004 Y92.529
G1 F1800 X122.824 Y127.349 E126.53405
G0 F9000 X123.182 Y127.142
G1 F1800 X88.362 Y92.322 E128.49944
G0 F9000 X88.721 Y92.115
G1 F1800 X123.541 Y126.935 E130.46483
G0 F9000 X123.899 Y126.728
G1 F1800 X89.08 Y91.909 E132.43017
G0 F9000 X89.439 Y91.701
G1 F1800 X124.259 Y126.521 E134.39556
G0 F9000 X124.617 Y126.314
G1 F1800 X89.797 Y91.494 E136.36095
G0 F9000 X90.156 Y91.287
G1 F1800 X124.976 Y126.107 E138.32634
G0 F9000 X125.334 Y125.9
G1 F1800 X90.514 Y91.08 E140.29173
G0 F9000 X90.873 Y90.873
G1 F1800 X125.693 Y125.693 E142.25713
G0 F9000 X126.052 Y125.486
G1 F1800 X91.232 Y90.666 E144.22252
G0 F9000 X91.59 Y90.459
G1 F1800 X126.41 Y125.279 E146.18791
G0 F9000 X126.769 Y125.072
G1 F1800 X91.949 Y90.252 E148.1533
G0 F9000 X92.308 Y90.045
G1 F1800 X127.127 Y124.865 E150.11866
G0 F9000 X127.486 Y124.657
G1 F1800 X92.667 Y89.838 E152.084
G0 F9000 X93.025 Y89.631
G1 F1800 X127.845 Y124.451 E154.04939
G0 F9000 X128.204 Y124.244
G1 F1800 X93.384 Y89.424 E156.01478
G0 F9000 X93.742 Y89.217
G1 F1800 X128.562 Y124.037 E157.98017
G0 F9000 X128.921 Y123.829
G1 F1800 X94.101 Y89.01 E159.94553
G0 F9000 X94.46 Y88.803
G1 F1800 X129.279 Y123.622 E161.91087
G0 F9000 X129.638 Y123.416
G1 F1800 X94.818 Y88.596 E163.87626
G0 F9000 X95.177 Y88.389
G1 F1800 X129.997 Y123.209 E165.84165
G0 F9000 X130.355 Y123.001
G1 F1800 X95.535 Y88.181 E167.80704
G0 F9000 X95.894 Y87.975
G1 F1800 X130.714 Y122.794 E169.77241
G0 F9000 X131.073 Y122.588
G1 F1800 X96.253 Y87.768 E171.7378
G0 F9000 X96.611 Y87.561
G1 F1800 X131.432 Y122.381 E173.70322
G0 F9000 X131.79 Y122.173
G1 F1800 X96.97 Y87.353 E175.66861
G0 F9000 X97.329 Y87.146
G1 F1800 X132.149 Y121.966 E177.634
G0 F9000 X132.507 Y121.759
G1 F1800 X97.688 Y86.94 E179.59933
G0 F9000 X98.046 Y86.733
G1 F1800 X132.866 Y121.553 E181.56473
G0 F9000 X133.225 Y121.345
G1 F1800 X98.405 Y86.525 E183.53012
G0 F9000 X98.763 Y86.318
G1 F1800 X133.583 Y121.138 E185.49551
G0 F9000 X133.783 Y120.772
G1 F1800 X99.122 Y86.112 E187.4519
G0 F9000 X99.481 Y85.904
G1 F1800 X133.783 Y120.206 E189.38805
G0 F9000 X133.783 Y119.641
G1 F1800 X99.839 Y85.697 E191.304
G0 F9000 X100.198 Y85.49
G1 F1800 X133.783 Y119.075 E193.19968
G0 F9000 X133.783 Y118.509
G1 F1800 X100.556 Y85.283 E195.07513
G0 F9000 X100.916 Y85.076
G1 F1800 X133.783 Y117.943 E196.93028
G0 F9000 X133.783 Y117.378
G1 F1800 X101.274 Y84.869 E198.76523
G0 F9000 X101.633 Y84.662
G1 F1800 X133.783 Y116.812 E200.57991
G0 F9000 X133.783 Y116.246
G1 F1800 X101.991 Y84.455 E202.37436
G0 F9000 X102.35 Y84.248
G1 F1800 X133.783 Y115.681 E204.14858
G0 F9000 X133.783 Y115.115
G1 F1800 X102.709 Y84.041 E205.90253
G0 F9000 X103.067 Y83.834
G1 F1800 X133.783 Y114.549 E207.63624
G0 F9000 X133.783 Y113.984
G1 F1800 X103.426 Y83.627 E209.34972
G0 F9000 X103.784 Y83.42
G1 F1800 X133.783 Y113.418 E211.04297
G0 F9000 X133.783 Y112.852
G1 F1800 X104.144 Y83.213 E212.71592
G0 F9000 X104.502 Y83.006
G1 F1800 X133.783 Y112.287 E214.36867
G0 F9000 X133.783 Y111.721
G1 F1800 X104.861 Y82.799 E216.00115
G0 F9000 X105.219 Y82.592
G1 F1800 X133.783 Y111.155 E217.6134
G0 F9000 X133.783 Y110.59
G1 F1800 X106.308 Y83.115 E219.16421
G1 F2400 E216.16421
G1 F300 Z0.44
G0 F9000 X107.646 Y83.887 Z0.44
G1 F300 Z0.24
G1 F2400 E219.16421
G1 F1800 X133.783 Y110.024 E220.63949
G0 F9000 X133.783 Y109.458
G1 F1800 X108.984 Y84.66 E222.03923
G1 F2400 E219.03923
G1 F300 Z0.44
G0 F9000 X110.322 Y85.432 Z0.44
G1 F300 Z0.24
G1 F2400 E222.03923
G1 F1800 X133.783 Y108.893 E223.36347
G0 F9000 X133.783 Y108.327
G1 F1800 X111.661 Y86.205 E224.61213
G1 F2400 E221.61213
G1 F300 Z0.44
G0 F9000 X112.999 Y86.978 Z0.44
G1 F300 Z0.24
G1 F2400 E224.61213
G1 F1800 X133.783 Y107.761 E225.78524
G0 F9000 X133.783 Y107.195
G1 F1800 X114.337 Y87.75 E226.88283
G1 F2400 E223.88283
G1 F300 Z0.44
G0 F9000 X115.676 Y88.523 Z0.44
G1 F300 Z0.24
G1 F2400 E226.88283
G1 F1800 X133.783 Y106.63 E227.90486
G0 F9000 X133.783 Y106.064
G1 F1800 X117.014 Y89.296 E228.85135
G1 F2400 E225.85135
G1 F300 Z0.44
G0 F9000 X118.352 Y90.068 Z0.44
G1 F300 Z0.24
G1 F2400 E228.85135
G1 F1800 X133.783 Y105.498 E229.72231
G0 F9000 X133.783 Y104.933
G1 F1800 X119.691 Y90.841 E230.51773
G1 F2400 E227.51773
G1 F300 Z0.44
G0 F9000 X121.029 Y91.614 Z0.44
G1 F300 Z0.24
G1 F2400 E230.51773
G1 F1800 X133.783 Y104.367 E231.23759
G0 F9000 X133.783 Y103.801
G1 F1800 X122.367 Y92.386 E231.88193
G1 F2400 E228.88193
G1 F300 Z0.44
G0 F9000 X123.706 Y93.159 Z0.44
G1 F300 Z0.24
G1 F2400 E231.88193
G1 F1800 X133.783 Y103.236 E232.45072
G0 F9000 X133.783 Y102.67
G1 F1800 X125.044 Y93.932 E232.94396
G1 F2400 E229.94396
G1 F300 Z0.44
G0 F9000 X126.382 Y94.704 Z0.44
G1 F300 Z0.24
G1 F2400 E232.94396
G1 F1800 X133.783 Y102.104 E233.36167
G0 F9000 X133.783 Y101.539
G1 F1800 X127.721 Y95.477 E233.70384
G1 F2400 E230.70384
G1 F300 Z0.44
G0 F9000 X129.059 Y96.249 Z0.44
G1 F300 Z0.24
G1 F2400 E233.70384
G1 F1800 X133.783 Y100.973 E233.97048
G0 F9000 X133.783 Y100.407
G1 F1800 X130.397 Y97.022 E234.16158
G1 F2400 E231.16158
G1 F300 Z0.44
G0 F9000 X131.736 Y97.794 Z0.44
G1 F300 Z0.24
G1 F2400 E234.16158
G1 F1800 X133.783 Y99.842 E234.27715
G0 F9000 X133.783 Y99.276
G1 F1800 X133.073 Y98.567 E234.31719
G1 F2400 E231.31719
G1 F300 Z0.44
G0 F9000 X117.267 Y101.581 Z0.44
G0 X117.234 Y100.837
;TYPE:SKIN
G1 F300 Z0.24
G1 F2400 E234.31719
G1 F1800 X117.159 Y100.912 E234.31762
G1 X117.085 Y100.844 E234.31802
G1 X117.427 Y100.503 E234.31994
G1 X117.62 Y100.168 E234.32149
G1 X117.011 Y100.777 E234.32493
G1 X116.937 Y100.709 E234.32533
G1 X117.813 Y99.833 E234.33027
G1 X118.006 Y99.499 E234.33181
G1 X116.863 Y100.642 E234.33826
G1 X116.789 Y100.574 E234.33866
G1 X118.199 Y99.164 E234.34662
G1 X118.393 Y98.83 E234.34816
G1 X116.715 Y100.507 E234.35763
G1 X116.641 Y100.44 E234.35803
G1 X118.586 Y98.495 E234.36901
G1 X118.779 Y98.16 E234.37055
G1 X116.565 Y100.375 E234.38305
G1 X116.485 Y100.312 E234.38346
G1 X118.972 Y97.826 E234.39749
G1 X119.165 Y97.491 E234.39904
G1 X116.407 Y100.25 E234.41461
G1 X116.328 Y100.187 E234.41501
G1 X119.359 Y97.156 E234.43212
G1 X119.552 Y96.822 E234.43366
G1 X116.249 Y100.125 E234.4523
G1 X116.17 Y100.062 E234.4527
G1 X119.745 Y96.487 E234.47288
G1 X119.938 Y96.153 E234.47442
G1 X116.091 Y100 E234.49614
G1 X116.012 Y99.937 E234.49654
G1 X120.131 Y95.818 E234.51979
G1 X120.325 Y95.483 E234.52133
G1 X115.932 Y99.876 E234.54613
G1 X115.849 Y99.818 E234.54653
G1 X120.518 Y95.148 E234.57289
G1 X120.711 Y94.814 E234.57443
G1 X115.766 Y99.76 E234.60235
G1 X115.682 Y99.702 E234.60275
G1 X120.904 Y94.48 E234.63223
G1 X121.098 Y94.144 E234.63378
G1 X115.599 Y99.644 E234.66482
G1 X115.515 Y99.586 E234.66523
G1 X121.291 Y93.81 E234.69783
G1 X121.484 Y93.475 E234.69937
G1 X115.432 Y99.528 E234.73353
G1 X115.348 Y99.47 E234.73394
G1 X121.677 Y93.141 E234.76966
G1 X121.871 Y92.806 E234.77121
G1 X115.265 Y99.412 E234.8085
G1 X115.259 Y99.407 E234.80853
G1 X115.177 Y99.359 E234.80891
G1 X122.064 Y92.471 E234.84778
G1 X122.257 Y92.137 E234.84932
G1 X115.088 Y99.306 E234.88979
G1 X115 Y99.253 E234.8902
G1 X122.45 Y91.802 E234.93225
G1 X122.643 Y91.468 E234.93379
G1 X114.911 Y99.2 E234.97743
G1 X114.822 Y99.147 E234.97785
G1 X122.713 Y91.257 E235.02238
G1 X122.623 Y91.205 E235.0228
G1 X114.734 Y99.094 E235.06733
G1 X114.646 Y99.041 E235.06774
G1 X122.533 Y91.153 E235.11226
G1 X122.444 Y91.102 E235.11267
G1 X114.557 Y98.988 E235.15718
G1 X114.552 Y98.985 E235.15721
G1 X114.464 Y98.94 E235.1576
G1 X122.354 Y91.049 E235.20214
G1 X122.265 Y90.998 E235.20255
G1 X114.37 Y98.892 E235.24711
G1 X114.277 Y98.844 E235.24753
G1 X122.175 Y90.946 E235.29211
G1 X122.085 Y90.895 E235.29252
G1 X114.184 Y98.796 E235.33711
G1 X114.09 Y98.748 E235.33754
G1 X121.995 Y90.843 E235.38216
G1 X121.906 Y90.791 E235.38257
G1 X113.996 Y98.7 E235.42721
G1 X113.903 Y98.652 E235.42763
G1 X121.816 Y90.739 E235.47229
G1 X121.727 Y90.687 E235.4727
G1 X113.81 Y98.604 E235.51739
