;FLAVOR:Marlin
;TIME:2600
;Filament used: 1.60475m
;Layer height: 0.2
;MINX:91.723
;MINY:91.93
;MINZ:0.28
;MAXX:128.277
;MAXY:128.07
;MAXZ:19.4
;Generated with Cura_SteamEngine 4.5.0
M140 S110
M105
M190 S110
M104 S240
M105
M109 S240
M82 ;absolute extrusion mode
M201 X500.00 Y500.00 Z100.00 E5000.00 ;Setup machine max acceleration
M203 X500.00 Y500.00 Z10.00 E50.00 ;Setup machine max feedrate
M204 P500.00 R1000.00 T500.00 ;Setup Print/Retract/Travel acceleration
M205 X8.00 Y8.00 Z0.40 E5.00 ;Setup Jerk
M220 S100 ;Reset Feedrate
M221 S100 ;Reset Flowrate

G28 ;Home

G92 E0 ;Reset Extruder
G1 Z2.0 F3000 ;Move Z Axis up
G1 X10.1 Y20 Z0.28 F5000.0 ;Move to start position
G1 X10.1 Y200.0 Z0.28 F1500.0 E15 ;Draw the first line
G1 X10.4 Y200.0 Z0.28 F5000.0 ;Move to side a little
G1 X10.4 Y20 Z0.28 F1500.0 E30 ;Draw the second line
G92 E0 ;Reset Extruder
G1 Z2.0 F3000 ;Move Z Axis up

G92 E0
G92 E0
G1 F1800 E-3
;LAYER_COUNT:91
;LAYER:0
M107
M205 X6 Y6
G0 F9000 X93.674 Y93.724 Z0.28
;TYPE:SKIRT
G1 F1800 E0
G1 F2400 X94.504 Y93.088 E0.04869
G1 X95.411 Y92.585 E0.09698
G1 X96.357 Y92.229 E0.14405
G1 X97.302 Y92.016 E0.18916
G1 X98.23 Y91.935 E0.23253
G1 X121.335 Y91.93 E1.3084
G1 X122.496 Y91.991 E1.36253
G1 X123.5 Y92.187 E1.41017
G1 X124.417 Y92.509 E1.45542
G1 X125.311 Y92.971 E1.50228
G1 X126.14 Y93.562 E1.54969
G1 X126.881 Y94.275 E1.59757
G1 X127.508 Y95.081 E1.64512
G1 X128.008 Y95.965 E1.69241
G1 X128.171 Y96.351 E1.71192
G1 X128.256 Y96.761 E1.73142
G1 X128.263 Y97.18 E1.75093
G1 X128.19 Y97.593 E1.77046
G1 X128.04 Y97.984 E1.78996
G1 X127.819 Y98.34 E1.80947
G1 X127.534 Y98.647 E1.82898
G1 X127.196 Y98.895 E1.8485
G1 X126.97 Y99.002 E1.86014
G1 X127.268 Y99.156 E1.87576
G1 X127.597 Y99.415 E1.89526
G1 X127.871 Y99.732 E1.91477
G1 X128.08 Y100.095 E1.93427
G1 X128.216 Y100.492 E1.95381
G1 X128.277 Y101.005 E1.97787
G1 X128.277 Y104.755 E2.15249
G1 X128.237 Y105.172 E2.17199
G1 X128.119 Y105.574 E2.1915
G1 X127.926 Y105.946 E2.21101
G1 X127.667 Y106.275 E2.23051
G1 X127.35 Y106.549 E2.25002
G1 X126.984 Y106.759 E2.26967
G1 X127.268 Y106.906 E2.28456
G1 X127.597 Y107.165 E2.30406
G1 X127.871 Y107.482 E2.32357
G1 X128.08 Y107.845 E2.34307
G1 X128.216 Y108.242 E2.36261
G1 X128.277 Y108.755 E2.38667
G1 X128.277 Y112.505 E2.56129
G1 X128.237 Y112.922 E2.58079
G1 X128.119 Y113.324 E2.6003
G1 X127.926 Y113.696 E2.61982
G1 X127.667 Y114.025 E2.63931
G1 X127.35 Y114.299 E2.65882
G1 X126.98 Y114.51 E2.67866
G1 X127.261 Y114.656 E2.6934
G1 X127.59 Y114.915 E2.7129
G1 X127.864 Y115.232 E2.73241
G1 X128.073 Y115.595 E2.75191
G1 X128.209 Y115.992 E2.77145
G1 X128.268 Y116.407 E2.79097
G1 X128.247 Y116.825 E2.81046
G1 X128.146 Y117.232 E2.82999
G1 X127.682 Y118.154 E2.87805
G1 X127.088 Y118.995 E2.92599
G1 X126.383 Y119.736 E2.97362
G1 X125.575 Y120.37 E3.02144
G1 X124.695 Y120.874 E3.06866
G1 X123.788 Y121.237 E3.11415
G1 X122.858 Y121.468 E3.15877
G1 X121.946 Y121.569 E3.2015
G1 X117.713 Y121.58 E3.39861
G1 X117.71 Y125.788 E3.59455
G1 X117.67 Y126.287 E3.61786
G1 X117.552 Y126.689 E3.63737
G1 X117.359 Y127.061 E3.65688
G1 X117.1 Y127.39 E3.67638
G1 X116.783 Y127.664 E3.69589
G1 X116.42 Y127.873 E3.71539
G1 X116.023 Y128.009 E3.73493
G1 X115.51 Y128.07 E3.75899
G1 X104.51 Y128.07 E4.2712
G1 X104.093 Y128.03 E4.2907
G1 X103.691 Y127.912 E4.31021
G1 X103.319 Y127.719 E4.32973
G1 X102.99 Y127.46 E4.34922
G1 X102.716 Y127.143 E4.36873
G1 X102.507 Y126.78 E4.38824
G1 X102.371 Y126.383 E4.40778
G1 X102.31 Y125.87 E4.43183
G1 X102.31 Y121.583 E4.63146
G1 X98.373 Y121.58 E4.81478
G1 X97.595 Y121.533 E4.85107
G1 X96.647 Y121.361 E4.89593
G1 X95.704 Y121.052 E4.94214
G1 X94.781 Y120.595 E4.9901
G1 X93.921 Y119.996 E5.0389
G1 X93.156 Y119.275 E5.08785
G1 X92.508 Y118.451 E5.13666
G1 X91.995 Y117.554 E5.18478
G1 X91.831 Y117.168 E5.20431
G1 X91.744 Y116.758 E5.22382
G1 X91.735 Y116.339 E5.24334
G1 X91.806 Y115.926 E5.26285
G1 X91.955 Y115.534 E5.28238
G1 X92.175 Y115.178 E5.30187
G1 X92.458 Y114.869 E5.32138
G1 X92.795 Y114.62 E5.34089
G1 X93.029 Y114.508 E5.35297
G1 X92.732 Y114.354 E5.36855
G1 X92.403 Y114.095 E5.38804
G1 X92.129 Y113.778 E5.40755
G1 X91.92 Y113.415 E5.42706
G1 X91.784 Y113.018 E5.4466
G1 X91.723 Y112.505 E5.47065
G1 X91.723 Y108.755 E5.64527
G1 X91.763 Y108.338 E5.66478
G1 X91.881 Y107.936 E5.68429
G1 X92.074 Y107.564 E5.7038
G1 X92.333 Y107.235 E5.7233
G1 X92.65 Y106.961 E5.74281
G1 X93.016 Y106.751 E5.76246
G1 X92.732 Y106.604 E5.77735
G1 X92.403 Y106.345 E5.79684
G1 X92.129 Y106.028 E5.81635
G1 X91.92 Y105.665 E5.83586
G1 X91.784 Y105.268 E5.8554
G1 X91.723 Y104.755 E5.87946
G1 X91.723 Y101.005 E6.05407
G1 X91.763 Y100.588 E6.07358
G1 X91.881 Y100.186 E6.09309
G1 X92.074 Y99.814 E6.1126
G1 X92.333 Y99.485 E6.1321
G1 X92.65 Y99.211 E6.15161
G1 X93.019 Y99 E6.1714
G1 X92.738 Y98.854 E6.18615
G1 X92.409 Y98.595 E6.20564
G1 X92.135 Y98.278 E6.22515
G1 X91.926 Y97.915 E6.24466
G1 X91.79 Y97.518 E6.2642
G1 X91.731 Y97.103 E6.28372
G1 X91.752 Y96.685 E6.30321
G1 X91.853 Y96.278 E6.32273
G1 X92.335 Y95.329 E6.37229
G1 X92.94 Y94.482 E6.42076
G1 X93.674 Y93.724 E6.46989
G0 F9000 X93.955 Y94.009
G1 F2400 X94.74 Y93.411 E6.51584
G1 X95.597 Y92.94 E6.56138
G1 X96.489 Y92.606 E6.60573
G1 X97.382 Y92.408 E6.64832
G1 X98.256 Y92.334 E6.68917
G1 X121.335 Y92.33 E7.76382
G1 X122.473 Y92.391 E7.81689
G1 X123.412 Y92.577 E7.86146
G1 X124.276 Y92.883 E7.90414
G1 X125.119 Y93.322 E7.9484
G1 X125.9 Y93.883 E7.99317
G1 X126.598 Y94.557 E8.03836
G1 X127.186 Y95.319 E8.08317
G1 X127.656 Y96.154 E8.12779
G1 X127.799 Y96.505 E8.14544
G1 X127.865 Y96.878 E8.16308
G1 X127.852 Y97.256 E8.18069
G1 X127.76 Y97.624 E8.19835
G1 X127.593 Y97.964 E8.21599
G1 X127.359 Y98.262 E8.23363
G1 X127.067 Y98.504 E8.25129
G1 X126.731 Y98.679 E8.26893
G1 X126.366 Y98.781 E8.28658
G1 X123.69 Y98.805 E8.41119
G1 X123.313 Y98.765 E8.42884
G1 X122.953 Y98.647 E8.44648
G1 X122.526 Y98.378 E8.46998
G1 X122.229 Y98.126 E8.48812
G1 X121.856 Y97.963 E8.50707
G1 X121.413 Y97.961 E8.5277
G1 X121.034 Y98.118 E8.54681
G1 X120.401 Y98.596 E8.58374
G1 X120.049 Y98.737 E8.6014
G1 X119.56 Y98.805 E8.62439
G1 X115.94 Y98.805 E8.79295
G1 X115.563 Y98.765 E8.8106
G1 X115.203 Y98.647 E8.82824
G1 X114.784 Y98.385 E8.85125
G1 X114.467 Y98.12 E8.87049
G1 X114.071 Y97.957 E8.89043
G1 X113.69 Y97.954 E8.90817
G1 X113.302 Y98.107 E8.92759
G1 X112.984 Y98.423 E8.94847
G1 X112.826 Y98.813 E8.96806
G1 X112.824 Y99.197 E8.98594
G1 X112.977 Y99.578 E9.00506
G1 X113.295 Y99.898 E9.02607
G1 X113.679 Y100.054 E9.04537
G1 X114.069 Y100.055 E9.06353
G1 X114.467 Y99.89 E9.08359
G1 X115.099 Y99.414 E9.12043
G1 X115.451 Y99.273 E9.13809
G1 X115.94 Y99.205 E9.16108
G1 X119.56 Y99.205 E9.32964
G1 X119.937 Y99.245 E9.34729
G1 X120.297 Y99.363 E9.36493
G1 X120.716 Y99.625 E9.38795
G1 X121.033 Y99.89 E9.40718
G1 X121.429 Y100.053 E9.42712
G1 X121.872 Y100.042 E9.44776
G1 X122.229 Y99.884 E9.46594
G1 X122.839 Y99.419 E9.50165
G1 X123.19 Y99.276 E9.5193
G1 X123.69 Y99.205 E9.54282
G1 X126.077 Y99.205 E9.65397
G1 X126.454 Y99.245 E9.67162
G1 X126.814 Y99.363 E9.68926
G1 X127.141 Y99.553 E9.70687
G1 X127.422 Y99.808 E9.72454
G1 X127.642 Y100.117 E9.7422
G1 X127.794 Y100.464 E9.75984
G1 X127.877 Y101.005 E9.78533
G1 X127.877 Y104.755 E9.95994
G1 X127.837 Y105.132 E9.9776
G1 X127.719 Y105.492 E9.99524
G1 X127.529 Y105.819 E10.01285
G1 X127.274 Y106.1 E10.03052
G1 X126.965 Y106.32 E10.04818
G1 X126.618 Y106.472 E10.06582
G1 X126.077 Y106.555 E10.09131
G1 X123.69 Y106.555 E10.20245
G1 X123.313 Y106.515 E10.22011
G1 X122.953 Y106.397 E10.23775
G1 X122.526 Y106.128 E10.26125
G1 X122.229 Y105.876 E10.27938
G1 X121.856 Y105.713 E10.29834
G1 X121.411 Y105.711 E10.31906
G1 X121.033 Y105.87 E10.33815
G1 X120.401 Y106.346 E10.375
G1 X120.049 Y106.487 E10.39265
G1 X119.56 Y106.555 E10.41564
G1 X115.94 Y106.555 E10.5842
G1 X115.563 Y106.515 E10.60186
G1 X115.203 Y106.397 E10.6195
G1 X114.784 Y106.135 E10.64251
G1 X114.467 Y105.87 E10.66175
G1 X114.071 Y105.707 E10.68169
G1 X113.69 Y105.704 E10.69943
G1 X113.302 Y105.857 E10.71885
G1 X112.984 Y106.173 E10.73973
G1 X112.826 Y106.563 E10.75932
G1 X112.824 Y106.947 E10.7772
G1 X112.977 Y107.328 E10.79632
G1 X113.295 Y107.648 E10.81733
G1 X113.679 Y107.804 E10.83663
G1 X114.069 Y107.805 E10.85479
G1 X114.467 Y107.64 E10.87485
G1 X115.099 Y107.164 E10.91169
G1 X115.451 Y107.023 E10.92935
G1 X115.94 Y106.955 E10.95233
G1 X119.56 Y106.955 E11.1209
G1 X119.937 Y106.995 E11.13855
G1 X120.297 Y107.113 E11.15619
G1 X120.716 Y107.375 E11.1792
G1 X121.033 Y107.64 E11.19844
G1 X121.429 Y107.803 E11.21838
G1 X121.872 Y107.792 E11.23902
G1 X122.229 Y107.634 E11.25719
G1 X122.839 Y107.169 E11.29291
G1 X123.19 Y107.026 E11.31056
G1 X123.69 Y106.955 E11.33407
G1 X126.077 Y106.955 E11.44522
G1 X126.454 Y106.995 E11.46288
G1 X126.814 Y107.113 E11.48052
G1 X127.141 Y107.303 E11.49813
G1 X127.422 Y107.558 E11.5158
G1 X127.642 Y107.867 E11.53346
G1 X127.794 Y108.214 E11.5511
G1 X127.877 Y108.755 E11.57658
G1 X127.877 Y112.505 E11.7512
G1 X127.837 Y112.882 E11.76885
G1 X127.719 Y113.242 E11.78649
G1 X127.529 Y113.569 E11.8041
G1 X127.274 Y113.85 E11.82177
G1 X126.965 Y114.07 E11.83944
G1 X126.618 Y114.222 E11.85708
G1 X126.077 Y114.305 E11.88256
G1 X123.69 Y114.305 E11.99371
G1 X123.313 Y114.265 E12.01136
G1 X122.953 Y114.147 E12.029
G1 X122.526 Y113.878 E12.0525
G1 X122.229 Y113.626 E12.07064
G1 X121.856 Y113.463 E12.0896
G1 X121.413 Y113.461 E12.11022
G1 X121.033 Y113.62 E12.1294
G1 X120.401 Y114.096 E12.16625
G1 X120.049 Y114.237 E12.1839
G1 X119.56 Y114.305 E12.20689
G1 X115.94 Y114.305 E12.37545
G1 X115.563 Y114.265 E12.39311
G1 X115.203 Y114.147 E12.41075
G1 X114.784 Y113.885 E12.43376
G1 X114.467 Y113.62 E12.453
G1 X114.071 Y113.457 E12.47294
G1 X113.69 Y113.454 E12.49068
G1 X113.297 Y113.611 E12.51039
G1 X112.984 Y113.923 E12.53096
G1 X112.826 Y114.313 E12.55056
G1 X112.824 Y114.697 E12.56844
G1 X112.977 Y115.078 E12.58756
G1 X113.295 Y115.398 E12.60856
G1 X113.681 Y115.554 E12.62795
G1 X114.073 Y115.553 E12.6462
G1 X114.465 Y115.392 E12.66594
G1 X115.099 Y114.914 E12.70291
G1 X115.451 Y114.773 E12.72056
G1 X115.94 Y114.705 E12.74355
G1 X119.56 Y114.705 E12.91212
G1 X119.937 Y114.745 E12.92977
G1 X120.297 Y114.863 E12.94741
G1 X120.716 Y115.125 E12.97042
G1 X121.033 Y115.39 E12.98966
G1 X121.429 Y115.553 E13.0096
G1 X121.877 Y115.54 E13.03047
G1 X122.229 Y115.384 E13.0484
G1 X122.839 Y114.919 E13.08411
G1 X123.19 Y114.776 E13.10176
G1 X123.69 Y114.705 E13.12528
G1 X126.07 Y114.705 E13.2361
G1 X126.447 Y114.745 E13.25375
G1 X126.807 Y114.863 E13.27139
G1 X127.134 Y115.053 E13.289
G1 X127.415 Y115.308 E13.30667
G1 X127.635 Y115.617 E13.32434
G1 X127.787 Y115.964 E13.34198
G1 X127.862 Y116.335 E13.3596
G1 X127.858 Y116.714 E13.37725
G1 X127.774 Y117.084 E13.39492
G1 X127.329 Y117.965 E13.44088
G1 X126.767 Y118.756 E13.48606
G1 X126.1 Y119.454 E13.53101
G1 X125.335 Y120.049 E13.57614
G1 X124.504 Y120.522 E13.62067
G1 X123.647 Y120.862 E13.6636
G1 X122.77 Y121.078 E13.70565
G1 X121.91 Y121.171 E13.74593
G1 X117.313 Y121.18 E13.95999
G1 X117.31 Y125.787 E14.17451
G1 X117.27 Y126.247 E14.19601
G1 X117.152 Y126.607 E14.21365
G1 X116.962 Y126.934 E14.23126
G1 X116.707 Y127.215 E14.24893
G1 X116.398 Y127.435 E14.26659
G1 X116.051 Y127.587 E14.28423
G1 X115.51 Y127.67 E14.30972
G1 X104.51 Y127.67 E14.82192
G1 X104.133 Y127.63 E14.83958
G1 X103.773 Y127.512 E14.85722
G1 X103.446 Y127.322 E14.87483
G1 X103.165 Y127.067 E14.8925
G1 X102.945 Y126.758 E14.91016
G1 X102.793 Y126.411 E14.9278
G1 X102.71 Y125.87 E14.95329
G1 X102.71 Y121.183 E15.17153
G1 X98.374 Y121.18 E15.37343
G1 X97.621 Y121.134 E15.40856
G1 X96.727 Y120.969 E15.45089
G1 X95.836 Y120.675 E15.49458
G1 X94.967 Y120.24 E15.53983
G1 X94.157 Y119.673 E15.58587
G1 X93.437 Y118.99 E15.63208
G1 X92.828 Y118.211 E15.67813
G1 X92.347 Y117.363 E15.72352
G1 X92.202 Y117.013 E15.74116
G1 X92.134 Y116.64 E15.75882
G1 X92.146 Y116.261 E15.77648
G1 X92.236 Y115.893 E15.79412
G1 X92.402 Y115.552 E15.81178
G1 X92.635 Y115.254 E15.82939
G1 X92.926 Y115.011 E15.84704
G1 X93.261 Y114.834 E15.86469
G1 X93.625 Y114.731 E15.8823
G1 X96.31 Y114.705 E16.00733
G1 X96.687 Y114.745 E16.02498
G1 X97.047 Y114.863 E16.04263
G1 X97.466 Y115.125 E16.06564
G1 X97.785 Y115.392 E16.08501
G1 X98.182 Y115.554 E16.10497
G1 X98.569 Y115.555 E16.12299
G1 X98.967 Y115.39 E16.14305
G1 X99.599 Y114.914 E16.1799
G1 X99.951 Y114.773 E16.19755
G1 X100.44 Y114.705 E16.22054
G1 X104.06 Y114.705 E16.3891
G1 X104.437 Y114.745 E16.40676
G1 X104.797 Y114.863 E16.4244
G1 X105.216 Y115.125 E16.44741
G1 X105.533 Y115.39 E16.46665
G1 X105.929 Y115.553 E16.48659
G1 X106.312 Y115.556 E16.50442
G1 X106.704 Y115.399 E16.52409
G1 X107.015 Y115.09 E16.5445
G1 X107.174 Y114.695 E16.56433
G1 X107.176 Y114.313 E16.58211
G1 X107.023 Y113.932 E16.60123
G1 X106.707 Y113.614 E16.62211
G1 X106.316 Y113.456 E16.64174
G1 X105.931 Y113.455 E16.65967
G1 X105.533 Y113.62 E16.67973
G1 X104.901 Y114.096 E16.71658
G1 X104.549 Y114.237 E16.73423
G1 X104.06 Y114.305 E16.75722
G1 X100.44 Y114.305 E16.92578
G1 X100.063 Y114.265 E16.94344
G1 X99.703 Y114.147 E16.96108
G1 X99.284 Y113.885 E16.98409
G1 X98.967 Y113.62 E17.00333
G1 X98.571 Y113.457 E17.02327
G1 X98.179 Y113.456 E17.04152
G1 X97.783 Y113.62 E17.06148
G1 X97.151 Y114.096 E17.09832
G1 X96.799 Y114.237 E17.11598
G1 X96.31 Y114.305 E17.13897
G1 X93.923 Y114.305 E17.25012
G1 X93.546 Y114.265 E17.26777
G1 X93.186 Y114.147 E17.28541
G1 X92.859 Y113.957 E17.30302
G1 X92.578 Y113.702 E17.32069
G1 X92.358 Y113.393 E17.33835
G1 X92.206 Y113.046 E17.35599
G1 X92.123 Y112.505 E17.38148
G1 X92.123 Y108.755 E17.55609
G1 X92.163 Y108.378 E17.57375
G1 X92.281 Y108.018 E17.59139
G1 X92.471 Y107.691 E17.609
G1 X92.726 Y107.41 E17.62667
G1 X93.035 Y107.19 E17.64433
G1 X93.382 Y107.038 E17.66197
G1 X93.923 Y106.955 E17.68745
G1 X96.31 Y106.955 E17.7986
G1 X96.687 Y106.995 E17.81626
G1 X97.047 Y107.113 E17.8339
G1 X97.466 Y107.375 E17.85691
G1 X97.785 Y107.642 E17.87628
G1 X98.182 Y107.804 E17.89624
G1 X98.569 Y107.805 E17.91426
G1 X98.967 Y107.64 E17.93433
G1 X99.599 Y107.164 E17.97117
G1 X99.951 Y107.023 E17.98882
G1 X100.44 Y106.955 E18.01181
G1 X104.06 Y106.955 E18.18038
G1 X104.437 Y106.995 E18.19803
G1 X104.797 Y107.113 E18.21567
G1 X105.216 Y107.375 E18.23868
G1 X105.533 Y107.64 E18.25792
G1 X105.929 Y107.803 E18.27786
G1 X106.317 Y107.806 E18.29593
G1 X106.703 Y107.649 E18.31533
G1 X107.02 Y107.332 E18.33621
G1 X107.174 Y106.945 E18.3556
G1 X107.176 Y106.563 E18.37339
G1 X107.023 Y106.182 E18.39251
G1 X106.707 Y105.864 E18.41338
G1 X106.316 Y105.706 E18.43302
G1 X105.931 Y105.705 E18.45095
G1 X105.533 Y105.87 E18.47101
G1 X104.901 Y106.346 E18.50785
G1 X104.549 Y106.487 E18.52551
G1 X104.06 Y106.555 E18.54849
G1 X100.44 Y106.555 E18.71706
G1 X100.063 Y106.515 E18.73471
G1 X99.703 Y106.397 E18.75235
G1 X99.284 Y106.135 E18.77536
G1 X98.967 Y105.87 E18.7946
G1 X98.571 Y105.707 E18.81454
G1 X98.179 Y105.706 E18.83279
G1 X97.783 Y105.87 E18.85275
G1 X97.151 Y106.346 E18.88959
G1 X96.799 Y106.487 E18.90725
G1 X96.31 Y106.555 E18.93024
G1 X93.923 Y106.555 E19.04139
G1 X93.546 Y106.515 E19.05904
G1 X93.186 Y106.397 E19.07668
G1 X92.859 Y106.207 E19.09429
G1 X92.578 Y105.952 E19.11196
G1 X92.358 Y105.643 E19.12962
G1 X92.206 Y105.296 E19.14726
G1 X92.123 Y104.755 E19.17275
G1 X92.123 Y101.005 E19.34737
G1 X92.163 Y100.628 E19.36502
G1 X92.281 Y100.268 E19.38266
G1 X92.471 Y99.941 E19.40027
G1 X92.726 Y99.66 E19.41794
G1 X93.035 Y99.44 E19.4356
G1 X93.382 Y99.288 E19.45324
G1 X93.923 Y99.205 E19.47873
G1 X96.31 Y99.205 E19.58988
G1 X96.687 Y99.245 E19.60753
G1 X97.047 Y99.363 E19.62517
G1 X97.466 Y99.625 E19.64818
G1 X97.785 Y99.892 E19.66755
G1 X98.182 Y100.054 E19.68752
G1 X98.569 Y100.055 E19.70554
G1 X98.967 Y99.89 E19.7256
G1 X99.599 Y99.414 E19.76244
G1 X99.951 Y99.273 E19.7801
G1 X100.44 Y99.205 E19.80309
G1 X104.06 Y99.205 E19.97165
G1 X104.437 Y99.245 E19.9893
G1 X104.797 Y99.363 E20.00694
G1 X105.216 Y99.625 E20.02995
G1 X105.533 Y99.89 E20.04919
G1 X105.929 Y100.053 E20.06913
G1 X106.317 Y100.056 E20.0872
G1 X106.698 Y99.903 E20.10632
