;FLAVOR:Marlin
;TIME:20093
;Filament used: 23.3133m
;Layer height: 0.24
;MINX:63.827
;MINY:60.029
;MINZ:0.24
;MAXX:156.173
;MAXY:157.748
;MAXZ:144.72
;Generated with Cura_SteamEngine 4.7.1
M140 S50
M105
M190 S50
M104 S230
M105
M109 S230
M82 ;absolute extrusion mode
M201 X500.00 Y500.00 Z100.00 E5000.00 ;Setup machine max acceleration
M203 X500.00 Y500.00 Z10.00 E50.00 ;Setup machine max feedrate
M204 P500.00 R1000.00 T500.00 ;Setup Print/Retract/Travel acceleration
M205 X8.00 Y8.00 Z0.40 E5.00 ;Setup Jerk
M220 S100 ;Reset Feedrate
M221 S100 ;Reset Flowrate

G28 ;Home

G92 E0 ;Reset Extruder
G1 Z2.0 F3000 ;Move Z Axis up
G1 X10.1 Y20 Z0.28 F5000.0 ;Move to start position
G1 X10.1 Y200.0 Z0.28 F1500.0 E15 ;Draw the first line
G1 X10.4 Y200.0 Z0.28 F5000.0 ;Move to side a little
G1 X10.4 Y20 Z0.28 F1500.0 E30 ;Draw the second line
G92 E0 ;Reset Extruder
G1 Z2.0 F3000 ;Move Z Axis up

G92 E0
G92 E0
G1 F1800 E-3
;LAYER_COUNT:547
;LAYER:0
M107
M205 X6 Y6
G0 F9000 X64.618 Y68.297 Z0.24
;TYPE:SKIRT
G1 F1800 E0
G1 F3600 X64.934 Y68.037 E0.0245
G1 X65.295 Y67.844 E0.04901
G1 X65.687 Y67.724 E0.07355
G1 X66.103 Y67.682 E0.09858
G1 X71.475 Y67.682 E0.42019
G1 X71.475 Y62.305 E0.74211
G1 X71.515 Y61.898 E0.76659
G1 X71.633 Y61.506 E0.7911
G1 X71.825 Y61.144 E0.81563
G1 X72.266 Y60.644 E0.85554
G1 X72.582 Y60.384 E0.88004
G1 X72.943 Y60.191 E0.90455
G1 X73.335 Y60.071 E0.92909
G1 X73.751 Y60.029 E0.95412
G1 X99.899 Y60.029 E2.51956
G1 X100.306 Y60.069 E2.54404
G1 X100.698 Y60.187 E2.56855
G1 X101.06 Y60.379 E2.59308
G1 X101.56 Y60.82 E2.633
G1 X101.82 Y61.136 E2.6575
G1 X102.013 Y61.497 E2.682
G1 X102.133 Y61.889 E2.70655
G1 X102.175 Y62.305 E2.73158
G1 X102.175 Y67.682 E3.05349
G1 X119.975 Y67.682 E4.11914
G1 X119.975 Y62.305 E4.44106
G1 X120.015 Y61.898 E4.46554
G1 X120.133 Y61.506 E4.49005
G1 X120.325 Y61.144 E4.51458
G1 X120.766 Y60.644 E4.55449
G1 X121.082 Y60.384 E4.57899
G1 X121.443 Y60.191 E4.6035
G1 X121.835 Y60.071 E4.62804
G1 X122.251 Y60.029 E4.65308
G1 X148.397 Y60.03 E6.21839
G1 X148.805 Y60.07 E6.24293
G1 X149.196 Y60.188 E6.26739
G1 X149.558 Y60.38 E6.29192
G1 X150.058 Y60.821 E6.33183
G1 X150.318 Y61.137 E6.35633
G1 X150.511 Y61.498 E6.38084
G1 X150.631 Y61.89 E6.40538
G1 X150.673 Y62.306 E6.43041
G1 X150.673 Y68.576 E6.80579
G1 X150.848 Y68.789 E6.82229
G1 X151.041 Y69.15 E6.8468
G1 X151.161 Y69.542 E6.87134
G1 X151.203 Y69.958 E6.89637
G1 X151.203 Y76.106 E7.26444
G1 X151.163 Y76.513 E7.28893
G1 X151.045 Y76.905 E7.31344
G1 X150.853 Y77.267 E7.33797
G1 X150.412 Y77.767 E7.37788
G1 X150.096 Y78.027 E7.40238
G1 X149.735 Y78.22 E7.42689
G1 X149.343 Y78.34 E7.45143
G1 X148.927 Y78.382 E7.47646
G1 X66.103 Y78.382 E12.43499
G1 X65.696 Y78.342 E12.45947
G1 X65.304 Y78.224 E12.48398
G1 X64.942 Y78.032 E12.50851
G1 X64.442 Y77.591 E12.54843
G1 X64.182 Y77.275 E12.57293
G1 X63.989 Y76.914 E12.59743
G1 X63.869 Y76.522 E12.62198
G1 X63.827 Y76.106 E12.64701
G1 X63.827 Y69.958 E13.01508
G1 X63.867 Y69.551 E13.03956
G1 X63.985 Y69.159 E13.06407
G1 X64.177 Y68.797 E13.0886
G1 X64.618 Y68.297 E13.12852
G0 F9000 X64.866 Y68.897
G1 F3600 X65.313 Y68.507 E13.16403
G1 X65.627 Y68.36 E13.18479
G1 X66.103 Y68.282 E13.21367
G1 X72.075 Y68.282 E13.5712
G1 X72.075 Y62.305 E13.92903
G1 X72.115 Y61.961 E13.94977
G1 X72.232 Y61.636 E13.97044
G1 X72.514 Y61.244 E13.99935
G1 X72.961 Y60.854 E14.03487
G1 X73.275 Y60.707 E14.05563
G1 X73.751 Y60.629 E14.0845
G1 X99.899 Y60.629 E15.64994
G1 X100.243 Y60.669 E15.67067
G1 X100.568 Y60.786 E15.69135
G1 X100.96 Y61.068 E15.72026
G1 X101.35 Y61.515 E15.75578
G1 X101.497 Y61.829 E15.77653
G1 X101.575 Y62.305 E15.80541
G1 X101.575 Y68.282 E16.16324
G1 X120.575 Y68.282 E17.30074
G1 X120.575 Y62.305 E17.65857
G1 X120.615 Y61.961 E17.67931
G1 X120.732 Y61.636 E17.69999
G1 X121.014 Y61.244 E17.7289
G1 X121.461 Y60.854 E17.76441
G1 X121.775 Y60.707 E17.78517
G1 X122.251 Y60.629 E17.81404
G1 X148.397 Y60.63 E19.37936
G1 X148.741 Y60.67 E19.40009
G1 X149.066 Y60.787 E19.42077
G1 X149.458 Y61.069 E19.44968
G1 X149.848 Y61.516 E19.4852
G1 X149.995 Y61.83 E19.50595
G1 X150.073 Y62.306 E19.53483
G1 X150.073 Y68.582 E19.91057
G1 X150.05 Y68.783 E19.92268
G1 X150.378 Y69.168 E19.95296
G1 X150.525 Y69.482 E19.97371
G1 X150.603 Y69.958 E20.00259
G1 X150.603 Y76.106 E20.37066
G1 X150.563 Y76.45 E20.39139
G1 X150.446 Y76.775 E20.41207
G1 X150.164 Y77.167 E20.44098
G1 X149.717 Y77.557 E20.4765
G1 X149.403 Y77.704 E20.49726
G1 X148.927 Y77.782 E20.52613
G1 X66.103 Y77.782 E25.48466
G1 X65.759 Y77.742 E25.50539
G1 X65.434 Y77.625 E25.52607
G1 X65.042 Y77.343 E25.55498
G1 X64.652 Y76.896 E25.5905
G1 X64.505 Y76.582 E25.61126
G1 X64.427 Y76.106 E25.64013
G1 X64.427 Y69.958 E26.0082
G1 X64.467 Y69.614 E26.02894
G1 X64.584 Y69.289 E26.04962
G1 X64.866 Y68.897 E26.07853
G0 F9000 X65.467 Y69.146
G1 F3600 X65.682 Y68.987 E26.09453
G1 X65.934 Y68.898 E26.11053
G1 X66.103 Y68.882 E26.1207
G1 X72.732 Y68.882 E26.51756
G1 X72.675 Y68.582 E26.53585
G1 X72.675 Y62.305 E26.91164
G1 X72.715 Y62.04 E26.92768
G1 X72.831 Y61.799 E26.9437
G1 X73.115 Y61.493 E26.96869
G1 X73.33 Y61.334 E26.9847
G1 X73.582 Y61.245 E27.0007
G1 X73.751 Y61.229 E27.01086
G1 X99.899 Y61.229 E28.5763
G1 X100.164 Y61.269 E28.59234
G1 X100.405 Y61.385 E28.60835
G1 X100.711 Y61.669 E28.63335
G1 X100.87 Y61.884 E28.64936
G1 X100.959 Y62.136 E28.66536
G1 X100.975 Y62.305 E28.67552
G1 X100.975 Y68.582 E29.05131
G1 X100.918 Y68.882 E29.0696
G1 X121.232 Y68.882 E30.28576
G1 X121.175 Y68.582 E30.30404
G1 X121.175 Y62.305 E30.67983
G1 X121.215 Y62.04 E30.69588
G1 X121.331 Y61.799 E30.71189
G1 X121.615 Y61.493 E30.73689
G1 X121.83 Y61.334 E30.75289
G1 X122.082 Y61.245 E30.76889
G1 X122.251 Y61.229 E30.77906
G1 X148.397 Y61.23 E32.34437
G1 X148.662 Y61.27 E32.36042
G1 X148.903 Y61.386 E32.37643
G1 X149.209 Y61.67 E32.40142
G1 X149.368 Y61.885 E32.41743
G1 X149.457 Y62.137 E32.43343
G1 X149.473 Y62.306 E32.4436
G1 X149.473 Y68.582 E32.81933
G1 X149.433 Y68.847 E32.83537
G1 X149.358 Y69.002 E32.84568
G1 X149.563 Y69.146 E32.86068
G1 X149.898 Y69.537 E32.89151
G1 X149.987 Y69.789 E32.90751
G1 X150.003 Y69.958 E32.91767
G1 X150.003 Y76.106 E33.28574
G1 X149.963 Y76.371 E33.30178
G1 X149.847 Y76.612 E33.3178
G1 X149.563 Y76.918 E33.34279
G1 X149.348 Y77.077 E33.3588
G1 X149.096 Y77.166 E33.3748
G1 X148.927 Y77.182 E33.38496
G1 X66.103 Y77.182 E38.34349
G1 X65.838 Y77.142 E38.35954
G1 X65.597 Y77.026 E38.37555
G1 X65.291 Y76.742 E38.40054
G1 X65.132 Y76.527 E38.41655
G1 X65.043 Y76.275 E38.43255
G1 X65.027 Y76.106 E38.44271
G1 X65.027 Y69.958 E38.81078
G1 X65.067 Y69.693 E38.82683
G1 X65.183 Y69.452 E38.84284
G1 X65.467 Y69.146 E38.86784
G0 F9000 X65.715 Y69.746
G1 F3600 X66.024 Y69.493 E38.89174
G1 X66.103 Y69.482 E38.89652
G1 X148.927 Y69.482 E43.85505
G1 X149.139 Y69.57 E43.86879
G1 X149.392 Y69.879 E43.8927
G1 X149.403 Y69.958 E43.89747
G1 X149.403 Y76.106 E44.26554
G1 X149.315 Y76.318 E44.27929
G1 X149.006 Y76.571 E44.30319
G1 X148.927 Y76.582 E44.30797
G1 X66.103 Y76.582 E49.2665
G1 X65.891 Y76.494 E49.28024
G1 X65.638 Y76.185 E49.30415
G1 X65.627 Y76.106 E49.30892
G1 X65.627 Y69.958 E49.67699
G1 X65.715 Y69.746 E49.69074
G1 F1800 E46.69074
G0 F9000 X65.829 Y69.121
G0 X73.275 Y68.582
G1 F1800 E49.69074
G1 F3600 X73.275 Y62.305 E50.06653
G1 X73.363 Y62.093 E50.08027
G1 X73.672 Y61.84 E50.10418
G1 X73.751 Y61.829 E50.10895
G1 X99.899 Y61.829 E51.67439
G1 X100.111 Y61.917 E51.68813
G1 X100.364 Y62.226 E51.71204
G1 X100.375 Y62.305 E51.71682
G1 X100.375 Y68.582 E52.09261
G1 X100.336 Y68.731 E52.10183
G1 X100.228 Y68.84 E52.11102
G1 X100.075 Y68.882 E52.12052
G1 X73.575 Y68.882 E53.70702
G1 X73.426 Y68.843 E53.71624
G1 X73.317 Y68.735 E53.72543
G1 X73.275 Y68.582 E53.73493
G0 F9000 X73.875 Y68.282
G1 F3600 X73.875 Y62.429 E54.08534
G1 X99.775 Y62.429 E55.63593
G1 X99.775 Y68.282 E55.98633
G1 X73.875 Y68.282 E57.53692
G0 F9000 X74.475 Y67.682
G1 F3600 X74.475 Y63.029 E57.81549
G1 X99.175 Y63.029 E59.29423
G1 X99.175 Y67.682 E59.5728
G1 X74.475 Y67.682 E61.05155
G0 F9000 X75.075 Y67.082
G1 F3600 X75.075 Y63.629 E61.25827
G1 X98.575 Y63.629 E62.66518
G1 X98.575 Y67.082 E62.8719
G1 X75.075 Y67.082 E64.2788
G0 F9000 X75.675 Y66.482
G1 F3600 X75.675 Y64.229 E64.41369
G1 X97.975 Y64.229 E65.74875
G1 X97.975 Y66.482 E65.88363
G1 X75.675 Y66.482 E67.21869
G0 F9000 X76.275 Y65.882
G1 F3600 X76.275 Y64.829 E67.28174
G1 X97.375 Y64.829 E68.54496
G1 X97.375 Y65.882 E68.608
G1 X76.275 Y65.882 E69.87122
G1 F1800 E66.87122
G0 F9000 X65.829 Y69.121
G0 X65.266 Y69.684
G0 X65.266 Y76.38
G0 X67.835 Y97.631
G1 F1800 E69.87122
G1 F3600 X68.252 Y97.589 E69.89631
G1 X70.59 Y97.59 E70.03628
G1 X70.997 Y97.63 E70.06076
G1 X71.389 Y97.748 E70.08527
G1 X71.751 Y97.941 E70.10983
G1 X72.074 Y98.205 E70.13481
G1 X72.56 Y98.691 E70.17596
G1 X72.82 Y99.007 E70.20045
G1 X73.013 Y99.368 E70.22496
G1 X73.133 Y99.76 E70.2495
G1 X73.175 Y100.176 E70.27454
G1 X73.175 Y107.119 E70.6902
G1 X73.982 Y107.159 E70.73857
G1 X74.374 Y107.277 E70.76308
G1 X74.736 Y107.469 E70.78762
G1 X75.053 Y107.728 E70.81212
G1 X75.315 Y108.043 E70.83665
G1 X75.51 Y108.403 E70.86116
G1 X75.631 Y108.794 E70.88567
G1 X75.675 Y109.219 E70.91125
G1 X75.675 Y110.725 E71.00141
G1 X75.879 Y111.097 E71.02681
G1 X76 Y111.489 E71.05137
G1 X76.042 Y111.896 E71.07587
G1 X76.005 Y112.304 E71.10039
G1 X75.839 Y112.816 E71.13261
G1 X75.643 Y113.176 E71.15715
G1 X75.382 Y113.491 E71.18165
G1 X75.065 Y113.749 E71.20612
G1 X74.703 Y113.941 E71.23065
G1 X74.311 Y114.059 E71.25516
G1 X73.904 Y114.099 E71.27964
G1 X68.251 Y114.098 E71.61807
G1 X67.843 Y114.058 E71.64262
G1 X67.451 Y113.94 E71.66713
G1 X67.09 Y113.748 E71.69161
G1 X66.59 Y113.307 E71.73152
G1 X66.33 Y112.991 E71.75602
G1 X66.137 Y112.63 E71.78053
G1 X66.017 Y112.238 E71.80507
G1 X65.975 Y111.822 E71.8301
G1 X65.975 Y99.865 E72.54595
G1 X66.015 Y99.458 E72.57043
G1 X66.133 Y99.066 E72.59494
G1 X66.325 Y98.704 E72.61947
G1 X66.766 Y98.204 E72.65938
G1 X67.082 Y97.944 E72.68388
G1 X67.443 Y97.751 E72.70839
G1 X67.835 Y97.631 E72.73293
G0 F9000 X68.252 Y98.189
G1 F3600 X70.59 Y98.19 E72.8729
G1 X70.933 Y98.23 E72.89358
G1 X71.258 Y98.348 E72.91428
G1 X71.65 Y98.629 E72.94315
G1 X72.136 Y99.115 E72.9843
G1 X72.35 Y99.386 E73.00497
G1 X72.497 Y99.7 E73.02573
G1 X72.575 Y100.176 E73.05461
G1 X72.575 Y107.719 E73.50619
G1 X73.575 Y107.719 E73.56606
G1 X73.919 Y107.759 E73.5868
G1 X74.244 Y107.876 E73.60748
G1 X74.534 Y108.065 E73.6282
G1 X74.772 Y108.315 E73.64886
G1 X74.947 Y108.614 E73.66961
G1 X75.05 Y108.944 E73.6903
G1 X75.075 Y109.219 E73.70683
G1 X75.075 Y110.939 E73.80981
G1 X75.216 Y111.117 E73.8234
G1 X75.363 Y111.43 E73.8441
G1 X75.435 Y111.768 E73.86479
G1 X75.428 Y112.114 E73.88551
G1 X75.286 Y112.582 E73.91479
G1 X75.116 Y112.883 E73.93549
G1 X74.881 Y113.137 E73.9562
G1 X74.594 Y113.331 E73.97694
G1 X74.271 Y113.453 E73.99762
G1 X73.904 Y113.499 E74.01976
G1 X68.251 Y113.498 E74.35819
G1 X67.907 Y113.458 E74.37893
G1 X67.582 Y113.341 E74.39961
G1 X67.19 Y113.059 E74.42852
G1 X66.8 Y112.612 E74.46403
G1 X66.653 Y112.298 E74.48479
G1 X66.575 Y111.822 E74.51367
G1 X66.575 Y99.865 E75.22951
G1 X66.615 Y99.521 E75.25024
G1 X66.732 Y99.196 E75.27092
G1 X67.014 Y98.804 E75.29983
G1 X67.461 Y98.414 E75.33535
G1 X67.775 Y98.267 E75.35611
G1 X68.252 Y98.189 E75.38504
G0 F9000 X68.082 Y98.805
G1 F3600 X68.251 Y98.789 E75.3952
G1 X70.589 Y98.79 E75.53518
G1 X70.854 Y98.83 E75.55122
G1 X71.095 Y98.946 E75.56723
G1 X71.225 Y99.054 E75.57735
G1 X71.711 Y99.54 E75.6185
G1 X71.87 Y99.755 E75.63451
G1 X71.959 Y100.007 E75.65051
G1 X71.975 Y100.176 E75.66067
G1 X71.975 Y108.319 E76.14818
G1 X73.575 Y108.319 E76.24397
G1 X73.84 Y108.359 E76.26001
G1 X74.081 Y108.475 E76.27603
G1 X74.277 Y108.656 E76.292
G1 X74.412 Y108.888 E76.30807
G1 X74.475 Y109.219 E76.32824
G1 X74.475 Y111.169 E76.44498
G1 X74.737 Y111.486 E76.4696
G1 X74.826 Y111.739 E76.48566
G1 X74.837 Y112.006 E76.50166
G1 X74.733 Y112.349 E76.52312
G1 X74.594 Y112.577 E76.5391
G1 X74.393 Y112.755 E76.55518
G1 X74.149 Y112.865 E76.5712
G1 X73.904 Y112.899 E76.58601
G1 X68.251 Y112.898 E76.92445
G1 X67.986 Y112.858 E76.94049
G1 X67.745 Y112.742 E76.9565
G1 X67.439 Y112.458 E76.9815
G1 X67.28 Y112.243 E76.99751
G1 X67.191 Y111.991 E77.01351
G1 X67.175 Y111.822 E77.02367
G1 X67.175 Y99.865 E77.73951
G1 X67.215 Y99.6 E77.75556
G1 X67.331 Y99.359 E77.77157
G1 X67.615 Y99.053 E77.79656
G1 X67.83 Y98.894 E77.81257
G1 X68.082 Y98.805 E77.82857
G0 F9000 X68.251 Y99.389
G1 F3600 X70.589 Y99.39 E77.96855
G1 X70.801 Y99.478 E77.98229
G1 X71.287 Y99.964 E78.02344
G1 X71.375 Y100.176 E78.03718
G1 X71.375 Y108.671 E78.54576
G1 X71.623 Y108.919 E78.56676
G1 X73.575 Y108.919 E78.68362
G1 X73.724 Y108.958 E78.69284
G1 X73.833 Y109.066 E78.70203
G1 X73.875 Y109.219 E78.71152
G1 X73.875 Y111.402 E78.84222
G1 X74.231 Y111.829 E78.8755
G1 X74.18 Y112.116 E78.89295
G1 X74.086 Y112.237 E78.90212
G1 X73.904 Y112.299 E78.91364
G1 X68.251 Y112.298 E79.25207
G1 X68.039 Y112.21 E79.26581
G1 X67.786 Y111.901 E79.28972
G1 X67.775 Y111.822 E79.2945
G1 X67.775 Y99.865 E80.01034
G1 X67.863 Y99.653 E80.02408
G1 X68.172 Y99.4 E80.04799
G1 X68.251 Y99.389 E80.05277
G0 F9000 X68.375 Y99.989
G1 F3600 X70.465 Y99.99 E80.17789
G1 X70.775 Y100.3 E80.20414
G1 X70.775 Y108.795 E80.71272
G1 X70.863 Y109.007 E80.72646
G1 X71.287 Y109.431 E80.76236
G1 X71.499 Y109.519 E80.7761
G1 X73.275 Y109.519 E80.88243
G1 X73.275 Y111.492 E81.00055
G1 X73.359 Y111.699 E81.01392
G1 X68.375 Y111.698 E81.31231
G1 X68.375 Y99.989 E82.0133
G0 F9000 X68.975 Y100.589
G1 F3600 X70.175 Y100.59 E82.08515
G1 X70.175 Y108.795 E82.57636
G1 X70.215 Y109.06 E82.59241
G1 X70.331 Y109.301 E82.60842
G1 X70.439 Y109.431 E82.61854
G1 X70.863 Y109.855 E82.65444
G1 X71.078 Y110.014 E82.67045
G1 X71.33 Y110.103 E82.68645
G1 X71.499 Y110.119 E82.69661
G1 X72.675 Y110.119 E82.76702
G1 X72.675 Y111.099 E82.82569
G1 X68.975 Y111.098 E83.0472
G1 X68.975 Y100.589 E83.67635
G0 F9000 X69.575 Y108.795
G1 F3600 X69.615 Y109.139 E83.69709
G1 X69.732 Y109.464 E83.71777
G1 X70.014 Y109.856 E83.74668
G1 X70.438 Y110.28 E83.78258
G1 X70.719 Y110.498 E83.80387
G1 X69.575 Y110.498 E83.87236
G1 X69.575 Y108.795 E83.97431
G1 F1800 E80.97431
G0 F9000 X149.201 Y76.943
G0 X149.764 Y76.38
G0 X149.764 Y69.684
G0 X149.201 Y69.121
G0 X121.775 Y68.582
G1 F1800 E83.97431
G1 F3600 X121.775 Y62.305 E84.35011
G1 X121.863 Y62.093 E84.36385
G1 X122.172 Y61.84 E84.38776
G1 X122.251 Y61.829 E84.39253
G1 X148.397 Y61.83 E85.95785
G1 X148.609 Y61.918 E85.97159
G1 X148.862 Y62.227 E85.9955
G1 X148.873 Y62.306 E86.00027
G1 X148.873 Y68.582 E86.37601
G1 X148.834 Y68.731 E86.38523
G1 X148.726 Y68.84 E86.39441
G1 X148.573 Y68.882 E86.40391
G1 X122.075 Y68.882 E87.9903
G1 X121.926 Y68.843 E87.99952
G1 X121.817 Y68.735 E88.00871
G1 X121.775 Y68.582 E88.01821
G0 F9000 X122.375 Y68.282
G1 F3600 X122.375 Y62.429 E88.36862
G1 X148.273 Y62.43 E89.91908
G1 X148.273 Y68.282 E90.26943
G1 X122.375 Y68.282 E91.8199
G0 F9000 X122.975 Y67.682
G1 F3600 X122.975 Y63.029 E92.09847
G1 X147.673 Y63.03 E93.57709
G1 X147.673 Y67.682 E93.8556
G1 X122.975 Y67.682 E95.33423
G0 F9000 X123.575 Y67.082
G1 F3600 X123.575 Y63.629 E95.54095
G1 X147.073 Y63.63 E96.94774
G1 X147.073 Y67.082 E97.1544
G1 X123.575 Y67.082 E98.56119
G0 F9000 X124.175 Y66.482
G1 F3600 X124.175 Y64.229 E98.69607
G1 X146.473 Y64.23 E100.03101
G1 X146.473 Y66.482 E100.16583
G1 X124.175 Y66.482 E101.50078
G0 F9000 X124.775 Y65.882
G1 F3600 X124.775 Y64.829 E101.56382
G1 X145.873 Y64.83 E102.82692
G1 X145.873 Y65.882 E102.8899
G1 X124.775 Y65.882 E104.153
G1 F1800 E101.153
G0 F9000 X149.201 Y69.121
G0 X149.764 Y69.684
G0 X149.764 Y76.38
G0 X137.131 Y101.54
G1 F1800 E104.153
G1 F3600 X137.323 Y101.178 E104.17753
G1 X137.582 Y100.861 E104.20204
G1 X137.897 Y100.599 E104.22657
G1 X138.257 Y100.404 E104.25108
G1 X138.648 Y100.283 E104.27558
G1 X139.055 Y100.239 E104.30009
G1 X139.462 Y100.275 E104.32455
G1 X139.855 Y100.39 E104.34907
G1 X140.277 Y100.622 E104.3779
G1 X148.973 Y100.622 E104.89851
G1 X149.013 Y99.769 E104.94964
G1 X149.131 Y99.377 E104.97414
G1 X149.323 Y99.015 E104.99868
