;FLAVOR:Marlin
;TIME:7103
;Filament used: 6.91641m
;Layer height: 0.16
;MINX:12.992
;MINY:11.068
;MINZ:0.24
;MAXX:208.509
;MAXY:206.586
;MAXZ:11.4
;Generated with Cura_SteamEngine 4.5.0
M140 S50
M105
M190 S50
M104 S215
M105
M109 S215
M82 ;absolute extrusion mode
M201 X500.00 Y500.00 Z100.00 E5000.00 ;Setup machine max acceleration
M203 X500.00 Y500.00 Z10.00 E50.00 ;Setup machine max feedrate
M204 P500.00 R1000.00 T500.00 ;Setup Print/Retract/Travel acceleration
M205 X8.00 Y8.00 Z0.40 E5.00 ;Setup Jerk
M220 S100 ;Reset Feedrate
M221 S100 ;Reset Flowrate

G28 ;Home

G92 E0 ;Reset Extruder
G1 Z2.0 F3000 ;Move Z Axis up
G1 X10.1 Y20 Z0.28 F5000.0 ;Move to start position
G1 X10.1 Y200.0 Z0.28 F1500.0 E15 ;Draw the first line
G1 X10.4 Y200.0 Z0.28 F5000.0 ;Move to side a little
G1 X10.4 Y20 Z0.28 F1500.0 E30 ;Draw the second line
G92 E0 ;Reset Extruder
G1 Z2.0 F3000 ;Move Z Axis up

G92 E0
G92 E0
G1 F1800 E-3
;LAYER_COUNT:83
;LAYER:0
M107
G0 F9000 X48.817 Y47.348 Z0.24
;TYPE:SKIRT
G1 F1800 E0
G1 F3000 X49.785 Y46.401 E0.05405
G1 X54.122 Y42.323 E0.29165
G1 X54.854 Y41.647 E0.33142
G1 X57.56 Y39.203 E0.47695
G1 X59.844 Y37.196 E0.5983
G1 X60.518 Y36.612 E0.6339
G1 X62.724 Y34.737 E0.74945
G1 X63.46 Y34.123 E0.78771
G1 X65.679 Y32.307 E0.90215
G1 X66.557 Y31.603 E0.94707
G1 X68.651 Y29.961 E1.05327
G1 X69.635 Y29.205 E1.1028
G1 X71.741 Y27.631 E1.20774
G1 X72.857 Y26.817 E1.26287
G1 X74.825 Y25.419 E1.35922
G1 X76.171 Y24.492 E1.42445
G1 X78.071 Y23.221 E1.51568
G1 X79.451 Y22.325 E1.58135
G1 X81.353 Y21.131 E1.67098
G1 X82.903 Y20.194 E1.74327
G1 X84.687 Y19.154 E1.82569
G1 X86.417 Y18.187 E1.90479
G1 X88.103 Y17.282 E1.98117
G1 X89.996 Y16.314 E2.06603
G1 X91.564 Y15.549 E2.13566
G1 X93.707 Y14.559 E2.22988
G1 X95.527 Y13.763 E2.30916
G1 X96.564 Y13.326 E2.35408
G1 X99.236 Y12.294 E2.4684
G1 X100.029 Y12.003 E2.50211
G1 X100.571 Y11.818 E2.52497
G1 X101.391 Y11.579 E2.55906
G1 X102.246 Y11.379 E2.59411
G1 X102.944 Y11.253 E2.62241
G1 X104.039 Y11.121 E2.66644
G1 X105.466 Y11.068 E2.72343
G1 X106.042 Y11.082 E2.74643
G1 X107.335 Y11.193 E2.79822
G1 X107.991 Y11.29 E2.82469
G1 X109.24 Y11.552 E2.87562
G1 X109.733 Y11.687 E2.89602
G1 X110.839 Y12.057 E2.94257
G1 X111.399 Y12.279 E2.96662
G1 X112.376 Y12.725 E3.00948
G1 X113.112 Y13.107 E3.04258
G1 X114.391 Y13.813 E3.10089
G1 X116.637 Y14.978 E3.20187
G1 X118.935 Y16.09 E3.30376
G1 X121.233 Y17.124 E3.40434
G1 X123.559 Y18.093 E3.50491
G1 X125.917 Y18.994 E3.60566
G1 X128.312 Y19.835 E3.70697
G1 X130.731 Y20.608 E3.80832
G1 X133.117 Y21.296 E3.90743
G1 X135.618 Y21.942 E4.01053
G1 X138.084 Y22.507 E4.1115
G1 X140.508 Y22.986 E4.21012
G1 X143.041 Y23.416 E4.31267
G1 X145.511 Y23.762 E4.41221
G1 X148.075 Y24.049 E4.51519
G1 X150.558 Y24.256 E4.61463
G1 X153.101 Y24.395 E4.71628
G1 X155.603 Y24.461 E4.81617
G1 X158.155 Y24.456 E4.91803
G1 X160.665 Y24.381 E5.01826
G1 X163.205 Y24.232 E5.11981
G1 X165.741 Y24.012 E5.2214
G1 X167.444 Y23.824 E5.28979
G1 X169.058 Y23.68 E5.35446
G1 X170.156 Y23.617 E5.39836
G1 X170.735 Y23.604 E5.42147
G1 X171.577 Y23.608 E5.45508
G1 X172.501 Y23.635 E5.49197
G1 X173.122 Y23.675 E5.51681
G1 X173.977 Y23.755 E5.55108
G1 X174.948 Y23.872 E5.59012
G1 X175.515 Y23.96 E5.61302
G1 X176.11 Y24.074 E5.6372
G1 X176.695 Y24.201 E5.66109
G1 X177.341 Y24.353 E5.68758
G1 X178.104 Y24.563 E5.71916
G1 X178.614 Y24.724 E5.74051
G1 X179.609 Y25.067 E5.78252
G1 X180.374 Y25.368 E5.81533
G1 X180.92 Y25.608 E5.83913
G1 X181.688 Y25.971 E5.87304
G1 X182.306 Y26.294 E5.90087
G1 X183.04 Y26.709 E5.93452
G1 X183.614 Y27.058 E5.96133
G1 X184.399 Y27.57 E5.99874
G1 X185.147 Y28.088 E6.03505
G1 X185.882 Y28.641 E6.07176
G1 X186.726 Y29.323 E6.11507
G1 X187.53 Y30.018 E6.15749
G1 X188.208 Y30.637 E6.19413
G1 X188.982 Y31.388 E6.23718
G1 X190.164 Y32.578 E6.30412
G1 X190.873 Y33.325 E6.34522
G1 X191.381 Y33.884 E6.37537
G1 X192.308 Y34.939 E6.43142
G1 X193.112 Y35.88 E6.48082
G1 X194.459 Y37.555 E6.56661
G1 X195.207 Y38.517 E6.61525
G1 X196.317 Y40.028 E6.69008
G1 X197.602 Y41.861 E6.77943
G1 X198.264 Y42.846 E6.82679
G1 X199.483 Y44.745 E6.91686
G1 X200.257 Y46.007 E6.97595
G1 X200.88 Y47.056 E7.02464
G1 X201.952 Y48.981 E7.11258
G1 X202.522 Y50.039 E7.16055
G1 X203.526 Y52.047 E7.25015
G1 X203.98 Y52.992 E7.29199
G1 X204.256 Y53.6 E7.31864
G1 X204.938 Y55.161 E7.38663
G1 X205.26 Y55.929 E7.41987
G1 X205.641 Y56.904 E7.46165
G1 X206.132 Y58.23 E7.51809
G1 X206.336 Y58.801 E7.54229
G1 X206.818 Y60.301 E7.60517
G1 X207.134 Y61.36 E7.64928
G1 X207.356 Y62.149 E7.68199
G1 X207.547 Y62.897 E7.7128
G1 X207.836 Y64.191 E7.76572
G1 X208.098 Y65.592 E7.82261
G1 X208.267 Y66.728 E7.86845
G1 X208.354 Y67.465 E7.89807
G1 X208.43 Y68.303 E7.93165
G1 X208.484 Y69.138 E7.96505
G1 X208.507 Y69.783 E7.99081
G1 X208.509 Y70.933 E8.03671
G1 X208.491 Y71.62 E8.06414
G1 X208.462 Y72.145 E8.08512
G1 X208.345 Y73.326 E8.13249
G1 X208.273 Y73.862 E8.15407
G1 X208.143 Y74.63 E8.18516
G1 X207.928 Y75.625 E8.22579
G1 X207.759 Y76.276 E8.25264
G1 X207.603 Y76.83 E8.27561
G1 X207.43 Y77.369 E8.2982
G1 X207.14 Y78.152 E8.33153
G1 X206.935 Y78.65 E8.35302
G1 X206.561 Y79.46 E8.38863
G1 X206.173 Y80.215 E8.42251
G1 X205.164 Y82.099 E8.50781
G1 X204.24 Y83.732 E8.5827
G1 X203.972 Y84.185 E8.6037
G1 X203.223 Y85.415 E8.66118
G1 X202.71 Y86.235 E8.69979
G1 X202.2 Y87.034 E8.73762
G1 X201.349 Y88.342 E8.7999
G1 X200.809 Y89.149 E8.83865
G1 X199.893 Y90.442 E8.9019
G1 X199.418 Y91.095 E8.93413
G1 X197.991 Y93.178 E9.0349
G1 X196.622 Y95.3 E9.13569
G1 X195.319 Y97.451 E9.23607
G1 X194.063 Y99.664 E9.33763
G1 X192.877 Y101.899 E9.43861
G1 X191.748 Y104.18 E9.54019
G1 X190.697 Y106.461 E9.64043
G1 X189.707 Y108.785 E9.74125
G1 X188.76 Y111.186 E9.84427
G1 X187.92 Y113.519 E9.94323
G1 X187.133 Y115.909 E10.04366
G1 X186.404 Y118.352 E10.14541
G1 X185.757 Y120.771 E10.24536
G1 X185.162 Y123.273 E10.348
G1 X184.644 Y125.76 E10.44939
G1 X184.212 Y128.18 E10.54751
G1 X183.834 Y130.711 E10.64965
G1 X183.717 Y131.714 E10.68995
G1 X183.46 Y133.714 E10.77043
G1 X183.351 Y134.496 E10.80194
G1 X183.24 Y135.221 E10.83122
G1 X183.125 Y135.839 E10.85631
G1 X182.924 Y136.767 E10.8942
G1 X182.791 Y137.34 E10.91768
G1 X182.576 Y138.208 E10.95337
G1 X182.39 Y138.86 E10.98043
G1 X181.996 Y140.093 E11.03209
G1 X181.773 Y140.731 E11.05907
G1 X181.234 Y142.097 E11.11768
G1 X180.834 Y143.048 E11.15886
G1 X180.577 Y143.625 E11.18407
G1 X179.914 Y144.985 E11.24446
G1 X179.63 Y145.541 E11.26937
G1 X179.18 Y146.388 E11.30765
G1 X178.773 Y147.115 E11.34091
G1 X178.287 Y147.947 E11.37936
G1 X177.686 Y148.944 E11.42583
G1 X177.008 Y150.005 E11.47608
G1 X175.849 Y151.734 E11.55916
G1 X175.497 Y152.241 E11.58379
G1 X174.401 Y153.756 E11.65843
G1 X173.966 Y154.34 E11.68749
G1 X172.958 Y155.646 E11.75334
G1 X172.457 Y156.278 E11.78552
G1 X171.508 Y157.438 E11.84534
G1 X171.053 Y157.981 E11.87362
G1 X170.469 Y158.658 E11.9093
G1 X169.645 Y159.508 E11.95655
G1 X169.114 Y159.998 E11.98539
G1 X168.087 Y160.918 E12.04042
G1 X166.257 Y162.651 E12.14101
G1 X164.45 Y164.462 E12.24312
G1 X162.726 Y166.289 E12.34338
G1 X162.18 Y166.902 E12.37614
G1 X161.458 Y167.692 E12.41886
G1 X160.599 Y168.528 E12.4667
G1 X160.048 Y169.007 E12.49584
G1 X159.493 Y169.475 E12.52482
G1 X158.325 Y170.433 E12.58511
G1 X157.687 Y170.942 E12.61768
G1 X156.393 Y171.943 E12.68298
G1 X155.803 Y172.386 E12.71243
G1 X154.32 Y173.462 E12.78555
G1 X153.859 Y173.785 E12.80802
G1 X152.065 Y174.994 E12.89436
G1 X151.478 Y175.375 E12.9223
G1 X150.464 Y176.01 E12.97005
G1 X149.246 Y176.728 E13.02648
G1 X148.419 Y177.197 E13.06442
G1 X147.646 Y177.612 E13.09944
G1 X146.916 Y177.989 E13.13223
G1 X146.31 Y178.291 E13.15926
G1 X144.92 Y178.932 E13.22035
G1 X144.435 Y179.144 E13.24148
G1 X143.751 Y179.43 E13.27107
G1 X142.949 Y179.742 E13.30541
G1 X141.745 Y180.162 E13.35631
G1 X140.983 Y180.403 E13.3882
G1 X140.406 Y180.568 E13.41216
G1 X138.753 Y180.984 E13.48019
G1 X137.98 Y181.158 E13.51181
G1 X137.36 Y181.275 E13.53699
G1 X136.406 Y181.426 E13.57554
G1 X135.865 Y181.504 E13.59736
G1 X133.743 Y181.773 E13.68273
G1 X130.797 Y182.179 E13.80142
G1 X128.317 Y182.602 E13.90184
G1 X125.843 Y183.096 E14.00253
G1 X123.377 Y183.662 E14.10351
G1 X120.925 Y184.298 E14.20461
G1 X118.51 Y184.998 E14.30497
G1 X116.084 Y185.777 E14.40667
G1 X113.693 Y186.618 E14.50783
G1 X111.382 Y187.507 E14.60665
G1 X109.008 Y188.496 E14.7093
G1 X106.719 Y189.528 E14.80951
G1 X104.423 Y190.642 E14.91137
G1 X102.17 Y191.815 E15.01275
G1 X100.002 Y193.024 E15.11182
G1 X97.81 Y194.329 E15.21364
G1 X95.681 Y195.677 E15.31421
G1 X93.58 Y197.094 E15.41536
G1 X91.118 Y198.856 E15.53619
G1 X90.599 Y199.208 E15.56122
G1 X88.567 Y200.529 E15.65796
G1 X86.627 Y201.738 E15.74919
G1 X85.826 Y202.215 E15.7864
G1 X84.2 Y203.14 E15.86106
G1 X82.533 Y204.053 E15.93692
G1 X81.859 Y204.411 E15.96738
G1 X81.288 Y204.691 E15.99277
G1 X80.708 Y204.954 E16.01818
G1 X80.131 Y205.195 E16.04314
G1 X79.336 Y205.486 E16.07693
G1 X78.351 Y205.788 E16.11805
G1 X77.479 Y206.015 E16.15401
G1 X76.6 Y206.205 E16.18991
G1 X75.929 Y206.32 E16.21708
G1 X75.144 Y206.432 E16.24873
G1 X74.628 Y206.488 E16.26944
G1 X73.903 Y206.543 E16.29846
G1 X73.267 Y206.569 E16.32387
G1 X72.264 Y206.586 E16.3639
G1 X71.605 Y206.577 E16.39021
G1 X70.655 Y206.534 E16.42816
G1 X69.923 Y206.483 E16.45745
G1 X69.033 Y206.389 E16.49317
G1 X68.011 Y206.252 E16.53432
G1 X67.426 Y206.16 E16.55796
G1 X66.269 Y205.945 E16.60493
G1 X65.772 Y205.841 E16.6252
G1 X64.995 Y205.659 E16.65705
G1 X63.779 Y205.338 E16.70724
G1 X62.183 Y204.882 E16.77349
G1 X61.581 Y204.697 E16.79863
G1 X60.134 Y204.198 E16.85972
G1 X58.962 Y203.766 E16.90957
G1 X58.148 Y203.454 E16.94436
G1 X57.213 Y203.067 E16.98475
G1 X55.74 Y202.426 E17.04887
G1 X54.85 Y202.024 E17.08785
G1 X54.225 Y201.726 E17.11548
G1 X52.657 Y200.948 E17.18534
G1 X51.621 Y200.416 E17.23183
G1 X51.13 Y200.153 E17.25406
G1 X49.612 Y199.311 E17.32334
G1 X48.518 Y198.685 E17.37365
G1 X46.858 Y197.675 E17.4512
G1 X44.959 Y196.462 E17.54114
G1 X43.962 Y195.797 E17.58897
G1 X42.132 Y194.52 E17.67803
G1 X40.972 Y193.674 E17.73534
G1 X40.038 Y192.973 E17.78195
G1 X38.392 Y191.665 E17.86586
G1 X37.524 Y190.952 E17.91069
G1 X36.026 Y189.648 E17.98996
G1 X35.249 Y188.947 E18.03173
G1 X34.716 Y188.446 E18.06092
G1 X33.764 Y187.519 E18.11396
G1 X32.998 Y186.75 E18.15728
G1 X32.614 Y186.344 E18.17958
G1 X31.601 Y185.213 E18.24018
G1 X31.142 Y184.673 E18.26847
G1 X30.321 Y183.632 E18.32138
G1 X29.81 Y182.94 E18.35572
G1 X29.488 Y182.474 E18.37832
G1 X29.15 Y181.954 E18.40308
G1 X28.644 Y181.134 E18.44153
G1 X28.347 Y180.628 E18.46495
G1 X27.982 Y179.941 E18.496
G1 X27.642 Y179.229 E18.52749
G1 X27.321 Y178.511 E18.55888
G1 X27.002 Y177.711 E18.59326
G1 X26.808 Y177.161 E18.61653
G1 X26.508 Y176.242 E18.65512
G1 X26.281 Y175.423 E18.68904
G1 X26.142 Y174.831 E18.71331
G1 X25.929 Y173.822 E18.75447
G1 X25.79 Y172.987 E18.78825
G1 X25.722 Y172.444 E18.8101
G1 X25.624 Y171.497 E18.84809
G1 X25.578 Y170.823 E18.87506
G1 X25.54 Y169.776 E18.91687
G1 X25.529 Y168.795 E18.95603
G1 X25.545 Y168.144 E18.98202
G1 X25.598 Y167.189 E19.02019
G1 X25.643 Y166.58 E19.04457
G1 X25.828 Y164.887 E19.11254
G1 X26.078 Y162.366 E19.21365
G1 X26.254 Y159.876 E19.31328
G1 X26.362 Y157.309 E19.41583
G1 X26.398 Y154.79 E19.51638
G1 X26.362 Y152.241 E19.61812
G1 X26.254 Y149.734 E19.71828
G1 X26.077 Y147.231 E19.81842
G1 X25.824 Y144.69 E19.92034
G1 X25.507 Y142.213 E20.02001
G1 X25.106 Y139.661 E20.12312
G1 X24.654 Y137.228 E20.22189
G1 X24.118 Y134.744 E20.32331
G1 X23.514 Y132.278 E20.42464
G1 X22.849 Y129.866 E20.5245
G1 X22.099 Y127.416 E20.62677
G1 X21.299 Y125.047 E20.72656
G1 X20.407 Y122.629 E20.82943
G1 X19.476 Y120.313 E20.92905
G1 X18.465 Y117.988 E21.03024
G1 X17.405 Y115.728 E21.12987
G1 X16.265 Y113.467 E21.23094
G1 X15.516 Y112.096 E21.29329
G1 X14.783 Y110.722 E21.35544
G1 X14.532 Y110.219 E21.37788
G1 X14.317 Y109.75 E21.39847
G1 X13.867 Y108.608 E21.44746
G1 X13.444 Y107.179 E21.50694
G1 X13.324 Y106.654 E21.52844
G1 X13.114 Y105.38 E21.57997
G1 X13.046 Y104.721 E21.60641
G1 X12.992 Y103.423 E21.65827
G1 X13.003 Y102.869 E21.68038
G1 X13.092 Y101.691 E21.72753
G1 X13.167 Y101.123 E21.7504
G1 X13.39 Y99.949 E21.79809
G1 X13.52 Y99.427 E21.81956
G1 X13.683 Y98.846 E21.84365
G1 X13.907 Y98.161 E21.87241
G1 X14.096 Y97.639 E21.89457
G1 X14.972 Y95.353 E21.99228
G1 X15.402 Y94.268 E22.03886
G1 X16.414 Y91.937 E22.14029
G1 X17.368 Y89.863 E22.2314
G1 X18.149 Y88.251 E22.30289
G1 X19.11 Y86.364 E22.38741
G1 X20.023 Y84.654 E22.46478
G1 X20.986 Y82.926 E22.54373
G1 X22.032 Y81.124 E22.62689
G1 X22.96 Y79.582 E22.69872
G1 X24.159 Y77.666 E22.78894
G1 X25.066 Y76.264 E22.85558
G1 X26.353 Y74.339 E22.948
G1 X27.261 Y73.02 E23.01191
G1 X28.664 Y71.04 E23.10877
G1 X29.48 Y69.919 E23.16411
G1 X31.049 Y67.818 E23.26877
G1 X31.821 Y66.81 E23.31944
G1 X33.462 Y64.717 E23.42559
G1 X34.179 Y63.82 E23.47142
G1 X35.978 Y61.619 E23.58488
G1 X36.604 Y60.869 E23.62387
G1 X38.472 Y58.668 E23.73909
G1 X39.069 Y57.977 E23.77554
G1 X41.48 Y55.241 E23.92109
G1 X43.492 Y53.016 E24.04082
G1 X44.166 Y52.285 E24.0805
G1 X48.327 Y47.856 E24.32305
G1 X48.817 Y47.348 E24.35122
G0 F9000 X49.104 Y47.626
G1 F3000 X50.064 Y46.688 E24.40479
G1 X54.396 Y42.615 E24.64211
G1 X55.126 Y41.941 E24.68176
G1 X57.828 Y39.5 E24.8271
G1 X60.108 Y37.497 E24.94822
G1 X60.78 Y36.915 E24.98371
G1 X62.983 Y35.042 E25.09912
G1 X63.716 Y34.43 E25.13723
G1 X65.932 Y32.616 E25.25153
G1 X66.807 Y31.915 E25.29628
G1 X68.898 Y30.276 E25.40231
G1 X69.879 Y29.523 E25.45167
G1 X71.98 Y27.951 E25.5564
G1 X73.092 Y27.14 E25.61133
G1 X75.057 Y25.746 E25.70749
G1 X76.398 Y24.822 E25.77249
G1 X78.293 Y23.553 E25.86352
G1 X79.668 Y22.66 E25.92895
G1 X81.565 Y21.469 E26.01835
G1 X83.11 Y20.536 E26.09039
G1 X84.888 Y19.5 E26.17252
G1 X86.612 Y18.536 E26.25136
G1 X88.292 Y17.635 E26.32744
G1 X90.178 Y16.67 E26.412
G1 X91.739 Y15.909 E26.48131
G1 X93.874 Y14.922 E26.57519
G1 X95.687 Y14.13 E26.65415
G1 X96.719 Y13.695 E26.69885
G1 X99.38 Y12.668 E26.81269
G1 X100.167 Y12.378 E26.84617
G1 X100.696 Y12.198 E26.86847
G1 X101.498 Y11.964 E26.90181
G1 X102.32 Y11.772 E26.9355
G1 X103.005 Y11.648 E26.96329
G1 X104.067 Y11.52 E27.00598
G1 X105.456 Y11.468 E27.06146
G1 X106.032 Y11.482 E27.08446
G1 X107.276 Y11.589 E27.13429
G1 X107.932 Y11.686 E27.16076
G1 X109.134 Y11.938 E27.20977
G1 X109.627 Y12.073 E27.23018
G1 X110.692 Y12.429 E27.27499
G1 X111.252 Y12.651 E27.29904
G1 X112.192 Y13.08 E27.34028
G1 X112.928 Y13.462 E27.37337
G1 X114.192 Y14.16 E27.431
G1 X116.457 Y15.336 E27.53286
G1 X118.775 Y16.457 E27.63563
G1 X121.064 Y17.487 E27.73581
G1 X123.428 Y18.471 E27.83801
G1 X125.779 Y19.37 E27.93847
G1 X128.174 Y20.211 E28.03978
G1 X130.604 Y20.987 E28.14159
G1 X133.044 Y21.691 E28.24295
G1 X135.473 Y22.318 E28.34308
G1 X138.014 Y22.9 E28.44712
G1 X140.435 Y23.379 E28.54562
G1 X142.985 Y23.811 E28.64885
G1 X145.483 Y24.162 E28.74953
G1 X147.998 Y24.443 E28.85053
G1 X150.539 Y24.655 E28.9523
G1 X153.068 Y24.794 E29.05339
G1 X155.63 Y24.861 E29.15568
G1 X158.168 Y24.856 E29.25698
G1 X160.665 Y24.781 E29.35668
G1 X163.229 Y24.631 E29.45919
G1 X165.819 Y24.406 E29.56295
G1 X167.488 Y24.222 E29.62997
G1 X169.093 Y24.078 E29.69429
G1 X170.176 Y24.017 E29.73758
G1 X170.733 Y24.004 E29.75982
G1 X171.575 Y24.008 E29.79342
G1 X172.487 Y24.035 E29.82984
G1 X173.085 Y24.073 E29.85376
G1 X173.94 Y24.153 E29.88803
G1 X174.897 Y24.269 E29.92651
G1 X175.443 Y24.354 E29.94856
G1 X176.027 Y24.465 E29.97229
G1 X176.603 Y24.59 E29.99581
G1 X177.249 Y24.742 E30.0223
G1 X177.984 Y24.944 E30.05272
G1 X178.494 Y25.105 E30.07407
G1 X179.477 Y25.444 E30.11557
G1 X180.213 Y25.734 E30.14714
G1 X180.759 Y25.974 E30.17095
G1 X181.515 Y26.331 E30.20431
G1 X182.109 Y26.642 E30.23107
G1 X182.843 Y27.057 E30.26473
G1 X183.395 Y27.393 E30.29052
G1 X184.18 Y27.905 E30.32793
G1 X184.916 Y28.415 E30.36367
G1 X185.639 Y28.958 E30.39975
G1 X186.472 Y29.633 E30.44255
G1 X187.267 Y30.32 E30.48448
G1 X187.937 Y30.932 E30.5207
G1 X188.702 Y31.674 E30.56324
G1 X189.88 Y32.86 E30.62995
G1 X190.583 Y33.6 E30.67069
G1 X191.084 Y34.151 E30.70041
