;FLAVOR:Marlin
;TIME:1893
;Filament used: 2.01151m
;Layer height: 0.2
;MINX:86.28
;MINY:87.331
;MINZ:0.28
;MAXX:133.719
;MAXY:132.675
;MAXZ:18.88
;Generated with Cura_SteamEngine main
M82 ;absolute extrusion mode
M201 X500.00 Y500.00 Z100.00 E5000.00 ;Setup machine max acceleration
M203 X500.00 Y500.00 Z10.00 E50.00 ;Setup machine max feedrate
M204 P500.00 R1000.00 T500.00 ;Setup Print/Retract/Travel acceleration
M205 X8.00 Y8.00 Z0.40 E5.00 ;Setup Jerk
M220 S100 ;Reset Feedrate
M221 S100 ;Reset Flowrate

;*** Start Dual Nozzle/Bed Preheating ***
M140 S50 ; start preheating the bed
M104 S210 ?T0 ; start preheating hotend
M190 S50 ; heat to Cura Bed setting and WAIT
M109 S210 ?T0 ; heat to Cura Hotend and WAIT
;*** End Preheating ***


;*** Single Print Start Tone
M300 S1000 P500 ; chirp to indicate starting to print
;*** End Single Start Tone

G28 ;Home

G92 E0 ;Reset Extruder
G1 Z2.0 F3000 ;Move Z Axis up
G1 X10.1 Y20 Z0.28 F5000.0 ;Move to start position
G1 X10.1 Y200.0 Z0.28 F1500.0 E15 ;Draw the first line
G1 X10.4 Y200.0 Z0.28 F5000.0 ;Move to side a little
G1 X10.4 Y20 Z0.28 F1500.0 E30 ;Draw the second line
G92 E0 ;Reset Extruder
G1 Z2.0 F3000 ;Move Z Axis up
G92 E0
G92 E0
G1 F2400 E-2
;LAYER_COUNT:94
;LAYER:0
M107
M204 S500
M205 X5 Y5
G0 F7500 X90.12 Y90.825 Z0.28
G0 X86.281 Y100.349
M205 X8 Y8
;TYPE:SKIRT
G1 F1200 E0
G1 F1500 X86.288 Y99.844 E0.02388
G1 X86.32 Y99.043 E0.06178
G1 X86.404 Y98.123 E0.10545
G1 X86.558 Y97.228 E0.14839
G1 X86.932 Y95.847 E0.21603
G1 X87.31 Y94.864 E0.26582
G1 X87.629 Y94.188 E0.30116
G1 X88.299 Y93.02 E0.36482
G1 X88.457 Y92.781 E0.37836
G1 X88.999 Y92.033 E0.42204
G1 X89.604 Y91.335 E0.46571
G1 X90.12 Y90.825 E0.50001
G1 X90.525 Y90.451 E0.52607
G1 X91.23 Y89.855 E0.56971
G1 X91.984 Y89.321 E0.61339
G1 X93.128 Y88.68 E0.67539
G1 X93.443 Y88.528 E0.69193
G1 X94.706 Y88.015 E0.75637
G1 X94.973 Y87.926 E0.76968
G1 X95.862 Y87.672 E0.81339
G1 X96.769 Y87.496 E0.85707
G1 X97.411 Y87.419 E0.88764
G1 X97.785 Y87.386 E0.90539
G1 X98.521 Y87.347 E0.94024
G1 X99.659 Y87.331 E0.99404
G1 X100.336 Y87.341 E1.02605
G1 X102.703 Y87.408 E1.138
G1 X105.257 Y87.408 E1.25875
G1 X106.774 Y87.373 E1.33049
G1 X107.744 Y87.342 E1.37637
G1 X108.668 Y87.353 E1.42006
G1 X109.329 Y87.41 E1.45142
G1 X109.67 Y87.45 E1.46766
G1 X110.582 Y87.597 E1.51133
G1 X111.476 Y87.822 E1.55491
G1 X112.378 Y88.091 E1.59941
G1 X114.918 Y88.81 E1.72422
G1 X117.352 Y89.424 E1.84289
G1 X119.855 Y89.981 E1.96412
G1 X122.352 Y90.463 E2.08435
G1 X123.588 Y90.672 E2.14362
G1 X124.22 Y90.796 E2.17407
G1 X125.115 Y91.023 E2.21772
G1 X125.976 Y91.323 E2.26083
G1 X126.319 Y91.459 E2.27827
G1 X127.162 Y91.836 E2.32193
G1 X127.969 Y92.285 E2.36559
G1 X128.85 Y92.888 E2.41606
G1 X129.093 Y93.073 E2.4305
G1 X129.804 Y93.664 E2.47421
G1 X130.46 Y94.314 E2.51787
G1 X130.988 Y94.931 E2.55626
G1 X131.215 Y95.217 E2.57353
G1 X131.758 Y95.964 E2.61719
G1 X132.234 Y96.756 E2.66087
G1 X132.658 Y97.629 E2.70676
G1 X132.795 Y97.947 E2.72313
G1 X133.123 Y98.811 E2.76682
G1 X133.473 Y100.12 E2.83088
G1 X133.639 Y101.158 E2.88058
G1 X133.709 Y102.232 E2.93146
G1 X133.719 Y102.924 E2.96418
G1 X133.719 Y121.411 E3.83819
G1 X133.709 Y122.138 E3.87257
G1 X133.656 Y123.06 E3.91623
G1 X133.524 Y123.975 E3.95993
G1 X133.313 Y124.874 E4.00359
G1 X133.025 Y125.752 E4.04728
G1 X132.663 Y126.602 E4.09095
G1 X132.228 Y127.417 E4.13463
G1 X131.724 Y128.192 E4.17834
G1 X131.156 Y128.92 E4.22199
G1 X130.526 Y129.596 E4.26568
G1 X129.841 Y130.215 E4.30933
G1 X129.104 Y130.773 E4.35303
G1 X128.322 Y131.265 E4.39671
G1 X127.5 Y131.687 E4.44039
G1 X126.645 Y132.037 E4.48407
G1 X125.763 Y132.312 E4.52775
G1 X124.86 Y132.509 E4.57144
G1 X123.944 Y132.627 E4.61511
G1 X123.335 Y132.662 E4.64395
G1 X122.715 Y132.675 E4.67327
G1 X97.524 Y132.674 E5.86423
G1 X96.826 Y132.665 E5.89723
G1 X95.904 Y132.613 E5.94089
G1 X94.989 Y132.482 E5.98459
G1 X94.09 Y132.272 E6.02823
G1 X93.212 Y131.985 E6.0719
G1 X92.361 Y131.623 E6.11563
G1 X91.546 Y131.189 E6.15928
G1 X90.771 Y130.686 E6.20296
G1 X90.042 Y130.118 E6.24665
G1 X89.365 Y129.489 E6.29034
G1 X88.746 Y128.804 E6.33399
G1 X88.187 Y128.068 E6.37768
G1 X87.695 Y127.286 E6.42136
G1 X87.272 Y126.465 E6.46503
G1 X86.921 Y125.61 E6.50872
G1 X86.646 Y124.728 E6.5524
G1 X86.448 Y123.825 E6.59611
G1 X86.329 Y122.909 E6.63977
G1 X86.293 Y122.279 E6.66961
G1 X86.28 Y121.658 E6.69897
G1 X86.281 Y100.349 E7.7064
M205 X5 Y5
G0 F7500 X86.731 Y100.355
M205 X8 Y8
G1 F1500 X86.738 Y99.85 E7.73028
G1 X86.77 Y99.065 E7.76742
G1 X86.852 Y98.164 E7.8102
G1 X86.998 Y97.319 E7.85074
G1 X87.359 Y95.989 E7.91589
G1 X87.73 Y95.025 E7.96473
G1 X88.032 Y94.387 E7.9981
G1 X88.674 Y93.268 E8.05909
G1 X88.832 Y93.029 E8.07263
G1 X89.364 Y92.298 E8.11538
G1 X89.958 Y91.616 E8.15814
G1 X90.425 Y91.156 E8.18913
G1 X90.83 Y90.782 E8.21519
G1 X91.521 Y90.199 E8.25793
G1 X92.26 Y89.678 E8.30068
G1 X93.323 Y89.085 E8.35823
G1 X93.638 Y88.933 E8.37476
G1 X94.849 Y88.442 E8.43654
G1 X95.116 Y88.353 E8.44985
G1 X95.985 Y88.105 E8.49257
G1 X96.873 Y87.935 E8.53531
G1 X97.45 Y87.868 E8.56278
G1 X97.824 Y87.835 E8.58053
G1 X98.529 Y87.797 E8.61391
G1 X99.653 Y87.781 E8.66705
G1 X100.323 Y87.791 E8.69873
G1 X102.69 Y87.858 E8.81068
G1 X105.268 Y87.858 E8.93256
G1 X106.788 Y87.823 E9.00444
G1 X107.758 Y87.792 E9.05032
G1 X108.663 Y87.803 E9.09311
G1 X109.276 Y87.857 E9.12221
G1 X109.617 Y87.897 E9.13844
G1 X110.51 Y88.042 E9.18121
G1 X111.347 Y88.253 E9.22202
G1 X112.269 Y88.528 E9.26751
G1 X114.785 Y89.24 E9.39113
G1 X117.285 Y89.872 E9.51304
G1 X119.74 Y90.417 E9.63193
G1 X122.28 Y90.907 E9.75423
G1 X123.513 Y91.116 E9.81335
G1 X124.128 Y91.236 E9.84298
G1 X125.004 Y91.46 E9.88572
G1 X125.81 Y91.741 E9.92608
G1 X126.153 Y91.877 E9.94352
G1 X126.978 Y92.247 E9.98627
G1 X127.767 Y92.689 E10.02902
G1 X128.578 Y93.246 E10.07554
G1 X128.821 Y93.431 E10.08998
G1 X129.515 Y94.01 E10.13271
G1 X130.156 Y94.648 E10.17546
G1 X130.636 Y95.21 E10.21041
G1 X130.863 Y95.496 E10.22767
G1 X131.393 Y96.229 E10.27043
G1 X131.857 Y97.005 E10.31318
G1 X132.245 Y97.807 E10.3553
G1 X132.382 Y98.125 E10.37167
G1 X132.702 Y98.971 E10.41443
G1 X133.032 Y100.213 E10.47519
G1 X133.194 Y101.229 E10.52383
G1 X133.259 Y102.238 E10.57163
G1 X133.27 Y103.078 E10.61134
G1 X133.269 Y121.405 E11.47779
G1 X133.259 Y122.132 E11.51217
G1 X133.207 Y123.034 E11.55488
G1 X133.075 Y123.929 E11.59765
G1 X132.864 Y124.808 E11.64039
G1 X132.577 Y125.666 E11.68316
G1 X132.215 Y126.494 E11.72589
G1 X131.781 Y127.288 E11.76867
G1 X131.279 Y128.04 E11.81141
G1 X130.713 Y128.744 E11.85412
G1 X130.086 Y129.396 E11.89688
G1 X129.404 Y129.99 E11.93964
G1 X128.673 Y130.521 E11.98236
G1 X127.897 Y130.986 E12.02513
G1 X127.083 Y131.381 E12.0679
G1 X126.238 Y131.701 E12.11062
G1 X125.367 Y131.946 E12.1534
G1 X124.479 Y132.114 E12.19612
G1 X123.322 Y132.212 E12.25102
G1 X122.715 Y132.225 E12.27972
G1 X97.53 Y132.224 E13.4704
G1 X96.832 Y132.215 E13.5034
G1 X95.929 Y132.164 E13.54616
G1 X95.035 Y132.032 E13.58888
G1 X94.155 Y131.823 E13.63165
G1 X93.298 Y131.536 E13.67437
G1 X92.469 Y131.175 E13.71712
G1 X91.675 Y130.742 E13.75988
G1 X90.923 Y130.24 E13.80262
G1 X90.217 Y129.674 E13.8454
G1 X89.565 Y129.048 E13.88814
G1 X88.97 Y128.367 E13.93089
G1 X88.438 Y127.636 E13.97363
G1 X87.973 Y126.861 E14.01636
G1 X87.578 Y126.047 E14.05914
G1 X87.256 Y125.202 E14.10189
G1 X87.011 Y124.332 E14.14462
G1 X86.843 Y123.444 E14.18735
G1 X86.743 Y122.267 E14.24319
G1 X86.73 Y121.658 E14.27199
G1 X86.731 Y100.355 E15.27914
M205 X5 Y5
G1 F2400 E13.27914
;MESH:BowdenTubeSupport.stl
G0 F7500 X96.29 Y100.355
G0 X97.4 Y100.355
G0 X98.702 Y99.42
G0 X99.132 Y99.423
G0 X100.36 Y104.225
G0 X100.845 Y105.099
G0 X101.541 Y105.821
G0 X102.41 Y106.344
G0 X103.38 Y106.621
G0 X104.393 Y106.638
G0 X105.372 Y106.392
G0 X106.246 Y105.909
G0 X106.978 Y105.2
G0 X107.441 Y104.43
G0 X108.549 Y101.33
M205 X8 Y8
;TYPE:WALL-INNER
G1 F1200 E15.27914
G1 F1500 X108.545 Y102.987 E15.36618
G1 X108.496 Y103.511 E15.39383
G1 X108.372 Y104.082 E15.42452
G1 X108.15 Y104.686 E15.45832
G1 X107.881 Y105.19 E15.48833
G1 X107.545 Y105.677 E15.51941
G1 X107.114 Y106.141 E15.55268
G1 X106.673 Y106.511 E15.58292
G1 X106.144 Y106.844 E15.61576
G1 X105.58 Y107.103 E15.64836
G1 X105.034 Y107.275 E15.67843
G1 X104.387 Y107.378 E15.71284
G1 X103.861 Y107.402 E15.7405
G1 X103.242 Y107.348 E15.77314
G1 X102.66 Y107.219 E15.80446
G1 X102.066 Y106.999 E15.83773
G1 X101.544 Y106.723 E15.86875
G1 X101.069 Y106.389 E15.89925
G1 X100.629 Y105.988 E15.93052
G1 X100.245 Y105.53 E15.96192
G1 X99.919 Y105.022 E15.99363
G1 X99.651 Y104.445 E16.02705
G1 X99.47 Y103.856 E16.05942
G1 X99.372 Y103.274 E16.09042
G1 X99.351 Y102.781 E16.11634
G1 X99.354 Y99.201 E16.3044
G1 X98.682 Y99.201 E16.3397
G1 X98.462 Y99.289 E16.35215
G1 X98.245 Y99.507 E16.3683
G1 X98.166 Y99.698 E16.37916
G1 X98.155 Y99.851 E16.38722
G1 X98.156 Y120.799 E17.48762
G1 X121.845 Y120.8 E18.73201
G1 X121.845 Y102.515 E19.69253
G1 X121.731 Y102.4 E19.70103
G1 X120.645 Y102.4 E19.75808
G1 X120.646 Y106.225 E19.95901
G1 X120.584 Y106.701 E19.98422
G1 X120.46 Y107.17 E20.00971
G1 X120.274 Y107.636 E20.03606
G1 X120.022 Y108.069 E20.06238
G1 X119.727 Y108.45 E20.08769
G1 X119.382 Y108.791 E20.11317
G1 X119.009 Y109.079 E20.13793
G1 X118.614 Y109.308 E20.16191
G1 X118.161 Y109.503 E20.18782
G1 X117.7 Y109.626 E20.21288
G1 X117.228 Y109.692 E20.23792
G1 X116.718 Y109.693 E20.26471
G1 X116.223 Y109.632 E20.29091
G1 X115.774 Y109.509 E20.31536
G1 X115.312 Y109.322 E20.34155
G1 X114.889 Y109.077 E20.36722
G1 X114.503 Y108.779 E20.39284
G1 X114.153 Y108.422 E20.4191
G1 X113.859 Y108.032 E20.44476
G1 X113.631 Y107.637 E20.46872
G1 X113.463 Y107.235 E20.4916
G1 X113.33 Y106.765 E20.51726
G1 X113.258 Y106.243 E20.54494
G1 X113.256 Y102.4 E20.74682
G1 X110.62 Y102.399 E20.88529
G1 X110.053 Y102.288 E20.91564
G1 X109.389 Y102.021 E20.95323
G1 X109.066 Y101.811 E20.97347
G1 X108.872 Y101.653 E20.98661
G1 X108.549 Y101.33 E21.01061
M205 X5 Y5
G0 F7500 X108.18 Y99.853
G0 X108.154 Y99.558
M205 X8 Y8
G1 F1219.5 X108.046 Y100.005 E21.04032
G1 F1459.1 X108.046 Y100.495 E21.06678
G1 F1464.8 X108.046 Y100.985 E21.09314
G1 F1473.5 X108.046 Y101.475 E21.11934
G1 F1482.2 X108.046 Y101.965 E21.14539
G1 F1488.1 X108.046 Y102.455 E21.17134
G1 F1497 X108.047 Y102.945 E21.19713
G1 F1500 X108.002 Y103.436 E21.22303
G1 X107.891 Y103.937 E21.24998
G1 X107.694 Y104.477 E21.28018
G1 X107.455 Y104.929 E21.30704
G1 X107.153 Y105.364 E21.33485
G1 X106.777 Y105.772 E21.364
G1 X106.355 Y106.121 E21.39277
G1 X105.947 Y106.381 E21.41818
G1 X105.439 Y106.618 E21.44763
G1 X104.924 Y106.786 E21.47608
G1 X104.35 Y106.88 E21.50664
G1 X103.866 Y106.901 E21.53209
G1 X103.36 Y106.856 E21.55877
G1 X102.804 Y106.74 E21.58861
G1 X102.233 Y106.522 E21.62071
G1 X101.843 Y106.315 E21.64391
G1 X101.422 Y106.026 E21.67073
G1 X101.027 Y105.674 E21.69852
G1 X100.677 Y105.268 E21.72668
G1 X100.356 Y104.778 E21.75745
G1 X100.118 Y104.264 E21.78721
G1 X99.956 Y103.736 E21.81622
G1 X99.869 Y103.183 E21.84563
G1 X99.851 Y102.76 E21.86787
G1 X99.854 Y98.826 E22.07452
G1 X99.824 Y98.739 E22.07936
G1 X99.752 Y98.701 E22.08363
G1 X98.793 Y98.7 E22.13401
G1 X98.536 Y98.719 E22.14755
G1 X98.211 Y98.852 E22.16599
G1 X97.982 Y99.026 E22.1811
G1 X97.808 Y99.255 E22.19621
G1 X97.672 Y99.583 E22.21486
G1 X97.655 Y99.835 E22.22813
G1 X97.656 Y121.299 E23.35564
G1 X122.345 Y121.3 E24.65256
G1 X122.345 Y102.455 E25.64249
G1 X122.257 Y102.204 E25.65646
G1 X122.038 Y101.986 E25.67269
G1 X121.787 Y101.9 E25.68663
G1 X120.24 Y101.9 E25.76789
G1 X120.179 Y101.937 E25.77164
G1 X120.145 Y102.023 E25.7765
G1 X120.141 Y106.23 E25.99749
G1 X120.092 Y106.614 E26.01783
G1 X119.968 Y107.056 E26.04194
G1 X119.824 Y107.414 E26.06221
G1 X119.635 Y107.742 E26.0821
G1 X119.354 Y108.117 E26.10672
G1 X119.023 Y108.436 E26.13086
G1 X118.689 Y108.686 E26.15278
G1 X118.353 Y108.876 E26.17306
G1 X117.989 Y109.032 E26.19386
G1 X117.558 Y109.141 E26.21721
G1 X117.236 Y109.186 E26.23429
G1 X116.774 Y109.197 E26.25857
G1 X116.318 Y109.14 E26.28271
G1 X115.972 Y109.045 E26.30156
G1 X115.536 Y108.874 E26.32616
G1 X115.131 Y108.632 E26.35094
G1 X114.874 Y108.434 E26.36798
G1 X114.556 Y108.123 E26.39135
G1 X114.281 Y107.764 E26.4151
G1 X114.084 Y107.426 E26.43565
G1 X113.93 Y107.054 E26.4568
G1 X113.819 Y106.66 E26.47831
G1 X113.757 Y106.208 E26.50227
G1 X113.755 Y101.975 E26.72463
G1 X113.665 Y101.9 E26.73079
G1 X110.672 Y101.9 E26.88801
G1 X110.233 Y101.815 E26.9115
G1 X109.622 Y101.576 E26.94596
G1 X109.272 Y101.347 E26.96793
G1 X108.795 Y100.87 E27.00337
G1 X108.574 Y100.531 E27.02463
G1 F1476.4 X108.446 Y100.223 E27.04243
G1 F1431.3 X108.317 Y99.914 E27.06086
G1 F1203.9 X108.154 Y99.558 E27.08649
M205 X5 Y5
G0 F7500 X108.18 Y99.853
G0 X107.932 Y98.635
G0 X107.695 Y98.45
M205 X8 Y8
;TYPE:WALL-OUTER
G1 F1500 X107.599 Y98.618 E27.09564
G1 X107.571 Y98.827 E27.10561
G1 X107.574 Y102.9 E27.29817
G1 X107.532 Y103.364 E27.32019
G1 X107.428 Y103.828 E27.34268
G1 X107.252 Y104.297 E27.36636
G1 X107.049 Y104.681 E27.38689
G1 X106.782 Y105.065 E27.409
G1 X106.457 Y105.421 E27.43179
G1 X106.083 Y105.731 E27.45476
G1 X105.706 Y105.972 E27.47591
G1 X105.215 Y106.196 E27.50143
G1 X104.828 Y106.318 E27.52061
G1 X104.316 Y106.406 E27.54517
G1 X103.863 Y106.424 E27.56661
G1 X103.402 Y106.383 E27.58849
G1 X102.923 Y106.277 E27.61168
G1 X102.484 Y106.115 E27.6338
G1 X102.042 Y105.881 E27.65745
G1 X101.694 Y105.637 E27.67754
G1 X101.347 Y105.323 E27.69967
G1 X101.024 Y104.939 E27.72339
G1 X100.767 Y104.534 E27.74607
G1 X100.558 Y104.079 E27.76974
G1 X100.424 Y103.643 E27.7913
G1 X100.344 Y103.163 E27.81431
G1 X100.326 Y102.73 E27.8348
G1 X100.329 Y98.763 E28.02235
G1 X100.189 Y98.42 E28.03986
G1 X100.038 Y98.305 E28.04884
G1 X99.846 Y98.226 E28.05865
G1 X98.777 Y98.225 E28.10919
G1 X98.426 Y98.25 E28.12583
G1 X97.973 Y98.436 E28.14898
G1 X97.643 Y98.687 E28.16858
G1 X97.392 Y99.017 E28.18818
G1 X97.203 Y99.474 E28.21156
G1 X97.18 Y99.82 E28.22796
G1 X97.181 Y121.774 E29.26588
G1 X122.82 Y121.775 E30.47802
G1 X122.82 Y102.325 E31.39756
G1 X122.673 Y101.966 E31.4159
G1 X122.507 Y101.747 E31.42889
G1 X122.277 Y101.572 E31.44256
G1 X121.927 Y101.425 E31.4605
G1 X120.138 Y101.425 E31.54508
G1 X119.841 Y101.598 E31.56133
G1 X119.728 Y101.745 E31.5701
G1 X119.67 Y101.961 E31.58067
G1 X119.67 Y106.17 E31.77966
G1 X119.623 Y106.532 E31.79692
G1 X119.528 Y106.878 E31.81388
G1 X119.401 Y107.192 E31.8299
G1 X119.223 Y107.504 E31.84688
G1 X118.986 Y107.811 E31.86521
G1 X118.734 Y108.06 E31.88196
G1 X118.474 Y108.26 E31.89747
G1 X118.191 Y108.427 E31.91301
G1 X117.823 Y108.584 E31.93192
G1 X117.52 Y108.665 E31.94675
G1 X117.171 Y108.715 E31.96342
G1 X116.795 Y108.721 E31.9812
G1 X116.397 Y108.669 E32.00017
G1 X116.097 Y108.587 E32.01488
G1 X115.759 Y108.451 E32.0321
G1 X115.421 Y108.256 E32.05055
G1 X115.164 Y108.058 E32.06589
G1 X114.888 Y107.781 E32.08437
G1 X114.693 Y107.525 E32.09959
G1 X114.523 Y107.241 E32.11524
G1 X114.365 Y106.861 E32.13469
G1 X114.286 Y106.572 E32.14886
G1 X114.231 Y106.175 E32.16781
G1 X114.23 Y101.969 E32.36665
G1 X114.18 Y101.778 E32.37599
G1 X114.005 Y101.55 E32.38958
G1 X113.837 Y101.453 E32.39875
G1 X113.628 Y101.425 E32.40872
G1 X110.723 Y101.424 E32.54606
G1 X110.351 Y101.355 E32.56394
G1 X109.862 Y101.16 E32.58883
G1 X109.561 Y100.964 E32.60581
G1 X109.183 Y100.586 E32.63109
G1 X108.987 Y100.288 E32.64795
G1 X108.799 Y99.819 E32.67184
G1 X108.724 Y99.44 E32.6901
G1 X108.721 Y98.769 E32.72183
G1 X108.67 Y98.577 E32.73122
G1 X108.498 Y98.351 E32.74465
G1 X108.328 Y98.253 E32.75392
G1 X107.964 Y98.253 E32.77113
G1 X107.695 Y98.45 E32.7869
M205 X5 Y5
G0 F7500 X107.599 Y98.618
G0 X107.599 Y98.624
G0 X108.147 Y98.842
M205 X8 Y8
;TYPE:WALL-INNER
G1 F1071.4 X108.145 Y99.403 E32.82815
G1 F1059.3 X108.154 Y99.558 E32.8397
M205 X5 Y5
G0 F7500 X108.18 Y99.853
G0 X108.699 Y101.983
G0 X108.824 Y101.983
M205 X8 Y8
;TYPE:SKIN
G1 F1500 X108.817 Y103.012 E32.86997
G1 X108.768 Y103.541 E32.8856
G1 X108.642 Y104.135 E32.90346
G1 X108.401 Y104.793 E32.92408
G1 X108.119 Y105.33 E32.94192
G1 X107.77 Y105.828 E32.95981
