;FLAVOR:Marlin
;TIME:8885
;Filament used: 7.68282m
;Layer height: 0.24
;MINX:34.928
;MINY:59.81
;MINZ:0.28
;MAXX:185.072
;MAXY:160.187
;MAXZ:4.84
;Generated with Cura_SteamEngine 4.10.0
M82 ;absolute extrusion mode
M201 X500.00 Y500.00 Z100.00 E5000.00 ;Setup machine max acceleration
M203 X500.00 Y500.00 Z10.00 E50.00 ;Setup machine max feedrate
M204 P500.00 R1000.00 T500.00 ;Setup Print/Retract/Travel acceleration
M205 X8.00 Y8.00 Z0.40 E5.00 ;Setup Jerk
M220 S100 ;Reset Feedrate
M221 S100 ;Reset Flowrate

;*** Start Dual Nozzle/Bed Preheating ***
M140 S50 ; start preheating the bed
M104 S200 ?T0 ; start preheating hotend
M190 S50 ; heat to Cura Bed setting and WAIT
M109 S200 ?T0 ; heat to Cura Hotend and WAIT
;*** End Preheating ***

;*** Single Print Start Tone
M300 S1000 P500 ; chirp to indicate starting to print
;*** End Single Start Tone

G28 ;Home

G92 E0 ;Reset Extruder
G1 Z2.0 F3000 ;Move Z Axis up

G1 X10.1 Y20 Z0.28 F5000.0 ;Move to start position
G1 X10.1 Y200.0 Z0.28 F1500.0 E15 ;Draw the first line
G1 X10.4 Y200.0 Z0.28 F5000.0 ;Move to side a little
G1 X10.4 Y20 Z0.28 F1500.0 E30 ;Draw the second line
G92 E0 ;Reset Extruder
G1 Z2.0 F3000 ;Move Z Axis up
G92 E0
G92 E0
G1 F2400 E-3.2
;LAYER_COUNT:19
;LAYER:0
M106 S63.8
M204 S500
M205 X6 Y6
G0 F9000 X54.099 Y76.147 Z0.28
;TYPE:SKIRT
G1 F1440 E0
G1 F1800 X54.976 Y75.548 E0.04945
G1 X55.136 Y75.441 E0.05842
G1 X59.453 Y72.612 E0.29875
G1 X60.053 Y72.232 E0.33182
G1 X60.504 Y71.962 E0.3563
G1 X60.832 Y71.782 E0.37372
G1 X61.457 Y71.454 E0.40659
G1 X66.641 Y68.817 E0.67741
G1 X67.133 Y68.575 E0.70294
G1 X67.732 Y68.304 E0.73355
G1 X68.857 Y67.838 E0.79026
G1 X69.05 Y67.761 E0.79993
G1 X74.423 Y65.663 E1.06852
G1 X75.038 Y65.432 E1.09911
G1 X75.625 Y65.232 E1.12798
G1 X76.496 Y64.964 E1.17042
G1 X82.543 Y63.212 E1.46357
G1 X83.406 Y62.975 E1.50524
G1 X83.938 Y62.845 E1.53075
G1 X84.759 Y62.669 E1.56984
G1 X91.321 Y61.359 E1.88143
G1 X91.974 Y61.238 E1.91235
G1 X92.596 Y61.14 E1.94167
G1 X93.271 Y61.053 E1.97336
G1 X100.1 Y60.252 E2.29353
G1 X100.845 Y60.176 E2.3284
G1 X101.477 Y60.127 E2.35792
G1 X102.053 Y60.1 E2.38477
G1 X109.06 Y59.83 E2.71128
G1 X109.751 Y59.813 E2.74347
G1 X110.183 Y59.81 E2.76359
G1 X110.789 Y59.823 E2.79181
G1 X117.975 Y60.102 E3.12667
G1 X118.682 Y60.14 E3.15964
G1 X119.443 Y60.201 E3.19519
G1 X119.835 Y60.244 E3.21355
G1 X126.771 Y61.059 E3.53874
G1 X127.52 Y61.158 E3.57392
G1 X128.158 Y61.26 E3.60401
G1 X128.691 Y61.36 E3.62926
G1 X135.413 Y62.705 E3.94847
G1 X136.093 Y62.852 E3.98086
G1 X136.631 Y62.984 E4.00666
G1 X137.44 Y63.207 E4.04573
G1 X143.623 Y64.998 E4.34548
G1 X144.227 Y65.183 E4.37489
G1 X144.783 Y65.371 E4.40222
G1 X145.815 Y65.755 E4.45349
G1 X151.365 Y67.924 E4.73096
G1 X151.889 Y68.138 E4.75731
G1 X152.463 Y68.393 E4.78656
G1 X153.581 Y68.932 E4.84435
G1 X153.778 Y69.03 E4.8546
G1 X158.585 Y71.478 E5.10579
G1 X159.25 Y71.828 E5.14078
G1 X159.967 Y72.243 E5.17935
G1 X160.627 Y72.664 E5.21581
G1 X165.19 Y75.656 E5.46988
G1 X165.73 Y76.022 E5.50026
G1 X166.444 Y76.553 E5.54169
G1 X167.243 Y77.203 E5.58965
G1 X167.398 Y77.332 E5.59904
G1 X171.059 Y80.434 E5.82248
G1 X171.575 Y80.884 E5.85436
G1 X172.377 Y81.664 E5.90645
G1 X172.937 Y82.274 E5.94501
G1 X175.943 Y85.637 E6.15505
G1 X176.52 Y86.302 E6.19604
G1 X177.218 Y87.206 E6.24923
G1 X177.557 Y87.706 E6.27735
G1 X180.081 Y91.629 E6.49457
G1 X180.445 Y92.212 E6.52657
G1 X180.889 Y92.998 E6.56861
G1 X181.143 Y93.537 E6.59635
G1 X181.494 Y94.342 E6.63724
G1 X182.995 Y97.937 E6.81865
G1 X183.306 Y98.711 E6.85749
G1 X183.605 Y99.563 E6.89953
G1 X183.747 Y100.084 E6.92468
G1 X183.938 Y100.93 E6.96506
G1 X184.728 Y104.774 E7.1478
G1 X184.878 Y105.559 E7.18501
G1 X185.008 Y106.453 E7.22708
G1 X185.058 Y107.308 E7.26696
G1 X185.072 Y108.286 E7.3125
G1 X185.071 Y111.955 E7.48335
G1 X185.061 Y112.636 E7.51506
G1 X185.008 Y113.537 E7.55709
G1 X184.888 Y114.364 E7.596
G1 X184.728 Y115.218 E7.63646
G1 X183.979 Y118.875 E7.81028
G1 X183.794 Y119.711 E7.85015
G1 X183.42 Y120.991 E7.91224
G1 X183.103 Y121.803 E7.95283
G1 X181.492 Y125.668 E8.14781
G1 X181.187 Y126.372 E8.18353
G1 X180.792 Y127.184 E8.22558
G1 X180.497 Y127.693 E8.25297
G1 X180.004 Y128.488 E8.29653
G1 X177.703 Y132.066 E8.49462
G1 X177.302 Y132.67 E8.52838
G1 X176.609 Y133.595 E8.58219
G1 X176.238 Y134.029 E8.60878
G1 X172.973 Y137.686 E8.83706
G1 X172.34 Y138.373 E8.88056
G1 X171.525 Y139.161 E8.93335
G1 X170.968 Y139.643 E8.96764
G1 X167.109 Y142.911 E9.20311
G1 X166.629 Y143.306 E9.23206
G1 X165.901 Y143.853 E9.27446
G1 X165.024 Y144.452 E9.32391
G1 X164.864 Y144.559 E9.33288
G1 X160.682 Y147.301 E9.56573
G1 X159.953 Y147.764 E9.60594
G1 X159.508 Y148.031 E9.63011
G1 X159.168 Y148.218 E9.64818
G1 X158.544 Y148.545 E9.68098
G1 X153.358 Y151.184 E9.95193
G1 X152.868 Y151.425 E9.97736
G1 X152.266 Y151.697 E10.00812
G1 X151.14 Y152.163 E10.06486
G1 X150.95 Y152.239 E10.07439
G1 X145.577 Y154.337 E10.34298
G1 X144.962 Y154.568 E10.37357
G1 X144.375 Y154.768 E10.40244
G1 X143.504 Y155.036 E10.44488
G1 X137.457 Y156.788 E10.73803
G1 X136.594 Y157.025 E10.7797
G1 X136.062 Y157.155 E10.80521
G1 X135.241 Y157.331 E10.8443
G1 X128.679 Y158.641 E11.15589
G1 X128.026 Y158.762 E11.18681
G1 X127.404 Y158.86 E11.21613
G1 X126.729 Y158.947 E11.24782
G1 X119.9 Y159.748 E11.56799
G1 X119.155 Y159.824 E11.60286
G1 X118.523 Y159.873 E11.63238
G1 X117.947 Y159.9 E11.65923
G1 X110.94 Y160.17 E11.98574
G1 X110.249 Y160.187 E12.01793
G1 X109.52 Y160.186 E12.05187
G1 X109.114 Y160.173 E12.07079
G1 X102.025 Y159.898 E12.40113
G1 X101.318 Y159.86 E12.4341
G1 X100.557 Y159.799 E12.46965
G1 X100.165 Y159.756 E12.48801
G1 X93.229 Y158.941 E12.8132
G1 X92.48 Y158.842 E12.84838
G1 X91.842 Y158.74 E12.87847
G1 X91.309 Y158.64 E12.90372
G1 X84.587 Y157.295 E13.22293
G1 X83.907 Y157.148 E13.25532
G1 X83.369 Y157.016 E13.28112
G1 X82.56 Y156.793 E13.32019
G1 X76.377 Y155.002 E13.61993
G1 X75.773 Y154.817 E13.64935
G1 X75.217 Y154.629 E13.67668
G1 X74.185 Y154.245 E13.72795
G1 X68.632 Y152.075 E14.00556
G1 X68.106 Y151.86 E14.03202
G1 X67.536 Y151.606 E14.06108
G1 X66.42 Y151.068 E14.11877
G1 X66.222 Y150.97 E14.12906
G1 X61.416 Y148.522 E14.3802
G1 X60.749 Y148.171 E14.4153
G1 X60.028 Y147.754 E14.45408
G1 X59.373 Y147.336 E14.49026
G1 X54.81 Y144.344 E14.74434
G1 X54.27 Y143.978 E14.77472
G1 X53.556 Y143.447 E14.81615
G1 X52.757 Y142.797 E14.86411
G1 X52.602 Y142.668 E14.8735
G1 X48.942 Y139.567 E15.09687
G1 X48.427 Y139.118 E15.12869
G1 X47.625 Y138.337 E15.18081
G1 X47.063 Y137.726 E15.21947
G1 X44.057 Y134.363 E15.4295
G1 X43.48 Y133.698 E15.4705
G1 X42.782 Y132.794 E15.52368
G1 X42.443 Y132.294 E15.55181
G1 X39.919 Y128.371 E15.76902
G1 X39.555 Y127.788 E15.80103
G1 X39.111 Y127.002 E15.84306
G1 X38.857 Y126.463 E15.87081
G1 X38.506 Y125.658 E15.9117
G1 X37.005 Y122.063 E16.0931
G1 X36.692 Y121.283 E16.13224
G1 X36.394 Y120.431 E16.17427
G1 X36.258 Y119.933 E16.19831
G1 X36.062 Y119.07 E16.23951
G1 X35.272 Y115.226 E16.42225
G1 X35.122 Y114.441 E16.45946
G1 X34.992 Y113.547 E16.50153
G1 X34.942 Y112.692 E16.54141
G1 X34.928 Y111.714 E16.58695
G1 X34.929 Y108.045 E16.7578
G1 X34.939 Y107.364 E16.78951
G1 X34.992 Y106.463 E16.83154
G1 X35.112 Y105.636 E16.87045
G1 X35.272 Y104.782 E16.91091
G1 X36.021 Y101.125 E17.08473
G1 X36.2 Y100.31 E17.12358
G1 X36.564 Y99.056 E17.18438
G1 X36.753 Y98.553 E17.2094
G1 X36.938 Y98.094 E17.23245
G1 X38.565 Y94.198 E17.42904
G1 X38.815 Y93.622 E17.45828
G1 X39.211 Y92.81 E17.50035
G1 X39.503 Y92.307 E17.52743
G1 X40.086 Y91.37 E17.57882
G1 X42.233 Y88.032 E17.76363
G1 X42.68 Y87.357 E17.80132
G1 X43.341 Y86.467 E17.85295
G1 X43.762 Y85.971 E17.88324
G1 X47.122 Y82.209 E18.11811
G1 X47.615 Y81.672 E18.15205
G1 X48.439 Y80.871 E18.20556
G1 X49.032 Y80.356 E18.24214
G1 X52.891 Y77.089 E18.47757
G1 X53.371 Y76.694 E18.50652
G1 X54.099 Y76.147 E18.54892
G1 F2400 E15.34892
;MESH:SkullMeshBase.stl
G0 F9000 X59.575 Y83.933
G0 X60.17 Y84.84
G0 X55.939 Y89.408
G0 X52.117 Y93.685
G0 X49.224 Y98.179
G0 X47.275 Y102.851
G0 X46.299 Y107.61
G0 X46.299 Y112.39
G0 X47.275 Y117.149
G0 X49.224 Y121.821
G0 X52.117 Y126.315
G0 X55.939 Y130.592
G0 X60.617 Y134.555
G0 X66.11 Y138.156
G0 X72.252 Y141.282
G0 X79.075 Y143.947
G0 X86.353 Y146.053
G0 X94.007 Y147.585
G0 X101.937 Y148.514
G0 X118.105 Y149.185
G0 X118.129 Y149.485
;TYPE:WALL-OUTER
G1 F1440 E18.54892
G1 F1800 X110 Y149.8 E18.92773
G1 X101.871 Y149.485 E19.30653
G1 X93.86 Y148.544 E19.68212
G1 X86.121 Y146.997 E20.04961
G1 X78.748 Y144.862 E20.40703
G1 X71.877 Y142.179 E20.7505
G1 X65.605 Y138.986 E21.07822
G1 X60.038 Y135.337 E21.38817
G1 X55.257 Y131.287 E21.67993
G1 X51.345 Y126.91 E21.95328
G1 X48.361 Y122.271 E22.21012
G1 X46.343 Y117.434 E22.45417
G1 X45.328 Y112.491 E22.68914
G1 X45.328 Y107.509 E22.92112
G1 X46.343 Y102.566 E23.15609
G1 X48.361 Y97.729 E23.40014
G1 X51.345 Y93.09 E23.65698
G1 X55.257 Y88.713 E23.93033
G1 X60.038 Y84.663 E24.22209
G1 X65.605 Y81.014 E24.53204
G1 X71.877 Y77.821 E24.85976
G1 X78.748 Y75.138 E25.20322
G1 X86.121 Y73.003 E25.56065
G1 X93.86 Y71.456 E25.92814
G1 X101.871 Y70.515 E26.30373
G1 X110 Y70.2 E26.68253
G1 X118.129 Y70.515 E27.06133
G1 X126.14 Y71.456 E27.43693
G1 X133.879 Y73.003 E27.80441
G1 X141.252 Y75.138 E28.16184
G1 X148.123 Y77.821 E28.50531
G1 X154.395 Y81.014 E28.83302
G1 X159.962 Y84.663 E29.14297
G1 X164.743 Y88.713 E29.43473
G1 X168.655 Y93.09 E29.70808
G1 X171.639 Y97.729 E29.96493
G1 X173.657 Y102.566 E30.20897
G1 X174.672 Y107.509 E30.44394
G1 X174.672 Y112.491 E30.67592
G1 X173.657 Y117.434 E30.91089
G1 X171.639 Y122.271 E31.15494
G1 X168.655 Y126.91 E31.41178
G1 X164.743 Y131.287 E31.68513
G1 X159.962 Y135.337 E31.97689
G1 X154.395 Y138.986 E32.28684
G1 X148.123 Y142.179 E32.61456
G1 X141.252 Y144.862 E32.95803
G1 X133.879 Y146.997 E33.31545
G1 X126.14 Y148.544 E33.68294
G1 X118.129 Y149.485 E34.05853
G0 F9000 X118.104 Y149.085
;TYPE:WALL-INNER
G1 F1800 X110 Y149.399 E34.43617
G1 X101.896 Y149.085 E34.81381
G1 X93.922 Y148.149 E35.18766
G1 X86.216 Y146.608 E35.55359
G1 X78.882 Y144.485 E35.90911
G1 X72.033 Y141.81 E36.25149
G1 X65.813 Y138.644 E36.57648
G1 X60.277 Y135.015 E36.88471
G1 X55.537 Y131 E37.17396
G1 X51.662 Y126.664 E37.44474
G1 X48.717 Y122.087 E37.69817
G1 X46.727 Y117.317 E37.93884
G1 X45.728 Y112.45 E38.17019
G1 X45.728 Y107.55 E38.39835
G1 X46.727 Y102.683 E38.62971
G1 X48.717 Y97.913 E38.87037
G1 X51.662 Y93.336 E39.1238
G1 X55.537 Y89 E39.39458
G1 X60.277 Y84.985 E39.68384
G1 X65.813 Y81.356 E39.99206
G1 X72.033 Y78.19 E40.31705
G1 X78.882 Y75.515 E40.65943
G1 X86.216 Y73.392 E41.01496
G1 X93.922 Y71.851 E41.38088
G1 X101.896 Y70.915 E41.75474
G1 X110 Y70.601 E42.13238
G1 X118.104 Y70.915 E42.51001
G1 X126.078 Y71.851 E42.88387
G1 X133.784 Y73.392 E43.24979
G1 X141.118 Y75.515 E43.60532
G1 X147.967 Y78.19 E43.9477
G1 X154.187 Y81.356 E44.27269
G1 X159.723 Y84.985 E44.58091
G1 X164.463 Y89 E44.87017
G1 X168.338 Y93.336 E45.14095
G1 X171.283 Y97.913 E45.39438
G1 X173.273 Y102.683 E45.63504
G1 X174.272 Y107.55 E45.8664
G1 X174.272 Y112.45 E46.09456
G1 X173.273 Y117.317 E46.32591
G1 X171.283 Y122.087 E46.56658
G1 X168.338 Y126.664 E46.82001
G1 X164.463 Y131 E47.09079
G1 X159.723 Y135.015 E47.38004
G1 X154.187 Y138.644 E47.68827
G1 X147.967 Y141.81 E48.01326
G1 X141.118 Y144.485 E48.35564
G1 X133.784 Y146.608 E48.71116
G1 X126.078 Y148.149 E49.07709
G1 X118.104 Y149.085 E49.45094
G0 F9000 X118.079 Y148.685
G1 F1800 X110 Y148.998 E49.82742
G1 X101.921 Y148.685 E50.20389
G1 X93.984 Y147.754 E50.576
G1 X86.311 Y146.219 E50.94037
G1 X79.019 Y144.109 E51.29385
G1 X72.186 Y141.44 E51.63543
G1 X66.021 Y138.302 E51.95755
G1 X60.516 Y134.693 E52.26406
G1 X55.817 Y130.713 E52.5508
G1 X51.979 Y126.418 E52.81901
G1 X49.073 Y121.903 E53.06903
G1 X47.111 Y117.2 E53.30631
G1 X46.128 Y112.409 E53.53405
G1 X46.128 Y107.591 E53.75839
G1 X47.111 Y102.8 E53.98613
G1 X49.073 Y98.097 E54.22341
G1 X51.979 Y93.582 E54.47343
G1 X55.817 Y89.287 E54.74164
G1 X60.516 Y85.307 E55.02838
G1 X66.021 Y81.698 E55.3349
G1 X72.186 Y78.56 E55.65701
G1 X79.019 Y75.891 E55.9986
G1 X86.311 Y73.781 E56.35207
G1 X93.984 Y72.246 E56.71644
G1 X101.921 Y71.315 E57.08855
G1 X110 Y71.002 E57.46503
G1 X118.079 Y71.315 E57.8415
G1 X126.016 Y72.246 E58.21361
G1 X133.689 Y73.781 E58.57798
G1 X140.981 Y75.891 E58.93145
G1 X147.814 Y78.56 E59.27304
G1 X153.979 Y81.698 E59.59515
G1 X159.484 Y85.307 E59.90167
G1 X164.183 Y89.287 E60.18841
G1 X168.021 Y93.582 E60.45662
G1 X170.927 Y98.097 E60.70664
G1 X172.889 Y102.8 E60.94392
G1 X173.872 Y107.591 E61.17166
G1 X173.872 Y112.409 E61.396
G1 X172.889 Y117.2 E61.62374
G1 X170.927 Y121.903 E61.86102
G1 X168.021 Y126.418 E62.11104
G1 X164.183 Y130.713 E62.37925
G1 X159.484 Y134.693 E62.66599
G1 X153.979 Y138.302 E62.97251
G1 X147.814 Y141.44 E63.29462
G1 X140.981 Y144.109 E63.63621
G1 X133.689 Y146.219 E63.98968
G1 X126.016 Y147.754 E64.35405
G1 X118.079 Y148.685 E64.72616
G0 F9000 X118.044 Y148.295
;TYPE:SKIN
G1 F1800 X110 Y148.608 E65.10101
G1 X101.956 Y148.295 E65.47585
G1 X94.031 Y147.366 E65.8474
G1 X86.413 Y145.842 E66.20915
G1 X79.136 Y143.737 E66.56189
G1 X72.344 Y141.083 E66.90145
G1 X66.22 Y137.966 E67.22142
G1 X60.752 Y134.381 E67.52587
G1 X56.09 Y130.432 E67.81037
G1 X52.289 Y126.18 E68.07594
G1 X49.42 Y121.721 E68.32283
G1 X47.486 Y117.084 E68.55678
G1 X46.518 Y112.369 E68.78091
G1 X46.518 Y107.631 E69.00153
G1 X47.486 Y102.916 E69.22566
G1 X49.42 Y98.279 E69.4596
G1 X52.289 Y93.82 E69.7065
G1 X56.09 Y89.568 E69.97206
G1 X60.752 Y85.619 E70.25656
G1 X66.22 Y82.034 E70.56102
G1 X72.344 Y78.917 E70.88099
G1 X79.136 Y76.263 E71.22054
G1 X86.413 Y74.158 E71.57328
G1 X94.031 Y72.634 E71.93503
G1 X101.956 Y71.705 E72.30658
G1 X110 Y71.392 E72.68143
G1 X118.044 Y71.705 E73.05627
G1 X125.969 Y72.634 E73.42782
G1 X133.587 Y74.158 E73.78958
G1 X140.864 Y76.263 E74.14232
G1 X147.656 Y78.917 E74.48187
G1 X153.78 Y82.034 E74.80184
G1 X159.248 Y85.619 E75.1063
G1 X163.91 Y89.568 E75.39079
G1 X167.711 Y93.82 E75.65636
G1 X170.58 Y98.279 E75.90325
G1 X172.514 Y102.916 E76.1372
G1 X173.482 Y107.631 E76.36133
G1 X173.482 Y112.369 E76.58195
G1 X172.514 Y117.084 E76.80608
G1 X170.58 Y121.721 E77.04002
G1 X167.711 Y126.18 E77.28692
G1 X163.91 Y130.432 E77.55249
G1 X159.248 Y134.381 E77.83698
G1 X153.78 Y137.966 E78.14144
G1 X147.656 Y141.083 E78.46141
G1 X140.864 Y143.737 E78.80096
G1 X133.587 Y145.842 E79.1537
G1 X125.969 Y147.366 E79.51545
G1 X118.044 Y148.295 E79.887
G1 F2400 E76.687
G0 F9000 X118.054 Y148.575
G0 X110 Y148.828
G0 X101.937 Y148.514
G0 X94.007 Y147.585
G0 X86.353 Y146.053
G0 X79.075 Y143.947
G0 X72.252 Y141.282
G0 X66.11 Y138.156
G0 X61.167 Y134.916
G0 X59.488 Y133.678
G0 X59.787 Y133.326
G1 F1440 E79.887
G1 F1800 X52.253 Y125.792 E80.38313
G0 F9000 X51.867 Y126.039
G0 X50.846 Y124.454
G0 X51.233 Y124.206
G1 F1800 X62.027 Y135 E81.09393
G0 F9000 X61.774 Y135.385
G0 X63.417 Y136.462
G0 X63.67 Y136.077
G1 F1800 X50.213 Y122.621 E81.98007
G0 F9000 X49.826 Y122.869
G0 X49.002 Y121.447
G0 X49.428 Y121.27
G1 F1800 X65.312 Y137.154 E83.02605
G0 F9000 X65.06 Y137.538
G0 X66.553 Y138.449
G0 X66.762 Y138.039
G1 F1800 X49.023 Y120.3 E84.1942
G0 F9000 X48.597 Y120.476
G0 X48.193 Y119.506
G0 X48.619 Y119.329
G1 F1800 X67.914 Y138.625 E85.46484
G0 F9000 X67.705 Y139.035
G0 X68.857 Y139.621
G0 X69.066 Y139.211
G1 F1800 X48.214 Y118.359 E86.83798
G0 F9000 X47.788 Y118.536
G0 X47.383 Y117.566
G0 X47.81 Y117.389
G1 F1800 X70.218 Y139.797 E88.31358
G0 F9000 X70.009 Y140.208
G0 X71.161 Y140.794
G0 X71.37 Y140.384
G1 F1800 X47.567 Y116.581 E89.88105
G0 F9000 X47.421 Y115.869
G1 F1800 X72.502 Y140.95 E91.53268
G0 F9000 X73.43 Y141.313
G1 F1800 X47.275 Y115.157 E93.25506
G0 F9000 X47.128 Y114.445
G1 F1800 X74.36 Y141.676 E95.0483
G0 F9000 X75.288 Y142.039
G1 F1800 X46.982 Y113.733 E96.9123
G0 F9000 X46.835 Y113.021
G1 F1800 X76.216 Y142.402 E98.84709
G0 F9000 X77.146 Y142.765
G1 F1800 X46.698 Y112.317 E100.85214
G0 F9000 X46.698 Y111.751
G1 F1800 X78.074 Y143.128 E102.91834
G0 F9000 X79.003 Y143.491
G1 F1800 X46.698 Y111.186 E105.04568
G0 F9000 X46.698 Y110.62
G1 F1800 X79.825 Y143.748 E107.22718
