;FLAVOR:Marlin
;TIME:315
;Filament used: 0.123664m
;Layer height: 0.16
;MINX:83.416
;MINY:83.416
;MINZ:0.2
;MAXX:136.584
;MAXY:136.584
;MAXZ:0.8
;Generated with Cura_SteamEngine 4.10.0
M82 ;absolute extrusion mode
M201 X500.00 Y500.00 Z100.00 E5000.00 ;Setup machine max acceleration
M203 X500.00 Y500.00 Z10.00 E50.00 ;Setup machine max feedrate
M204 P500.00 R1000.00 T500.00 ;Setup Print/Retract/Travel acceleration
M205 X8.00 Y8.00 Z0.40 E5.00 ;Setup Jerk
M220 S100 ;Reset Feedrate
M221 S100 ;Reset Flowrate

;*** Start Dual Nozzle/Bed Preheating ***
M140 S50 ; start preheating the bed
M104 S200 ?T0 ; start preheating hotend
M190 S50 ; heat to Cura Bed setting and WAIT
M109 S200 ?T0 ; heat to Cura Hotend and WAIT
;*** End Preheating ***

;*** Single Print Start Tone
M300 S1000 P500 ; chirp to indicate starting to print
;*** End Single Start Tone

G28 ;Home

G92 E0 ;Reset Extruder
G1 Z2.0 F3000 ;Move Z Axis up

G1 X10.1 Y20 Z0.28 F5000.0 ;Move to start position
G1 X10.1 Y200.0 Z0.28 F1500.0 E15 ;Draw the first line
G1 X10.4 Y200.0 Z0.28 F5000.0 ;Move to side a little
G1 X10.4 Y20 Z0.28 F1500.0 E30 ;Draw the second line
G92 E0 ;Reset Extruder
G1 Z2.0 F3000 ;Move Z Axis up
G92 E0
G92 E0
G1 F2400 E-3.2
;LAYER_COUNT:6
;LAYER:0
M106 S63.8
M204 S500
M205 X6 Y6
G0 F9000 X89.988 Y92.674 Z0.2
;TYPE:SKIRT
G1 F1440 E0
G1 F1800 X92.73 Y89.932 E0.12898
G1 X93.21 Y89.466 E0.15123
G1 X93.898 Y88.854 E0.18185
G1 X94.636 Y88.304 E0.21247
G1 X95.624 Y87.709 E0.25083
G1 X96.462 Y87.265 E0.28237
G1 X99.751 Y85.59 E0.40513
G1 X100.366 Y85.287 E0.42793
G1 X101.209 Y84.917 E0.45855
G1 X102.081 Y84.621 E0.48918
G1 X103.227 Y84.354 E0.52832
G1 X104.167 Y84.191 E0.56005
G1 X107.667 Y83.637 E0.67791
G1 X108.484 Y83.519 E0.70536
G1 X109.4 Y83.428 E0.73598
G1 X110.321 Y83.416 E0.76662
G1 X111.497 Y83.518 E0.80588
G1 X112.437 Y83.654 E0.83747
G1 X116.051 Y84.227 E0.95917
G1 X116.735 Y84.345 E0.98226
G1 X117.635 Y84.541 E1.01289
G1 X118.514 Y84.814 E1.0435
G1 X119.604 Y85.276 E1.08288
G1 X120.455 Y85.695 E1.11443
G1 X123.716 Y87.357 E1.23616
G1 X124.316 Y87.673 E1.25872
G1 X125.152 Y88.164 E1.29097
G1 X125.903 Y88.697 E1.3216
G1 X126.766 Y89.446 E1.3596
G1 X127.326 Y89.988 E1.38552
G1 X130.068 Y92.73 E1.5145
G1 X130.534 Y93.21 E1.53675
G1 X131.146 Y93.898 E1.56738
G1 X131.696 Y94.636 E1.59799
G1 X132.291 Y95.624 E1.63635
G1 X132.735 Y96.462 E1.66789
G1 X134.41 Y99.751 E1.79065
G1 X134.713 Y100.366 E1.81345
G1 X135.083 Y101.209 E1.84408
G1 X135.379 Y102.081 E1.8747
G1 X135.646 Y103.227 E1.91384
G1 X135.809 Y104.167 E1.94557
G1 X136.363 Y107.667 E2.06343
G1 X136.481 Y108.484 E2.09089
G1 X136.572 Y109.4 E2.1215
G1 X136.584 Y110.321 E2.15214
G1 X136.482 Y111.497 E2.1914
G1 X136.346 Y112.437 E2.22299
G1 X135.773 Y116.051 E2.34469
G1 X135.655 Y116.735 E2.36778
G1 X135.459 Y117.635 E2.39841
G1 X135.186 Y118.514 E2.42903
G1 X134.724 Y119.604 E2.4684
G1 X134.305 Y120.455 E2.49995
G1 X132.643 Y123.716 E2.62169
G1 X132.327 Y124.316 E2.64424
G1 X131.836 Y125.152 E2.67649
G1 X131.303 Y125.903 E2.70712
G1 X130.554 Y126.766 E2.74513
G1 X130.012 Y127.326 E2.77105
G1 X127.27 Y130.068 E2.90002
G1 X126.79 Y130.534 E2.92227
G1 X126.102 Y131.146 E2.9529
G1 X125.364 Y131.696 E2.98351
G1 X124.376 Y132.291 E3.02187
G1 X123.538 Y132.735 E3.05341
G1 X120.249 Y134.41 E3.17618
G1 X119.634 Y134.713 E3.19898
G1 X118.791 Y135.083 E3.2296
G1 X117.919 Y135.379 E3.26023
G1 X116.773 Y135.646 E3.29936
G1 X115.833 Y135.809 E3.33109
G1 X112.333 Y136.363 E3.44895
G1 X111.516 Y136.481 E3.47641
G1 X110.6 Y136.572 E3.50703
G1 X109.679 Y136.584 E3.53766
G1 X108.503 Y136.482 E3.57692
G1 X107.563 Y136.346 E3.60851
G1 X103.949 Y135.773 E3.73022
G1 X103.265 Y135.655 E3.7533
G1 X102.365 Y135.459 E3.78394
G1 X101.486 Y135.186 E3.81455
G1 X100.396 Y134.724 E3.85393
G1 X99.545 Y134.305 E3.88548
G1 X96.284 Y132.643 E4.00721
G1 X95.682 Y132.326 E4.02984
G1 X94.726 Y131.757 E4.06684
G1 X93.983 Y131.213 E4.09747
G1 X93.234 Y130.554 E4.13065
G1 X92.674 Y130.012 E4.15657
G1 X89.932 Y127.27 E4.28555
G1 X89.465 Y126.789 E4.30785
G1 X88.853 Y126.101 E4.33847
G1 X88.303 Y125.363 E4.36908
G1 X87.705 Y124.37 E4.40764
G1 X87.265 Y123.538 E4.43894
G1 X85.59 Y120.249 E4.5617
G1 X85.287 Y119.634 E4.58451
G1 X84.917 Y118.791 E4.61513
G1 X84.621 Y117.919 E4.64576
G1 X84.354 Y116.773 E4.68489
G1 X84.191 Y115.833 E4.71662
G1 X83.615 Y112.188 E4.83936
G1 X83.519 Y111.522 E4.86174
G1 X83.428 Y110.606 E4.89236
G1 X83.416 Y109.686 E4.92296
G1 X83.518 Y108.509 E4.96225
G1 X83.654 Y107.563 E4.99404
G1 X84.227 Y103.949 E5.11574
G1 X84.345 Y103.265 E5.13883
G1 X84.541 Y102.365 E5.16947
G1 X84.814 Y101.486 E5.20008
G1 X85.276 Y100.396 E5.23945
G1 X85.695 Y99.545 E5.271
G1 X87.357 Y96.284 E5.39274
G1 X87.673 Y95.684 E5.41529
G1 X88.164 Y94.848 E5.44754
G1 X88.697 Y94.097 E5.47817
G1 X89.446 Y93.234 E5.51618
G1 X89.988 Y92.674 E5.5421
G0 F9000 X90.276 Y92.952
G1 F1800 X93.009 Y90.219 E5.67065
G1 X93.489 Y89.753 E5.6929
G1 X94.164 Y89.153 E5.72294
G1 X94.89 Y88.615 E5.75299
G1 X95.811 Y88.062 E5.78872
G1 X96.491 Y87.701 E5.81433
G1 X99.928 Y85.949 E5.94264
G1 X100.543 Y85.646 E5.96544
G1 X101.37 Y85.283 E5.99548
G1 X102.226 Y84.995 E6.02552
G1 X103.296 Y84.748 E6.06205
G1 X104.229 Y84.586 E6.09354
G1 X107.729 Y84.032 E6.2114
G1 X108.541 Y83.915 E6.23869
G1 X109.44 Y83.826 E6.26873
G1 X110.343 Y83.817 E6.29877
G1 X111.44 Y83.914 E6.3354
G1 X112.374 Y84.049 E6.36679
G1 X115.983 Y84.621 E6.48832
G1 X116.667 Y84.739 E6.51141
G1 X117.549 Y84.932 E6.54144
G1 X118.411 Y85.202 E6.57148
G1 X119.427 Y85.635 E6.60821
G1 X120.274 Y86.051 E6.6396
G1 X123.53 Y87.711 E6.76116
G1 X124.13 Y88.027 E6.78371
G1 X124.935 Y88.499 E6.81475
G1 X125.671 Y89.023 E6.8448
G1 X126.488 Y89.734 E6.88082
G1 X127.048 Y90.276 E6.90674
G1 X129.781 Y93.009 E7.03529
G1 X130.247 Y93.489 E7.05754
G1 X130.847 Y94.164 E7.08758
G1 X131.385 Y94.89 E7.11764
G1 X131.938 Y95.811 E7.15337
G1 X132.299 Y96.491 E7.17897
G1 X134.051 Y99.928 E7.30728
G1 X134.354 Y100.543 E7.33009
G1 X134.717 Y101.37 E7.36012
G1 X135.005 Y102.226 E7.39016
G1 X135.252 Y103.296 E7.42669
G1 X135.414 Y104.229 E7.45818
G1 X135.968 Y107.729 E7.57604
G1 X136.085 Y108.541 E7.60333
G1 X136.174 Y109.44 E7.63338
G1 X136.183 Y110.343 E7.66341
G1 X136.086 Y111.44 E7.70004
G1 X135.951 Y112.374 E7.73143
G1 X135.379 Y115.983 E7.85296
G1 X135.261 Y116.667 E7.87605
G1 X135.068 Y117.549 E7.90608
G1 X134.798 Y118.411 E7.93612
G1 X134.365 Y119.427 E7.97286
G1 X133.949 Y120.274 E8.00424
G1 X132.289 Y123.53 E8.1258
G1 X131.973 Y124.13 E8.14835
G1 X131.501 Y124.935 E8.17939
G1 X130.977 Y125.671 E8.20944
G1 X130.266 Y126.488 E8.24546
G1 X129.724 Y127.048 E8.27138
G1 X126.991 Y129.781 E8.39994
G1 X126.511 Y130.247 E8.42219
G1 X125.836 Y130.847 E8.45222
G1 X125.11 Y131.385 E8.48228
G1 X124.189 Y131.938 E8.51801
G1 X123.509 Y132.299 E8.54362
G1 X120.072 Y134.051 E8.67193
G1 X119.457 Y134.354 E8.69473
G1 X118.63 Y134.717 E8.72477
G1 X117.774 Y135.005 E8.75481
G1 X116.704 Y135.252 E8.79133
G1 X115.771 Y135.414 E8.82283
G1 X112.271 Y135.968 E8.94069
G1 X111.459 Y136.085 E8.96797
G1 X110.56 Y136.174 E8.99802
G1 X109.657 Y136.183 E9.02806
G1 X108.56 Y136.086 E9.06468
G1 X107.626 Y135.951 E9.09607
G1 X104.017 Y135.379 E9.21761
G1 X103.333 Y135.261 E9.24069
G1 X102.451 Y135.068 E9.27072
G1 X101.589 Y134.798 E9.30076
G1 X100.573 Y134.365 E9.3375
G1 X99.726 Y133.949 E9.36888
G1 X96.593 Y132.353 E9.48583
G1 X95.869 Y131.972 E9.51304
G1 X94.948 Y131.424 E9.54869
G1 X94.22 Y130.89 E9.57871
G1 X93.512 Y130.266 E9.6101
G1 X92.952 Y129.724 E9.63602
G1 X90.219 Y126.991 E9.76458
G1 X89.752 Y126.51 E9.78687
G1 X89.152 Y125.835 E9.81691
G1 X88.614 Y125.109 E9.84697
G1 X88.058 Y124.183 E9.88289
G1 X87.698 Y123.504 E9.90845
G1 X85.949 Y120.072 E10.03657
G1 X85.646 Y119.457 E10.05937
G1 X85.283 Y118.63 E10.08941
G1 X84.995 Y117.774 E10.11945
G1 X84.748 Y116.704 E10.15597
G1 X84.586 Y115.771 E10.18747
G1 X84.011 Y112.131 E10.31004
G1 X83.915 Y111.465 E10.33242
G1 X83.826 Y110.567 E10.36243
G1 X83.817 Y109.663 E10.3925
G1 X83.914 Y108.566 E10.42913
G1 X84.049 Y107.626 E10.46072
G1 X84.621 Y104.017 E10.58225
G1 X84.739 Y103.333 E10.60534
G1 X84.932 Y102.451 E10.63536
G1 X85.202 Y101.589 E10.66541
G1 X85.635 Y100.573 E10.70214
G1 X86.051 Y99.726 E10.73353
G1 X87.711 Y96.47 E10.85508
G1 X88.027 Y95.87 E10.87764
G1 X88.499 Y95.065 E10.90868
G1 X89.023 Y94.329 E10.93873
G1 X89.734 Y93.512 E10.97475
G1 X90.276 Y92.952 E11.00067
G1 F2400 E7.80067
;MESH:SkullMeshBase_magnet_cover.stl
G0 F9000 X100.429 Y103.046
G0 X99.088 Y101.764
G0 X102.39 Y99.525
G0 X105.999 Y97.685
G0 X110 Y97.053
G0 X114.001 Y97.685
G0 X117.61 Y99.525
G0 X120.475 Y102.39
G0 X122.315 Y105.999
G0 X122.946 Y110
G0 X122.351 Y114.063
G0 X122.084 Y113.926
;TYPE:WALL-OUTER
G1 F1440 E11.00067
G1 F1800 X122.704 Y110 E11.13287
G1 X122.084 Y106.074 E11.26506
G1 X120.279 Y102.532 E11.39729
G1 X117.468 Y99.721 E11.52951
G1 X113.926 Y97.916 E11.66173
G1 X110 Y97.295 E11.79393
G1 X106.074 Y97.916 E11.92614
G1 X102.532 Y99.721 E12.05836
G1 X99.721 Y102.532 E12.19058
G1 X97.916 Y106.074 E12.3228
G1 X97.295 Y110 E12.455
G1 X97.916 Y113.926 E12.58721
G1 X99.721 Y117.468 E12.71943
G1 X102.532 Y120.279 E12.85165
G1 X106.074 Y122.084 E12.98387
G1 X110 Y122.704 E13.11607
G1 X113.926 Y122.084 E13.24827
G1 X117.468 Y120.279 E13.38049
G1 X120.279 Y117.468 E13.51271
G1 X122.084 Y113.926 E13.64493
G1 F2400 E10.44493
G0 F9000 X122.351 Y114.063
G0 X120.475 Y117.61
G0 X117.61 Y120.475
G0 X114.001 Y122.315
G0 X110 Y123.707
G0 X109.831 Y124.767
G0 X110.001 Y125.493
G0 X110 Y125.797
G1 F1440 E13.64493
G1 F1800 X105.117 Y125.024 E13.80936
G1 X100.713 Y122.78 E13.97376
G1 X97.22 Y119.287 E14.13806
G1 X94.976 Y114.883 E14.30246
G1 X94.203 Y110 E14.46689
G1 X94.976 Y105.117 E14.63132
G1 X97.22 Y100.713 E14.79572
G1 X100.713 Y97.22 E14.96002
G1 X105.117 Y94.976 E15.12441
G1 X110 Y94.203 E15.28884
G1 X114.883 Y94.976 E15.45328
G1 X119.287 Y97.22 E15.61767
G1 X122.78 Y100.713 E15.78197
G1 X125.024 Y105.117 E15.94637
G1 X125.797 Y110 E16.1108
G1 X125.024 Y114.883 E16.27523
G1 X122.78 Y119.287 E16.43963
G1 X119.287 Y122.78 E16.60393
G1 X114.883 Y125.024 E16.76833
G1 X110 Y125.797 E16.93276
G1 F2400 E13.73276
G0 F9000 X110.001 Y125.493
G0 X114.311 Y124.113
G0 X114.147 Y123.071
G0 X114.051 Y122.469
;TYPE:WALL-INNER
G1 F1440 E16.93276
G1 F1800 X117.706 Y120.607 E17.06919
G1 X120.607 Y117.706 E17.20564
G1 X122.469 Y114.051 E17.34207
G1 X123.109 Y110 E17.47848
G1 X122.469 Y105.949 E17.61489
G1 X120.607 Y102.294 E17.75132
G1 X117.706 Y99.393 E17.88778
G1 X114.051 Y97.531 E18.02421
G1 X110 Y96.89 E18.16062
G1 X105.949 Y97.531 E18.29703
G1 X102.294 Y99.393 E18.43347
G1 X99.393 Y102.294 E18.56992
G1 X97.531 Y105.949 E18.70635
G1 X96.89 Y110 E18.84277
G1 X97.531 Y114.051 E18.97918
G1 X99.393 Y117.706 E19.11561
G1 X102.294 Y120.607 E19.25206
G1 X105.949 Y122.469 E19.3885
G1 X110 Y123.109 E19.5249
G1 X114.051 Y122.469 E19.66131
G1 F2400 E16.46131
G0 F9000 X110 Y122.946
G0 X105.999 Y122.315
G0 X102.39 Y120.475
G0 X99.525 Y117.61
G0 X97.685 Y114.001
G0 X97.053 Y110
G0 X97.685 Y105.999
G0 X99.525 Y102.39
G0 X102.39 Y99.525
G0 X105.998 Y97.685
G0 X105.723 Y95.902
G0 X105.242 Y95.361
G1 F1440 E19.66131
G1 F1800 X110 Y94.608 E19.82153
G1 X114.758 Y95.361 E19.98175
G1 X119.048 Y97.547 E20.1419
G1 X122.453 Y100.952 E20.30206
G1 X124.639 Y105.242 E20.4622
G1 X125.392 Y110 E20.62242
G1 X124.639 Y114.758 E20.78264
G1 X122.453 Y119.048 E20.94278
G1 X119.048 Y122.453 E21.10294
G1 X114.758 Y124.639 E21.26309
G1 X110 Y125.392 E21.42331
G1 X105.242 Y124.639 E21.58353
G1 X100.952 Y122.453 E21.74367
G1 X97.547 Y119.048 E21.90383
G1 X95.361 Y114.758 E22.06398
G1 X94.608 Y110 E22.2242
G1 X95.361 Y105.242 E22.38442
G1 X97.547 Y100.952 E22.54456
G1 X100.952 Y97.547 E22.70472
G1 X105.242 Y95.361 E22.86486
G1 F2400 E19.66486
G0 F9000 X101.315 Y98.046
G0 X101.942 Y98.909
G0 X99.525 Y102.39
G0 X97.685 Y105.999
G0 X96.485 Y110
G1 F1440 E22.86486
G1 F1800 X97.146 Y114.176 E23.00549
G1 X99.065 Y117.944 E23.14613
G1 X102.056 Y120.935 E23.28682
G1 X105.824 Y122.854 E23.42746
G1 X110 Y123.514 E23.56807
G1 X114.176 Y122.854 E23.70869
G1 X117.944 Y120.935 E23.84933
G1 X120.935 Y117.944 E23.99002
G1 X122.854 Y114.176 E24.13066
G1 X123.514 Y110 E24.27128
G1 X122.854 Y105.824 E24.4119
G1 X120.935 Y102.056 E24.55254
G1 X117.944 Y99.065 E24.69323
G1 X114.176 Y97.146 E24.83387
G1 X110 Y96.485 E24.97449
G1 X105.824 Y97.146 E25.11512
G1 X102.056 Y99.065 E25.25576
G1 X99.065 Y102.056 E25.39644
G1 X97.146 Y105.824 E25.53709
G1 X96.485 Y110 E25.67771
G1 F2400 E22.47771
G0 F9000 X98.909 Y118.058
G0 X98.164 Y118.803
G0 X97.874 Y118.809
G1 F1440 E25.67771
G1 F1800 X95.746 Y114.633 E25.8336
G1 X95.013 Y110 E25.98961
G1 X95.746 Y105.367 E26.14562
G1 X97.874 Y101.191 E26.30151
G1 X101.191 Y97.874 E26.45753
G1 X105.367 Y95.746 E26.61342
G1 X110 Y95.013 E26.76943
G1 X114.633 Y95.746 E26.92544
G1 X118.809 Y97.874 E27.08133
G1 X122.126 Y101.191 E27.23735
G1 X124.254 Y105.367 E27.39324
G1 X124.987 Y110 E27.54925
G1 X124.254 Y114.633 E27.70526
G1 X122.126 Y118.809 E27.86115
G1 X118.809 Y122.126 E28.01717
G1 X114.633 Y124.254 E28.17306
G1 X110 Y124.987 E28.32907
G1 X105.367 Y124.254 E28.48508
G1 X101.191 Y122.126 E28.64097
G1 X97.874 Y118.809 E28.79699
G0 F9000 X98.193 Y118.578
;TYPE:SKIN
G1 F1800 X96.123 Y114.515 E28.94865
G1 X95.409 Y110 E29.10069
G1 X96.123 Y105.485 E29.25272
G1 X98.193 Y101.422 E29.40439
G1 X101.422 Y98.193 E29.55627
G1 X105.485 Y96.123 E29.70793
G1 X110 Y95.409 E29.85997
G1 X114.515 Y96.123 E30.012
G1 X118.578 Y98.193 E30.16367
G1 X121.807 Y101.422 E30.31555
G1 X123.877 Y105.485 E30.46721
G1 X124.591 Y110 E30.61925
G1 X123.877 Y114.515 E30.77128
G1 X121.807 Y118.578 E30.92295
G1 X118.578 Y121.807 E31.07483
G1 X114.515 Y123.877 E31.22649
G1 X110 Y124.591 E31.37853
G1 X105.485 Y123.877 E31.53056
G1 X101.422 Y121.807 E31.68223
G1 X98.193 Y118.578 E31.83411
G0 F9000 X98.745 Y118.176
G1 F1800 X101.824 Y121.255 E31.97894
G1 X105.702 Y123.23 E32.12368
G1 X110 Y123.908 E32.2684
G1 X114.298 Y123.23 E32.41312
G1 X118.176 Y121.255 E32.55787
G1 X121.255 Y118.176 E32.7027
G1 X123.23 Y114.298 E32.84744
G1 X123.908 Y110 E32.99216
G1 X123.23 Y105.702 E33.13688
G1 X121.255 Y101.824 E33.28163
G1 X118.176 Y98.745 E33.42646
G1 X114.298 Y96.77 E33.5712
G1 X110 Y96.091 E33.71593
G1 X105.702 Y96.77 E33.86065
G1 X101.824 Y98.745 E34.0054
G1 X98.745 Y101.824 E34.15023
G1 X96.77 Y105.702 E34.29497
G1 X96.091 Y110 E34.4397
G1 X96.77 Y114.298 E34.58442
G1 X98.745 Y118.176 E34.72917
G1 F2400 E31.52917
G0 F9000 X98.976 Y118.011
G0 X101.942 Y121.091
G0 X101.453 Y122.046
G0 X101.994 Y122.412
G0 X102.203 Y122.002
G1 F1440 E34.72917
G1 F1800 X97.996 Y117.795 E34.92705
G0 F9000 X98.128 Y117.362
G1 F1800 X97.408 Y116.642 E34.96092
G0 F9000 X97.541 Y116.209
G1 F1800 X96.82 Y115.488 E34.99483
G0 F9000 X96.955 Y115.057
G1 F1800 X96.284 Y114.386 E35.02639
G0 F9000 X96.556 Y114.092
G1 F1800 X96.178 Y113.714 E35.04417
G0 F9000 X96.45 Y113.42
G1 F1800 X96.072 Y113.043 E35.06193
G0 F9000 X96.344 Y112.748
G1 F1800 X95.966 Y112.371 E35.07969
G0 F9000 X96.237 Y112.077
G1 F1800 X95.86 Y111.699 E35.09744
G0 F9000 X96.131 Y111.405
G1 F1800 X95.754 Y111.027 E35.1152
G0 F9000 X96.025 Y110.732
G1 F1800 X95.648 Y110.356 E35.13291
G0 F9000 X95.919 Y110.061
G1 F1800 X95.628 Y109.77 E35.1466
G0 F9000 X95.979 Y109.556
G1 F1800 X95.705 Y109.281 E35.15951
G0 F9000 X96.056 Y109.067
G1 F1800 X95.782 Y108.793 E35.1724
G0 F9000 X96.133 Y108.579
G1 F1800 X95.859 Y108.304 E35.18531
G0 F9000 X96.211 Y108.09
G1 F1800 X95.936 Y107.816 E35.19822
G0 F9000 X96.288 Y107.601
G1 F1800 X96.014 Y107.328 E35.21109
G0 F9000 X96.365 Y107.113
G1 F1800 X96.091 Y106.839 E35.22397
G0 F9000 X96.442 Y106.624
G1 F1800 X96.168 Y106.35 E35.23686
G0 F9000 X96.52 Y106.136
G1 F1800 X96.245 Y105.862 E35.24977
G0 F9000 X96.597 Y105.648
G1 F1800 X96.361 Y105.412 E35.26087
G0 F9000 X96.552 Y105.037
G1 F1800 X96.786 Y105.271 E35.27188
G0 F9000 X96.977 Y104.897
G1 F1800 X96.743 Y104.663 E35.28289
G0 F9000 X96.934 Y104.288
G1 F1800 X97.168 Y104.522 E35.29389
G0 F9000 X97.359 Y104.147
G1 F1800 X97.124 Y103.912 E35.30495
G0 F9000 X97.315 Y103.538
