;FLAVOR:Marlin
;TIME:1436
;Filament used: 0.575317m
;Layer height: 0.16
;MINX:64.578
;MINY:84.604
;MINZ:0.2
;MAXX:155.422
;MAXY:135.392
;MAXZ:1.96
;Generated with Cura_SteamEngine 4.10.0
M82 ;absolute extrusion mode
M201 X500.00 Y500.00 Z100.00 E5000.00 ;Setup machine max acceleration
M203 X500.00 Y500.00 Z10.00 E50.00 ;Setup machine max feedrate
M204 P500.00 R1000.00 T500.00 ;Setup Print/Retract/Travel acceleration
M205 X8.00 Y8.00 Z0.40 E5.00 ;Setup Jerk
M220 S100 ;Reset Feedrate
M221 S100 ;Reset Flowrate

;*** Start Dual Nozzle/Bed Preheating ***
M140 S50 ; start preheating the bed
M104 S200 ?T0 ; start preheating hotend
M190 S50 ; heat to Cura Bed setting and WAIT
M109 S200 ?T0 ; heat to Cura Hotend and WAIT
;*** End Preheating ***

;*** Single Print Start Tone
M300 S1000 P500 ; chirp to indicate starting to print
;*** End Single Start Tone

G28 ;Home

G92 E0 ;Reset Extruder
G1 Z2.0 F3000 ;Move Z Axis up

G1 X10.1 Y20 Z0.28 F5000.0 ;Move to start position
G1 X10.1 Y200.0 Z0.28 F1500.0 E15 ;Draw the first line
G1 X10.4 Y200.0 Z0.28 F5000.0 ;Move to side a little
G1 X10.4 Y20 Z0.28 F1500.0 E30 ;Draw the second line
G92 E0 ;Reset Extruder
G1 Z2.0 F3000 ;Move Z Axis up
G92 E0
G92 E0
G1 F2400 E-3.2
;LAYER_COUNT:12
;LAYER:0
M106 S63.8
M204 S500
M205 X6 Y6
G0 F9000 X74.186 Y87.441 Z0.2
;TYPE:SKIRT
G1 F1440 E0
G1 F1800 X74.897 Y86.855 E0.03064
G1 X75.656 Y86.334 E0.06126
G1 X76.457 Y85.88 E0.09189
G1 X77.294 Y85.498 E0.12249
G1 X78.162 Y85.189 E0.15313
G1 X79.053 Y84.958 E0.18375
G1 X79.96 Y84.804 E0.21435
G1 X80.843 Y84.731 E0.24382
G1 X81.618 Y84.708 E0.2696
G1 X84.722 Y84.708 E0.37284
G1 X86.826 Y84.715 E0.44282
G1 X87.814 Y84.708 E0.47568
G1 X97.138 Y84.706 E0.7858
G1 X97.262 Y84.7 E0.78993
G1 X98.896 Y84.696 E0.84428
G1 X101.035 Y84.637 E0.91545
G1 X101.438 Y84.622 E0.92886
G1 X102.151 Y84.604 E0.95258
G1 X102.743 Y84.606 E0.97227
G1 X103.484 Y84.629 E0.99693
G1 X105.326 Y84.706 E1.05825
G1 X107.839 Y84.741 E1.14184
G1 X109.896 Y84.711 E1.21026
G1 X110.376 Y84.708 E1.22623
G1 X113.6 Y84.709 E1.33346
G1 X114.722 Y84.725 E1.37078
G1 X117.599 Y84.721 E1.46647
G1 X118.332 Y84.709 E1.49085
G1 X121.575 Y84.709 E1.59872
G1 X121.706 Y84.703 E1.60308
G1 X122.246 Y84.705 E1.62104
G1 X132.099 Y84.709 E1.94875
G1 X133.69 Y84.732 E2.00167
G1 X134.949 Y84.767 E2.04356
G1 X138.086 Y84.758 E2.1479
G1 X140.479 Y84.71 E2.22751
G1 X140.693 Y84.708 E2.23463
G1 X144.267 Y84.709 E2.3535
G1 X144.965 Y84.719 E2.37672
G1 X145.884 Y84.772 E2.40733
G1 X146.795 Y84.905 E2.43795
G1 X147.691 Y85.116 E2.46857
G1 X148.565 Y85.404 E2.49918
G1 X149.412 Y85.767 E2.52983
G1 X150.223 Y86.202 E2.56044
G1 X150.993 Y86.706 E2.59105
G1 X151.717 Y87.275 E2.62167
G1 X152.389 Y87.905 E2.65231
G1 X153.004 Y88.59 E2.68293
G1 X153.557 Y89.326 E2.71355
G1 X154.044 Y90.107 E2.74416
G1 X154.461 Y90.928 E2.77479
G1 X154.806 Y91.782 E2.80542
G1 X155.075 Y92.662 E2.83603
G1 X155.267 Y93.563 E2.86667
G1 X155.38 Y94.476 E2.89727
G1 X155.409 Y95.017 E2.91528
G1 X155.422 Y95.635 E2.93584
G1 X155.421 Y104.306 E3.22424
G1 X155.411 Y105.012 E3.24773
G1 X155.358 Y105.931 E3.27834
G1 X155.225 Y106.842 E3.30896
G1 X155.014 Y107.738 E3.33958
G1 X154.726 Y108.613 E3.37022
G1 X154.363 Y109.459 E3.40084
G1 X153.928 Y110.27 E3.43145
G1 X153.425 Y111.041 E3.46207
G1 X152.856 Y111.765 E3.49269
G1 X152.227 Y112.437 E3.52331
G1 X151.695 Y112.923 E3.54727
G1 X151.336 Y113.23 E3.56298
G1 X149.359 Y114.972 E3.65062
G1 X147.528 Y116.679 E3.73388
G1 X145.734 Y118.453 E3.8178
G1 X143.966 Y120.3 E3.90284
G1 X142.307 Y122.134 E3.98509
G1 X140.614 Y124.118 E4.07184
G1 X139.06 Y126.045 E4.15418
G1 X137.534 Y128.053 E4.23806
G1 X135.985 Y130.211 E4.32641
G1 X135.549 Y130.837 E4.35178
G1 X134.99 Y131.569 E4.38242
G1 X134.37 Y132.25 E4.41305
G1 X133.693 Y132.874 E4.44367
G1 X132.965 Y133.437 E4.47428
G1 X132.19 Y133.934 E4.5049
G1 X131.375 Y134.363 E4.53554
G1 X130.526 Y134.719 E4.56616
G1 X129.65 Y135 E4.59675
G1 X128.752 Y135.205 E4.62739
G1 X127.84 Y135.33 E4.65801
G1 X127.18 Y135.371 E4.68
G1 X126.529 Y135.386 E4.70166
G1 X123.154 Y135.385 E4.81391
G1 X122.296 Y135.373 E4.84245
G1 X119.897 Y135.369 E4.92224
G1 X118.327 Y135.386 E4.97446
G1 X114.77 Y135.387 E5.09277
G1 X114.201 Y135.392 E5.1117
G1 X114.028 Y135.386 E5.11745
G1 X103.635 Y135.385 E5.46313
G1 X102.249 Y135.365 E5.50923
G1 X100.617 Y135.319 E5.56353
G1 X98.103 Y135.319 E5.64715
G1 X96.284 Y135.369 E5.70767
G1 X94.959 Y135.386 E5.75174
G1 X90.79 Y135.385 E5.89041
G1 X90.088 Y135.375 E5.91376
G1 X89.169 Y135.322 E5.94437
G1 X88.258 Y135.189 E5.97499
G1 X87.362 Y134.978 E6.00561
G1 X86.487 Y134.69 E6.03625
G1 X85.641 Y134.327 E6.06687
G1 X84.83 Y133.892 E6.09748
G1 X84.059 Y133.388 E6.12811
G1 X83.335 Y132.82 E6.15872
G1 X82.663 Y132.19 E6.18936
G1 X82.049 Y131.505 E6.21995
G1 X81.496 Y130.769 E6.25057
G1 X81.135 Y130.205 E6.27285
G1 X80.465 Y129.08 E6.3164
G1 X80.304 Y128.8 E6.32714
G1 X78.982 Y126.657 E6.41089
G1 X77.599 Y124.549 E6.49474
G1 X76.143 Y122.462 E6.57938
G1 X74.637 Y120.426 E6.66361
G1 X73.091 Y118.457 E6.74687
G1 X71.465 Y116.502 E6.83145
G1 X69.801 Y114.613 E6.91518
G1 X68.021 Y112.705 E7.00196
G1 X67.533 Y112.195 E7.02544
G1 X66.926 Y111.503 E7.05606
G1 X66.381 Y110.761 E7.08668
G1 X65.902 Y109.974 E7.11732
G1 X65.494 Y109.149 E7.14793
G1 X65.158 Y108.292 E7.17855
G1 X64.899 Y107.409 E7.20915
G1 X64.716 Y106.506 E7.2398
G1 X64.593 Y105.172 E7.28436
G1 X64.578 Y104.528 E7.30578
G1 X64.578 Y103.079 E7.35398
G1 X64.588 Y102.407 E7.37633
G1 X64.642 Y101.488 E7.40695
G1 X64.775 Y100.577 E7.43757
G1 X64.987 Y99.681 E7.46819
G1 X65.276 Y98.807 E7.49881
G1 X65.639 Y97.961 E7.52943
G1 X66.074 Y97.15 E7.56004
G1 X66.579 Y96.38 E7.59066
G1 X67.204 Y95.591 E7.62414
G1 X67.559 Y95.187 E7.64203
G1 X68.866 Y93.741 E7.70686
G1 X70.539 Y91.782 E7.79254
G1 X72.115 Y89.826 E7.87609
G1 X72.931 Y88.785 E7.92008
G1 X73.529 Y88.086 E7.95068
G1 X74.186 Y87.441 E7.9813
G0 F9000 X74.48 Y87.715
G1 F1800 X75.179 Y87.144 E8.01132
G1 X75.926 Y86.637 E8.04135
G1 X76.715 Y86.198 E8.07138
G1 X77.54 Y85.83 E8.10142
G1 X78.395 Y85.537 E8.13149
G1 X79.271 Y85.321 E8.16149
G1 X80.164 Y85.183 E8.19155
G1 X80.859 Y85.13 E8.21473
G1 X81.618 Y85.108 E8.23999
G1 X84.721 Y85.108 E8.34319
G1 X86.828 Y85.115 E8.41327
G1 X87.814 Y85.108 E8.44607
G1 X97.087 Y85.106 E8.75449
G1 X97.263 Y85.1 E8.76035
G1 X98.908 Y85.096 E8.81506
G1 X101.063 Y85.037 E8.88676
G1 X101.449 Y85.022 E8.89961
G1 X102.162 Y85.004 E8.92333
G1 X102.731 Y85.006 E8.94226
G1 X103.467 Y85.029 E8.96675
G1 X105.303 Y85.106 E9.02787
G1 X107.839 Y85.141 E9.11222
G1 X109.898 Y85.111 E9.18071
G1 X110.378 Y85.108 E9.19668
G1 X113.594 Y85.109 E9.30364
G1 X114.717 Y85.125 E9.341
G1 X117.606 Y85.121 E9.43709
G1 X118.339 Y85.109 E9.46147
G1 X121.515 Y85.109 E9.5671
G1 X121.705 Y85.103 E9.57343
G1 X122.245 Y85.105 E9.59139
G1 X132.094 Y85.109 E9.91896
G1 X133.678 Y85.132 E9.97165
G1 X134.939 Y85.168 E10.01361
G1 X138.095 Y85.158 E10.11858
G1 X140.487 Y85.11 E10.19816
G1 X140.693 Y85.108 E10.20501
G1 X144.261 Y85.109 E10.32368
G1 X144.959 Y85.119 E10.3469
G1 X145.861 Y85.172 E10.37695
G1 X146.754 Y85.304 E10.40697
G1 X147.632 Y85.515 E10.43701
G1 X148.488 Y85.803 E10.46705
G1 X149.315 Y86.165 E10.49707
G1 X150.107 Y86.6 E10.52713
G1 X150.858 Y87.102 E10.55717
G1 X151.561 Y87.669 E10.58721
G1 X152.211 Y88.296 E10.61725
G1 X152.803 Y88.978 E10.64729
G1 X153.333 Y89.709 E10.67732
G1 X153.795 Y90.485 E10.70736
G1 X154.188 Y91.298 E10.73739
G1 X154.506 Y92.143 E10.76742
G1 X154.749 Y93.013 E10.79746
G1 X154.914 Y93.901 E10.8275
G1 X155.009 Y95.029 E10.86515
G1 X155.022 Y95.635 E10.88531
G1 X155.021 Y104.3 E11.17351
G1 X155.011 Y105.006 E11.197
G1 X154.958 Y105.908 E11.22705
G1 X154.826 Y106.801 E11.25707
G1 X154.615 Y107.68 E11.28714
G1 X154.327 Y108.536 E11.31718
G1 X153.965 Y109.363 E11.3472
G1 X153.531 Y110.155 E11.37724
G1 X153.029 Y110.905 E11.40726
G1 X152.462 Y111.609 E11.43732
G1 X151.835 Y112.259 E11.46736
G1 X151.435 Y112.619 E11.48526
G1 X151.093 Y112.911 E11.50022
G1 X149.105 Y114.663 E11.58835
G1 X147.24 Y116.402 E11.67316
G1 X145.429 Y118.192 E11.75786
G1 X143.698 Y120.001 E11.84113
G1 X141.972 Y121.909 E11.9267
G1 X140.332 Y123.831 E12.01074
G1 X138.728 Y125.819 E12.0957
G1 X137.21 Y127.817 E12.17916
G1 X135.713 Y129.903 E12.26455
G1 X135.221 Y130.609 E12.29318
G1 X134.672 Y131.326 E12.32321
G1 X134.062 Y131.992 E12.35325
G1 X133.395 Y132.601 E12.38329
G1 X132.678 Y133.149 E12.41331
G1 X131.914 Y133.632 E12.44337
G1 X131.111 Y134.045 E12.4734
G1 X130.274 Y134.385 E12.50345
G1 X129.411 Y134.65 E12.53348
G1 X128.528 Y134.838 E12.5635
G1 X127.631 Y134.946 E12.59355
G1 X126.844 Y134.981 E12.61975
G1 X126.529 Y134.986 E12.63023
G1 X123.16 Y134.985 E12.74229
G1 X122.303 Y134.973 E12.77079
G1 X119.894 Y134.969 E12.85092
G1 X118.327 Y134.986 E12.90304
G1 X114.767 Y134.987 E13.02144
G1 X114.198 Y134.992 E13.04037
G1 X114.029 Y134.986 E13.04599
G1 X103.64 Y134.985 E13.39153
G1 X102.261 Y134.965 E13.4374
G1 X100.629 Y134.919 E13.49171
G1 X98.092 Y134.919 E13.57609
G1 X96.279 Y134.969 E13.63641
G1 X94.959 Y134.986 E13.68032
G1 X90.796 Y134.985 E13.81878
G1 X90.094 Y134.975 E13.84213
G1 X89.192 Y134.922 E13.87218
G1 X88.299 Y134.79 E13.90221
G1 X87.421 Y134.579 E13.93224
G1 X86.565 Y134.291 E13.96228
G1 X85.737 Y133.929 E13.99234
G1 X84.945 Y133.495 E14.02237
G1 X84.195 Y132.992 E14.05241
G1 X83.492 Y132.426 E14.08243
G1 X82.842 Y131.799 E14.11247
G1 X82.25 Y131.117 E14.1425
G1 X81.72 Y130.385 E14.17256
G1 X81.479 Y130 E14.18767
G1 X80.812 Y128.88 E14.23103
G1 X80.648 Y128.596 E14.24193
G1 X79.32 Y126.442 E14.3261
G1 X77.929 Y124.323 E14.4104
G1 X76.46 Y122.217 E14.49581
G1 X74.974 Y120.208 E14.57892
G1 X73.38 Y118.178 E14.66476
G1 X71.789 Y116.265 E14.74752
G1 X70.077 Y114.321 E14.83368
G1 X68.321 Y112.439 E14.91929
G1 X67.822 Y111.918 E14.94328
G1 X67.227 Y111.239 E14.97331
G1 X66.694 Y110.51 E15.00335
G1 X66.228 Y109.736 E15.0334
G1 X65.832 Y108.925 E15.06341
G1 X65.509 Y108.081 E15.09347
G1 X65.262 Y107.212 E15.12352
G1 X65.093 Y106.325 E15.15355
G1 X64.992 Y105.16 E15.19244
G1 X64.978 Y104.528 E15.21347
G1 X64.978 Y103.085 E15.26146
G1 X64.988 Y102.413 E15.28382
G1 X65.042 Y101.512 E15.31384
G1 X65.174 Y100.618 E15.3439
G1 X65.386 Y99.74 E15.37394
G1 X65.674 Y98.885 E15.40394
G1 X66.037 Y98.058 E15.43398
G1 X66.472 Y97.266 E15.46404
G1 X66.974 Y96.516 E15.49405
G1 X67.505 Y95.854 E15.52228
G1 X67.856 Y95.456 E15.53993
G1 X69.169 Y94.004 E15.60504
G1 X70.808 Y92.084 E15.689
G1 X72.466 Y90.028 E15.77685
G1 X73.246 Y89.032 E15.81893
G1 X73.833 Y88.346 E15.84896
G1 X74.48 Y87.715 E15.87902
G1 F2400 E12.67902
;MESH:SkullMeshBase_pencil_pen.stl
G0 F9000 X75.591 Y101.896
G0 X75.591 Y102.975
G0 X75.678 Y104.396
G0 X75.378 Y104.665
;TYPE:WALL-OUTER
G1 F1440 E15.87902
G1 F1800 X75.377 Y102.961 E15.93569
G1 X75.377 Y102.761 E15.94234
G1 X75.577 Y102.761 E15.94665
G1 X81.473 Y102.761 E16.14275
G1 X81.474 Y95.508 E16.38399
G1 X85.232 Y95.508 E16.50898
G1 X85.233 Y104.466 E16.80692
G1 X85.233 Y104.666 E16.81358
G1 X85.033 Y104.666 E16.81788
G1 X75.378 Y104.665 E17.13901
G0 F9000 X75.648 Y104.395
G0 X81.701 Y102.989
G0 X82.456 Y96.49
G0 X84.832 Y95.908
;TYPE:WALL-INNER
G1 F1800 X84.833 Y104.066 E17.41035
G1 X84.833 Y104.266 E17.417
G1 X84.633 Y104.266 E17.42131
G1 X75.778 Y104.265 E17.71582
G1 X75.777 Y103.361 E17.74589
G1 X75.777 Y103.161 E17.75254
G1 X75.977 Y103.161 E17.75685
G1 X81.873 Y103.161 E17.95295
G1 X81.874 Y95.908 E18.19419
G1 X84.832 Y95.908 E18.29257
G0 F9000 X82.456 Y96.49
G0 X81.701 Y102.989
G0 X76.177 Y103.561
G1 F1800 X82.273 Y103.561 E18.49533
G1 X82.273 Y103.514 E18.49689
G1 X82.274 Y96.308 E18.73656
G1 X84.432 Y96.308 E18.80834
G1 X84.433 Y103.666 E19.05306
G1 X84.433 Y103.866 E19.05972
G1 X84.233 Y103.866 E19.06402
G1 X82.32 Y103.866 E19.12765
G1 X82.273 Y103.866 E19.12908
G1 X76.178 Y103.865 E19.2834
G1 X76.177 Y103.561 E19.29351
G0 F9000 X82.384 Y103.475
G0 X82.663 Y103.476
;TYPE:SKIN
G1 F1800 X82.664 Y96.698 E19.51895
G1 X84.042 Y96.698 E19.56478
G1 X84.043 Y103.476 E19.79022
G1 X82.663 Y103.476 E19.83612
G0 F9000 X82.93 Y103.295
G1 F1800 X82.843 Y103.207 E19.84023
G0 F9000 X82.843 Y102.642
G1 F1800 X83.496 Y103.295 E19.87095
G0 F9000 X83.862 Y103.096
G1 F1800 X82.843 Y102.076 E19.9189
G0 F9000 X82.843 Y101.51
G1 F1800 X83.862 Y102.53 E19.96686
G0 F9000 X83.862 Y101.964
G1 F1800 X82.843 Y100.945 E20.01479
G0 F9000 X82.843 Y100.379
G1 F1800 X83.862 Y101.399 E20.06274
G0 F9000 X83.862 Y100.833
G1 F1800 X82.843 Y99.813 E20.1107
G0 F9000 X82.843 Y99.248
G1 F1800 X83.862 Y100.267 E20.15863
G0 F9000 X83.862 Y99.702
G1 F1800 X82.843 Y98.682 E20.20658
G0 F9000 X82.843 Y98.116
G1 F1800 X83.862 Y99.136 E20.25453
G0 F9000 X83.862 Y98.57
G1 F1800 X82.843 Y97.551 E20.30247
G0 F9000 X82.843 Y96.985
G1 F1800 X83.862 Y98.004 E20.3504
G0 F9000 X83.862 Y97.439
G1 F1800 X83.3 Y96.877 E20.37683
G0 F9000 X83.3 Y96.118
G1 F2400 E17.17683
G0 F9000 X85.032 Y95.709
G0 X87.802 Y95.709
G0 X96.885 Y95.708
G0 X97.086 Y95.707
;TYPE:WALL-OUTER
G1 F1440 E20.37683
G1 F1800 X97.086 Y96.147 E20.39147
G1 X97.086 Y96.148 E20.3915
G1 X97.086 Y96.152 E20.39163
G1 X97.085 Y97.153 E20.42492
G1 X94.248 Y97.26 E20.51935
G1 X94.249 Y102.919 E20.70757
G1 X97.085 Y103.029 E20.80197
G1 X97.085 Y104.665 E20.85638
G1 X87.682 Y104.665 E21.16913
G1 X87.681 Y103.028 E21.22357
G1 X90.489 Y102.921 E21.31703
G1 X90.489 Y97.261 E21.50529
G1 X87.682 Y97.152 E21.59872
G1 X87.682 Y95.508 E21.6534
G1 X96.886 Y95.507 E21.95952
G1 X97.086 Y95.507 E21.96618
G1 X97.086 Y95.707 E21.97048
G1 F2400 E18.77048
G0 F9000 X96.885 Y95.708
G0 X96.971 Y97.044
G0 X97.787 Y96.352
G0 X101.574 Y97.148
G0 X101.597 Y97.346
G1 F1440 E21.97048
G1 F1800 X100.788 Y97.468 E21.9977
G1 X98.983 Y97.915 E22.05954
G1 X97.485 Y96.152 E22.13649
G1 X97.484 Y96.151 E22.13654
G1 X97.483 Y96.149 E22.13661
G1 X97.485 Y96.149 E22.13665
G1 X99.49 Y95.635 E22.2055
G1 X100.877 Y95.452 E22.25203
G1 X102.411 Y95.391 E22.30309
G1 X104.503 Y95.534 E22.37283
G1 X106.345 Y95.981 E22.43587
G1 X107.855 Y96.723 E22.49183
G1 X108.944 Y97.688 E22.54023
G1 X109.571 Y98.809 E22.58295
G1 X109.772 Y100.078 E22.62568
G1 X109.589 Y101.386 E22.66961
G1 X109.016 Y102.522 E22.71193
G1 X108.016 Y103.479 E22.75796
G1 X106.58 Y104.208 E22.81153
G1 X104.779 Y104.644 E22.87316
G1 X102.716 Y104.782 E22.94193
G1 X101.282 Y104.74 E22.98964
G1 X100.009 Y104.619 E23.03218
G1 X98.263 Y104.302 E23.0912
G1 X98.379 Y102.703 E23.14452
G1 X98.393 Y102.497 E23.15139
G1 X98.598 Y102.519 E23.15577
G1 X100.661 Y102.748 E23.22481
G1 X101.608 Y102.845 E23.25647
G1 X102.361 Y102.874 E23.28154
G1 X103.466 Y102.798 E23.31838
G1 X104.284 Y102.593 E23.34642
G1 X104.93 Y102.253 E23.3707
G1 X105.448 Y101.732 E23.39514
G1 X105.79 Y101.009 E23.42174
G1 X105.901 Y100.153 E23.45045
G1 X105.912 Y100.094 E23.45245
G1 X105.791 Y99.277 E23.47992
G1 X105.787 Y99.225 E23.48165
G1 X105.423 Y98.514 E23.50822
G1 X104.862 Y97.971 E23.53419
G1 X104.17 Y97.6 E23.5603
G1 X103.37 Y97.385 E23.58785
G1 X102.364 Y97.308 E23.62141
G1 X101.597 Y97.346 E23.64695
G0 F9000 X101.574 Y97.148
G0 X98.409 Y96.62
;TYPE:WALL-INNER
G1 F1800 X98.202 Y96.377 E23.65757
G1 X98.512 Y96.298 E23.66369
G1 X99.558 Y96.03 E23.6996
G1 X100.912 Y95.851 E23.74503
G1 X102.409 Y95.792 E23.79486
G1 X104.44 Y95.931 E23.86257
G1 X106.21 Y96.36 E23.92314
G1 X107.631 Y97.059 E23.97581
G1 X108.628 Y97.942 E24.02011
G1 X109.187 Y98.941 E24.05819
G1 X109.368 Y100.082 E24.09661
G1 X109.202 Y101.265 E24.13634
G1 X108.691 Y102.279 E24.17411
G1 X107.782 Y103.149 E24.21596
G1 X106.44 Y103.83 E24.26601
G1 X104.716 Y104.247 E24.325
G1 X102.711 Y104.382 E24.39184
G1 X101.301 Y104.34 E24.43876
G1 X100.07 Y104.223 E24.47989
G1 X98.688 Y103.972 E24.52661
G1 X98.748 Y103.147 E24.55412
G1 X98.762 Y102.941 E24.56098
G1 X98.967 Y102.963 E24.56537
G1 X100.619 Y103.146 E24.62065
G1 X101.58 Y103.244 E24.65278
G1 X102.367 Y103.275 E24.67898
G1 X103.529 Y103.195 E24.71772
G1 X104.428 Y102.969 E24.74855
G1 X105.17 Y102.578 E24.77644
G1 X105.78 Y101.965 E24.80521
G1 X106.179 Y101.123 E24.8362
G1 X106.298 Y100.204 E24.86702
G1 X106.317 Y100.102 E24.87047
G1 X106.189 Y99.23 E24.89978
