;FLAVOR:Marlin
;TIME:9277
;Filament used: 9.91252m
;Layer height: 0.2
;MINX:29.994
;MINY:94.4
;MINZ:0.24
;MAXX:190.006
;MAXY:125.6
;MAXZ:64.88
;Generated with Cura_SteamEngine 4.5.0
M140 S50
M105
M190 S50
M104 S230
M105
M109 S230
M82 ;absolute extrusion mode
M201 X500.00 Y500.00 Z100.00 E5000.00 ;Setup machine max acceleration
M203 X500.00 Y500.00 Z10.00 E50.00 ;Setup machine max feedrate
M204 P500.00 R1000.00 T500.00 ;Setup Print/Retract/Travel acceleration
M205 X8.00 Y8.00 Z0.40 E5.00 ;Setup Jerk
M220 S100 ;Reset Feedrate
M221 S100 ;Reset Flowrate

G28 ;Home

G92 E0 ;Reset Extruder
G1 Z2.0 F3000 ;Move Z Axis up
G1 X10.1 Y20 Z0.28 F5000.0 ;Move to start position
G1 X10.1 Y200.0 Z0.28 F1500.0 E15 ;Draw the first line
G1 X10.4 Y200.0 Z0.28 F5000.0 ;Move to side a little
G1 X10.4 Y20 Z0.28 F1500.0 E30 ;Draw the second line
G92 E0 ;Reset Extruder
G1 Z2.0 F3000 ;Move Z Axis up

G92 E0
G92 E0
G1 F1800 E-3
;LAYER_COUNT:273
;LAYER:0
M107
G0 F9000 X34.01 Y94.774 Z0.24
;TYPE:SKIRT
G1 F1800 E0
G1 F3600 X34.753 Y94.557 E0.04634
G1 X35.867 Y94.411 E0.1136
G1 X166.168 Y94.4 E7.9145
G1 X183.905 Y94.4 E8.97638
G1 X184.796 Y94.47 E9.02989
G1 X185.924 Y94.75 E9.09947
G1 X186.309 Y94.901 E9.12423
G1 X187.026 Y95.267 E9.17242
G1 X187.386 Y95.5 E9.19809
G1 X188.032 Y96.019 E9.2477
G1 X188.337 Y96.32 E9.27336
G1 X188.858 Y96.952 E9.32239
G1 X189.096 Y97.31 E9.34813
G1 X189.474 Y98.028 E9.39671
G1 X189.631 Y98.413 E9.4216
G1 X189.849 Y99.154 E9.46784
G1 X189.995 Y100.274 E9.53546
G1 X190.006 Y119.499 E10.68643
G1 X189.936 Y120.39 E10.73994
G1 X189.656 Y121.518 E10.80952
G1 X189.506 Y121.901 E10.83414
G1 X189.14 Y122.619 E10.88239
G1 X188.903 Y122.984 E10.90845
G1 X188.367 Y123.648 E10.95953
G1 X188.063 Y123.955 E10.9854
G1 X187.448 Y124.458 E11.03297
G1 X187.098 Y124.689 E11.05807
G1 X186.382 Y125.067 E11.10654
G1 X185.99 Y125.226 E11.13187
G1 X185.246 Y125.443 E11.17827
G1 X184.133 Y125.589 E11.24547
G1 X53.832 Y125.6 E19.04636
G1 X36.095 Y125.6 E20.10825
G1 X35.204 Y125.53 E20.16175
G1 X34.076 Y125.25 E20.23133
G1 X33.693 Y125.1 E20.25596
G1 X32.975 Y124.734 E20.30421
G1 X32.61 Y124.497 E20.33026
G1 X31.945 Y123.96 E20.38143
G1 X31.637 Y123.654 E20.40743
G1 X31.135 Y123.039 E20.45495
G1 X30.904 Y122.69 E20.48001
G1 X30.526 Y121.973 E20.52854
G1 X30.369 Y121.586 E20.55354
G1 X30.151 Y120.844 E20.59984
G1 X30.005 Y119.727 E20.66728
G1 X29.994 Y100.501 E21.81831
G1 X30.064 Y99.61 E21.87182
G1 X30.344 Y98.482 E21.9414
G1 X30.494 Y98.099 E21.96602
G1 X30.86 Y97.381 E22.01427
G1 X31.094 Y97.02 E22.04002
G1 X31.612 Y96.375 E22.08955
G1 X31.913 Y96.07 E22.11521
G1 X32.546 Y95.548 E22.16433
G1 X32.903 Y95.31 E22.19001
G1 X33.62 Y94.932 E22.23854
G1 X34.01 Y94.774 E22.26373
G0 F9000 X33.899 Y95.463
G1 F3600 X34.921 Y95.133 E22.32803
G1 X35.926 Y95.008 E22.38866
G1 X166.168 Y95 E30.18602
G1 X183.905 Y95 E31.2479
G1 X184.744 Y95.068 E31.29829
G1 X185.761 Y95.327 E31.36112
G1 X186.753 Y95.801 E31.42694
G1 X187.656 Y96.487 E31.49484
G1 X188.395 Y97.334 E31.56213
G1 X188.943 Y98.307 E31.62899
G1 X189.273 Y99.324 E31.693
G1 X189.398 Y100.332 E31.75381
G1 X189.406 Y119.499 E32.9013
G1 X189.338 Y120.338 E32.9517
G1 X189.079 Y121.355 E33.01453
G1 X188.605 Y122.346 E33.08029
G1 X187.9 Y123.271 E33.14992
G1 X187.068 Y123.993 E33.21587
G1 X186.102 Y124.536 E33.28222
G1 X185.078 Y124.867 E33.34664
G1 X184.074 Y124.992 E33.40722
G1 X53.832 Y125 E41.20458
G1 X36.095 Y125 E42.26646
G1 X35.256 Y124.932 E42.31685
G1 X34.239 Y124.673 E42.37968
G1 X33.248 Y124.199 E42.44545
G1 X32.322 Y123.493 E42.51516
G1 X31.6 Y122.66 E42.58116
G1 X31.057 Y121.694 E42.6475
G1 X30.727 Y120.675 E42.71163
G1 X30.602 Y119.668 E42.77238
G1 X30.594 Y100.501 E43.91987
G1 X30.662 Y99.662 E43.97026
G1 X30.921 Y98.645 E44.03309
G1 X31.395 Y97.654 E44.09886
G1 X32.079 Y96.751 E44.16668
G1 X32.928 Y96.011 E44.23411
G1 X33.899 Y95.463 E44.30086
G0 F9000 X34.179 Y95.994
G1 F3600 X35.09 Y95.709 E44.358
G1 X35.985 Y95.605 E44.41195
G1 X166.168 Y95.6 E52.20577
G1 X183.905 Y95.6 E53.26766
G1 X184.692 Y95.665 E53.31493
G1 X185.598 Y95.905 E53.37104
G1 X186.48 Y96.335 E53.42979
G1 X187.281 Y96.954 E53.49039
G1 X187.932 Y97.716 E53.5504
G1 X188.412 Y98.587 E53.60994
G1 X188.697 Y99.493 E53.6668
G1 X188.801 Y100.39 E53.72086
G1 X188.806 Y119.499 E54.86488
G1 X188.741 Y120.286 E54.91216
G1 X188.501 Y121.192 E54.96827
G1 X188.071 Y122.074 E55.02701
G1 X187.433 Y122.894 E55.08921
G1 X186.688 Y123.529 E55.14782
G1 X185.822 Y124.006 E55.20701
G1 X184.91 Y124.291 E55.26421
G1 X184.015 Y124.395 E55.31816
G1 X53.832 Y124.4 E63.11198
G1 X36.095 Y124.4 E64.17387
G1 X35.308 Y124.335 E64.22114
G1 X34.402 Y124.095 E64.27725
G1 X33.52 Y123.665 E64.336
G1 X32.699 Y123.026 E64.39828
G1 X32.065 Y122.28 E64.4569
G1 X31.588 Y121.414 E64.51609
G1 X31.302 Y120.506 E64.57308
G1 X31.199 Y119.61 E64.62708
G1 X31.194 Y100.501 E65.7711
G1 X31.259 Y99.714 E65.81837
G1 X31.499 Y98.808 E65.87449
G1 X31.929 Y97.926 E65.93323
G1 X32.547 Y97.126 E65.99375
G1 X33.309 Y96.474 E66.05379
G1 X34.179 Y95.994 E66.11328
G0 F9000 X34.459 Y96.525
G1 F3600 X35.258 Y96.285 E66.16322
G1 X36.044 Y96.202 E66.21054
G1 X166.168 Y96.2 E74.00084
G1 X183.905 Y96.2 E75.06272
G1 X184.639 Y96.263 E75.10683
G1 X185.435 Y96.482 E75.15625
G1 X186.207 Y96.87 E75.20798
G1 X186.905 Y97.422 E75.26126
G1 X187.469 Y98.097 E75.31392
G1 X187.881 Y98.866 E75.36615
G1 X188.122 Y99.662 E75.41594
G1 X188.204 Y100.448 E75.46325
G1 X188.206 Y119.499 E76.6038
G1 X188.143 Y120.233 E76.6479
G1 X187.924 Y121.029 E76.69733
G1 X187.536 Y121.801 E76.74906
G1 X186.966 Y122.517 E76.80385
G1 X186.308 Y123.064 E76.85507
G1 X185.542 Y123.475 E76.90712
G1 X184.742 Y123.715 E76.95712
G1 X183.956 Y123.798 E77.00444
G1 X53.832 Y123.8 E84.79473
G1 X36.095 Y123.8 E85.85662
G1 X35.361 Y123.737 E85.90072
G1 X34.565 Y123.518 E85.95015
G1 X33.793 Y123.13 E86.00188
G1 X33.076 Y122.559 E86.05675
G1 X32.53 Y121.901 E86.10794
G1 X32.119 Y121.134 E86.16004
G1 X31.878 Y120.337 E86.20988
G1 X31.796 Y119.552 E86.25714
G1 X31.794 Y100.501 E87.39769
G1 X31.857 Y99.767 E87.44179
G1 X32.076 Y98.971 E87.49122
G1 X32.464 Y98.199 E87.54294
G1 X33.015 Y97.502 E87.59614
G1 X33.691 Y96.937 E87.64888
G1 X34.459 Y96.525 E87.70106
G1 F1800 E84.70106
;MESH:GlassesStand3WallMount.stl
G0 F9000 X35.688 Y98.357
G0 X35.264 Y98.441
G0 X34.871 Y98.649
G0 X34.512 Y98.943
G0 X34.228 Y99.298
G0 X34.023 Y99.701
G0 X33.906 Y100.113
G0 X33.865 Y100.587
G0 X33.866 Y119.428
G0 X33.912 Y119.914
G0 X34.034 Y120.326
G0 X34.247 Y120.73
G0 X34.518 Y121.064
G0 X34.893 Y121.365
G0 X35.301 Y121.573
G0 X35.625 Y121.664
G0 X53.833 Y122.799
G0 X53.832 Y123.2
;TYPE:WALL-OUTER
G1 F1800 E87.70106
G1 F3600 X36.109 Y123.2 E88.7621
G1 X35.443 Y123.141 E88.80213
G1 X34.752 Y122.946 E88.84512
G1 X34.093 Y122.61 E88.8894
G1 X33.477 Y122.113 E88.93679
G1 X33.015 Y121.547 E88.98053
G1 X32.664 Y120.88 E89.02565
G1 X32.462 Y120.194 E89.06847
G1 X32.395 Y119.5 E89.11021
G1 X32.394 Y100.515 E90.24681
G1 X32.452 Y99.849 E90.28683
G1 X32.648 Y99.159 E90.32977
G1 X32.984 Y98.499 E90.37411
G1 X33.461 Y97.904 E90.41977
G1 X34.054 Y97.416 E90.46574
G1 X34.71 Y97.071 E90.51012
G1 X35.398 Y96.869 E90.55305
G1 X36.091 Y96.801 E90.59473
G1 X166.168 Y96.8 E98.38221
G1 X183.891 Y96.8 E99.44326
G1 X184.557 Y96.859 E99.48329
G1 X185.248 Y97.054 E99.52627
G1 X185.907 Y97.39 E99.57056
G1 X186.503 Y97.868 E99.6163
G1 X186.987 Y98.457 E99.66194
G1 X187.336 Y99.12 E99.70679
G1 X187.538 Y99.806 E99.74961
G1 X187.605 Y100.497 E99.79117
G1 X187.606 Y119.485 E100.92795
G1 X187.548 Y120.151 E100.96797
G1 X187.352 Y120.841 E101.01092
G1 X187.016 Y121.501 E101.05525
G1 X186.52 Y122.116 E101.10256
G1 X185.949 Y122.582 E101.14668
G1 X185.29 Y122.929 E101.19127
G1 X184.602 Y123.131 E101.2342
G1 X183.909 Y123.199 E101.27588
G1 X53.832 Y123.2 E109.06336
G0 F9000 X53.832 Y122.54
G1 F1800 E106.06336
G0 F9000 X56.124 Y121.69
G0 X56.125 Y124.164
G0 X54.778 Y111.825
G0 X55.095 Y114.273
G0 X56.124 Y112.785
G0 X55.959 Y112.421
G1 F1800 E109.06336
G1 F3600 X56.422 Y112.08 E109.09779
G1 X56.807 Y111.651 E109.1323
G1 X57.094 Y111.156 E109.16656
G1 X57.294 Y110.522 E109.20636
G1 X57.339 Y110.109 E109.23123
G1 X57.296 Y109.484 E109.26873
G1 X57.095 Y108.845 E109.30884
G1 X56.808 Y108.35 E109.34309
G1 X56.423 Y107.92 E109.37765
G1 X55.961 Y107.578 E109.41206
G1 X55.45 Y107.343 E109.44573
G1 X54.903 Y107.214 E109.47938
G1 X54.276 Y107.199 E109.51693
G1 X53.636 Y107.334 E109.55609
G1 X53.123 Y107.567 E109.58982
G1 X52.657 Y107.904 E109.62425
G1 X52.268 Y108.332 E109.65887
G1 X51.979 Y108.823 E109.69298
G1 X51.793 Y109.366 E109.72735
G1 X51.719 Y110 E109.76556
G1 X51.792 Y110.633 E109.80371
G1 X51.98 Y111.177 E109.83817
G1 X52.269 Y111.666 E109.87217
G1 X52.656 Y112.095 E109.90676
G1 X53.122 Y112.432 E109.94119
G1 X53.635 Y112.665 E109.97492
G1 X54.276 Y112.801 E110.01415
G1 X54.903 Y112.787 E110.0517
G1 X55.45 Y112.656 E110.08537
G1 X55.959 Y112.421 E110.11894
G0 F9000 X56.266 Y112.94
;TYPE:WALL-INNER
G1 F3600 X56.827 Y112.527 E110.16064
G1 X57.295 Y112.006 E110.20257
G1 X57.646 Y111.4 E110.2445
G1 X57.884 Y110.646 E110.29183
G1 X57.941 Y110.121 E110.32345
G1 X57.89 Y109.372 E110.36839
G1 X57.647 Y108.602 E110.41673
G1 X57.296 Y107.996 E110.45866
G1 X56.829 Y107.474 E110.50059
G1 X56.268 Y107.059 E110.54237
G1 X55.646 Y106.773 E110.58335
G1 X54.98 Y106.616 E110.62432
G1 X54.221 Y106.598 E110.66977
G1 X53.448 Y106.76 E110.71706
G1 X52.82 Y107.046 E110.75837
G1 X52.255 Y107.454 E110.80009
G1 X51.782 Y107.974 E110.84218
G1 X51.431 Y108.571 E110.88364
G1 X51.205 Y109.232 E110.92546
G1 X51.115 Y110 E110.97175
G1 X51.203 Y110.767 E111.01797
G1 X51.433 Y111.43 E111.05999
G1 X51.783 Y112.023 E111.10121
G1 X52.253 Y112.544 E111.14322
G1 X52.819 Y112.953 E111.18502
G1 X53.446 Y113.238 E111.22626
G1 X54.22 Y113.402 E111.27362
G1 X54.98 Y113.385 E111.31914
G1 X55.648 Y113.226 E111.36025
G1 X56.266 Y112.94 E111.40101
G0 F9000 X56.573 Y113.459
G1 F3600 X57.232 Y112.974 E111.45
G1 X57.783 Y112.361 E111.49935
G1 X58.198 Y111.644 E111.54894
G1 X58.474 Y110.77 E111.60381
G1 X58.543 Y110.133 E111.64217
G1 X58.484 Y109.26 E111.69456
G1 X58.199 Y108.358 E111.75119
G1 X57.784 Y107.642 E111.80074
G1 X57.235 Y107.028 E111.85005
G1 X56.575 Y106.54 E111.89919
G1 X55.842 Y106.203 E111.94749
G1 X55.057 Y106.018 E111.99577
G1 X54.166 Y105.997 E112.04913
G1 X53.26 Y106.186 E112.10454
G1 X52.517 Y106.525 E112.15343
G1 X51.853 Y107.004 E112.20245
G1 X51.296 Y107.616 E112.25199
G1 X50.883 Y108.319 E112.3008
G1 X50.617 Y109.099 E112.35014
G1 X50.511 Y109.999 E112.40439
G1 X50.614 Y110.901 E112.45875
G1 X50.886 Y111.683 E112.50831
G1 X51.297 Y112.38 E112.55676
G1 X51.85 Y112.993 E112.60618
G1 X52.516 Y113.474 E112.65537
G1 X53.257 Y113.811 E112.7041
G1 X54.164 Y114.003 E112.7596
G1 X55.057 Y113.983 E112.81308
G1 X55.845 Y113.796 E112.86157
G1 X56.573 Y113.459 E112.90959
G1 F1800 E109.90959
G0 F9000 X58.019 Y112.533
G0 X56.023 Y111.081
G0 X163.926 Y111.093
G0 X161.937 Y112.553
G0 X164.427 Y113.055
G0 X164.51 Y112.665
;TYPE:WALL-OUTER
G1 F1800 E112.90959
G1 F3600 X165.151 Y112.801 E112.94882
G1 X165.778 Y112.787 E112.98637
G1 X166.325 Y112.656 E113.02004
G1 X166.834 Y112.421 E113.05361
G1 X167.297 Y112.08 E113.08803
G1 X167.682 Y111.651 E113.12254
G1 X167.969 Y111.156 E113.1568
G1 X168.169 Y110.522 E113.1966
G1 X168.214 Y110.109 E113.22147
G1 X168.171 Y109.484 E113.25898
G1 X167.97 Y108.845 E113.29908
G1 X167.683 Y108.35 E113.33334
G1 X167.298 Y107.92 E113.36789
G1 X166.836 Y107.578 E113.4023
G1 X166.325 Y107.343 E113.43598
G1 X165.778 Y107.214 E113.46962
G1 X165.151 Y107.199 E113.50717
G1 X164.511 Y107.334 E113.54633
G1 X163.998 Y107.567 E113.58006
G1 X163.532 Y107.904 E113.61449
G1 X163.143 Y108.332 E113.64912
G1 X162.854 Y108.823 E113.68323
G1 X162.668 Y109.366 E113.71759
G1 X162.594 Y110 E113.7558
G1 X162.667 Y110.633 E113.79395
G1 X162.855 Y111.177 E113.82841
G1 X163.144 Y111.666 E113.86241
G1 X163.531 Y112.095 E113.897
G1 X163.997 Y112.432 E113.93143
G1 X164.51 Y112.665 E113.96517
G0 F9000 X164.321 Y113.238
;TYPE:WALL-INNER
G1 F3600 X165.095 Y113.402 E114.01253
G1 X165.855 Y113.385 E114.05804
G1 X166.523 Y113.226 E114.09915
G1 X167.141 Y112.94 E114.13992
G1 X167.702 Y112.527 E114.18163
G1 X168.17 Y112.006 E114.22356
G1 X168.521 Y111.4 E114.26548
G1 X168.759 Y110.646 E114.31282
G1 X168.816 Y110.121 E114.34443
G1 X168.765 Y109.372 E114.38938
G1 X168.522 Y108.602 E114.43772
G1 X168.171 Y107.996 E114.47964
G1 X167.704 Y107.474 E114.52158
G1 X167.143 Y107.059 E114.56335
G1 X166.521 Y106.773 E114.60434
G1 X165.855 Y106.616 E114.6453
G1 X165.096 Y106.598 E114.69076
G1 X164.323 Y106.76 E114.73804
G1 X163.695 Y107.046 E114.77935
G1 X163.13 Y107.454 E114.82108
G1 X162.657 Y107.974 E114.86316
G1 X162.306 Y108.571 E114.90462
G1 X162.08 Y109.232 E114.94644
G1 X161.99 Y110 E114.99274
G1 X162.078 Y110.767 E115.03896
G1 X162.308 Y111.43 E115.08097
G1 X162.658 Y112.023 E115.12219
G1 X163.128 Y112.544 E115.1642
G1 X163.694 Y112.953 E115.20601
G1 X164.321 Y113.238 E115.24724
G0 F9000 X164.132 Y113.811
G1 F3600 X165.039 Y114.003 E115.30275
G1 X165.932 Y113.983 E115.35622
G1 X166.72 Y113.796 E115.40471
G1 X167.448 Y113.459 E115.45274
G1 X168.107 Y112.974 E115.50172
G1 X168.658 Y112.361 E115.55107
G1 X169.073 Y111.644 E115.60066
G1 X169.349 Y110.77 E115.65554
G1 X169.418 Y110.133 E115.6939
G1 X169.359 Y109.26 E115.74628
G1 X169.074 Y108.358 E115.80291
G1 X168.659 Y107.642 E115.85246
G1 X168.11 Y107.028 E115.90177
G1 X167.45 Y106.54 E115.95091
G1 X166.717 Y106.203 E115.99921
G1 X165.932 Y106.018 E116.04749
G1 X165.041 Y105.997 E116.10085
G1 X164.135 Y106.186 E116.15626
G1 X163.392 Y106.525 E116.20515
G1 X162.728 Y107.004 E116.25417
G1 X162.171 Y107.616 E116.30371
G1 X161.758 Y108.319 E116.35252
G1 X161.492 Y109.099 E116.40186
G1 X161.386 Y109.999 E116.45612
G1 X161.489 Y110.901 E116.51047
G1 X161.761 Y111.683 E116.56004
G1 X162.172 Y112.38 E116.60848
G1 X162.725 Y112.993 E116.6579
G1 X163.391 Y113.474 E116.70709
G1 X164.132 Y113.811 E116.75582
G1 F1800 E113.75582
G0 F9000 X161.937 Y112.553
G0 X163.926 Y111.093
G0 X161.938 Y124.164
G0 X161.937 Y121.69
G0 X53.832 Y122.6
G1 F1800 E116.75582
G1 F3600 X36.139 Y122.6 E117.81507
G1 X35.548 Y122.548 E117.85059
G1 X34.977 Y122.386 E117.88612
G1 X34.42 Y122.102 E117.92356
G1 X33.952 Y121.725 E117.95953
G1 X33.901 Y121.684 E117.96345
G1 X33.518 Y121.214 E117.99975
G1 X33.224 Y120.655 E118.03756
G1 X33.053 Y120.077 E118.07365
G1 X32.999 Y119.505 E118.10804
G1 X32.995 Y119.473 E118.10998
G1 X32.994 Y100.544 E119.24322
G1 X33.045 Y99.956 E119.27856
G1 X33.209 Y99.381 E119.31435
G1 X33.492 Y98.824 E119.35176
G1 X33.89 Y98.327 E119.38988
G1 X34.387 Y97.919 E119.42837
G1 X34.934 Y97.631 E119.46538
G1 X35.515 Y97.46 E119.50164
G1 X35.573 Y97.455 E119.50513
G1 X36.119 Y97.401 E119.53797
G1 X166.168 Y97.4 E127.32378
G1 X183.861 Y97.4 E128.38303
G1 X184.452 Y97.452 E128.41855
G1 X185.023 Y97.614 E128.45408
G1 X185.583 Y97.899 E128.4917
G1 X186.077 Y98.295 E128.5296
G1 X186.486 Y98.793 E128.56818
G1 X186.515 Y98.85 E128.57201
G1 X186.776 Y99.345 E128.60551
G1 X186.947 Y99.923 E128.6416
G1 X187.005 Y100.524 E128.67775
G1 X187.006 Y119.456 E129.81117
G1 X186.955 Y120.044 E129.84651
G1 X186.791 Y120.619 E129.88231
G1 X186.51 Y121.173 E129.9195
G1 X186.091 Y121.692 E129.95943
G1 X185.618 Y122.078 E129.99598
G1 X185.063 Y122.37 E130.03353
G1 X184.485 Y122.54 E130.06959
G1 X184.427 Y122.545 E130.07308
G1 X183.881 Y122.599 E130.10593
G1 X53.832 Y122.6 E137.89173
G0 F9000 X53.832 Y122
G1 F3600 X36.169 Y122 E138.94919
G1 X35.655 Y121.955 E138.98008
G1 X35.201 Y121.826 E139.00833
G1 X34.744 Y121.593 E139.03904
G1 X34.327 Y121.258 E139.07107
G1 X34.021 Y120.881 E139.10013
G1 X33.782 Y120.427 E139.13085
G1 X33.645 Y119.963 E139.15982
G1 X33.595 Y119.447 E139.19085
G1 X33.594 Y100.573 E140.32081
G1 X33.638 Y100.065 E140.35133
G1 X33.77 Y99.601 E140.38021
G1 X34 Y99.149 E140.41058
G1 X34.317 Y98.753 E140.44094
G1 X34.721 Y98.422 E140.47221
G1 X35.161 Y98.19 E140.50199
G1 X35.632 Y98.051 E140.53139
G1 X36.146 Y98.001 E140.56231
G1 X166.168 Y98 E148.3465
G1 X183.831 Y98 E149.40395
G1 X184.345 Y98.045 E149.43484
