;FLAVOR:Marlin
;TIME:3418
;Filament used: 1.64112m
;Layer height: 0.2
;MINX:96.088
;MINY:101.7
;MINZ:0.24
;MAXX:125.138
;MAXY:118.3
;MAXZ:43.56
;Generated with Cura_SteamEngine 4.8.0
M82 ;absolute extrusion mode
M201 X500.00 Y500.00 Z100.00 E5000.00 ;Setup machine max acceleration
M203 X500.00 Y500.00 Z10.00 E50.00 ;Setup machine max feedrate
M204 P500.00 R1000.00 T500.00 ;Setup Print/Retract/Travel acceleration
M205 X8.00 Y8.00 Z0.40 E5.00 ;Setup Jerk
M220 S100 ;Reset Feedrate
M221 S100 ;Reset Flowrate

;*** Start Dual Nozzle/Bed Preheating ***
M140 S50 ; start preheating the bed
M104 S215 ﻿T0 ; start preheating hotend
G28 ; home
M190 S50 ; heat to Cura Bed setting and WAIT
M109 S215 ﻿T0 ; heat to Cura Hotend and WAIT
;*** End Preheating ***


G92 E0 ;Reset Extruder
G1 Z2.0 F3000 ;Move Z Axis up

;*** Single Print Start Tone
M300 S1000 P500 ; chirp to indicate starting to print
;*** End Single Start Tone

G1 X10.1 Y20 Z0.28 F5000.0 ;Move to start position
G1 X10.1 Y200.0 Z0.28 F1500.0 E15 ;Draw the first line
G1 X10.4 Y200.0 Z0.28 F5000.0 ;Move to side a little
G1 X10.4 Y20 Z0.28 F1500.0 E30 ;Draw the second line
G92 E0 ;Reset Extruder
G1 Z2.0 F3000 ;Move Z Axis up
G92 E0
G92 E0
G1 F2400 E-3
;LAYER_COUNT:258
;LAYER:0
M106 S63.8
M204 S500
M205 X6 Y6
G1 F300 Z0.44
G0 F9000 X102.339 Y102.257 Z0.44
;TYPE:SKIRT
G1 F300 Z0.24
G1 F1200 E0
G1 F1800 X102.602 Y102.051 E0.01333
G1 X102.906 Y101.912 E0.02668
G1 X103.329 Y101.847 E0.04376
G1 X120.652 Y101.847 E0.73515
G1 X120.984 Y101.887 E0.7485
G1 X121.296 Y102.004 E0.7618
G1 X121.426 Y102.099 E0.76823
G1 X121.869 Y102.116 E0.78592
G1 X122.217 Y102.192 E0.80014
G1 X122.659 Y102.148 E0.81787
G1 X122.891 Y102.178 E0.8272
G1 X123.948 Y102.409 E0.87039
G1 X124.263 Y102.519 E0.8837
G1 X124.544 Y102.7 E0.89704
G1 X124.83 Y103.012 E0.91394
G1 X125.007 Y103.296 E0.92729
G1 X125.111 Y103.613 E0.94061
G1 X125.138 Y103.888 E0.95164
G1 X125.137 Y116.113 E1.43956
G1 X125.097 Y116.445 E1.45291
G1 X124.98 Y116.758 E1.46625
G1 X124.754 Y117.085 E1.48211
G1 X124.518 Y117.322 E1.49546
G1 X124.233 Y117.496 E1.50879
G1 X123.949 Y117.591 E1.52074
G1 X122.889 Y117.822 E1.56404
G1 X122.557 Y117.854 E1.57735
G1 X122.214 Y117.807 E1.59117
G1 X121.534 Y117.915 E1.61865
G1 X121.439 Y117.901 E1.62248
G1 X121.075 Y118.087 E1.6388
G1 X120.652 Y118.152 E1.65588
G1 X103.33 Y118.152 E2.34724
G1 X102.998 Y118.112 E2.36058
G1 X102.686 Y117.995 E2.37388
G1 X102.223 Y117.625 E2.39754
G1 X102.017 Y117.362 E2.41087
G1 X101.878 Y117.058 E2.42421
G1 X101.813 Y116.635 E2.44129
G1 X101.811 Y108.291 E2.77432
G1 X101.813 Y107.715 E2.79731
G1 X101.812 Y103.364 E2.97097
G1 X101.852 Y103.033 E2.98428
G1 X101.969 Y102.72 E2.99761
G1 X102.339 Y102.257 E3.02127
G0 F9000 X102.622 Y102.54
G1 F1800 X102.848 Y102.371 E3.03253
G1 X103.112 Y102.271 E3.0438
G1 X103.329 Y102.247 E3.05251
G1 X120.652 Y102.247 E3.74391
G1 X120.931 Y102.287 E3.75516
G1 X121.188 Y102.403 E3.76641
G1 X121.335 Y102.52 E3.77391
G1 X121.783 Y102.507 E3.7918
G1 X122.211 Y102.601 E3.80929
G1 X122.402 Y102.564 E3.81706
G1 X122.806 Y102.569 E3.83318
G1 X123.863 Y102.8 E3.87636
G1 X124.127 Y102.899 E3.88762
G1 X124.518 Y103.262 E3.90891
G1 X124.662 Y103.505 E3.92018
G1 X124.738 Y103.888 E3.93577
G1 X124.737 Y116.113 E4.4237
G1 X124.697 Y116.392 E4.43494
G1 X124.439 Y116.839 E4.45554
G1 X124.235 Y117.034 E4.46681
G1 X123.864 Y117.2 E4.48303
G1 X122.804 Y117.431 E4.52633
G1 X122.401 Y117.436 E4.54242
G1 X122.209 Y117.399 E4.55022
G1 X121.5 Y117.513 E4.57888
G1 X121.334 Y117.477 E4.58566
G1 X121.133 Y117.628 E4.59569
G1 X120.869 Y117.728 E4.60696
G1 X120.652 Y117.752 E4.61568
G1 X103.33 Y117.752 E5.30703
G1 X103.051 Y117.712 E5.31828
G1 X102.794 Y117.596 E5.32954
G1 X102.506 Y117.342 E5.34486
G1 X102.337 Y117.116 E5.35613
G1 X102.237 Y116.852 E5.36739
G1 X102.213 Y116.635 E5.37611
G1 X102.211 Y108.293 E5.70905
G1 X102.213 Y107.717 E5.73204
G1 X102.212 Y103.364 E5.90578
G1 X102.252 Y103.085 E5.91703
G1 X102.368 Y102.828 E5.92829
G1 X102.622 Y102.54 E5.94361
G0 F9000 X102.905 Y102.823
G1 F1800 X103.084 Y102.699 E5.9523
G1 X103.329 Y102.647 E5.9623
G1 X120.652 Y102.647 E6.6537
G1 X120.867 Y102.687 E6.66243
G1 X121.193 Y102.94 E6.6789
G1 X121.233 Y102.998 E6.68171
G1 X121.504 Y102.888 E6.69338
G1 X121.697 Y102.898 E6.70109
G1 X122.206 Y103.01 E6.7219
G1 X122.478 Y102.957 E6.73296
G1 X122.72 Y102.96 E6.74262
G1 X123.777 Y103.191 E6.7858
G1 X123.978 Y103.275 E6.79449
G1 X124.206 Y103.513 E6.80765
G1 X124.309 Y103.705 E6.81634
G1 X124.338 Y103.888 E6.82374
G1 X124.337 Y116.113 E7.31167
G1 X124.297 Y116.328 E7.32039
G1 X124.124 Y116.593 E7.33302
G1 X123.96 Y116.737 E7.34174
G1 X123.779 Y116.809 E7.34951
G1 X122.719 Y117.04 E7.39281
G1 X122.477 Y117.043 E7.40247
G1 X122.205 Y116.99 E7.41353
G1 X121.697 Y117.101 E7.43428
G1 X121.479 Y117.108 E7.44299
G1 X121.231 Y117.001 E7.45377
G1 X121.076 Y117.176 E7.4631
G1 X120.897 Y117.3 E7.47179
G1 X120.652 Y117.352 E7.48179
G1 X103.33 Y117.352 E8.17315
G1 X103.115 Y117.312 E8.18187
G1 X102.789 Y117.059 E8.19834
G1 X102.665 Y116.88 E8.20703
G1 X102.613 Y116.635 E8.21703
G1 X102.611 Y108.294 E8.54994
G1 X102.613 Y107.718 E8.57293
G1 X102.612 Y103.364 E8.74671
G1 X102.652 Y103.15 E8.75539
G1 X102.905 Y102.823 E8.7719
G0 F9000 X103.188 Y103.106
G1 F1800 X103.329 Y103.047 E8.778
G1 X120.652 Y103.047 E9.46939
G1 X120.793 Y103.106 E9.4755
G1 X120.91 Y103.223 E9.4821
G1 X120.969 Y103.364 E9.4882
G1 X120.969 Y116.635 E10.01787
G1 X120.91 Y116.776 E10.02397
G1 X120.793 Y116.893 E10.03058
G1 X120.652 Y116.952 E10.03668
G1 X103.33 Y116.952 E10.72804
G1 X103.189 Y116.893 E10.73414
G1 X103.072 Y116.776 E10.74074
G1 X103.013 Y116.635 E10.74684
G1 X103.011 Y108.296 E11.07967
G1 X103.013 Y107.72 E11.10266
G1 X103.012 Y103.364 E11.27652
G1 X103.071 Y103.223 E11.28262
G1 X103.188 Y103.106 E11.28922
G1 F2400 E8.28922
G1 F300 Z0.44
G0 F9000 X121.369 Y103.484 Z0.44
G1 F300 Z0.24
G1 F1200 E11.28922
G1 F1800 X121.408 Y103.365 E11.29422
G1 X121.51 Y103.293 E11.2992
G1 X121.612 Y103.289 E11.30328
G1 X122.202 Y103.418 E11.32738
G1 X122.635 Y103.351 E11.34487
G1 X123.692 Y103.582 E11.38805
G1 X123.894 Y103.763 E11.39888
G1 X123.938 Y103.888 E11.40417
G1 X123.937 Y116.113 E11.89209
G1 X123.809 Y116.346 E11.9027
G1 X123.694 Y116.418 E11.90812
G1 X122.634 Y116.649 E11.95142
G1 X122.2 Y116.582 E11.96894
G1 X121.612 Y116.71 E11.99296
G1 X121.487 Y116.698 E11.99797
G1 X121.395 Y116.614 E12.00295
G1 X121.369 Y116.515 E12.00703
G1 X121.369 Y103.484 E12.52713
G0 F9000 X121.769 Y103.733
;TYPE:SUPPORT-INTERFACE
G1 F1800 X122.197 Y103.827 E12.54462
G1 X122.59 Y103.749 E12.56061
G1 X123.538 Y103.957 E12.59935
G1 X123.537 Y116.044 E13.08176
G1 X122.589 Y116.251 E13.12049
G1 X122.196 Y116.173 E13.13648
G1 X121.769 Y116.267 E13.15393
G1 X121.769 Y103.733 E13.65419
G0 F9000 X121.968 Y104.997
G1 F1800 X123.337 Y106.366 E13.73146
G0 F9000 X123.336 Y107.463
G1 F1800 X121.968 Y108.831 E13.80868
G0 F9000 X121.968 Y108.391
G1 F1800 X123.337 Y109.76 E13.88595
G0 F9000 X123.336 Y110.857
G1 F1800 X121.968 Y112.225 E13.96317
G0 F9000 X121.968 Y111.785
G1 F1800 X123.337 Y113.154 E14.04044
G0 F9000 X123.336 Y114.251
G1 F1800 X121.968 Y115.619 E14.11766
G0 F9000 X121.968 Y115.179
G1 F1800 X122.79 Y116.002 E14.16408
G1 F2400 E11.16408
G1 F300 Z0.44
G0 F9000 X121.968 Y105.437 Z0.44
G1 F300 Z0.24
G1 F1200 E14.16408
G1 F1800 X123.296 Y104.108 E14.23907
G1 F2400 E11.23907
G1 F300 Z0.44
;MESH:Thors_Hammer_Magnet.stl
G0 F9000 X120.569 Y103.447 Z0.44
;TYPE:WALL-OUTER
G1 F300 Z0.24
G1 F1200 E14.23907
G1 F1800 X120.569 Y116.552 E14.76212
G1 X103.413 Y116.552 E15.44685
G1 X103.411 Y108.296 E15.77637
G1 X103.413 Y107.72 E15.79936
G1 X103.412 Y103.447 E15.9699
G1 X120.569 Y103.447 E16.65467
G1 F2400 E13.65467
G1 F300 Z0.44
G0 F9000 X103.812 Y103.847 Z0.44
;TYPE:WALL-INNER
G1 F300 Z0.24
G1 F1200 E16.65467
G1 F1800 X104.011 Y103.847 E16.66262
G1 X120.169 Y103.847 E17.30752
G1 X120.169 Y116.152 E17.79864
G1 X103.813 Y116.152 E18.45144
G1 X103.811 Y108.297 E18.76495
G1 X103.813 Y107.721 E18.78794
G1 X103.812 Y104.046 E18.93462
G1 X103.812 Y103.847 E18.93975
G0 F9000 X104.212 Y104.247
G1 F1800 X104.411 Y104.247 E18.9477
G1 X119.769 Y104.247 E19.56067
G1 X119.769 Y115.752 E20.01986
G1 X104.213 Y115.752 E20.64073
G1 X104.211 Y108.298 E20.93824
G1 X104.213 Y107.722 E20.96123
G1 X104.212 Y104.446 E21.09198
G1 X104.212 Y104.247 E21.09712
G0 F9000 X104.602 Y104.637
;TYPE:SKIN
G1 F1800 X119.379 Y104.637 E21.6869
G1 X119.379 Y115.362 E22.11496
G1 X104.603 Y115.362 E22.7047
G1 X104.601 Y108.298 E22.98664
G1 X104.603 Y107.722 E23.00963
G1 X104.602 Y104.637 E23.13276
G1 F2400 E20.13276
G1 F300 Z0.44
G0 F9000 X105.018 Y115.201 Z0.44
G1 F300 Z0.24
G1 F1200 E23.13276
G1 F1800 X104.762 Y114.944 E23.14723
G0 F9000 X104.762 Y114.378
G1 F1800 X105.584 Y115.201 E23.19366
G0 F9000 X106.15 Y115.201
G1 F1800 X104.762 Y113.813 E23.272
G0 F9000 X104.762 Y113.247
G1 F1800 X106.715 Y115.201 E23.38227
G0 F9000 X107.281 Y115.201
G1 F1800 X104.761 Y112.681 E23.52451
G0 F9000 X104.761 Y112.115
G1 F1800 X107.847 Y115.201 E23.6987
G0 F9000 X108.412 Y115.201
G1 F1800 X104.761 Y111.549 E23.9048
G0 F9000 X104.761 Y110.983
G1 F1800 X108.978 Y115.201 E24.14286
G0 F9000 X109.544 Y115.201
G1 F1800 X104.76 Y110.417 E24.41289
G0 F9000 X104.76 Y109.851
G1 F1800 X110.109 Y115.201 E24.71483
G0 F9000 X110.675 Y115.201
G1 F1800 X104.76 Y109.286 E25.0487
G0 F9000 X104.76 Y108.72
G1 F1800 X111.241 Y115.201 E25.41452
G0 F9000 X111.807 Y115.201
G1 F1800 X104.76 Y108.154 E25.81228
G0 F9000 X104.762 Y107.59
G1 F1800 X112.372 Y115.201 E26.24185
G0 F9000 X112.938 Y115.201
G1 F1800 X104.762 Y107.024 E26.70337
G0 F9000 X104.762 Y106.459
G1 F1800 X113.504 Y115.201 E27.1968
G0 F9000 X114.069 Y115.201
G1 F1800 X104.762 Y105.893 E27.72216
G0 F9000 X104.762 Y105.327
G1 F1800 X114.635 Y115.201 E28.27946
G0 F9000 X115.201 Y115.201
G1 F1800 X104.796 Y104.796 E28.86677
G0 F9000 X105.362 Y104.796
G1 F1800 X115.766 Y115.201 E29.45404
G0 F9000 X116.332 Y115.201
G1 F1800 X105.928 Y104.796 E30.04132
G0 F9000 X106.493 Y104.796
G1 F1800 X116.898 Y115.201 E30.62862
G0 F9000 X117.463 Y115.201
G1 F1800 X107.059 Y104.796 E31.21589
G0 F9000 X107.625 Y104.796
G1 F1800 X118.029 Y115.201 E31.80317
G0 F9000 X118.595 Y115.201
G1 F1800 X108.19 Y104.796 E32.39047
G0 F9000 X108.756 Y104.796
G1 F1800 X119.16 Y115.201 E32.97775
G0 F9000 X119.218 Y114.692
G1 F1800 X109.322 Y104.796 E33.53632
G0 F9000 X109.887 Y104.796
G1 F1800 X119.218 Y114.127 E34.063
G0 F9000 X119.218 Y113.561
G1 F1800 X110.453 Y104.796 E34.55774
G0 F9000 X111.019 Y104.796
G1 F1800 X119.218 Y112.995 E35.02052
G0 F9000 X119.218 Y112.429
G1 F1800 X111.584 Y104.796 E35.45139
G0 F9000 X112.151 Y104.797
G1 F1800 X119.218 Y111.864 E35.85028
G0 F9000 X119.218 Y111.298
G1 F1800 X112.717 Y104.797 E36.21723
G0 F9000 X113.282 Y104.797
G1 F1800 X119.218 Y110.732 E36.55225
G0 F9000 X119.218 Y110.167
G1 F1800 X113.848 Y104.797 E36.85536
G0 F9000 X114.414 Y104.797
G1 F1800 X119.218 Y109.601 E37.12652
G0 F9000 X119.218 Y109.035
G1 F1800 X114.979 Y104.797 E37.36576
G0 F9000 X115.545 Y104.797
G1 F1800 X119.218 Y108.47 E37.57308
G0 F9000 X119.218 Y107.904
G1 F1800 X116.111 Y104.797 E37.74845
G0 F9000 X116.676 Y104.797
G1 F1800 X119.218 Y107.338 E37.8919
G0 F9000 X119.218 Y106.773
G1 F1800 X117.242 Y104.797 E38.00344
G0 F9000 X117.808 Y104.797
G1 F1800 X119.218 Y106.207 E38.08302
G0 F9000 X119.218 Y105.641
G1 F1800 X118.373 Y104.797 E38.13069
G0 F9000 X118.939 Y104.797
M104 S215
G1 F1800 X119.218 Y105.076 E38.14644
G1 F2400 E35.14644
G1 F300 Z0.44
;MESH:NONMESH
G0 F9000 X121.567 Y104.597 Z0.44
;TIME_ELAPSED:46.238712
;LAYER:1
M140 S40
M106 S127.5
G0 X121.567 Y104.597 Z0.6
;TYPE:SUPPORT-INTERFACE
G1 F300 Z0.4
G1 F1200 E38.14644
G1 F2100 X123.737 Y106.766 E38.22808
G0 F9000 X123.736 Y107.063
G1 F2100 X121.568 Y109.231 E38.30966
G0 F9000 X121.567 Y107.991
G1 F2100 X123.736 Y110.16 E38.39127
G0 F9000 X123.735 Y110.457
G1 F2100 X121.568 Y112.625 E38.47284
G0 F9000 X121.567 Y111.385
G1 F2100 X123.736 Y113.554 E38.55446
G0 F9000 X123.735 Y113.851
G1 F2100 X121.568 Y116.019 E38.63602
G0 F9000 X121.567 Y114.779
G1 F2100 X123.125 Y116.337 E38.69464
G1 F2400 E35.69464
G1 F300 Z0.6
G0 F9000 X121.568 Y105.836 Z0.6
G1 F300 Z0.4
G1 F1200 E38.69464
G1 F2100 X123.632 Y103.772 E38.77231
G1 F2400 E35.77231
G1 F300 Z0.6
;MESH:Thors_Hammer_Magnet.stl
G0 F9000 X120.569 Y103.286 Z0.6
;TYPE:WALL-OUTER
G1 F300 Z0.4
G1 F1200 E38.77231
G1 F2100 X120.569 Y116.713 E39.12958
G1 X103.315 Y116.713 E39.58867
G1 X103.315 Y103.287 E39.94592
G1 X120.569 Y103.286 E40.40501
G1 F2400 E37.40501
G1 F300 Z0.6
G0 F9000 X103.715 Y103.687 Z0.6
;TYPE:WALL-INNER
G1 F300 Z0.4
G1 F1200 E40.40501
G1 F2100 X119.97 Y103.686 E40.83753
G1 X120.169 Y103.686 E40.84282
G1 X120.169 Y103.885 E40.84625
G1 X120.169 Y116.313 E41.17693
G1 X103.715 Y116.313 E41.61474
G1 X103.715 Y103.687 E41.9507
G0 F9000 X104.115 Y104.087
G1 F2100 X119.57 Y104.086 E42.36192
G1 X119.769 Y104.086 E42.36722
G1 X119.769 Y104.285 E42.37065
G1 X119.769 Y115.913 E42.68004
G1 X104.115 Y115.913 E43.09657
G1 X104.115 Y104.087 E43.41124
G0 F9000 X104.505 Y104.477
;TYPE:SKIN
G1 F2100 X119.379 Y104.476 E43.807
G1 X119.379 Y115.523 E44.10094
G1 X104.505 Y115.523 E44.49671
G1 X104.505 Y104.477 E44.79063
G0 F9000 X104.664 Y105.204
G1 F2100 X105.233 Y104.636 E44.81202
G0 F9000 X105.798 Y104.636
G1 F2100 X104.664 Y105.77 E44.85469
G0 F9000 X104.664 Y106.336
G1 F2100 X106.364 Y104.636 E44.91866
G0 F9000 X106.93 Y104.636
G1 F2100 X104.664 Y106.901 E45.00391
G0 F9000 X104.664 Y107.467
G1 F2100 X107.495 Y104.636 E45.11044
G0 F9000 X108.061 Y104.636
G1 F2100 X104.664 Y108.033 E45.23827
G0 F9000 X104.664 Y108.598
G1 F2100 X108.627 Y104.636 E45.38737
G0 F9000 X109.192 Y104.636
G1 F2100 X104.664 Y109.164 E45.55776
G0 F9000 X104.664 Y109.73
G1 F2100 X109.758 Y104.636 E45.74945
G0 F9000 X110.324 Y104.636
G1 F2100 X104.665 Y110.295 E45.96239
G0 F9000 X104.665 Y110.86
G1 F2100 X110.889 Y104.636 E46.1966
G0 F9000 X111.455 Y104.636
G1 F2100 X104.665 Y111.426 E46.4521
G0 F9000 X104.665 Y111.992
G1 F2100 X112.021 Y104.636 E46.72891
G0 F9000 X112.586 Y104.636
G1 F2100 X104.665 Y112.557 E47.02697
G0 F9000 X104.665 Y113.123
G1 F2100 X113.152 Y104.636 E47.34633
G0 F9000 X113.718 Y104.636
G1 F2100 X104.665 Y113.689 E47.68699
G0 F9000 X104.665 Y114.255
G1 F2100 X114.284 Y104.636 E48.04895
G0 F9000 X114.849 Y104.636
G1 F2100 X104.665 Y114.82 E48.43217
G0 F9000 X104.688 Y115.363
G1 F2100 X115.415 Y104.636 E48.83582
G0 F9000 X115.981 Y104.636
G1 F2100 X105.254 Y115.363 E49.23947
G0 F9000 X105.819 Y115.363
G1 F2100 X116.546 Y104.636 E49.64313
G0 F9000 X117.112 Y104.636
G1 F2100 X106.385 Y115.363 E50.04678
G0 F9000 X106.951 Y115.363
G1 F2100 X117.678 Y104.636 E50.45043
G0 F9000 X118.243 Y104.636
G1 F2100 X107.517 Y115.363 E50.85406
G0 F9000 X108.082 Y115.363
G1 F2100 X118.809 Y104.636 E51.25772
G0 F9000 X119.218 Y104.793
G1 F2100 X108.648 Y115.363 E51.65546
G0 F9000 X109.214 Y115.363
G1 F2100 X119.218 Y105.358 E52.03192
G0 F9000 X119.218 Y105.924
G1 F2100 X109.779 Y115.363 E52.38711
G0 F9000 X110.345 Y115.363
G1 F2100 X119.218 Y106.49 E52.721
G0 F9000 X119.218 Y107.055
G1 F2100 X110.911 Y115.363 E53.0336
G0 F9000 X111.476 Y115.363
G1 F2100 X119.218 Y107.621 E53.32493
G0 F9000 X119.218 Y108.187
G1 F2100 X112.042 Y115.363 E53.59496
G0 F9000 X112.608 Y115.363
G1 F2100 X119.218 Y108.753 E53.84369
G0 F9000 X119.218 Y109.318
G1 F2100 X113.173 Y115.363 E54.07116
G0 F9000 X113.739 Y115.363
G1 F2100 X119.218 Y109.884 E54.27734
G0 F9000 X119.218 Y110.45
G1 F2100 X114.305 Y115.363 E54.46221
G0 F9000 X114.87 Y115.363
G1 F2100 X119.218 Y111.015 E54.62582
G0 F9000 X119.218 Y111.581
G1 F2100 X115.436 Y115.363 E54.76814
G0 F9000 X116.002 Y115.363
G1 F2100 X119.218 Y112.147 E54.88916
G0 F9000 X119.218 Y112.712
G1 F2100 X116.567 Y115.363 E54.98891
G0 F9000 X117.133 Y115.363
G1 F2100 X119.218 Y113.278 E55.06737
G0 F9000 X119.218 Y113.844
G1 F2100 X117.699 Y115.363 E55.12453
G0 F9000 X118.265 Y115.363
G1 F2100 X119.218 Y114.409 E55.16041
G0 F9000 X119.218 Y114.975
G1 F2100 X118.83 Y115.363 E55.17501
G1 F2400 E52.17501
G1 F300 Z0.6
;MESH:NONMESH
