;FLAVOR:Marlin
;TIME:7908
;Filament used: 4.70648m
;Layer height: 0.2
;MINX:88.735
;MINY:97.038
;MINZ:0.24
;MAXX:131.065
;MAXY:123.162
;MAXZ:65.36
;Generated with Cura_SteamEngine 4.8.0
M82 ;absolute extrusion mode
M201 X500.00 Y500.00 Z100.00 E5000.00 ;Setup machine max acceleration
M203 X500.00 Y500.00 Z10.00 E50.00 ;Setup machine max feedrate
M204 P500.00 R1000.00 T500.00 ;Setup Print/Retract/Travel acceleration
M205 X8.00 Y8.00 Z0.40 E5.00 ;Setup Jerk
M220 S100 ;Reset Feedrate
M221 S100 ;Reset Flowrate

;*** Start Dual Nozzle/Bed Preheating ***
M140 S50 ; start preheating the bed
M104 S215 ﻿T0 ; start preheating hotend
G28 ; home
M190 S50 ; heat to Cura Bed setting and WAIT
M109 S215 ﻿T0 ; heat to Cura Hotend and WAIT
;*** End Preheating ***


G92 E0 ;Reset Extruder
G1 Z2.0 F3000 ;Move Z Axis up

;*** Single Print Start Tone
M300 S1000 P500 ; chirp to indicate starting to print
;*** End Single Start Tone

G1 X10.1 Y20 Z0.28 F5000.0 ;Move to start position
G1 X10.1 Y200.0 Z0.28 F1500.0 E15 ;Draw the first line
G1 X10.4 Y200.0 Z0.28 F5000.0 ;Move to side a little
G1 X10.4 Y20 Z0.28 F1500.0 E30 ;Draw the second line
G92 E0 ;Reset Extruder
G1 Z2.0 F3000 ;Move Z Axis up
G92 E0
G92 E0
G1 F2400 E-3
;LAYER_COUNT:396
;LAYER:0
M106 S63.8
M204 S500
M205 X6 Y6
G1 F300 Z0.44
G0 F9000 X98.573 Y98.662 Z0.44
;TYPE:SKIRT
G1 F300 Z0.24
G1 F1200 E0
G1 F1800 X98.821 Y98.439 E0.01331
G1 X99.115 Y98.28 E0.02665
G1 X99.628 Y98.183 E0.04749
G1 X125.889 Y98.182 E1.09562
G1 X126.221 Y98.222 E1.10897
G1 X126.533 Y98.339 E1.12227
G1 X126.81 Y98.527 E1.13563
G1 X127.033 Y98.775 E1.14894
G1 X127.192 Y99.069 E1.16228
G1 X127.289 Y99.582 E1.18312
G1 X127.289 Y119.598 E1.982
G1 X127.249 Y119.93 E1.99535
G1 X127.132 Y120.242 E2.00865
G1 X126.944 Y120.519 E2.02201
G1 X126.696 Y120.742 E2.03532
G1 X126.402 Y120.901 E2.04866
G1 X125.889 Y120.998 E2.0695
G1 X99.628 Y120.998 E3.11763
G1 X99.296 Y120.958 E3.13098
G1 X98.984 Y120.841 E3.14428
G1 X98.707 Y120.653 E3.15764
G1 X98.484 Y120.405 E3.17095
G1 X98.325 Y120.111 E3.18429
G1 X98.228 Y119.598 E3.20513
G1 X98.228 Y99.583 E4.00397
G1 X98.268 Y99.251 E4.01732
G1 X98.385 Y98.939 E4.03062
G1 X98.573 Y98.662 E4.04398
G0 F9000 X98.967 Y98.832
G1 F1800 X99.203 Y98.678 E4.05523
G1 X99.628 Y98.583 E4.07261
G1 X125.889 Y98.582 E5.12074
G1 X126.168 Y98.622 E5.13199
G1 X126.425 Y98.738 E5.14324
G1 X126.64 Y98.921 E5.15451
G1 X126.794 Y99.157 E5.16576
G1 X126.889 Y99.582 E5.18314
G1 X126.889 Y119.598 E5.98202
G1 X126.849 Y119.877 E5.99327
G1 X126.733 Y120.134 E6.00453
G1 X126.55 Y120.349 E6.01579
G1 X126.314 Y120.503 E6.02704
G1 X125.889 Y120.598 E6.04442
G1 X99.628 Y120.598 E7.09256
G1 X99.349 Y120.558 E7.10381
G1 X99.092 Y120.442 E7.11506
G1 X98.877 Y120.259 E7.12633
G1 X98.723 Y120.023 E7.13758
G1 X98.628 Y119.598 E7.15496
G1 X98.628 Y99.583 E7.9538
G1 X98.668 Y99.304 E7.96505
G1 X98.784 Y99.047 E7.9763
G1 X98.967 Y98.832 E7.98757
G0 F9000 X99.181 Y99.182
G1 F1800 X99.354 Y99.049 E7.99628
G1 X99.628 Y98.983 E8.00753
G1 X125.889 Y98.982 E9.05566
G1 X126.104 Y99.022 E9.06439
G1 X126.29 Y99.135 E9.07308
G1 X126.423 Y99.308 E9.08179
G1 X126.489 Y99.582 E9.09303
G1 X126.489 Y119.598 E9.89192
G1 X126.449 Y119.813 E9.90064
G1 X126.336 Y119.999 E9.90933
G1 X126.163 Y120.132 E9.91804
G1 X125.889 Y120.198 E9.92929
G1 X99.628 Y120.198 E10.97742
G1 X99.413 Y120.158 E10.98615
G1 X99.227 Y120.045 E10.99484
G1 X99.094 Y119.872 E11.00355
G1 X99.028 Y119.598 E11.0148
G1 X99.028 Y99.583 E11.81364
G1 X99.068 Y99.368 E11.82237
G1 X99.181 Y99.182 E11.83105
G0 F9000 X99.467 Y99.464
G1 F1800 X99.628 Y99.383 E11.83825
G1 X125.889 Y99.382 E12.88638
G1 X126.008 Y99.421 E12.89138
G1 X126.089 Y99.582 E12.89857
G1 X126.089 Y119.598 E13.69745
G1 X126.05 Y119.717 E13.70245
G1 X125.889 Y119.798 E13.70964
G1 X99.628 Y119.798 E14.75778
G1 X99.509 Y119.759 E14.76277
G1 X99.428 Y119.598 E14.76997
G1 X99.428 Y99.583 E15.56881
G1 X99.467 Y99.464 E15.57381
G1 F2400 E12.57381
G1 F300 Z0.44
;MESH:ThorsHammerMagnet_1.5x.stl
G0 F9000 X125.689 Y99.782 Z0.44
;TYPE:WALL-OUTER
G1 F300 Z0.24
G1 F1200 E15.57381
G1 F1800 X125.689 Y119.398 E16.35672
G1 X99.828 Y119.398 E17.38889
G1 X99.828 Y99.783 E18.17177
G1 X125.689 Y99.782 E19.20394
G0 F9000 X125.219 Y100.252
G0 X100.298 Y100.253
G0 X100.228 Y100.183
;TYPE:WALL-INNER
G1 F1800 X125.09 Y100.182 E20.19623
G1 X125.289 Y100.182 E20.20418
G1 X125.289 Y100.381 E20.20932
G1 X125.289 Y118.998 E20.95236
G1 X100.228 Y118.998 E21.9526
G1 X100.228 Y100.183 E22.70355
G0 F9000 X100.628 Y100.583
G1 F1800 X124.69 Y100.582 E23.66391
G1 X124.889 Y100.582 E23.67186
G1 X124.889 Y100.781 E23.67699
G1 X124.889 Y118.598 E24.38811
G1 X100.628 Y118.598 E25.35642
G1 X100.628 Y100.583 E26.07544
G0 F9000 X101.018 Y100.973
;TYPE:SKIN
G1 F1800 X124.499 Y100.972 E27.01261
G1 X124.499 Y118.208 E27.70054
G1 X101.018 Y118.208 E28.63772
G1 X101.018 Y100.973 E29.3256
G0 F9000 X101.642 Y118.047
G1 F1800 X101.177 Y117.582 E29.35185
G0 F9000 X101.177 Y117.016
G1 F1800 X102.208 Y118.047 E29.41004
G0 F9000 X102.773 Y118.047
G1 F1800 X101.177 Y116.451 E29.50013
G0 F9000 X101.177 Y115.885
G1 F1800 X103.339 Y118.047 E29.62216
G0 F9000 X103.905 Y118.047
G1 F1800 X101.177 Y115.319 E29.77614
G0 F9000 X101.177 Y114.754
G1 F1800 X104.47 Y118.047 E29.96201
G0 F9000 X105.036 Y118.047
G1 F1800 X101.177 Y114.188 E30.17983
G0 F9000 X101.177 Y113.622
G1 F1800 X105.602 Y118.047 E30.4296
G0 F9000 X106.167 Y118.047
G1 F1800 X101.177 Y113.057 E30.71125
G0 F9000 X101.177 Y112.491
G1 F1800 X106.733 Y118.047 E31.02486
G0 F9000 X107.299 Y118.047
G1 F1800 X101.177 Y111.925 E31.37041
G0 F9000 X101.177 Y111.36
G1 F1800 X107.864 Y118.047 E31.74785
G0 F9000 X108.43 Y118.047
G1 F1800 X101.177 Y110.794 E32.15725
G0 F9000 X101.177 Y110.228
G1 F1800 X108.996 Y118.047 E32.59858
G0 F9000 X109.561 Y118.047
G1 F1800 X101.177 Y109.663 E33.07181
G0 F9000 X101.177 Y109.096
G1 F1800 X110.127 Y118.047 E33.57702
G0 F9000 X110.693 Y118.047
G1 F1800 X101.177 Y108.53 E34.11417
G0 F9000 X101.177 Y107.965
G1 F1800 X111.259 Y118.047 E34.68324
G0 F9000 X111.824 Y118.047
G1 F1800 X101.177 Y107.399 E35.28423
G0 F9000 X101.177 Y106.833
G1 F1800 X112.39 Y118.047 E35.91717
G0 F9000 X112.956 Y118.047
G1 F1800 X101.177 Y106.268 E36.58203
G0 F9000 X101.177 Y105.702
G1 F1800 X113.521 Y118.047 E37.27881
G0 F9000 X114.087 Y118.047
G1 F1800 X101.177 Y105.136 E38.00753
G0 F9000 X101.177 Y104.571
G1 F1800 X114.653 Y118.047 E38.76817
G0 F9000 X115.218 Y118.047
G1 F1800 X101.177 Y104.005 E39.56074
G0 F9000 X101.177 Y103.439
G1 F1800 X115.784 Y118.047 E40.38525
G0 F9000 X116.35 Y118.047
G1 F1800 X101.177 Y102.874 E41.24168
G0 F9000 X101.177 Y102.308
G1 F1800 X116.915 Y118.047 E42.13003
G0 F9000 X117.481 Y118.047
G1 F1800 X101.177 Y101.742 E43.05032
G0 F9000 X101.177 Y101.177
G1 F1800 X118.047 Y118.047 E44.00254
G0 F9000 X118.612 Y118.047
G1 F1800 X101.698 Y101.133 E44.95724
G0 F9000 X102.264 Y101.133
G1 F1800 X119.178 Y118.047 E45.91194
G0 F9000 X119.744 Y118.047
G1 F1800 X102.83 Y101.133 E46.86664
G0 F9000 X103.395 Y101.133
G1 F1800 X120.309 Y118.047 E47.82133
G0 F9000 X120.875 Y118.047
G1 F1800 X103.961 Y101.133 E48.77603
G0 F9000 X104.527 Y101.133
G1 F1800 X121.441 Y118.047 E49.73073
G0 F9000 X122.007 Y118.047
G1 F1800 X105.093 Y101.133 E50.68543
G0 F9000 X105.658 Y101.133
G1 F1800 X122.572 Y118.047 E51.64013
G0 F9000 X123.138 Y118.047
G1 F1800 X106.224 Y101.133 E52.59483
G0 F9000 X106.79 Y101.133
G1 F1800 X123.704 Y118.047 E53.54953
G0 F9000 X124.269 Y118.047
G1 F1800 X107.355 Y101.133 E54.50423
G0 F9000 X107.921 Y101.133
G1 F1800 X124.338 Y117.55 E55.43088
G0 F9000 X124.338 Y116.984
G1 F1800 X108.487 Y101.133 E56.32557
G0 F9000 X109.052 Y101.133
G1 F1800 X124.338 Y116.418 E57.18835
G0 F9000 X124.338 Y115.853
G1 F1800 X109.618 Y101.133 E58.01921
G0 F9000 X110.184 Y101.133
G1 F1800 X124.338 Y115.287 E58.81813
G0 F9000 X124.338 Y114.721
G1 F1800 X110.749 Y101.133 E59.58512
G0 F9000 X111.315 Y101.133
G1 F1800 X124.338 Y114.156 E60.3202
G0 F9000 X124.338 Y113.59
G1 F1800 X111.881 Y101.133 E61.02332
G0 F9000 X112.446 Y101.133
G1 F1800 X124.338 Y113.024 E61.69453
G0 F9000 X124.338 Y112.458
G1 F1800 X113.012 Y101.133 E62.33379
G0 F9000 X113.578 Y101.133
G1 F1800 X124.338 Y111.893 E62.94113
G0 F9000 X124.338 Y111.327
G1 F1800 X114.144 Y101.133 E63.51652
G0 F9000 X114.709 Y101.133
G1 F1800 X124.338 Y110.761 E64.06
G0 F9000 X124.338 Y110.196
G1 F1800 X115.275 Y101.133 E64.57155
G0 F9000 X115.841 Y101.133
G1 F1800 X124.338 Y109.63 E65.05116
G0 F9000 X124.338 Y109.064
G1 F1800 X116.406 Y101.133 E65.49885
G0 F9000 X116.972 Y101.133
G1 F1800 X124.338 Y108.499 E65.91462
G0 F9000 X124.338 Y107.933
G1 F1800 X117.538 Y101.133 E66.29844
G0 F9000 X118.103 Y101.133
G1 F1800 X124.338 Y107.367 E66.65034
G0 F9000 X124.338 Y106.802
G1 F1800 X118.669 Y101.133 E66.97032
G0 F9000 X119.235 Y101.133
G1 F1800 X124.338 Y106.236 E67.25836
G0 F9000 X124.338 Y105.67
G1 F1800 X119.8 Y101.133 E67.51448
G0 F9000 X120.366 Y101.133
G1 F1800 X124.338 Y105.105 E67.73867
G0 F9000 X124.338 Y104.539
G1 F1800 X120.932 Y101.133 E67.93092
G0 F9000 X121.497 Y101.133
G1 F1800 X124.338 Y103.973 E68.09125
G0 F9000 X124.338 Y103.408
G1 F1800 X122.063 Y101.133 E68.21966
G0 F9000 X122.629 Y101.133
G1 F1800 X124.338 Y102.842 E68.31613
G0 F9000 X124.338 Y102.276
G1 F1800 X123.194 Y101.133 E68.38067
G0 F9000 X123.76 Y101.133
M104 S215
G1 F1800 X124.338 Y101.71 E68.41327
;MESH:NONMESH
G0 F300 X124.338 Y101.71 Z0.4
G0 F9000 X125.219 Y100.252
G0 X125.689 Y99.621
;TIME_ELAPSED:71.579586
;LAYER:1
M140 S40
M106 S127.5
;TYPE:WALL-OUTER
;MESH:ThorsHammerMagnet_1.5x.stl
G1 F2100 X125.689 Y119.559 E68.94378
G1 X99.73 Y119.559 E69.6345
G1 X99.73 Y99.622 E70.16499
G1 X125.689 Y99.621 E70.85571
G0 F9000 X125.219 Y100.091
G0 X100.2 Y100.092
G0 X100.13 Y100.022
;TYPE:WALL-INNER
G1 F2100 X125.09 Y100.021 E71.51984
G1 X125.289 Y100.021 E71.52514
G1 X125.289 Y100.22 E71.52856
G1 X125.289 Y119.159 E72.0325
G1 X100.13 Y119.159 E72.70193
G1 X100.13 Y100.022 E73.21113
G0 F9000 X100.53 Y100.422
G1 F2100 X124.69 Y100.421 E73.85398
G1 X124.889 Y100.421 E73.85928
G1 X124.889 Y100.62 E73.8627
G1 X124.889 Y118.759 E74.34535
G1 X100.53 Y118.759 E74.99349
G1 X100.53 Y100.422 E75.48141
G0 F9000 X100.92 Y100.812
;TYPE:SKIN
G1 F2100 X124.499 Y100.811 E76.1088
G1 X124.499 Y118.369 E76.57598
G1 X100.92 Y118.369 E77.20338
G1 X100.92 Y100.812 E77.67053
G0 F9000 X101.079 Y101.435
G1 F2100 X101.544 Y100.971 E77.68801
G0 F9000 X102.109 Y100.971
G1 F2100 X101.079 Y102.001 E77.72677
G0 F9000 X101.079 Y102.567
G1 F2100 X102.675 Y100.971 E77.78683
G0 F9000 X103.241 Y100.971
G1 F2100 X101.079 Y103.132 E77.86816
G0 F9000 X101.079 Y103.698
G1 F2100 X103.806 Y100.971 E77.97078
G0 F9000 X104.372 Y100.971
G1 F2100 X101.079 Y104.264 E78.09469
G0 F9000 X101.079 Y104.829
G1 F2100 X104.938 Y100.971 E78.23989
G0 F9000 X105.503 Y100.971
G1 F2100 X101.079 Y105.395 E78.40636
G0 F9000 X101.079 Y105.961
G1 F2100 X106.069 Y100.971 E78.59413
G0 F9000 X106.635 Y100.971
G1 F2100 X101.079 Y106.527 E78.8032
G0 F9000 X101.079 Y107.092
G1 F2100 X107.2 Y100.971 E79.03353
G0 F9000 X107.766 Y100.971
G1 F2100 X101.079 Y107.658 E79.28516
G0 F9000 X101.079 Y108.224
G1 F2100 X108.332 Y100.971 E79.55809
G0 F9000 X108.897 Y100.971
G1 F2100 X101.079 Y108.789 E79.85228
G0 F9000 X101.079 Y109.355
G1 F2100 X109.463 Y100.971 E80.16776
G0 F9000 X110.029 Y100.971
G1 F2100 X101.079 Y109.921 E80.50455
G0 F9000 X101.079 Y110.486
G1 F2100 X110.595 Y100.971 E80.86261
G0 F9000 X111.16 Y100.971
G1 F2100 X101.079 Y111.052 E81.24195
G0 F9000 X101.079 Y111.618
G1 F2100 X111.726 Y100.971 E81.6426
G0 F9000 X112.292 Y100.971
G1 F2100 X101.079 Y112.183 E82.06452
G0 F9000 X101.079 Y112.749
G1 F2100 X112.857 Y100.971 E82.50772
G0 F9000 X113.423 Y100.971
G1 F2100 X101.079 Y113.315 E82.97222
G0 F9000 X101.079 Y113.88
G1 F2100 X113.989 Y100.971 E83.458
G0 F9000 X114.554 Y100.971
G1 F2100 X101.079 Y114.446 E83.96505
G0 F9000 X101.079 Y115.012
G1 F2100 X115.12 Y100.971 E84.49341
G0 F9000 X115.686 Y100.971
G1 F2100 X101.079 Y115.578 E85.04307
G0 F9000 X101.079 Y116.143
G1 F2100 X116.251 Y100.971 E85.61398
G0 F9000 X116.817 Y100.971
G1 F2100 X101.079 Y116.709 E86.20619
G0 F9000 X101.079 Y117.275
G1 F2100 X117.383 Y100.971 E86.81971
G0 F9000 X117.948 Y100.971
G1 F2100 X101.079 Y117.84 E87.45448
G0 F9000 X101.276 Y118.209
G1 F2100 X118.514 Y100.971 E88.10314
G0 F9000 X119.08 Y100.971
G1 F2100 X101.842 Y118.209 E88.7518
G0 F9000 X102.408 Y118.209
G1 F2100 X119.646 Y100.971 E89.40045
G0 F9000 X120.211 Y100.971
G1 F2100 X102.973 Y118.209 E90.04911
G0 F9000 X103.539 Y118.209
G1 F2100 X120.777 Y100.971 E90.69777
G0 F9000 X121.343 Y100.971
G1 F2100 X104.105 Y118.209 E91.34643
G0 F9000 X104.67 Y118.209
G1 F2100 X121.908 Y100.971 E91.99509
G0 F9000 X122.474 Y100.971
G1 F2100 X105.236 Y118.209 E92.64374
G0 F9000 X105.802 Y118.209
G1 F2100 X123.04 Y100.971 E93.2924
G0 F9000 X123.605 Y100.971
G1 F2100 X106.367 Y118.209 E93.94106
G0 F9000 X106.933 Y118.209
G1 F2100 X124.171 Y100.971 E94.58972
G0 F9000 X124.338 Y101.37
G1 F2100 X107.499 Y118.209 E95.22336
G0 F9000 X108.065 Y118.209
G1 F2100 X124.338 Y101.935 E95.83573
G0 F9000 X124.338 Y102.501
G1 F2100 X108.63 Y118.209 E96.42681
G0 F9000 X109.196 Y118.209
G1 F2100 X124.338 Y103.067 E96.9966
G0 F9000 X124.338 Y103.632
G1 F2100 X109.762 Y118.209 E97.54511
G0 F9000 X110.327 Y118.209
G1 F2100 X124.338 Y104.198 E98.07233
G0 F9000 X124.338 Y104.764
G1 F2100 X110.893 Y118.209 E98.57826
G0 F9000 X111.459 Y118.209
G1 F2100 X124.338 Y105.329 E99.06291
G0 F9000 X124.338 Y105.895
G1 F2100 X112.024 Y118.209 E99.52628
G0 F9000 X112.59 Y118.209
G1 F2100 X124.338 Y106.461 E99.96836
G0 F9000 X124.338 Y107.026
G1 F2100 X113.156 Y118.209 E100.38915
G0 F9000 X113.721 Y118.209
G1 F2100 X124.338 Y107.592 E100.78866
G0 F9000 X124.338 Y108.158
G1 F2100 X114.287 Y118.209 E101.16688
G0 F9000 X114.853 Y118.209
G1 F2100 X124.338 Y108.724 E101.52379
G0 F9000 X124.338 Y109.289
G1 F2100 X115.418 Y118.209 E101.85945
G0 F9000 X115.984 Y118.209
G1 F2100 X124.338 Y109.855 E102.1738
G0 F9000 X124.338 Y110.421
G1 F2100 X116.55 Y118.209 E102.46686
G0 F9000 X117.115 Y118.209
G1 F2100 X124.338 Y110.986 E102.73866
G0 F9000 X124.338 Y111.552
G1 F2100 X117.681 Y118.209 E102.98916
G0 F9000 X118.247 Y118.209
G1 F2100 X124.338 Y112.118 E103.21836
G0 F9000 X124.338 Y112.683
G1 F2100 X118.813 Y118.209 E103.42628
G0 F9000 X119.378 Y118.209
G1 F2100 X124.338 Y113.249 E103.61293
G0 F9000 X124.338 Y113.815
G1 F2100 X119.944 Y118.209 E103.77827
G0 F9000 X120.51 Y118.209
G1 F2100 X124.338 Y114.38 E103.92234
G0 F9000 X124.338 Y114.946
G1 F2100 X121.075 Y118.209 E104.04512
G0 F9000 X121.641 Y118.209
G1 F2100 X124.338 Y115.512 E104.14661
G0 F9000 X124.338 Y116.077
G1 F2100 X122.207 Y118.209 E104.22682
G0 F9000 X122.772 Y118.209
G1 F2100 X124.338 Y116.643 E104.28574
G0 F9000 X124.338 Y117.209
G1 F2100 X123.338 Y118.209 E104.32337
G0 F9000 X123.904 Y118.209
G1 F2100 X124.338 Y117.774 E104.33972
;MESH:NONMESH
G0 F300 X124.338 Y117.774 Z0.56
G0 F9000 X125.219 Y100.091
G0 X125.689 Y99.459
;TIME_ELAPSED:119.925090
;LAYER:2
M106 S191.3
;TYPE:WALL-OUTER
;MESH:ThorsHammerMagnet_1.5x.stl
G1 F2400 X125.689 Y119.721 E104.87886
G1 X99.632 Y119.721 E105.57218
G1 X99.632 Y99.46 E106.11129
G1 X125.689 Y99.459 E106.80462
G0 F9000 X125.219 Y99.929
G0 X100.102 Y99.93
G0 X100.032 Y99.86
;TYPE:WALL-INNER
G1 F2400 X125.09 Y99.859 E107.47136
G1 X125.289 Y99.859 E107.47666
G1 X125.289 Y100.058 E107.48009
G1 X125.289 Y119.321 E107.99264
G1 X100.032 Y119.321 E108.66468
G1 X100.032 Y99.86 E109.1825
G0 F9000 X100.432 Y100.26
G1 F2400 X124.69 Y100.259 E109.82796
G1 X124.889 Y100.259 E109.83325
G1 X124.889 Y100.458 E109.83668
G1 X124.889 Y118.921 E110.32794
G1 X100.432 Y118.921 E110.9787
G1 X100.432 Y100.26 E111.47523
G0 F9000 X100.822 Y100.65
;TYPE:SKIN
G1 F2400 X124.499 Y100.649 E112.10523
G1 X124.499 Y118.531 E112.58104
G1 X100.822 Y118.531 E113.21104
G1 X100.822 Y100.65 E113.68682
G0 F9000 X101.399 Y118.369
G1 F2400 X100.981 Y117.951 E113.70255
G0 F9000 X100.981 Y117.386
G1 F2400 X101.964 Y118.369 E113.73954
G0 F9000 X102.53 Y118.369
G1 F2400 X100.981 Y116.82 E113.79783
