;FLAVOR:Marlin
;TIME:4620
;Filament used: 2.54714m
;Layer height: 0.2
;MINX:114.314
;MINY:86.721
;MINZ:0.24
;MAXX:163.952
;MAXY:136.367
;MAXZ:59.76
;Generated with Cura_SteamEngine 4.10.0
M82 ;absolute extrusion mode
M201 X500.00 Y500.00 Z100.00 E5000.00 ;Setup machine max acceleration
M203 X500.00 Y500.00 Z10.00 E50.00 ;Setup machine max feedrate
M204 P500.00 R1000.00 T500.00 ;Setup Print/Retract/Travel acceleration
M205 X8.00 Y8.00 Z0.40 E5.00 ;Setup Jerk
M220 S100 ;Reset Feedrate
M221 S100 ;Reset Flowrate

;*** Start Dual Nozzle/Bed Preheating ***
M140 S50 ; start preheating the bed
M104 S195 ?T0 ; start preheating hotend
M190 S50 ; heat to Cura Bed setting and WAIT
M109 S195 ?T0 ; heat to Cura Hotend and WAIT
;*** End Preheating ***

;*** Single Print Start Tone
M300 S1000 P500 ; chirp to indicate starting to print
;*** End Single Start Tone

G28 ;Home

G92 E0 ;Reset Extruder
G1 Z2.0 F3000 ;Move Z Axis up

G1 X10.1 Y20 Z0.28 F5000.0 ;Move to start position
G1 X10.1 Y200.0 Z0.28 F1500.0 E15 ;Draw the first line
G1 X10.4 Y200.0 Z0.28 F5000.0 ;Move to side a little
G1 X10.4 Y20 Z0.28 F1500.0 E30 ;Draw the second line
G92 E0 ;Reset Extruder
G1 Z2.0 F3000 ;Move Z Axis up
G92 E0
G92 E0
;LAYER_COUNT:358
;LAYER:0
M106 S63.8
M204 S500
M205 X6 Y6
G0 F9000 X119.703 Y96.078 Z0.24
;TYPE:SKIRT
G1 F1800 X120.144 Y95.542 E0.0277
G1 X120.618 Y95.01 E0.05614
G1 X120.873 Y94.738 E0.07102
G1 X121.908 Y93.666 E0.1305
G1 X122.622 Y92.992 E0.16968
G1 X122.871 Y92.783 E0.18266
G1 X123.469 Y92.294 E0.21349
G1 X123.706 Y92.107 E0.22554
G1 X124.541 Y91.461 E0.26768
G1 X124.902 Y91.193 E0.28562
G1 X125.679 Y90.678 E0.32283
G1 X126.474 Y90.2 E0.35985
G1 X126.728 Y90.052 E0.37158
G1 X127.469 Y89.634 E0.40554
G1 X127.946 Y89.377 E0.42716
G1 X128.814 Y88.967 E0.46548
G1 X129.929 Y88.501 E0.51371
G1 X130.241 Y88.377 E0.52711
G1 X130.818 Y88.157 E0.55176
G1 X131.471 Y87.923 E0.57944
G1 X132.281 Y87.674 E0.61326
G1 X132.876 Y87.523 E0.63777
G1 X133.93 Y87.281 E0.68093
G1 X134.359 Y87.188 E0.69845
G1 X134.924 Y87.073 E0.72146
G1 X135.834 Y86.929 E0.75823
G1 X136.219 Y86.888 E0.77369
G1 X136.848 Y86.834 E0.79888
G1 X137.709 Y86.769 E0.83334
G1 X137.922 Y86.755 E0.84186
G1 X138.537 Y86.721 E0.86645
G1 X139.734 Y86.723 E0.91422
G1 X140.671 Y86.778 E0.95168
G1 X141.462 Y86.838 E0.98335
G1 X142.151 Y86.899 E1.01095
G1 X143.339 Y87.073 E1.05887
G1 X144.024 Y87.213 E1.08678
G1 X144.251 Y87.262 E1.09605
G1 X145.164 Y87.471 E1.13343
G1 X145.833 Y87.635 E1.16092
G1 X146.695 Y87.885 E1.19674
G1 X147.306 Y88.102 E1.22262
G1 X147.913 Y88.333 E1.24854
G1 X148.58 Y88.596 E1.27716
G1 X149.211 Y88.852 E1.30434
G1 X149.982 Y89.201 E1.33812
G1 X150.655 Y89.552 E1.36841
G1 X151.448 Y89.998 E1.40472
G1 X151.805 Y90.206 E1.42122
G1 X152.424 Y90.574 E1.44996
G1 X153.215 Y91.093 E1.48772
G1 X153.662 Y91.416 E1.50973
G1 X153.947 Y91.63 E1.52395
G1 X154.602 Y92.138 E1.55704
G1 X154.88 Y92.36 E1.57124
G1 X155.438 Y92.817 E1.60002
G1 X156.13 Y93.436 E1.63708
G1 X156.442 Y93.748 E1.65469
G1 X157.342 Y94.682 E1.70646
G1 X157.591 Y94.949 E1.72103
G1 X158.055 Y95.465 E1.74873
G1 X158.801 Y96.395 E1.79631
G1 X159.651 Y97.586 E1.85471
G1 X159.855 Y97.883 E1.86909
G1 X160.21 Y98.418 E1.89472
G1 X160.524 Y98.92 E1.91835
G1 X160.839 Y99.481 E1.94403
G1 X161.114 Y100.005 E1.96765
G1 X161.257 Y100.287 E1.98027
G1 X161.546 Y100.88 E2.0066
G1 X161.864 Y101.562 E2.03663
G1 X162.116 Y102.152 E2.06224
G1 X162.344 Y102.733 E2.08715
G1 X162.607 Y103.466 E2.11823
G1 X162.809 Y104.096 E2.14463
G1 X162.918 Y104.449 E2.15938
G1 X163.127 Y105.159 E2.18892
G1 X163.285 Y105.76 E2.21372
G1 X163.42 Y106.368 E2.23858
G1 X163.49 Y106.742 E2.25377
G1 X163.662 Y107.759 E2.29493
G1 X163.711 Y108.082 E2.30797
G1 X163.808 Y108.787 E2.33638
G1 X163.871 Y109.359 E2.35934
G1 X163.891 Y109.601 E2.36903
G1 X163.925 Y110.248 E2.39489
G1 X163.951 Y111.466 E2.44352
G1 X163.952 Y111.84 E2.45844
G1 X163.943 Y112.483 E2.48411
G1 X163.931 Y112.892 E2.50044
G1 X163.897 Y113.431 E2.522
G1 X163.838 Y114.05 E2.54681
G1 X163.739 Y114.82 E2.5778
G1 X163.645 Y115.448 E2.60314
G1 X163.513 Y116.209 E2.63397
G1 X163.352 Y117.013 E2.6667
G1 X163.119 Y117.96 E2.70562
G1 X162.916 Y118.646 E2.73417
G1 X162.8 Y119.02 E2.7498
G1 X162.596 Y119.652 E2.77631
G1 X162.375 Y120.284 E2.80303
G1 X162.191 Y120.766 E2.82362
G1 X161.969 Y121.286 E2.84619
G1 X161.535 Y122.229 E2.88762
G1 X161.417 Y122.473 E2.89844
G1 X161.06 Y123.19 E2.93041
G1 X160.793 Y123.692 E2.9531
G1 X160.687 Y123.879 E2.96168
G1 X160.349 Y124.434 E2.98762
G1 X159.717 Y125.405 E3.03386
G1 X159.506 Y125.718 E3.04892
G1 X159.071 Y126.337 E3.07912
G1 X158.563 Y127.011 E3.1128
G1 X158.171 Y127.49 E3.13751
G1 X157.826 Y127.883 E3.15838
G1 X157.389 Y128.355 E3.18405
G1 X156.354 Y129.426 E3.2435
G1 X155.644 Y130.097 E3.28249
G1 X155.384 Y130.315 E3.29603
G1 X154.824 Y130.772 E3.32488
G1 X154.608 Y130.944 E3.3359
G1 X153.711 Y131.638 E3.38117
G1 X153.323 Y131.925 E3.40043
G1 X152.571 Y132.421 E3.43638
G1 X151.649 Y132.973 E3.47927
G1 X151.402 Y133.115 E3.49064
G1 X150.775 Y133.467 E3.51934
G1 X150.211 Y133.769 E3.54488
G1 X149.39 Y134.161 E3.58119
G1 X148.792 Y134.411 E3.60706
G1 X147.952 Y134.741 E3.64308
G1 X147.468 Y134.925 E3.66374
G1 X146.804 Y135.162 E3.69188
G1 X145.987 Y135.414 E3.72601
G1 X145.34 Y135.578 E3.75265
G1 X144.159 Y135.848 E3.801
G1 X143.879 Y135.908 E3.81243
G1 X143.31 Y136.022 E3.83559
G1 X142.496 Y136.153 E3.8685
G1 X142.072 Y136.198 E3.88551
G1 X141.392 Y136.257 E3.91276
G1 X140.593 Y136.317 E3.94474
G1 X139.73 Y136.367 E3.97924
G1 X138.516 Y136.366 E4.02769
G1 X137.626 Y136.312 E4.06328
G1 X136.852 Y136.254 E4.09426
G1 X136.128 Y136.191 E4.12326
G1 X134.913 Y136.014 E4.17227
G1 X134.193 Y135.866 E4.20161
G1 X133.965 Y135.817 E4.21091
G1 X133.265 Y135.657 E4.23957
G1 X132.475 Y135.465 E4.27202
G1 X131.649 Y135.228 E4.30632
G1 X130.954 Y134.986 E4.33569
G1 X130.388 Y134.77 E4.35987
G1 X129.667 Y134.487 E4.39078
G1 X129.011 Y134.219 E4.41907
G1 X128.213 Y133.853 E4.45411
G1 X127.601 Y133.532 E4.48169
G1 X126.822 Y133.093 E4.51738
G1 X126.391 Y132.843 E4.53727
G1 X125.853 Y132.523 E4.56225
G1 X125.053 Y131.997 E4.60046
G1 X124.574 Y131.65 E4.62407
G1 X124.301 Y131.445 E4.6377
G1 X123.638 Y130.93 E4.6712
G1 X123.377 Y130.722 E4.68452
G1 X122.823 Y130.268 E4.71311
G1 X122.136 Y129.653 E4.74991
G1 X121.828 Y129.345 E4.7673
G1 X120.926 Y128.41 E4.81915
G1 X120.665 Y128.13 E4.83443
G1 X120.202 Y127.614 E4.8621
G1 X119.463 Y126.691 E4.90929
G1 X118.614 Y125.501 E4.96763
G1 X118.408 Y125.202 E4.98213
G1 X118.052 Y124.665 E5.00784
G1 X117.729 Y124.145 E5.03227
G1 X117.417 Y123.589 E5.05772
G1 X117.144 Y123.068 E5.08119
G1 X117.006 Y122.794 E5.09344
G1 X116.645 Y122.05 E5.12644
G1 X116.405 Y121.534 E5.14916
G1 X116.148 Y120.935 E5.17517
G1 X115.913 Y120.336 E5.20085
G1 X115.664 Y119.638 E5.23043
G1 X115.447 Y118.964 E5.25869
G1 X115.324 Y118.561 E5.27551
G1 X115.149 Y117.966 E5.30026
G1 X114.983 Y117.329 E5.32654
G1 X114.883 Y116.89 E5.34451
G1 X114.762 Y116.275 E5.36952
G1 X114.599 Y115.295 E5.40918
G1 X114.552 Y114.984 E5.42173
G1 X114.456 Y114.278 E5.45017
G1 X114.398 Y113.753 E5.47125
G1 X114.378 Y113.519 E5.48062
G1 X114.341 Y112.841 E5.50772
G1 X114.315 Y111.615 E5.55667
G1 X114.314 Y111.242 E5.57155
G1 X114.323 Y110.598 E5.59726
G1 X114.368 Y109.678 E5.63402
G1 X114.434 Y108.981 E5.66196
G1 X114.497 Y108.477 E5.68224
G1 X114.591 Y107.834 E5.70817
G1 X114.697 Y107.181 E5.73458
G1 X114.759 Y106.84 E5.74841
G1 X114.892 Y106.168 E5.77575
G1 X115.011 Y105.637 E5.79747
G1 X115.141 Y105.148 E5.81767
G1 X115.366 Y104.387 E5.84934
G1 X115.486 Y104.003 E5.8654
G1 X115.669 Y103.438 E5.8891
G1 X115.882 Y102.824 E5.91504
G1 X116.046 Y102.392 E5.93348
G1 X116.295 Y101.804 E5.95897
G1 X116.686 Y100.954 E5.99631
G1 X116.842 Y100.634 E6.01052
G1 X117.242 Y99.834 E6.04622
G1 X117.512 Y99.329 E6.06907
G1 X117.594 Y99.185 E6.07569
G1 X117.923 Y98.644 E6.10096
G1 X118.551 Y97.68 E6.14688
G1 X118.76 Y97.371 E6.16177
G1 X119.195 Y96.752 E6.19196
G1 X119.703 Y96.078 E6.22565
G0 F9000 X120.019 Y96.322
G1 F1800 X120.444 Y95.806 E6.25233
G1 X120.911 Y95.283 E6.28031
G1 X121.161 Y95.016 E6.29491
G1 X122.196 Y93.944 E6.35439
G1 X122.883 Y93.296 E6.39208
G1 X123.124 Y93.092 E6.40468
G1 X123.719 Y92.607 E6.43532
G1 X123.951 Y92.424 E6.44711
G1 X124.786 Y91.778 E6.48925
G1 X125.137 Y91.516 E6.50673
G1 X125.885 Y91.02 E6.54255
G1 X126.68 Y90.542 E6.57957
G1 X126.925 Y90.4 E6.59088
G1 X127.666 Y89.982 E6.62483
G1 X128.133 Y89.73 E6.64601
G1 X128.969 Y89.336 E6.6829
G1 X130.084 Y88.87 E6.73113
G1 X130.383 Y88.75 E6.74399
G1 X130.96 Y88.53 E6.76864
G1 X131.603 Y88.3 E6.79589
G1 X132.383 Y88.061 E6.82845
G1 X132.966 Y87.913 E6.85246
G1 X134.015 Y87.671 E6.89543
G1 X134.439 Y87.58 E6.91274
G1 X135.004 Y87.465 E6.93575
G1 X135.88 Y87.326 E6.97115
G1 X136.254 Y87.287 E6.98616
G1 X136.878 Y87.233 E7.01115
G1 X137.739 Y87.168 E7.04562
G1 X138.559 Y87.121 E7.0784
G1 X139.711 Y87.122 E7.12438
G1 X140.641 Y87.177 E7.16156
G1 X141.427 Y87.237 E7.19302
G1 X142.116 Y87.298 E7.22063
G1 X143.258 Y87.465 E7.26669
G1 X143.943 Y87.605 E7.2946
G1 X144.162 Y87.652 E7.30354
G1 X145.069 Y87.859 E7.34067
G1 X145.738 Y88.023 E7.36816
G1 X146.567 Y88.264 E7.40262
G1 X147.169 Y88.478 E7.42812
G1 X147.688 Y88.675 E7.45028
G1 X148.43 Y88.966 E7.48209
G1 X149.061 Y89.222 E7.50926
G1 X149.803 Y89.558 E7.54177
G1 X150.459 Y89.9 E7.5713
G1 X151.247 Y90.344 E7.6074
G1 X151.6 Y90.549 E7.62369
G1 X152.219 Y90.917 E7.65244
G1 X152.981 Y91.418 E7.68883
G1 X153.428 Y91.741 E7.71084
G1 X153.702 Y91.946 E7.7245
G1 X154.353 Y92.451 E7.75739
G1 X154.627 Y92.67 E7.77139
G1 X155.185 Y93.127 E7.80017
G1 X155.85 Y93.722 E7.83579
G1 X156.154 Y94.025 E7.85292
G1 X157.054 Y94.959 E7.90469
G1 X157.294 Y95.217 E7.91875
G1 X157.758 Y95.733 E7.94645
G1 X158.475 Y96.628 E7.99222
G1 X159.325 Y97.819 E8.05062
G1 X159.522 Y98.104 E8.06445
G1 X159.877 Y98.639 E8.09007
G1 X160.179 Y99.122 E8.11281
G1 X160.485 Y99.667 E8.13775
G1 X160.76 Y100.191 E8.16137
G1 X160.897 Y100.462 E8.17349
G1 X161.27 Y101.231 E8.20761
G1 X161.502 Y101.731 E8.22961
G1 X161.744 Y102.298 E8.25421
G1 X161.972 Y102.879 E8.27912
G1 X162.226 Y103.588 E8.30918
G1 X162.427 Y104.215 E8.33546
G1 X162.534 Y104.562 E8.34995
G1 X162.743 Y105.272 E8.37949
G1 X162.895 Y105.85 E8.40335
G1 X163.027 Y106.446 E8.42771
G1 X163.095 Y106.809 E8.44245
G1 X163.267 Y107.826 E8.48362
G1 X163.315 Y108.137 E8.49618
G1 X163.412 Y108.842 E8.52458
G1 X163.472 Y109.392 E8.54666
G1 X163.492 Y109.634 E8.55635
G1 X163.525 Y110.256 E8.58121
G1 X163.551 Y111.474 E8.62984
G1 X163.552 Y111.835 E8.64425
G1 X163.543 Y112.478 E8.66991
G1 X163.531 Y112.877 E8.68584
G1 X163.498 Y113.396 E8.7066
G1 X163.441 Y114.005 E8.73101
G1 X163.343 Y114.764 E8.76156
G1 X163.25 Y115.383 E8.78654
G1 X163.12 Y116.131 E8.81684
G1 X162.959 Y116.935 E8.84957
G1 X162.735 Y117.847 E8.88705
G1 X162.534 Y118.527 E8.91535
G1 X162.419 Y118.897 E8.93082
G1 X162.215 Y119.529 E8.95732
G1 X161.998 Y120.15 E8.98358
G1 X161.819 Y120.619 E9.00361
G1 X161.605 Y121.119 E9.02532
G1 X161.174 Y122.057 E9.06652
G1 X161.059 Y122.294 E9.07703
G1 X160.702 Y123.011 E9.109
G1 X160.445 Y123.495 E9.13087
G1 X160.339 Y123.682 E9.13945
G1 X160.014 Y124.216 E9.1644
G1 X159.382 Y125.187 E9.21064
G1 X159.178 Y125.488 E9.22516
G1 X158.743 Y126.107 E9.25535
G1 X158.247 Y126.767 E9.28831
G1 X157.869 Y127.228 E9.3121
G1 X157.531 Y127.613 E9.33255
G1 X157.102 Y128.077 E9.35777
G1 X156.067 Y129.148 E9.41721
G1 X155.383 Y129.793 E9.45474
G1 X155.131 Y130.006 E9.46791
G1 X154.571 Y130.463 E9.49675
G1 X154.364 Y130.627 E9.5073
G1 X153.467 Y131.321 E9.55256
G1 X153.089 Y131.601 E9.57134
G1 X152.365 Y132.078 E9.60594
G1 X151.448 Y132.627 E9.6486
G1 X151.206 Y132.766 E9.65974
G1 X150.579 Y133.118 E9.68843
G1 X150.024 Y133.416 E9.71358
G1 X149.234 Y133.793 E9.74851
G1 X148.645 Y134.039 E9.77399
G1 X147.81 Y134.367 E9.8098
G1 X147.326 Y134.551 E9.83046
G1 X146.671 Y134.785 E9.85822
G1 X145.885 Y135.027 E9.89105
G1 X145.251 Y135.188 E9.91715
G1 X144.07 Y135.458 E9.96551
G1 X143.801 Y135.516 E9.97649
G1 X143.232 Y135.63 E9.99965
G1 X142.448 Y135.756 E10.03134
G1 X142.037 Y135.8 E10.04784
G1 X141.362 Y135.858 E10.07488
G1 X140.369 Y135.931 E10.11462
G1 X139.708 Y135.968 E10.14104
G1 X138.539 Y135.966 E10.1877
G1 X137.655 Y135.913 E10.22305
G1 X136.887 Y135.856 E10.25378
G1 X136.163 Y135.793 E10.28279
G1 X134.993 Y135.622 E10.32998
G1 X134.273 Y135.474 E10.35932
G1 X134.054 Y135.427 E10.36826
G1 X133.215 Y135.234 E10.40262
G1 X132.57 Y135.077 E10.42912
G1 X131.774 Y134.848 E10.46218
G1 X131.091 Y134.61 E10.49104
G1 X130.534 Y134.398 E10.51483
G1 X129.818 Y134.116 E10.54554
G1 X129.162 Y133.848 E10.57383
G1 X128.394 Y133.497 E10.60753
G1 X127.796 Y133.183 E10.63449
G1 X127.022 Y132.747 E10.66994
G1 X126.596 Y132.499 E10.68962
G1 X126.058 Y132.179 E10.7146
G1 X125.288 Y131.673 E10.75137
G1 X124.809 Y131.326 E10.77498
G1 X124.546 Y131.129 E10.7881
G1 X123.887 Y130.617 E10.8214
G1 X123.631 Y130.412 E10.83449
G1 X123.077 Y129.958 E10.86308
G1 X122.416 Y129.367 E10.89847
G1 X122.116 Y129.068 E10.91538
G1 X121.214 Y128.133 E10.96723
G1 X120.963 Y127.863 E10.98194
G1 X120.5 Y127.347 E11.00961
G1 X119.789 Y126.459 E11.05502
G1 X118.94 Y125.269 E11.11336
G1 X118.742 Y124.981 E11.12731
G1 X118.386 Y124.444 E11.15302
G1 X118.074 Y123.944 E11.17655
G1 X117.771 Y123.403 E11.20129
G1 X117.498 Y122.882 E11.22477
G1 X117.365 Y122.619 E11.23653
G1 X117.007 Y121.882 E11.26924
G1 X116.767 Y121.366 E11.29195
G1 X116.521 Y120.789 E11.31698
G1 X116.286 Y120.19 E11.34267
G1 X116.044 Y119.515 E11.37128
G1 X115.829 Y118.846 E11.39933
G1 X115.707 Y118.448 E11.41595
G1 X115.532 Y117.853 E11.4407
G1 X115.373 Y117.24 E11.46598
G1 X115.273 Y116.801 E11.48395
G1 X115.156 Y116.21 E11.50799
G1 X114.993 Y115.23 E11.54764
G1 X114.948 Y114.93 E11.55975
G1 X114.852 Y114.224 E11.58819
G1 X114.796 Y113.719 E11.60847
G1 X114.776 Y113.485 E11.61784
G1 X114.741 Y112.832 E11.64394
G1 X114.715 Y111.606 E11.69288
G1 X114.714 Y111.247 E11.70721
G1 X114.723 Y110.603 E11.73292
G1 X114.767 Y109.713 E11.76848
G1 X114.831 Y109.027 E11.79598
G1 X114.893 Y108.535 E11.81577
G1 X114.987 Y107.892 E11.84171
G1 X115.092 Y107.245 E11.86787
G1 X115.151 Y106.918 E11.88113
G1 X115.284 Y106.246 E11.90847
G1 X115.399 Y105.731 E11.92954
G1 X115.525 Y105.261 E11.94896
G1 X115.748 Y104.506 E11.98038
G1 X115.866 Y104.126 E11.99626
G1 X116.049 Y103.561 E12.01996
G1 X116.259 Y102.959 E12.04541
G1 X116.419 Y102.537 E12.06342
G1 X116.658 Y101.971 E12.08794
G1 X117.049 Y101.121 E12.12529
G1 X117.2 Y100.812 E12.13901
G1 X117.6 Y100.012 E12.17471
G1 X117.859 Y99.527 E12.19666
G1 X117.941 Y99.383 E12.20327
G1 X118.259 Y98.862 E12.22763
G1 X118.887 Y97.898 E12.27355
G1 X119.088 Y97.601 E12.28786
G1 X119.523 Y96.982 E12.31806
G1 X120.019 Y96.322 E12.35101
;MESH:Headset_Holder_screw.stl
G0 F9000 X127.539 Y102.168
G0 X128.406 Y102.818
G0 X128.467 Y102.87
G0 X128.239 Y102.676
;TYPE:WALL-OUTER
G1 F1800 X129.306 Y101.525 E12.41365
G1 X129.668 Y101.164 E12.43406
G1 X130.892 Y100.188 E12.49654
G1 X131.3 Y99.882 E12.5169
G1 X132.661 Y99.097 E12.5796
G1 X133.1 Y98.856 E12.59959
G1 X134.562 Y98.282 E12.66228
G1 X135.038 Y98.106 E12.68253
G1 X136.571 Y97.754 E12.74531
G1 X137.062 Y97.648 E12.76536
G1 X138.629 Y97.53 E12.82808
G1 X139.139 Y97.495 E12.84848
G1 X141.203 Y97.647 E12.93108
G1 X141.695 Y97.756 E12.9512
G1 X143.23 Y98.105 E13.01403
G1 X143.698 Y98.281 E13.03398
G1 X145.167 Y98.855 E13.09693
G1 X145.604 Y99.096 E13.11685
G1 X146.966 Y99.881 E13.17959
G1 X147.368 Y100.183 E13.19966
G1 X148.599 Y101.163 E13.26246
G1 X148.953 Y101.518 E13.28247
G1 X150.028 Y102.675 E13.3455
G1 X150.325 Y103.074 E13.36536
G1 X151.214 Y104.375 E13.42825
G1 X151.452 Y104.813 E13.44814
G1 X152.135 Y106.23 E13.51092
G1 X152.313 Y106.711 E13.53139
G1 X152.779 Y108.216 E13.59428
G1 X152.882 Y108.695 E13.61383
G1 X153.117 Y110.247 E13.67648
G1 X153.153 Y110.765 E13.69721
G1 X153.154 Y112.336 E13.75991
G1 X153.118 Y112.825 E13.77948
G1 X152.883 Y114.393 E13.84276
G1 X152.776 Y114.876 E13.8625
G1 X152.314 Y116.378 E13.92522
G1 X152.137 Y116.852 E13.94542
