;FLAVOR:Marlin
;TIME:5079
;Filament used: 9.25909m
;Layer height: 0.28
;MINX:57.385
;MINY:72.384
;MINZ:0.28
;MAXX:155.126
;MAXY:147.616
;MAXZ:31.08
;Generated with Cura_SteamEngine main
M82 ;absolute extrusion mode
M201 X500.00 Y500.00 Z100.00 E5000.00 ;Setup machine max acceleration
M203 X500.00 Y500.00 Z10.00 E50.00 ;Setup machine max feedrate
M204 P500.00 R1000.00 T500.00 ;Setup Print/Retract/Travel acceleration
M205 X8.00 Y8.00 Z0.40 E5.00 ;Setup Jerk
M220 S100 ;Reset Feedrate
M221 S100 ;Reset Flowrate

;*** Start Dual Nozzle/Bed Preheating ***
M140 S60.0 ; start preheating the bed
M104 S200 ?T0 ; start preheating hotend
M190 S60.0 ; heat to Cura Bed setting and WAIT
M109 S200 ?T0 ; heat to Cura Hotend and WAIT
;*** End Preheating ***


;*** Single Print Start Tone
M300 S1000 P500 ; chirp to indicate starting to print
;*** End Single Start Tone

G28 ;Home

G92 E0 ;Reset Extruder
G1 Z2.0 F3000 ;Move Z Axis up
G1 X10.1 Y20 Z0.28 F5000.0 ;Move to start position
G1 X10.1 Y200.0 Z0.28 F1500.0 E15 ;Draw the first line
G1 X10.4 Y200.0 Z0.28 F5000.0 ;Move to side a little
G1 X10.4 Y20 Z0.28 F1500.0 E30 ;Draw the second line
G92 E0 ;Reset Extruder
G1 Z2.0 F3000 ;Move Z Axis up

G92 E0
G92 E0
G1 F2700 E-6
;LAYER_COUNT:111
;LAYER:0
M107
M204 S500
M205 X5 Y5
G0 F7500 X77.989 Y78.501 Z0.28
G0 X72.697 Y88.206
M205 X8 Y8
;TYPE:SKIRT
G1 F2700 E0
G1 F1500 X72.916 Y87.273 E0.04531
G1 X73.138 Y86.466 E0.08488
G1 X73.346 Y85.808 E0.1175
G1 X73.73 Y84.775 E0.16961
G1 X74.011 Y84.12 E0.2033
G1 X74.464 Y83.186 E0.25238
G1 X74.764 Y82.635 E0.28204
G1 X75.153 Y81.977 E0.31818
G1 X75.355 Y81.66 E0.33595
G1 X75.763 Y81.062 E0.37017
G1 X75.944 Y80.815 E0.38465
G1 X76.373 Y80.267 E0.41755
G1 X76.834 Y79.714 E0.45159
G1 X77.559 Y78.926 E0.50221
G1 X77.989 Y78.501 E0.5308
G1 X78.775 Y77.794 E0.58078
G1 X79.319 Y77.35 E0.61398
G1 X80.197 Y76.703 E0.66554
G1 X80.784 Y76.313 E0.69886
G1 X81.713 Y75.759 E0.74999
G1 X82.301 Y75.446 E0.78149
G1 X83.263 Y74.991 E0.8318
G1 X83.834 Y74.754 E0.86103
G1 X84.836 Y74.393 E0.91138
G1 X85.527 Y74.181 E0.94555
G1 X86.579 Y73.914 E0.99686
G1 X87.235 Y73.781 E1.02851
G1 X88.295 Y73.619 E1.0792
G1 X89.316 Y73.519 E1.1277
G1 X90.081 Y73.467 E1.16395
G1 X111.268 Y72.432 E2.16681
G1 X112.686 Y72.389 E2.23388
G1 X141.782 Y72.384 E3.60946
G1 X142.768 Y72.397 E3.65608
G1 X143.48 Y72.42 E3.68976
G1 X143.975 Y72.448 E3.7132
G1 X144.487 Y72.489 E3.73748
G1 X145.184 Y72.568 E3.77064
G1 X145.573 Y72.624 E3.78922
G1 X146.5 Y72.797 E3.83381
G1 X147.409 Y73.049 E3.8784
G1 X148.294 Y73.377 E3.92302
G1 X149.147 Y73.779 E3.9676
G1 X149.963 Y74.251 E4.01217
G1 X150.737 Y74.791 E4.05679
G1 X151.462 Y75.394 E4.10137
G1 X152.133 Y76.057 E4.14597
G1 X152.745 Y76.774 E4.19054
G1 X153.295 Y77.54 E4.23512
G1 X153.778 Y78.351 E4.27974
G1 X154.19 Y79.199 E4.32432
G1 X154.529 Y80.079 E4.3689
G1 X154.793 Y80.985 E4.41352
G1 X154.978 Y81.91 E4.45811
G1 X155.085 Y82.847 E4.5027
G1 X155.111 Y83.448 E4.53114
G1 X155.126 Y84.41 E4.57663
G1 X155.125 Y90.841 E4.88067
G1 X155.114 Y91.55 E4.91419
G1 X155.059 Y92.491 E4.95875
G1 X154.928 Y93.409 E5.00259
G1 X154.692 Y94.678 E5.06362
G1 X154.254 Y97.234 E5.18622
G1 X153.9 Y99.716 E5.30475
G1 X153.614 Y102.235 E5.4246
G1 X153.4 Y104.737 E5.54332
G1 X153.26 Y107.212 E5.66052
G1 X153.188 Y109.764 E5.78122
G1 X153.188 Y112.244 E5.89847
G1 X153.26 Y114.806 E6.01964
G1 X153.399 Y117.267 E6.13618
G1 X153.614 Y119.795 E6.25612
G1 X153.896 Y122.276 E6.37417
G1 X154.253 Y124.779 E6.49371
G1 X154.754 Y127.676 E6.6327
G1 X154.918 Y128.542 E6.67437
G1 X155.055 Y129.475 E6.71895
G1 X155.112 Y130.438 E6.76456
G1 X155.125 Y131.261 E6.80348
G1 X155.125 Y135.793 E7.01774
G1 X155.115 Y136.517 E7.05197
G1 X155.062 Y137.458 E7.09653
G1 X154.929 Y138.392 E7.14113
G1 X154.718 Y139.311 E7.18571
G1 X154.43 Y140.209 E7.23029
G1 X154.067 Y141.08 E7.2749
G1 X153.631 Y141.916 E7.31948
G1 X153.126 Y142.713 E7.36409
G1 X152.555 Y143.464 E7.40869
G1 X151.923 Y144.164 E7.45327
G1 X151.234 Y144.808 E7.49786
G1 X150.492 Y145.391 E7.54248
G1 X149.704 Y145.909 E7.58706
G1 X148.875 Y146.359 E7.63165
G1 X148.011 Y146.736 E7.67622
G1 X147.118 Y147.04 E7.72082
G1 X146.202 Y147.266 E7.76542
G1 X145.408 Y147.397 E7.80347
G1 X144.785 Y147.477 E7.83316
G1 X144.062 Y147.546 E7.8675
G1 X143.63 Y147.573 E7.88796
G1 X143.113 Y147.594 E7.91243
G1 X141.856 Y147.614 E7.97186
G1 X115.51 Y147.616 E9.21743
G1 X114.697 Y147.606 E9.25587
G1 X113.755 Y147.553 E9.30047
G1 X112.821 Y147.421 E9.34507
G1 X111.816 Y147.186 E9.39386
G1 X110.683 Y146.865 E9.44954
G1 X108.181 Y146.197 E9.57197
G1 X105.729 Y145.615 E9.69111
G1 X103.26 Y145.103 E9.81032
G1 X100.788 Y144.661 E9.92904
G1 X98.336 Y144.296 E10.04624
G1 X95.827 Y143.993 E10.16573
G1 X93.314 Y143.763 E10.28503
G1 X90.79 Y143.603 E10.4046
G1 X88.312 Y143.516 E10.52182
G1 X85.759 Y143.499 E10.64252
G1 X83.279 Y143.552 E10.7598
G1 X80.752 Y143.679 E10.87942
G1 X78.269 Y143.872 E10.99716
G1 X75.764 Y144.14 E11.11627
G1 X72.889 Y144.533 E11.25345
G1 X71.561 Y144.634 E11.31642
G1 X70.934 Y144.644 E11.34606
G1 X69.303 Y144.646 E11.42317
G1 X68.476 Y144.636 E11.46227
G1 X67.534 Y144.583 E11.50688
G1 X66.6 Y144.451 E11.55148
G1 X65.681 Y144.24 E11.59605
G1 X64.783 Y143.952 E11.64064
G1 X63.912 Y143.589 E11.68525
G1 X63.075 Y143.154 E11.72985
G1 X62.279 Y142.649 E11.77441
G1 X61.527 Y142.079 E11.81903
G1 X60.827 Y141.447 E11.86361
G1 X60.183 Y140.758 E11.9082
G1 X59.6 Y140.017 E11.95277
G1 X59.081 Y139.229 E11.99738
G1 X58.631 Y138.4 E12.04198
G1 X58.253 Y137.536 E12.08656
G1 X57.95 Y136.643 E12.13115
G1 X57.723 Y135.727 E12.17576
G1 X57.618 Y135.13 E12.20442
G1 X57.532 Y134.545 E12.23237
G1 X57.423 Y133.384 E12.2875
G1 X57.396 Y132.727 E12.31859
G1 X57.387 Y132.275 E12.33997
G1 X57.385 Y128.188 E12.53319
G1 X57.402 Y127.093 E12.58496
G1 X57.417 Y126.66 E12.60545
G1 X57.463 Y125.832 E12.64465
G1 X57.555 Y124.893 E12.68926
G1 X57.632 Y124.421 E12.71187
G1 X57.746 Y123.806 E12.74144
G1 X57.892 Y123.136 E12.77386
G1 X57.961 Y122.86 E12.78731
G1 X58.14 Y122.226 E12.81845
G1 X58.329 Y121.624 E12.84828
G1 X58.721 Y120.566 E12.90163
G1 X59.013 Y119.886 E12.93661
G1 X59.466 Y118.952 E12.98569
G1 X59.781 Y118.374 E13.01681
G1 X60.106 Y117.817 E13.0473
G1 X60.446 Y117.271 E13.07771
G1 X60.815 Y116.706 E13.10961
G1 X62.12 Y114.604 E13.22658
G1 X63.386 Y112.429 E13.34556
G1 X64.587 Y110.228 E13.4641
G1 X65.733 Y107.977 E13.58352
G1 X66.802 Y105.722 E13.7015
G1 X67.822 Y103.4 E13.82141
G1 X68.77 Y101.07 E13.94033
G1 X69.652 Y98.712 E14.05935
G1 X70.463 Y96.339 E14.17791
G1 X71.208 Y93.942 E14.29658
G1 X71.878 Y91.55 E14.41402
G1 X72.697 Y88.206 E14.57679
M205 X5 Y5
G1 F2700 E8.57679
G0 F7500 X71.637 Y94.078
M205 X8 Y8
G1 F2700 E14.57679
G1 F1500 X72.312 Y91.668 E14.69511
G1 X73.135 Y88.307 E14.85871
G1 X73.354 Y87.376 E14.90392
G1 X73.567 Y86.601 E14.94192
G1 X73.775 Y85.943 E14.97455
G1 X74.144 Y84.952 E15.02454
G1 X74.425 Y84.297 E15.05824
G1 X74.86 Y83.401 E15.10533
G1 X75.16 Y82.85 E15.13499
G1 X75.532 Y82.218 E15.16966
G1 X75.734 Y81.901 E15.18743
G1 X76.126 Y81.328 E15.22025
G1 X76.307 Y81.081 E15.23473
G1 X76.718 Y80.556 E15.26625
G1 X77.179 Y80.003 E15.30029
G1 X77.875 Y79.246 E15.3489
G1 X78.305 Y78.821 E15.37749
G1 X79.059 Y78.143 E15.42543
G1 X79.603 Y77.699 E15.45862
G1 X80.446 Y77.078 E15.50812
G1 X81.033 Y76.688 E15.54144
G1 X81.924 Y76.156 E15.5905
G1 X82.512 Y75.843 E15.622
G1 X83.436 Y75.407 E15.6703
G1 X84.007 Y75.17 E15.69953
G1 X84.968 Y74.824 E15.74782
G1 X85.659 Y74.612 E15.78199
G1 X86.669 Y74.355 E15.83126
G1 X87.325 Y74.222 E15.8629
G1 X88.342 Y74.066 E15.91155
G1 X88.996 Y73.998 E15.94263
G1 X90.103 Y73.917 E15.99511
G1 X111.446 Y72.875 E17.00535
G1 X112.686 Y72.839 E17.064
G1 X141.782 Y72.834 E18.43957
G1 X142.762 Y72.847 E18.48591
G1 X143.464 Y72.87 E18.51912
G1 X143.939 Y72.897 E18.54161
G1 X144.451 Y72.938 E18.56589
G1 X145.12 Y73.013 E18.59772
G1 X145.509 Y73.069 E18.6163
G1 X146.417 Y73.24 E18.65998
G1 X147.307 Y73.489 E18.70367
G1 X148.172 Y73.814 E18.74736
G1 X149.005 Y74.212 E18.79101
G1 X149.801 Y74.682 E18.83471
G1 X150.553 Y75.218 E18.87837
G1 X151.257 Y75.817 E18.92207
G1 X151.905 Y76.475 E18.96573
G1 X152.495 Y77.186 E19.00941
G1 X153.021 Y77.946 E19.05311
G1 X153.479 Y78.748 E19.09677
G1 X153.866 Y79.587 E19.14045
G1 X154.179 Y80.456 E19.18412
G1 X154.415 Y81.35 E19.22783
G1 X154.574 Y82.26 E19.27151
G1 X154.661 Y83.456 E19.3282
G1 X154.676 Y84.41 E19.37331
G1 X154.675 Y90.834 E19.67702
G1 X154.664 Y91.543 E19.71054
G1 X154.609 Y92.465 E19.75421
G1 X154.485 Y93.326 E19.79533
G1 X154.252 Y94.58 E19.85563
G1 X153.808 Y97.168 E19.97978
G1 X153.452 Y99.67 E20.09925
G1 X153.166 Y102.18 E20.21869
G1 X152.954 Y104.673 E20.33698
G1 X152.81 Y107.21 E20.45711
G1 X152.738 Y109.751 E20.57729
G1 X152.738 Y112.257 E20.69577
G1 X152.81 Y114.809 E20.81647
G1 X152.952 Y117.328 E20.93575
G1 X153.164 Y119.811 E21.05356
G1 X153.452 Y122.355 E21.17461
G1 X153.803 Y124.817 E21.29218
G1 X154.316 Y127.783 E21.43448
G1 X154.476 Y128.626 E21.47505
G1 X154.609 Y129.54 E21.51872
G1 X154.662 Y130.445 E21.56158
G1 X154.675 Y131.268 E21.60049
G1 X154.675 Y135.786 E21.81409
G1 X154.665 Y136.51 E21.84832
G1 X154.612 Y137.433 E21.89203
G1 X154.48 Y138.347 E21.93569
G1 X154.269 Y139.247 E21.97939
G1 X153.981 Y140.125 E22.02308
G1 X153.619 Y140.974 E22.06671
G1 X153.184 Y141.79 E22.11043
G1 X152.68 Y142.564 E22.1541
G1 X152.111 Y143.292 E22.19778
G1 X151.482 Y143.968 E22.24143
G1 X150.796 Y144.588 E22.28515
G1 X150.06 Y145.145 E22.32879
G1 X149.277 Y145.637 E22.37251
G1 X148.456 Y146.06 E22.41617
G1 X147.601 Y146.409 E22.45983
G1 X146.718 Y146.684 E22.50355
G1 X145.816 Y146.881 E22.5472
G1 X145.351 Y146.951 E22.56943
G1 X144.728 Y147.031 E22.59913
G1 X144.034 Y147.097 E22.63209
G1 X143.602 Y147.124 E22.65255
G1 X143.106 Y147.144 E22.67602
G1 X141.849 Y147.164 E22.73546
G1 X115.51 Y147.166 E23.98069
G1 X114.703 Y147.156 E24.01885
G1 X113.78 Y147.103 E24.06255
G1 X112.866 Y146.971 E24.10621
G1 X111.939 Y146.753 E24.15124
G1 X110.798 Y146.43 E24.2073
G1 X108.292 Y145.76 E24.32994
G1 X105.816 Y145.173 E24.45024
G1 X103.363 Y144.664 E24.56868
G1 X100.864 Y144.218 E24.68869
G1 X98.383 Y143.848 E24.80729
G1 X95.854 Y143.543 E24.92772
G1 X93.384 Y143.317 E25.04498
G1 X90.799 Y143.153 E25.16744
G1 X88.33 Y143.066 E25.28424
G1 X85.788 Y143.049 E25.40442
G1 X83.246 Y143.104 E25.52462
G1 X80.731 Y143.229 E25.64367
G1 X78.19 Y143.428 E25.76417
G1 X75.72 Y143.692 E25.88161
G1 X72.828 Y144.087 E26.01961
G1 X71.554 Y144.184 E26.08001
G1 X70.927 Y144.194 E26.10966
G1 X69.302 Y144.196 E26.18648
G1 X68.482 Y144.186 E26.22525
G1 X67.559 Y144.134 E26.26896
G1 X66.645 Y144.002 E26.31262
G1 X65.745 Y143.791 E26.35632
G1 X64.867 Y143.504 E26.39999
G1 X64.017 Y143.141 E26.44369
G1 X63.202 Y142.707 E26.48734
G1 X62.427 Y142.203 E26.53105
G1 X61.699 Y141.635 E26.5747
G1 X61.022 Y141.006 E26.61839
G1 X60.403 Y140.32 E26.66208
G1 X59.845 Y139.584 E26.70574
G1 X59.353 Y138.802 E26.74942
G1 X58.93 Y137.98 E26.79313
G1 X58.58 Y137.125 E26.83681
G1 X58.305 Y136.243 E26.88048
G1 X58.064 Y135.065 E26.93733
G1 X57.978 Y134.48 E26.96528
G1 X57.873 Y133.365 E27.01823
G1 X57.846 Y132.708 E27.04932
G1 X57.837 Y132.275 E27.06979
G1 X57.836 Y128.006 E27.27162
G1 X57.851 Y127.1 E27.31446
G1 X57.866 Y126.685 E27.33409
G1 X57.912 Y125.857 E27.3733
G1 X58.075 Y124.503 E27.43777
G1 X58.189 Y123.888 E27.46735
G1 X58.329 Y123.245 E27.49846
G1 X58.398 Y122.969 E27.51191
G1 X58.569 Y122.36 E27.54181
G1 X58.758 Y121.758 E27.57164
G1 X59.134 Y120.744 E27.62277
G1 X59.426 Y120.064 E27.65776
G1 X59.862 Y119.168 E27.70487
G1 X60.177 Y118.59 E27.73599
G1 X60.488 Y118.055 E27.76524
G1 X60.828 Y117.509 E27.79565
G1 X61.177 Y116.975 E27.82581
G1 X62.505 Y114.836 E27.94484
G1 X63.79 Y112.629 E28.06558
G1 X64.981 Y110.447 E28.18311
G1 X66.145 Y108.158 E28.30451
G1 X67.205 Y105.923 E28.42146
G1 X68.241 Y103.565 E28.54322
G1 X69.194 Y101.224 E28.66272
G1 X70.069 Y98.884 E28.78083
G1 X70.892 Y96.475 E28.90118
G1 X71.637 Y94.078 E29.01985
M205 X5 Y5
G1 F2700 E23.01985
G0 F7500 X70.505 Y99.002
M205 X8 Y8
G1 F2700 E29.01985
G1 F1500 X71.31 Y96.645 E29.13761
G1 X72.07 Y94.2 E29.25866
G1 X72.75 Y91.773 E29.37782
G1 X73.574 Y88.408 E29.5416
G1 X73.792 Y87.479 E29.58672
G1 X73.997 Y86.737 E29.62311
G1 X74.205 Y86.079 E29.65574
G1 X74.557 Y85.13 E29.70359
G1 X74.838 Y84.475 E29.73729
G1 X75.255 Y83.617 E29.78239
G1 X75.555 Y83.066 E29.81205
G1 X75.912 Y82.46 E29.8453
G1 X76.114 Y82.143 E29.86307
G1 X76.489 Y81.594 E29.8945
G1 X76.67 Y81.347 E29.90898
G1 X77.064 Y80.844 E29.93919
G1 X77.525 Y80.291 E29.97322
G1 X78.191 Y79.566 E30.01977
G1 X78.621 Y79.141 E30.04835
G1 X79.344 Y78.492 E30.09428
G1 X79.888 Y78.048 E30.12748
G1 X80.695 Y77.452 E30.17491
G1 X81.282 Y77.062 E30.20823
G1 X82.135 Y76.553 E30.25519
G1 X82.723 Y76.24 E30.28668
G1 X83.608 Y75.822 E30.33296
G1 X84.179 Y75.585 E30.36218
G1 X85.1 Y75.254 E30.40845
G1 X85.791 Y75.042 E30.44262
G1 X86.758 Y74.796 E30.4898
G1 X87.414 Y74.663 E30.52144
G1 X88.389 Y74.514 E30.56807
G1 X89.38 Y74.416 E30.61515
G1 X90.125 Y74.366 E30.65045
G1 X111.312 Y73.331 E31.65331
G1 X112.686 Y73.289 E31.7183
G1 X141.782 Y73.284 E33.09388
G1 X142.755 Y73.297 E33.13988
G1 X143.448 Y73.319 E33.17266
G1 X144.415 Y73.387 E33.21849
G1 X145.056 Y73.458 E33.24898
G1 X145.445 Y73.514 E33.26756
G1 X146.333 Y73.683 E33.3103
G1 X147.203 Y73.929 E33.35304
G1 X148.048 Y74.251 E33.39579
G1 X148.862 Y74.646 E33.43857
G1 X149.637 Y75.112 E33.48132
G1 X150.368 Y75.644 E33.52406
G1 X151.049 Y76.239 E33.56682
G1 X151.674 Y76.892 E33.60955
G1 X152.24 Y77.597 E33.65229
G1 X152.741 Y78.35 E33.69505
G1 X153.174 Y79.144 E33.73781
G1 X153.535 Y79.973 E33.78056
G1 X153.821 Y80.831 E33.82332
G1 X154.03 Y81.71 E33.86603
G1 X154.161 Y82.605 E33.9088
G1 X154.212 Y83.464 E33.94948
G1 X154.225 Y84.239 E33.98612
G1 X154.225 Y90.827 E34.29759
G1 X154.214 Y91.536 E34.33111
G1 X154.16 Y92.438 E34.37383
G1 X154.043 Y93.244 E34.41233
G1 X153.808 Y94.508 E34.47312
G1 X153.365 Y97.091 E34.59702
G1 X153.004 Y99.629 E34.71821
G1 X152.719 Y102.125 E34.83698
G1 X152.505 Y104.647 E34.95665
G1 X152.36 Y107.206 E35.07782
G1 X152.288 Y109.738 E35.19758
G1 X152.288 Y112.27 E35.31728
G1 X152.36 Y114.81 E35.43742
G1 X152.502 Y117.342 E35.55731
G1 X152.717 Y119.866 E35.67707
G1 X153.005 Y122.401 E35.79769
G1 X153.364 Y124.922 E35.91808
G1 X153.863 Y127.808 E36.05654
G1 X154.034 Y128.709 E36.0999
G1 X154.163 Y129.604 E36.14265
G1 X154.212 Y130.453 E36.18285
G1 X154.225 Y131.276 E36.22177
G1 X154.225 Y135.78 E36.43471
G1 X154.215 Y136.504 E36.46894
G1 X154.163 Y137.407 E36.5117
G1 X154.031 Y138.301 E36.55442
G1 X153.82 Y139.181 E36.59721
G1 X153.533 Y140.038 E36.63993
G1 X153.171 Y140.867 E36.6827
G1 X152.737 Y141.66 E36.72544
G1 X152.235 Y142.412 E36.76819
G1 X151.668 Y143.117 E36.81096
G1 X151.041 Y143.769 E36.85372
G1 X150.36 Y144.362 E36.89641
G1 X149.628 Y144.894 E36.9392
G1 X148.852 Y145.358 E36.98194
G1 X148.039 Y145.753 E37.02467
G1 X147.193 Y146.074 E37.06745
G1 X146.323 Y146.319 E37.11018
G1 X145.293 Y146.505 E37.15967
G1 X144.67 Y146.585 E37.18936
G1 X144.006 Y146.648 E37.2209
G1 X143.574 Y146.675 E37.24136
G1 X143.099 Y146.694 E37.26383
G1 X141.842 Y146.714 E37.32327
G1 X115.51 Y146.716 E38.56817
G1 X114.709 Y146.706 E38.60604
G1 X113.806 Y146.654 E38.64881
G1 X112.912 Y146.522 E38.69153
G1 X112.062 Y146.32 E38.73284
G1 X110.913 Y145.994 E38.7893
G1 X108.403 Y145.324 E38.91212
G1 X105.909 Y144.733 E39.0333
G1 X103.459 Y144.224 E39.1516
G1 X100.941 Y143.775 E39.27252
G1 X98.429 Y143.4 E39.3926
G1 X95.914 Y143.097 E39.51236
G1 X93.416 Y142.868 E39.63095
G1 X90.844 Y142.705 E39.75279
G1 X88.313 Y142.616 E39.87253
G1 X85.781 Y142.599 E39.99223
G1 X83.214 Y142.654 E40.11362
G1 X80.709 Y142.779 E40.2322
G1 X78.176 Y142.977 E40.35232
G1 X75.646 Y143.248 E40.47261
G1 X72.767 Y143.641 E40.60999
G1 X71.547 Y143.734 E40.66783
G1 X70.92 Y143.744 E40.69748
G1 X69.302 Y143.746 E40.77397
G1 X68.488 Y143.736 E40.81246
G1 X67.585 Y143.684 E40.85522
G1 X66.69 Y143.552 E40.89799
G1 X65.811 Y143.342 E40.94072
G1 X64.953 Y143.055 E40.98349
G1 X64.125 Y142.693 E41.02622
G1 X63.331 Y142.26 E41.06897
