;FLAVOR:Marlin
;TIME:16811
;Filament used: 14.1256m
;Layer height: 0.2
;MINX:31.641
;MINY:90.2
;MINZ:0.28
;MAXX:188.359
;MAXY:129.8
;MAXZ:17.92
;Generated with Cura_SteamEngine 4.5.0
M140 S110
M105
M190 S110
M104 S230
M105
M109 S230
M82 ;absolute extrusion mode
M201 X500.00 Y500.00 Z100.00 E5000.00 ;Setup machine max acceleration
M203 X500.00 Y500.00 Z10.00 E50.00 ;Setup machine max feedrate
M204 P500.00 R1000.00 T500.00 ;Setup Print/Retract/Travel acceleration
M205 X8.00 Y8.00 Z0.40 E5.00 ;Setup Jerk
M220 S100 ;Reset Feedrate
M221 S100 ;Reset Flowrate

G28 ;Home

G92 E0 ;Reset Extruder
G1 Z2.0 F3000 ;Move Z Axis up
G1 X10.1 Y20 Z0.28 F5000.0 ;Move to start position
G1 X10.1 Y200.0 Z0.28 F1500.0 E15 ;Draw the first line
G1 X10.4 Y200.0 Z0.28 F5000.0 ;Move to side a little
G1 X10.4 Y20 Z0.28 F1500.0 E30 ;Draw the second line
G92 E0 ;Reset Extruder
G1 Z2.0 F3000 ;Move Z Axis up

G92 E0
G92 E0
G1 F1800 E-3
;LAYER_COUNT:95
;LAYER:0
M107
G0 F9000 X33.927 Y90.515 Z0.28
;TYPE:SKIRT
G1 F1800 E0
G1 F3000 X34.447 Y90.332 E0.02567
G1 X34.988 Y90.227 E0.05133
G1 X35.441 Y90.2 E0.07246
G1 X184.559 Y90.2 E7.01602
G1 X185.109 Y90.24 E7.0417
G1 X185.647 Y90.359 E7.06736
G1 X186.162 Y90.555 E7.09301
G1 X186.643 Y90.823 E7.11865
G1 X187.081 Y91.157 E7.1443
G1 X187.465 Y91.552 E7.16995
G1 X187.789 Y91.998 E7.19562
G1 X188.044 Y92.486 E7.22126
G1 X188.227 Y93.006 E7.24693
G1 X188.332 Y93.547 E7.27259
G1 X188.359 Y94 E7.29372
G1 X188.359 Y126 E8.78378
G1 X188.319 Y126.55 E8.80945
G1 X188.2 Y127.088 E8.83511
G1 X188.004 Y127.603 E8.86077
G1 X187.736 Y128.084 E8.88641
G1 X187.402 Y128.522 E8.91206
G1 X187.007 Y128.906 E8.93771
G1 X186.561 Y129.23 E8.96338
G1 X186.073 Y129.485 E8.98902
G1 X185.553 Y129.668 E9.01469
G1 X185.012 Y129.773 E9.04035
G1 X184.559 Y129.8 E9.06148
G1 X35.441 Y129.8 E16.00504
G1 X34.891 Y129.76 E16.03072
G1 X34.353 Y129.641 E16.05637
G1 X33.838 Y129.445 E16.08203
G1 X33.357 Y129.177 E16.10767
G1 X32.919 Y128.843 E16.13332
G1 X32.535 Y128.448 E16.15897
G1 X32.211 Y128.002 E16.18464
G1 X31.956 Y127.514 E16.21028
G1 X31.773 Y126.994 E16.23595
G1 X31.668 Y126.453 E16.26161
G1 X31.641 Y126 E16.28274
G1 X31.641 Y94 E17.77279
G1 X31.681 Y93.45 E17.79847
G1 X31.8 Y92.912 E17.82413
G1 X31.996 Y92.397 E17.84979
G1 X32.264 Y91.916 E17.87543
G1 X32.598 Y91.478 E17.90107
G1 X32.993 Y91.094 E17.92673
G1 X33.439 Y90.77 E17.9524
G1 X33.927 Y90.515 E17.97803
G0 F9000 X34.296 Y90.798
G1 F3000 X34.799 Y90.661 E18.00231
G1 X35.441 Y90.6 E18.03234
G1 X184.559 Y90.6 E24.9759
G1 X185.079 Y90.64 E25.00018
G1 X185.586 Y90.759 E25.02443
G1 X186.069 Y90.954 E25.04869
G1 X186.517 Y91.22 E25.07295
G1 X186.919 Y91.552 E25.09722
G1 X187.265 Y91.942 E25.1215
G1 X187.548 Y92.38 E25.14578
G1 X187.761 Y92.855 E25.17002
G1 X187.898 Y93.358 E25.1943
G1 X187.959 Y94 E25.22433
G1 X187.959 Y126 E26.71438
G1 X187.919 Y126.52 E26.73866
G1 X187.8 Y127.027 E26.76291
G1 X187.605 Y127.51 E26.78717
G1 X187.339 Y127.958 E26.81143
G1 X187.007 Y128.36 E26.83571
G1 X186.617 Y128.706 E26.85998
G1 X186.179 Y128.989 E26.88427
G1 X185.704 Y129.202 E26.90851
G1 X185.201 Y129.339 E26.93278
G1 X184.559 Y129.4 E26.96281
G1 X35.441 Y129.4 E33.90637
G1 X34.921 Y129.36 E33.93065
G1 X34.414 Y129.241 E33.9549
G1 X33.931 Y129.046 E33.97916
G1 X33.483 Y128.78 E34.00342
G1 X33.081 Y128.448 E34.02769
G1 X32.735 Y128.058 E34.05197
G1 X32.452 Y127.62 E34.07625
G1 X32.239 Y127.145 E34.10049
G1 X32.102 Y126.642 E34.12477
G1 X32.041 Y126 E34.1548
G1 X32.041 Y94 E35.64485
G1 X32.081 Y93.48 E35.66914
G1 X32.2 Y92.973 E35.69339
G1 X32.395 Y92.49 E35.71764
G1 X32.661 Y92.042 E35.7419
G1 X32.993 Y91.64 E35.76618
G1 X33.383 Y91.294 E35.79045
G1 X33.821 Y91.011 E35.81474
G1 X34.296 Y90.798 E35.83898
G0 F9000 X34.198 Y91.27
G1 F3000 X34.658 Y91.104 E35.86175
G1 X35.441 Y91 E35.89853
G1 X184.559 Y91 E42.84209
G1 X185.522 Y91.159 E42.88754
G1 X185.971 Y91.353 E42.91031
G1 X186.383 Y91.618 E42.93312
G1 X186.746 Y91.946 E42.9559
G1 X187.051 Y92.329 E42.9787
G1 X187.289 Y92.757 E43.0015
G1 X187.455 Y93.217 E43.02428
G1 X187.559 Y94 E43.06105
G1 X187.559 Y126 E44.55111
G1 X187.519 Y126.488 E44.57391
G1 X187.4 Y126.963 E44.59671
G1 X187.206 Y127.412 E44.61949
G1 X186.941 Y127.824 E44.6423
G1 X186.613 Y128.187 E44.66508
G1 X186.23 Y128.492 E44.68787
G1 X185.802 Y128.73 E44.71068
G1 X185.342 Y128.896 E44.73345
G1 X184.559 Y129 E44.77023
G1 X35.441 Y129 E51.71379
G1 X34.953 Y128.96 E51.73659
G1 X34.478 Y128.841 E51.75939
G1 X34.029 Y128.647 E51.78217
G1 X33.617 Y128.382 E51.80498
G1 X33.254 Y128.054 E51.82776
G1 X32.949 Y127.671 E51.85055
G1 X32.711 Y127.243 E51.87336
G1 X32.545 Y126.783 E51.89613
G1 X32.441 Y126 E51.93291
G1 X32.441 Y94 E53.42296
G1 X32.481 Y93.512 E53.44576
G1 X32.6 Y93.037 E53.46856
G1 X32.794 Y92.588 E53.49134
G1 X33.059 Y92.176 E53.51415
G1 X33.387 Y91.813 E53.53693
G1 X33.77 Y91.508 E53.55973
G1 X34.198 Y91.27 E53.58253
G0 F9000 X34.568 Y91.551
G1 F3000 X35.009 Y91.436 E53.60375
G1 X35.441 Y91.4 E53.62394
G1 X184.559 Y91.4 E60.5675
G1 X185.453 Y91.558 E60.60977
G1 X185.865 Y91.752 E60.63098
G1 X186.238 Y92.015 E60.65223
G1 X186.559 Y92.338 E60.67343
G1 X186.818 Y92.713 E60.69465
G1 X187.008 Y93.127 E60.71587
G1 X187.123 Y93.568 E60.73709
G1 X187.159 Y94 E60.75727
G1 X187.159 Y126 E62.24733
G1 X187.119 Y126.454 E62.26855
G1 X187.001 Y126.894 E62.28976
G1 X186.807 Y127.306 E62.31097
G1 X186.544 Y127.679 E62.33222
G1 X186.221 Y128 E62.35342
G1 X185.846 Y128.259 E62.37464
G1 X185.432 Y128.449 E62.39585
G1 X184.991 Y128.564 E62.41708
G1 X184.559 Y128.6 E62.43726
G1 X35.441 Y128.6 E69.38082
G1 X34.987 Y128.56 E69.40204
G1 X34.547 Y128.442 E69.42325
G1 X34.135 Y128.248 E69.44446
G1 X33.762 Y127.985 E69.46571
G1 X33.441 Y127.662 E69.48691
G1 X33.182 Y127.287 E69.50814
G1 X32.992 Y126.873 E69.52935
G1 X32.877 Y126.432 E69.55057
G1 X32.841 Y126 E69.57075
G1 X32.841 Y94 E71.06081
G1 X32.881 Y93.546 E71.08203
G1 X32.999 Y93.106 E71.10324
G1 X33.193 Y92.694 E71.12445
G1 X33.456 Y92.321 E71.1457
G1 X33.779 Y92 E71.1669
G1 X34.154 Y91.741 E71.18812
G1 X34.568 Y91.551 E71.20934
G0 F9000 X34.531 Y91.997
G1 F3000 X34.928 Y91.861 E71.22888
G1 X35.441 Y91.8 E71.25293
G1 X184.559 Y91.8 E78.19649
G1 X185.378 Y91.958 E78.23533
G1 X185.75 Y92.151 E78.25484
G1 X186.079 Y92.41 E78.27434
G1 X186.353 Y92.727 E78.29385
G1 X186.562 Y93.09 E78.31336
G1 X186.698 Y93.487 E78.3329
G1 X186.759 Y94 E78.35695
G1 X186.759 Y126 E79.84701
G1 X186.719 Y126.417 E79.86651
G1 X186.601 Y126.819 E79.88602
G1 X186.408 Y127.191 E79.90554
G1 X186.149 Y127.52 E79.92503
G1 X185.832 Y127.794 E79.94454
G1 X185.469 Y128.003 E79.96405
G1 X185.072 Y128.139 E79.98359
G1 X184.559 Y128.2 E80.00764
G1 X35.441 Y128.2 E86.9512
G1 X35.024 Y128.16 E86.97071
G1 X34.622 Y128.042 E86.99022
G1 X34.25 Y127.849 E87.00973
G1 X33.921 Y127.59 E87.02923
G1 X33.647 Y127.273 E87.04874
G1 X33.438 Y126.91 E87.06824
G1 X33.302 Y126.513 E87.08778
G1 X33.241 Y126 E87.11184
G1 X33.241 Y94 E88.60189
G1 X33.281 Y93.583 E88.6214
G1 X33.399 Y93.181 E88.64091
G1 X33.592 Y92.809 E88.66042
G1 X33.851 Y92.48 E88.67992
G1 X34.168 Y92.206 E88.69943
G1 X34.531 Y91.997 E88.71894
G0 F9000 X34.9 Y92.283
G1 F3000 X35.441 Y92.2 E88.74442
G1 X184.559 Y92.2 E95.68798
G1 X185.296 Y92.358 E95.72308
G1 X185.623 Y92.548 E95.74069
G1 X185.904 Y92.803 E95.75836
G1 X186.124 Y93.112 E95.77602
G1 X186.276 Y93.459 E95.79366
G1 X186.359 Y94 E95.81915
G1 X186.359 Y126 E97.3092
G1 X186.319 Y126.377 E97.32685
G1 X186.201 Y126.737 E97.34449
G1 X186.011 Y127.064 E97.3621
G1 X185.756 Y127.345 E97.37977
G1 X185.447 Y127.565 E97.39744
G1 X185.1 Y127.717 E97.41508
G1 X184.559 Y127.8 E97.44056
G1 X35.441 Y127.8 E104.38412
G1 X35.064 Y127.76 E104.40177
G1 X34.704 Y127.642 E104.41941
G1 X34.377 Y127.452 E104.43702
G1 X34.096 Y127.197 E104.45469
G1 X33.876 Y126.888 E104.47236
G1 X33.724 Y126.541 E104.49
G1 X33.641 Y126 E104.51548
G1 X33.641 Y94 E106.00554
G1 X33.681 Y93.623 E106.02319
G1 X33.799 Y93.263 E106.04083
G1 X33.989 Y92.936 E106.05844
G1 X34.244 Y92.655 E106.07611
G1 X34.553 Y92.435 E106.09377
G1 X34.9 Y92.283 E106.11141
G0 F9000 X34.928 Y92.697
G1 F3000 X35.441 Y92.6 E106.13572
G1 X184.559 Y92.6 E113.07928
G1 X185.203 Y92.757 E113.11015
G1 X185.48 Y92.945 E113.12573
G1 X185.703 Y93.193 E113.14126
G1 X185.862 Y93.487 E113.15683
G1 X185.959 Y94 E113.18114
G1 X185.959 Y126 E114.67119
G1 X185.919 Y126.332 E114.68676
G1 X185.802 Y126.644 E114.70228
G1 X185.614 Y126.921 E114.71787
G1 X185.366 Y127.144 E114.7334
G1 X185.072 Y127.303 E114.74896
G1 X184.559 Y127.4 E114.77327
G1 X35.441 Y127.4 E121.71683
G1 X35.109 Y127.36 E121.7324
G1 X34.797 Y127.243 E121.74792
G1 X34.52 Y127.055 E121.76351
G1 X34.297 Y126.807 E121.77904
G1 X34.138 Y126.513 E121.7946
G1 X34.041 Y126 E121.81891
G1 X34.041 Y94 E123.30897
G1 X34.081 Y93.668 E123.32454
G1 X34.198 Y93.356 E123.34005
G1 X34.386 Y93.079 E123.35564
G1 X34.634 Y92.856 E123.37117
G1 X34.928 Y92.697 E123.38673
G0 F9000 X35.016 Y93.095
G1 F3000 X35.441 Y93 E123.40701
G1 X184.559 Y93 E130.35057
G1 X185.095 Y93.156 E130.37657
G1 X185.31 Y93.339 E130.38971
G1 X185.464 Y93.575 E130.40283
G1 X185.559 Y94 E130.42311
G1 X185.559 Y126 E131.91317
G1 X185.519 Y126.279 E131.92629
G1 X185.403 Y126.536 E131.93942
G1 X185.22 Y126.751 E131.95257
G1 X184.984 Y126.905 E131.96569
G1 X184.559 Y127 E131.98597
G1 X35.441 Y127 E138.92953
G1 X35.162 Y126.96 E138.94265
G1 X34.905 Y126.844 E138.95578
G1 X34.69 Y126.661 E138.96893
G1 X34.536 Y126.425 E138.98205
G1 X34.441 Y126 E139.00233
G1 X34.441 Y94 E140.49238
G1 X34.481 Y93.721 E140.5055
G1 X34.597 Y93.464 E140.51863
G1 X34.78 Y93.249 E140.53178
G1 X35.016 Y93.095 E140.5449
G0 F9000 X35.167 Y93.466
G1 F3000 X35.441 Y93.4 E140.55803
G1 X184.559 Y93.4 E147.50158
G1 X184.96 Y93.553 E147.52157
G1 X185.093 Y93.726 E147.53173
G1 X185.159 Y94 E147.54485
G1 X185.159 Y126 E149.03491
G1 X185.119 Y126.215 E149.04509
G1 X185.006 Y126.401 E149.05523
G1 X184.833 Y126.534 E149.06539
G1 X184.559 Y126.6 E149.07851
G1 X35.441 Y126.6 E156.02207
G1 X35.226 Y126.56 E156.03225
G1 X35.04 Y126.447 E156.04239
G1 X34.907 Y126.274 E156.05255
G1 X34.841 Y126 E156.06567
G1 X34.841 Y94 E157.55572
G1 X34.881 Y93.785 E157.56591
G1 X34.994 Y93.599 E157.57604
G1 X35.167 Y93.466 E157.5862
G0 F9000 X35.441 Y93.8
G1 F3000 X184.559 Y93.8 E164.52976
G1 X184.678 Y93.839 E164.53559
G1 X184.759 Y94 E164.54398
G1 X184.759 Y126 E166.03404
G1 X184.72 Y126.119 E166.03987
G1 X184.559 Y126.2 E166.04826
G1 X35.441 Y126.2 E172.99182
G1 X35.322 Y126.161 E172.99765
G1 X35.241 Y126 E173.00604
G1 X35.241 Y94 E174.4961
G1 X35.28 Y93.881 E174.50193
G1 X35.441 Y93.8 E174.51032
G1 F1800 E171.51032
;MESH:USB-SD-MicroSD_Card_Holder_-_v2.0.stl
G0 F9000 X35.855 Y94.414
G0 X35.941 Y125.53
G0 X35.641 Y125.8
;TYPE:WALL-OUTER
G1 F1800 E174.51032
G1 F3000 X35.641 Y94.2 E175.98175
G1 X184.359 Y94.2 E182.90668
G1 X184.359 Y125.8 E184.37811
G1 X35.641 Y125.8 E191.30304
G1 F1800 E188.30304
G0 F9000 X35.911 Y125.53
G0 X36.623 Y118.582
G0 X40.688 Y117.828
G0 X40.76 Y117.6
G0 X40.46 Y117.6
G1 F1800 E191.30304
G1 F3000 X40.46 Y102.34 E192.01361
G1 X37.42 Y102.34 E192.15517
G1 X37.42 Y117.6 E192.86574
G1 X40.46 Y117.6 E193.00729
G0 F9000 X40.86 Y118
;TYPE:WALL-INNER
G1 F3000 X40.86 Y101.94 E193.75511
G1 X37.02 Y101.94 E193.93392
G1 X37.02 Y118 E194.68174
G1 X40.86 Y118 E194.86055
G1 F1800 E191.86055
G0 F9000 X45.328 Y117.828
G0 X45.4 Y117.6
G0 X45.1 Y117.6
;TYPE:WALL-OUTER
G1 F1800 E194.86055
G1 F3000 X45.1 Y102.34 E195.57112
G1 X42.06 Y102.34 E195.71267
G1 X42.06 Y117.6 E196.42324
G1 X45.1 Y117.6 E196.5648
G0 F9000 X45.5 Y118
;TYPE:WALL-INNER
G1 F3000 X45.5 Y101.94 E197.31262
G1 X41.66 Y101.94 E197.49143
G1 X41.66 Y118 E198.23925
G1 X45.5 Y118 E198.41805
G0 F9000 X45.9 Y118.4
G1 F3000 X45.9 Y101.54 E199.20312
G1 X36.62 Y101.54 E199.63524
G1 X36.62 Y118.4 E200.42031
G1 X45.9 Y118.4 E200.85243
G1 F1800 E197.85243
G0 F9000 X49.969 Y117.828
G0 X50.041 Y117.6
G0 X49.741 Y117.6
;TYPE:WALL-OUTER
G1 F1800 E200.85243
G1 F3000 X49.741 Y102.34 E201.563
G1 X46.701 Y102.34 E201.70455
G1 X46.701 Y117.6 E202.41512
G1 X49.741 Y117.6 E202.55668
G0 F9000 X50.141 Y118
;TYPE:WALL-INNER
G1 F3000 X50.141 Y101.94 E203.3045
G1 X46.301 Y101.94 E203.48331
G1 X46.301 Y118 E204.23113
G1 X50.141 Y118 E204.40993
G1 F1800 E201.40993
G0 F9000 X54.609 Y117.828
G0 X54.681 Y117.6
G0 X54.381 Y117.6
;TYPE:WALL-OUTER
G1 F1800 E204.40993
G1 F3000 X54.381 Y102.34 E205.1205
G1 X51.341 Y102.34 E205.26206
G1 X51.341 Y117.6 E205.97263
G1 X54.381 Y117.6 E206.11418
G0 F9000 X54.781 Y118
;TYPE:WALL-INNER
G1 F3000 X54.781 Y101.94 E206.862
G1 X50.941 Y101.94 E207.04081
G1 X50.941 Y118 E207.78863
G1 X54.781 Y118 E207.96744
G1 F1800 E204.96744
G0 F9000 X59.249 Y117.828
G0 X59.321 Y117.6
G0 X59.021 Y117.6
;TYPE:WALL-OUTER
G1 F1800 E207.96744
G1 F3000 X59.021 Y102.34 E208.67801
G1 X55.981 Y102.34 E208.81956
G1 X55.981 Y117.6 E209.53013
G1 X59.021 Y117.6 E209.67169
G0 F9000 X59.421 Y118
;TYPE:WALL-INNER
G1 F3000 X59.421 Y101.94 E210.41951
G1 X55.581 Y101.94 E210.59831
G1 X55.581 Y118 E211.34613
G1 X59.421 Y118 E211.52494
G1 F1800 E208.52494
G0 F9000 X63.889 Y117.828
G0 X63.961 Y117.6
G0 X63.661 Y117.6
;TYPE:WALL-OUTER
G1 F1800 E211.52494
G1 F3000 X63.661 Y102.34 E212.23551
G1 X60.621 Y102.34 E212.37707
G1 X60.621 Y117.6 E213.08763
G1 X63.661 Y117.6 E213.22919
G0 F9000 X64.061 Y118
;TYPE:WALL-INNER
G1 F3000 X64.061 Y101.94 E213.97701
G1 X60.221 Y101.94 E214.15582
G1 X60.221 Y118 E214.90364
G1 X64.061 Y118 E215.08244
G1 F1800 E212.08244
G0 F9000 X68.529 Y117.828
G0 X68.601 Y117.6
G0 X68.301 Y117.6
;TYPE:WALL-OUTER
G1 F1800 E215.08244
G1 F3000 X68.301 Y102.34 E215.79301
G1 X65.261 Y102.34 E215.93457
G1 X65.261 Y117.6 E216.64514
G1 X68.301 Y117.6 E216.78669
G0 F9000 X68.701 Y118
;TYPE:WALL-INNER
G1 F3000 X68.701 Y101.94 E217.53451
G1 X64.861 Y101.94 E217.71332
G1 X64.861 Y118 E218.46114
G1 X68.701 Y118 E218.63995
G1 F1800 E215.63995
G0 F9000 X73.169 Y117.828
G0 X73.241 Y117.6
G0 X72.941 Y117.6
;TYPE:WALL-OUTER
G1 F1800 E218.63995
G1 F3000 X72.941 Y102.34 E219.35052
G1 X69.901 Y102.34 E219.49207
G1 X69.901 Y117.6 E220.20264
G1 X72.941 Y117.6 E220.3442
G0 F9000 X73.341 Y118
;TYPE:WALL-INNER
G1 F3000 X73.341 Y101.94 E221.09202
G1 X69.501 Y101.94 E221.27083
G1 X69.501 Y118 E222.01865
G1 X73.341 Y118 E222.19745
G0 F9000 X73.741 Y118.4
G1 F3000 X73.741 Y101.54 E222.98252
G1 X45.901 Y101.54 E224.27887
G1 X45.901 Y118.4 E224.28084
G1 X73.741 Y118.4 E225.57719
G1 F1800 E222.57719
G0 F9000 X71.814 Y118.57
G0 X71.814 Y116.735
G0 X78.847 Y119.516
G0 X76.992 Y119.524
G0 X78.386 Y121.779
G0 X78.777 Y122.164
G0 X79.233 Y122.465
G0 X79.739 Y122.67
G0 X80.162 Y122.753
G0 X81.392 Y122.727
G0 X81.335 Y122.432
;TYPE:WALL-OUTER
G1 F1800 E225.57719
G1 F3000 X81.796 Y122.238 E225.60048
G1 X82.211 Y121.957 E225.62381
G1 X82.563 Y121.6 E225.64716
G1 X82.838 Y121.183 E225.67042
G1 X83.027 Y120.719 E225.69375
G1 X83.122 Y120.228 E225.71703
G1 X83.132 Y112.827 E226.06166
G1 X83.121 Y112.097 E226.09565
G1 X83.018 Y111.593 E226.11961
G1 X82.824 Y111.132 E226.14289
G1 X82.543 Y110.718 E226.16619
G1 X82.187 Y110.365 E226.18954
G1 X81.769 Y110.09 E226.21284
G1 X81.305 Y109.901 E226.23617
G1 X80.814 Y109.806 E226.25945
G1 X80.285 Y109.807 E226.28409
G1 X79.794 Y109.905 E226.3074
G1 X79.331 Y110.097 E226.33074
G1 X78.914 Y110.375 E226.35408
G1 X78.561 Y110.73 E226.37739
G1 X78.283 Y111.145 E226.40065
G1 X78.091 Y111.608 E226.42399
G1 X77.993 Y112.099 E226.4473
G1 X77.982 Y119.516 E226.79267
G1 X77.993 Y120.245 E226.82662
G1 X78.096 Y120.749 E226.85057
G1 X78.288 Y121.207 E226.87369
G1 X78.571 Y121.625 E226.8972
G1 X78.928 Y121.977 E226.92054
G1 X79.345 Y122.252 E226.9438
G1 X79.808 Y122.44 E226.96707
G1 X80.285 Y122.535 E226.98972
G1 X80.829 Y122.535 E227.01505
G1 X81.335 Y122.432 E227.03909
G0 F9000 X81.454 Y122.816
;TYPE:WALL-INNER
G1 F3000 X81.988 Y122.591 E227.06608
G1 X82.468 Y122.266 E227.09307
G1 X82.875 Y121.853 E227.12007
G1 X83.194 Y121.37 E227.14702
G1 X83.412 Y120.834 E227.17397
G1 X83.522 Y120.267 E227.20086
G1 X83.532 Y112.824 E227.54744
G1 X83.52 Y112.054 E227.5833
G1 X83.402 Y111.474 E227.61086
G1 X83.177 Y110.94 E227.63784
G1 X82.852 Y110.461 E227.66479
