;FLAVOR:Marlin
;TIME:24785
;Filament used: 31.4834m
;Layer height: 0.24
;MINX:68.835
;MINY:53.948
;MINZ:0.24
;MAXX:150.2
;MAXY:166.052
;MAXZ:153.56
;Generated with Cura_SteamEngine 4.5.0
M140 S50
M105
M190 S50
M104 S220
M105
M109 S220
M82 ;absolute extrusion mode
M201 X500.00 Y500.00 Z100.00 E5000.00 ;Setup machine max acceleration
M203 X500.00 Y500.00 Z10.00 E50.00 ;Setup machine max feedrate
M204 P500.00 R1000.00 T500.00 ;Setup Print/Retract/Travel acceleration
M205 X8.00 Y8.00 Z0.40 E5.00 ;Setup Jerk
M220 S100 ;Reset Feedrate
M221 S100 ;Reset Flowrate

G28 ;Home

G92 E0 ;Reset Extruder
G1 Z2.0 F3000 ;Move Z Axis up
G1 X10.1 Y20 Z0.28 F5000.0 ;Move to start position
G1 X10.1 Y200.0 Z0.28 F1500.0 E15 ;Draw the first line
G1 X10.4 Y200.0 Z0.28 F5000.0 ;Move to side a little
G1 X10.4 Y20 Z0.28 F1500.0 E30 ;Draw the second line
G92 E0 ;Reset Extruder
G1 Z2.0 F3000 ;Move Z Axis up

G92 E0
G92 E0
G1 F1800 E-3
;LAYER_COUNT:695
;LAYER:0
M107
;MESH:Object 1
G0 F9000 X71 Y164.852 Z0.24
;TYPE:WALL-INNER
G1 F1800 E0
G1 F3600 X71 Y58.348 E6.0574
G1 X120.658 Y58.348 E8.88169
G1 X148.701 Y58.347 E10.47663
G1 X149 Y58.347 E10.49363
G1 X149 Y58.646 E10.50464
G1 X149 Y164.852 E16.54509
G1 X71 Y164.852 E20.98132
G0 F9000 X70.4 Y165.452
G1 F3600 X70.4 Y57.748 E27.10697
G1 X120.658 Y57.748 E29.96539
G1 X149.301 Y57.747 E31.59445
G1 X149.6 Y57.747 E31.61146
G1 X149.6 Y58.046 E31.62246
G1 X149.6 Y165.452 E37.73116
G1 X70.4 Y165.452 E42.23565
G0 F9000 X69.8 Y166.052
;TYPE:WALL-OUTER
G1 F3600 X69.8 Y57.148 E48.42954
G1 X120.658 Y57.148 E51.32208
G1 X150.2 Y57.147 E53.00228
G1 X150.2 Y166.052 E59.19623
G1 X69.8 Y166.052 E63.76897
G0 F9000 X70.17 Y165.682
G0 X71.21 Y164.262
G0 X71.59 Y164.262
;TYPE:SKIN
G1 F3600 X71.59 Y58.938 E69.75926
G1 X120.658 Y58.938 E72.54999
G1 X148.41 Y58.937 E74.12838
G1 X148.41 Y164.262 E80.11872
G1 X71.59 Y164.262 E84.48785
G0 F9000 X72.38 Y164.021
G1 F3600 X71.829 Y163.47 E84.53216
G0 F9000 X71.829 Y162.621
G1 F3600 X73.228 Y164.021 E84.64473
G0 F9000 X74.077 Y164.021
G1 F3600 X71.829 Y161.773 E84.82554
G0 F9000 X71.829 Y160.924
G1 F3600 X74.925 Y164.021 E85.07461
G0 F9000 X75.774 Y164.021
G1 F3600 X71.829 Y160.076 E85.39191
G0 F9000 X71.829 Y159.227
G1 F3600 X76.622 Y164.021 E85.77747
G0 F9000 X77.471 Y164.021
G1 F3600 X71.829 Y158.379 E86.23127
G0 F9000 X71.829 Y157.53
G1 F3600 X78.319 Y164.021 E86.75333
G0 F9000 X79.168 Y164.021
G1 F3600 X71.829 Y156.682 E87.34363
G0 F9000 X71.829 Y155.833
G1 F3600 X80.016 Y164.021 E88.00217
G0 F9000 X80.865 Y164.021
G1 F3600 X71.829 Y154.985 E88.72897
G0 F9000 X71.829 Y154.136
G1 F3600 X81.713 Y164.021 E89.52401
G0 F9000 X82.562 Y164.021
G1 F3600 X71.829 Y153.288 E90.3873
G0 F9000 X71.829 Y152.439
G1 F3600 X83.411 Y164.021 E91.31887
G0 F9000 X84.259 Y164.021
G1 F3600 X71.829 Y151.59 E92.3187
G0 F9000 X71.829 Y150.742
G1 F3600 X85.108 Y164.021 E93.38677
G0 F9000 X85.956 Y164.021
G1 F3600 X71.829 Y149.893 E94.52309
G0 F9000 X71.829 Y149.045
G1 F3600 X86.805 Y164.021 E95.72766
G0 F9000 X87.653 Y164.021
G1 F3600 X71.829 Y148.196 E97.00047
G0 F9000 X71.829 Y147.348
G1 F3600 X88.502 Y164.021 E98.34153
G0 F9000 X89.35 Y164.021
G1 F3600 X71.829 Y146.499 E99.75084
G0 F9000 X71.829 Y145.651
G1 F3600 X90.199 Y164.021 E101.2284
G0 F9000 X91.047 Y164.021
G1 F3600 X71.829 Y144.802 E102.7742
G0 F9000 X71.829 Y143.954
G1 F3600 X91.896 Y164.021 E104.38826
G0 F9000 X92.744 Y164.021
G1 F3600 X71.829 Y143.105 E106.07056
G0 F9000 X71.829 Y142.257
G1 F3600 X93.593 Y164.021 E107.8211
G0 F9000 X94.441 Y164.021
G1 F3600 X71.829 Y141.408 E109.6399
G0 F9000 X71.829 Y140.56
G1 F3600 X95.29 Y164.021 E111.52694
G0 F9000 X96.138 Y164.021
G1 F3600 X71.829 Y139.711 E113.48223
G0 F9000 X71.829 Y138.863
G1 F3600 X96.987 Y164.021 E115.50577
G0 F9000 X97.836 Y164.021
G1 F3600 X71.829 Y138.014 E117.59759
G0 F9000 X71.829 Y137.165
G1 F3600 X98.684 Y164.021 E119.75766
G0 F9000 X99.533 Y164.021
G1 F3600 X71.829 Y136.317 E121.98598
G0 F9000 X71.829 Y135.468
G1 F3600 X100.381 Y164.021 E124.28255
G0 F9000 X101.23 Y164.021
G1 F3600 X71.829 Y134.62 E126.64737
G0 F9000 X71.829 Y133.771
G1 F3600 X102.078 Y164.021 E129.08043
G0 F9000 X102.927 Y164.021
G1 F3600 X71.829 Y132.923 E131.58174
G0 F9000 X71.829 Y132.074
G1 F3600 X103.775 Y164.021 E134.1513
G0 F9000 X104.624 Y164.021
G1 F3600 X71.829 Y131.226 E136.7891
G0 F9000 X71.829 Y130.377
G1 F3600 X105.472 Y164.021 E139.49516
G0 F9000 X106.321 Y164.021
G1 F3600 X71.829 Y129.529 E142.26946
G0 F9000 X71.829 Y128.68
G1 F3600 X107.169 Y164.021 E145.11201
G0 F9000 X108.018 Y164.021
G1 F3600 X71.829 Y127.832 E148.0228
G0 F9000 X71.829 Y126.983
G1 F3600 X108.866 Y164.021 E151.00184
G0 F9000 X109.715 Y164.021
G1 F3600 X71.829 Y126.135 E154.04913
G0 F9000 X71.829 Y125.286
G1 F3600 X110.563 Y164.021 E157.16467
G0 F9000 X111.412 Y164.021
G1 F3600 X71.829 Y124.438 E160.34846
G0 F9000 X71.829 Y123.589
G1 F3600 X112.26 Y164.021 E163.60049
G0 F9000 X113.109 Y164.021
G1 F3600 X71.829 Y122.741 E166.92077
G0 F9000 X71.829 Y121.892
G1 F3600 X113.958 Y164.021 E170.30934
G0 F9000 X114.806 Y164.021
G1 F3600 X71.829 Y121.043 E173.76616
G0 F9000 X71.829 Y120.195
G1 F3600 X115.655 Y164.021 E177.29122
G0 F9000 X116.503 Y164.021
G1 F3600 X71.829 Y119.346 E180.88453
G0 F9000 X71.829 Y118.498
G1 F3600 X117.352 Y164.021 E184.54609
G0 F9000 X118.2 Y164.021
G1 F3600 X71.829 Y117.649 E188.2759
G0 F9000 X71.829 Y116.801
G1 F3600 X119.049 Y164.021 E192.07395
G0 F9000 X119.897 Y164.021
G1 F3600 X71.829 Y115.952 E195.94025
G0 F9000 X71.829 Y115.104
G1 F3600 X120.746 Y164.021 E199.8748
G0 F9000 X121.594 Y164.021
G1 F3600 X71.829 Y114.255 E203.8776
G0 F9000 X71.829 Y113.407
G1 F3600 X122.443 Y164.021 E207.94864
G0 F9000 X123.291 Y164.021
G1 F3600 X71.829 Y112.558 E212.08793
G0 F9000 X71.829 Y111.71
G1 F3600 X124.14 Y164.021 E216.29547
G0 F9000 X124.988 Y164.021
G1 F3600 X71.829 Y110.861 E220.57126
G0 F9000 X71.829 Y110.013
G1 F3600 X125.837 Y164.021 E224.91529
G0 F9000 X126.685 Y164.021
G1 F3600 X71.829 Y109.164 E229.32757
G0 F9000 X71.829 Y108.316
G1 F3600 X127.534 Y164.021 E233.8081
G0 F9000 X128.383 Y164.021
G1 F3600 X71.829 Y107.467 E238.35692
G0 F9000 X71.829 Y106.618
G1 F3600 X129.231 Y164.021 E242.97398
G0 F9000 X130.08 Y164.021
G1 F3600 X71.829 Y105.77 E247.65929
G0 F9000 X71.829 Y104.921
G1 F3600 X130.928 Y164.021 E252.41285
G0 F9000 X131.777 Y164.021
G1 F3600 X71.829 Y104.073 E257.23466
G0 F9000 X71.829 Y103.224
G1 F3600 X132.625 Y164.021 E262.12471
G0 F9000 X133.474 Y164.021
G1 F3600 X71.829 Y102.376 E267.08302
G0 F9000 X71.829 Y101.527
G1 F3600 X134.322 Y164.021 E272.10957
G0 F9000 X135.171 Y164.021
G1 F3600 X71.829 Y100.679 E277.20436
G0 F9000 X71.829 Y99.83
G1 F3600 X136.019 Y164.021 E282.36741
G0 F9000 X136.868 Y164.021
G1 F3600 X71.829 Y98.982 E287.5987
G0 F9000 X71.829 Y98.133
G1 F3600 X137.716 Y164.021 E292.89824
G0 F9000 X138.565 Y164.021
G1 F3600 X71.829 Y97.285 E298.26603
G0 F9000 X71.829 Y96.436
G1 F3600 X139.413 Y164.021 E303.70206
G0 F9000 X140.262 Y164.021
G1 F3600 X71.829 Y95.588 E309.20634
G0 F9000 X71.829 Y94.739
G1 F3600 X141.11 Y164.021 E314.77887
G0 F9000 X141.959 Y164.021
G1 F3600 X71.829 Y93.891 E320.41965
G0 F9000 X71.829 Y93.042
G1 F3600 X142.807 Y164.021 E326.12868
G0 F9000 X143.656 Y164.021
G1 F3600 X71.829 Y92.193 E331.90599
G0 F9000 X71.829 Y91.345
G1 F3600 X144.505 Y164.021 E337.75155
G0 F9000 X145.353 Y164.021
G1 F3600 X71.829 Y90.496 E343.66536
G0 F9000 X71.829 Y89.648
G1 F3600 X146.202 Y164.021 E349.64741
G0 F9000 X147.05 Y164.021
G1 F3600 X71.829 Y88.799 E355.69771
G0 F9000 X71.829 Y87.951
G1 F3600 X147.899 Y164.021 E361.81626
G0 F9000 X148.169 Y163.443
G1 F3600 X71.829 Y87.102 E367.95657
G0 F9000 X71.829 Y86.254
G1 F3600 X148.169 Y162.594 E374.09684
G0 F9000 X148.169 Y161.746
G1 F3600 X71.829 Y85.405 E380.23715
G0 F9000 X71.829 Y84.557
G1 F3600 X148.169 Y160.897 E386.37741
G0 F9000 X148.169 Y160.049
G1 F3600 X71.829 Y83.708 E392.51772
G0 F9000 X71.829 Y82.86
G1 F3600 X148.169 Y159.2 E398.65799
G0 F9000 X148.169 Y158.352
G1 F3600 X71.829 Y82.011 E404.7983
G0 F9000 X71.829 Y81.163
G1 F3600 X148.169 Y157.503 E410.93856
G0 F9000 X148.169 Y156.655
G1 F3600 X71.829 Y80.314 E417.07887
G0 F9000 X71.829 Y79.466
G1 F3600 X148.169 Y155.806 E423.21914
G0 F9000 X148.169 Y154.958
G1 F3600 X71.829 Y78.617 E429.35945
G0 F9000 X71.829 Y77.769
G1 F3600 X148.169 Y154.109 E435.49971
G0 F9000 X148.169 Y153.261
G1 F3600 X71.829 Y76.92 E441.64002
G0 F9000 X71.829 Y76.071
G1 F3600 X148.169 Y152.412 E447.78033
G0 F9000 X148.169 Y151.564
G1 F3600 X71.829 Y75.223 E453.92063
G0 F9000 X71.829 Y74.374
G1 F3600 X148.169 Y150.715 E460.06094
G0 F9000 X148.169 Y149.867
G1 F3600 X71.829 Y73.526 E466.20125
G0 F9000 X71.829 Y72.677
G1 F3600 X148.169 Y149.018 E472.34156
G0 F9000 X148.169 Y148.169
G1 F3600 X71.829 Y71.829 E478.48182
G0 F9000 X71.829 Y70.98
G1 F3600 X148.169 Y147.321 E484.62213
G0 F9000 X148.169 Y146.472
G1 F3600 X71.829 Y70.132 E490.7624
G0 F9000 X71.829 Y69.283
G1 F3600 X148.169 Y145.624 E496.90271
G0 F9000 X148.169 Y144.775
G1 F3600 X71.829 Y68.435 E503.04297
G0 F9000 X71.829 Y67.586
G1 F3600 X148.169 Y143.927 E509.18328
G0 F9000 X148.169 Y143.078
G1 F3600 X71.829 Y66.738 E515.32355
G0 F9000 X71.829 Y65.889
G1 F3600 X148.169 Y142.23 E521.46386
G0 F9000 X148.169 Y141.381
G1 F3600 X71.829 Y65.041 E527.60412
G0 F9000 X71.829 Y64.192
G1 F3600 X148.169 Y140.533 E533.74443
G0 F9000 X148.169 Y139.684
G1 F3600 X71.829 Y63.344 E539.8847
G0 F9000 X71.829 Y62.495
G1 F3600 X148.169 Y138.836 E546.02501
G0 F9000 X148.169 Y137.987
G1 F3600 X71.829 Y61.646 E552.16531
G0 F9000 X71.829 Y60.798
G1 F3600 X148.169 Y137.139 E558.30562
G0 F9000 X148.169 Y136.29
G1 F3600 X71.829 Y59.949 E564.44593
G0 F9000 X71.906 Y59.178
G1 F3600 X148.169 Y135.442 E570.58004
G0 F9000 X148.169 Y134.593
G1 F3600 X72.754 Y59.178 E576.64591
G0 F9000 X73.603 Y59.178
G1 F3600 X148.169 Y133.745 E582.64353
G0 F9000 X148.169 Y132.896
G1 F3600 X74.451 Y59.178 E588.5729
G0 F9000 X75.3 Y59.178
G1 F3600 X148.169 Y132.047 E594.43398
G0 F9000 X148.169 Y131.199
G1 F3600 X76.149 Y59.178 E600.22682
G0 F9000 X76.997 Y59.178
G1 F3600 X148.169 Y130.35 E605.95141
G0 F9000 X148.169 Y129.502
G1 F3600 X77.846 Y59.178 E611.60775
G0 F9000 X78.694 Y59.178
G1 F3600 X148.169 Y128.653 E617.19584
G0 F9000 X148.169 Y127.805
G1 F3600 X79.543 Y59.178 E622.71569
G0 F9000 X80.391 Y59.178
G1 F3600 X148.169 Y126.956 E628.16729
G0 F9000 X148.169 Y126.108
G1 F3600 X81.24 Y59.178 E633.55064
G0 F9000 X82.088 Y59.178
G1 F3600 X148.169 Y125.259 E638.86574
G0 F9000 X148.169 Y124.411
G1 F3600 X82.937 Y59.178 E644.1126
G0 F9000 X83.785 Y59.178
G1 F3600 X148.169 Y123.562 E649.29121
G0 F9000 X148.169 Y122.714
G1 F3600 X84.634 Y59.178 E654.40157
G0 F9000 X85.482 Y59.178
G1 F3600 X148.169 Y121.865 E659.44368
G0 F9000 X148.169 Y121.017
G1 F3600 X86.331 Y59.178 E664.41755
G0 F9000 X87.179 Y59.178
G1 F3600 X148.169 Y120.168 E669.32316
G0 F9000 X148.169 Y119.32
G1 F3600 X88.028 Y59.178 E674.16053
G0 F9000 X88.876 Y59.178
G1 F3600 X148.169 Y118.471 E678.92966
G0 F9000 X148.169 Y117.622
G1 F3600 X89.725 Y59.178 E683.63049
G0 F9000 X90.574 Y59.178
G1 F3600 X148.169 Y116.774 E688.26308
G0 F9000 X148.169 Y115.925
G1 F3600 X91.422 Y59.178 E692.82742
G0 F9000 X92.271 Y59.178
G1 F3600 X148.169 Y115.077 E697.32351
G0 F9000 X148.169 Y114.228
G1 F3600 X93.119 Y59.178 E701.75136
G0 F9000 X93.968 Y59.178
G1 F3600 X148.169 Y113.38 E706.11096
G0 F9000 X148.169 Y112.531
G1 F3600 X94.816 Y59.178 E710.40231
G0 F9000 X95.665 Y59.178
G1 F3600 X148.169 Y111.683 E714.62541
G0 F9000 X148.169 Y110.834
G1 F3600 X96.513 Y59.178 E718.78027
G0 F9000 X97.362 Y59.178
G1 F3600 X148.169 Y109.986 E722.86687
G0 F9000 X148.169 Y109.137
G1 F3600 X98.21 Y59.178 E726.88523
G0 F9000 X99.059 Y59.178
G1 F3600 X148.169 Y108.289 E730.83535
G0 F9000 X148.169 Y107.44
G1 F3600 X99.907 Y59.178 E734.71721
G0 F9000 X100.756 Y59.178
G1 F3600 X148.169 Y106.592 E738.53083
G0 F9000 X148.169 Y105.743
G1 F3600 X101.604 Y59.178 E742.2762
G0 F9000 X102.453 Y59.178
G1 F3600 X148.169 Y104.895 E745.95332
G0 F9000 X148.169 Y104.046
G1 F3600 X103.301 Y59.178 E749.5622
G0 F9000 X104.15 Y59.178
G1 F3600 X148.169 Y103.197 E753.10278
G0 F9000 X148.169 Y102.349
G1 F3600 X104.998 Y59.178 E756.57516
G0 F9000 X105.847 Y59.178
G1 F3600 X148.169 Y101.5 E759.97925
G0 F9000 X148.169 Y100.652
G1 F3600 X106.696 Y59.178 E763.3151
G0 F9000 X107.544 Y59.178
G1 F3600 X148.169 Y99.803 E766.5827
G0 F9000 X148.169 Y98.955
G1 F3600 X108.393 Y59.178 E769.78205
G0 F9000 X109.241 Y59.178
G1 F3600 X148.169 Y98.106 E772.91315
G0 F9000 X148.169 Y97.258
G1 F3600 X110.09 Y59.178 E775.976
G0 F9000 X110.938 Y59.178
G1 F3600 X148.169 Y96.409 E778.97061
G0 F9000 X148.169 Y95.561
G1 F3600 X111.787 Y59.178 E781.89697
G0 F9000 X112.635 Y59.178
G1 F3600 X148.169 Y94.712 E784.75508
G0 F9000 X148.169 Y93.864
G1 F3600 X113.484 Y59.178 E787.54494
G0 F9000 X114.332 Y59.178
G1 F3600 X148.169 Y93.015 E790.26656
G0 F9000 X148.169 Y92.167
G1 F3600 X115.181 Y59.178 E792.91993
G0 F9000 X116.029 Y59.178
G1 F3600 X148.169 Y91.318 E795.50505
G0 F9000 X148.169 Y90.47
G1 F3600 X116.878 Y59.178 E798.02193
G0 F9000 X117.726 Y59.178
G1 F3600 X148.169 Y89.621 E800.47055
G0 F9000 X148.169 Y88.773
G1 F3600 X118.575 Y59.178 E802.85093
G0 F9000 X119.423 Y59.178
G1 F3600 X148.169 Y87.924 E805.16306
G0 F9000 X148.169 Y87.075
G1 F3600 X120.272 Y59.178 E807.40691
G0 F9000 X121.121 Y59.178
G1 F3600 X148.169 Y86.227 E809.5825
G0 F9000 X148.169 Y85.378
G1 F3600 X121.969 Y59.178 E811.68985
G0 F9000 X122.818 Y59.178
G1 F3600 X148.169 Y84.53 E813.72895
G0 F9000 X148.169 Y83.681
G1 F3600 X123.666 Y59.178 E815.69981
G0 F9000 X124.515 Y59.178
G1 F3600 X148.169 Y82.833 E817.60241
G0 F9000 X148.169 Y81.984
G1 F3600 X125.363 Y59.178 E819.43677
G0 F9000 X126.212 Y59.178
G1 F3600 X148.169 Y81.136 E821.20288
G0 F9000 X148.169 Y80.287
G1 F3600 X127.06 Y59.178 E822.90075
G0 F9000 X127.909 Y59.178
G1 F3600 X148.169 Y79.439 E824.53036
G0 F9000 X148.169 Y78.59
G1 F3600 X128.757 Y59.178 E826.09173
G0 F9000 X129.606 Y59.178
G1 F3600 X148.169 Y77.742 E827.58485
G0 F9000 X148.169 Y76.893
G1 F3600 X130.454 Y59.178 E829.00972
G0 F9000 X131.303 Y59.178
G1 F3600 X148.169 Y76.045 E830.36635
G0 F9000 X148.169 Y75.196
G1 F3600 X132.151 Y59.178 E831.65473
G0 F9000 X133 Y59.178
G1 F3600 X148.169 Y74.348 E832.87486
G0 F9000 X148.169 Y73.499
G1 F3600 X133.848 Y59.178 E834.02674
G0 F9000 X134.696 Y59.177
G1 F3600 X148.169 Y72.65 E835.11042
G0 F9000 X148.169 Y71.802
G1 F3600 X135.545 Y59.177 E836.12585
G0 F9000 X136.393 Y59.177
G1 F3600 X148.169 Y70.953 E837.07303
G0 F9000 X148.169 Y70.105
G1 F3600 X137.242 Y59.177 E837.95196
G0 F9000 X138.09 Y59.177
G1 F3600 X148.169 Y69.256 E838.76265
G0 F9000 X148.169 Y68.408
G1 F3600 X138.939 Y59.177 E839.50509
G0 F9000 X139.787 Y59.177
G1 F3600 X148.169 Y67.559 E840.17928
G0 F9000 X148.169 Y66.711
G1 F3600 X140.636 Y59.177 E840.78522
G0 F9000 X141.484 Y59.177
G1 F3600 X148.169 Y65.862 E841.32292
G0 F9000 X148.169 Y65.014
G1 F3600 X142.333 Y59.177 E841.79236
G0 F9000 X143.182 Y59.177
G1 F3600 X148.169 Y64.165 E842.19352
G0 F9000 X148.169 Y63.317
G1 F3600 X144.03 Y59.177 E842.52648
G0 F9000 X144.879 Y59.177
G1 F3600 X148.169 Y62.468 E842.79114
G0 F9000 X148.169 Y61.62
G1 F3600 X145.727 Y59.177 E842.9876
G0 F9000 X146.576 Y59.177
G1 F3600 X148.169 Y60.771 E843.11577
G0 F9000 X148.169 Y59.923
G1 F3600 X147.424 Y59.177 E843.17573
G0 F9000 X147.424 Y58.057
G1 F1800 E840.17573
;MESH:NONMESH
G0 F300 X147.424 Y58.057 Z0.44
G0 F9000 X71.282 Y58.63
G0 X71 Y164.852
;TIME_ELAPSED:287.684898
;LAYER:1
M140 S40
M106 S31.9
;TYPE:WALL-INNER
;MESH:Object 1
G1 F1800 E843.17573
G1 F3600 X71 Y57.902 E848.2447
G1 X148.701 Y57.901 E851.9274
G1 X149 Y57.901 E851.94157
G1 X149 Y58.2 E851.95074
G1 X149 Y164.852 E857.00558
G1 X71 Y164.852 E860.70245
G0 F9000 X70.4 Y165.452
G1 F3600 X70.4 Y57.302 E865.82829
G1 X149.301 Y57.301 E869.56786
G1 X149.6 Y57.301 E869.58203
G1 X149.6 Y57.6 E869.5912
G1 X149.6 Y165.452 E874.70292
G1 X70.4 Y165.452 E878.45666
G0 F9000 X69.8 Y166.052
;TYPE:WALL-OUTER
G1 F3600 X69.8 Y56.702 E883.63938
G1 X150.2 Y56.701 E887.44999
G1 X150.2 Y166.052 E892.63276
