;FLAVOR:Marlin
;TIME:3440
;Filament used: 2.22611m
;Layer height: 0.2
;MINX:137.003
;MINY:78.871
;MINZ:0.2
;MAXX:202.698
;MAXY:126.637
;MAXZ:30.8
;Generated with Cura_SteamEngine 4.4.1
M140 S80
M105
M190 S80
M104 S240
M105
M109 S240
M82 ;absolute extrusion mode
M201 X500.00 Y500.00 Z100.00 E5000.00 ;Setup machine max acceleration
M203 X500.00 Y500.00 Z10.00 E50.00 ;Setup machine max feedrate
M204 P500.00 R1000.00 T500.00 ;Setup Print/Retract/Travel acceleration
M205 X8.00 Y8.00 Z0.40 E5.00 ;Setup Jerk
M220 S100 ;Reset Feedrate
M221 S100 ;Reset Flowrate

G28 ;Home

G92 E0 ;Reset Extruder
G1 Z2.0 F3000 ;Move Z Axis up
G1 X10.1 Y20 Z0.28 F5000.0 ;Move to start position
G1 X10.1 Y200.0 Z0.28 F1500.0 E15 ;Draw the first line
G1 X10.4 Y200.0 Z0.28 F5000.0 ;Move to side a little
G1 X10.4 Y20 Z0.28 F1500.0 E30 ;Draw the second line
G92 E0 ;Reset Extruder
G1 Z2.0 F3000 ;Move Z Axis up

G92 E0
G92 E0
G1 F1500 E-6
;LAYER_COUNT:154
;LAYER:0
M107
G0 F6000 X139.259 Y99.609 Z0.2
;TYPE:SKIRT
G1 F1500 E0
G1 F1200 X139.358 Y99.478 E0.00546
G1 X139.955 Y98.754 E0.03667
G1 X140.611 Y98.084 E0.06786
G1 X141.322 Y97.473 E0.09904
G1 X142.083 Y96.924 E0.13025
G1 X142.887 Y96.442 E0.16143
G1 X143.73 Y96.03 E0.19264
G1 X144.63 Y95.683 E0.22472
G1 X144.88 Y95.599 E0.23349
G1 X145.63 Y95.376 E0.25951
G1 X146.851 Y95.06 E0.30146
G1 X148.894 Y94.51 E0.37183
G1 X151.273 Y93.802 E0.45439
G1 X153.674 Y93.013 E0.53845
G1 X156.047 Y92.157 E0.62235
G1 X158.367 Y91.246 E0.70525
G1 X160.722 Y90.243 E0.79039
G1 X162.988 Y89.201 E0.87334
G1 X165.239 Y88.089 E0.95685
G1 X167.461 Y86.911 E1.04049
G1 X169.676 Y85.655 E1.12518
G1 X171.81 Y84.365 E1.20812
G1 X173.94 Y82.994 E1.29237
G1 X176.175 Y81.459 E1.38255
G1 X176.861 Y80.974 E1.4105
G1 X177.649 Y80.465 E1.4417
G1 X178.477 Y80.025 E1.47288
G1 X178.941 Y79.817 E1.4898
G1 X179.088 Y79.755 E1.4951
G1 X179.967 Y79.427 E1.52631
G1 X180.871 Y79.176 E1.55751
G1 X181.792 Y79.003 E1.58868
G1 X183.165 Y78.892 E1.6345
G1 X184.222 Y78.873 E1.66966
G1 X184.436 Y78.871 E1.67678
G1 X185.127 Y78.872 E1.69976
G1 X185.298 Y78.874 E1.70545
G1 X186.044 Y78.887 E1.73026
G1 X190.656 Y78.871 E1.88366
G1 X190.834 Y78.872 E1.88958
G1 X191.536 Y78.881 E1.91293
G1 X192.472 Y78.933 E1.94411
G1 X193.401 Y79.064 E1.97531
G1 X194.315 Y79.275 E2.00651
G1 X195.208 Y79.562 E2.03771
G1 X195.954 Y79.869 E2.06454
G1 X196.156 Y79.961 E2.07192
G1 X196.992 Y80.386 E2.10312
G1 X197.789 Y80.881 E2.13432
G1 X198.541 Y81.441 E2.16551
G1 X199.243 Y82.064 E2.19672
G1 X199.889 Y82.744 E2.22792
G1 X200.474 Y83.476 E2.25908
G1 X200.995 Y84.256 E2.29028
G1 X201.448 Y85.077 E2.32147
G1 X201.777 Y85.804 E2.34801
G1 X201.872 Y86.036 E2.35635
G1 X202.19 Y86.918 E2.38753
G1 X202.431 Y87.824 E2.41871
G1 X202.595 Y88.748 E2.44993
G1 X202.691 Y90.087 E2.49458
G1 X202.697 Y90.649 E2.51327
G1 X202.698 Y90.767 E2.51719
G1 X202.697 Y104.135 E2.96182
G1 X202.696 Y104.291 E2.96701
G1 X202.686 Y104.993 E2.99036
G1 X202.659 Y105.615 E3.01106
G1 X202.633 Y105.981 E3.02327
G1 X202.613 Y106.233 E3.03168
G1 X202.576 Y106.626 E3.0448
G1 X202.561 Y106.773 E3.04972
G1 X202.487 Y107.46 E3.0727
G1 X202.347 Y108.387 E3.10388
G1 X202.063 Y109.518 E3.14267
G1 X201.838 Y110.249 E3.16811
G1 X201.794 Y110.389 E3.17299
G1 X201.656 Y110.817 E3.18794
G1 X201.606 Y110.968 E3.19323
G1 X201.367 Y111.674 E3.21803
G1 X201.029 Y112.549 E3.24922
G1 X200.617 Y113.392 E3.28043
G1 X200.303 Y113.934 E3.30127
G1 X199.758 Y114.815 E3.33572
G1 X199.633 Y115.012 E3.34348
G1 X199.139 Y115.774 E3.37369
G1 X198.596 Y116.538 E3.40486
G1 X197.989 Y117.254 E3.43608
G1 X197.51 Y117.741 E3.4588
G1 X196.647 Y118.566 E3.49851
G1 X196.491 Y118.713 E3.50564
G1 X195.945 Y119.215 E3.53031
G1 X195.228 Y119.819 E3.56149
G1 X194.067 Y120.604 E3.6081
G1 X193.52 Y120.925 E3.6292
G1 X193.262 Y121.072 E3.63907
G1 X192.685 Y121.39 E3.66099
G1 X192.536 Y121.471 E3.66663
G1 X191.941 Y121.787 E3.68903
G1 X191.094 Y122.191 E3.72025
G1 X190.217 Y122.522 E3.75142
G1 X189.642 Y122.693 E3.77138
G1 X188.543 Y122.989 E3.80923
G1 X188.315 Y123.048 E3.81706
G1 X187.532 Y123.241 E3.84389
G1 X186.612 Y123.427 E3.87511
G1 X185.617 Y123.538 E3.9084
G1 X185.299 Y123.559 E3.919
G1 X185.109 Y123.574 E3.92534
G1 X184.456 Y123.607 E3.94709
G1 X182.603 Y123.645 E4.00873
G1 X180.06 Y123.727 E4.09336
G1 X177.529 Y123.88 E4.17769
G1 X175.026 Y124.102 E4.26127
G1 X172.527 Y124.396 E4.34496
G1 X170.03 Y124.761 E4.42889
G1 X167.556 Y125.195 E4.51244
G1 X165.116 Y125.694 E4.59527
G1 X162.439 Y126.322 E4.68672
G1 X161.517 Y126.497 E4.71794
G1 X160.221 Y126.609 E4.7612
G1 X159.515 Y126.628 E4.78469
G1 X159.281 Y126.632 E4.79248
G1 X158.391 Y126.637 E4.82208
G1 X149.063 Y126.637 E5.13233
G1 X148.912 Y126.636 E5.13735
G1 X148.258 Y126.627 E5.15911
G1 X147.321 Y126.574 E5.19032
G1 X146.393 Y126.442 E5.2215
G1 X145.715 Y126.293 E5.24459
G1 X145.521 Y126.244 E5.25124
G1 X144.623 Y125.976 E5.28241
G1 X143.75 Y125.632 E5.31362
G1 X142.91 Y125.215 E5.34481
G1 X142.108 Y124.728 E5.37602
G1 X141.351 Y124.175 E5.4072
G1 X140.644 Y123.559 E5.43839
G1 X140.194 Y123.106 E5.45963
G1 X140.072 Y122.976 E5.46555
G1 X139.46 Y122.266 E5.49673
G1 X138.911 Y121.506 E5.52791
G1 X138.428 Y120.701 E5.55914
G1 X138.016 Y119.859 E5.59032
G1 X137.677 Y118.985 E5.6215
G1 X137.413 Y118.084 E5.65272
G1 X137.228 Y117.165 E5.6839
G1 X137.138 Y116.44 E5.7082
G1 X137.101 Y116.031 E5.72186
G1 X137.057 Y115.162 E5.7508
G1 X137.051 Y114.619 E5.76886
G1 X137.05 Y114.51 E5.77249
G1 X137.049 Y113.648 E5.80116
G1 X137.05 Y113.477 E5.80684
G1 X137.057 Y112.954 E5.82424
G1 X137.04 Y109.394 E5.94265
G1 X137.01 Y108.101 E5.98567
G1 X137.007 Y107.895 E5.99252
G1 X137.003 Y107.066 E6.02009
G1 X137.004 Y106.887 E6.02604
G1 X137.011 Y106.277 E6.04633
G1 X137.061 Y105.34 E6.07754
G1 X137.139 Y104.725 E6.09816
G1 X137.164 Y104.563 E6.10361
G1 X137.346 Y103.643 E6.13481
G1 X137.606 Y102.742 E6.166
G1 X137.942 Y101.867 E6.19717
G1 X138.351 Y101.023 E6.22837
G1 X138.831 Y100.217 E6.25957
G1 X139.259 Y99.609 E6.2843
G0 F6000 X139.578 Y99.85
G1 F1200 X139.677 Y99.719 E6.28976
G1 X140.264 Y99.009 E6.3204
G1 X140.91 Y98.353 E6.35102
G1 X141.61 Y97.756 E6.38162
G1 X142.359 Y97.221 E6.41223
G1 X143.153 Y96.753 E6.44289
G1 X143.983 Y96.356 E6.47349
G1 X144.758 Y96.062 E6.50106
G1 X145.008 Y95.978 E6.50983
G1 X145.73 Y95.764 E6.53488
G1 X146.958 Y95.446 E6.57707
G1 X148.962 Y94.907 E6.64609
G1 X151.407 Y94.179 E6.73094
G1 X153.798 Y93.393 E6.81465
G1 X156.18 Y92.533 E6.89888
G1 X158.534 Y91.61 E6.98298
G1 X160.867 Y90.616 E7.06733
G1 X163.153 Y89.565 E7.15101
G1 X165.424 Y88.443 E7.23526
G1 X167.682 Y87.247 E7.32024
G1 X169.86 Y86.012 E7.40352
G1 X172.028 Y84.7 E7.4878
G1 X174.138 Y83.343 E7.57124
G1 X176.427 Y81.771 E7.6636
G1 X177.092 Y81.3 E7.69071
G1 X177.866 Y80.801 E7.72133
G1 X179.097 Y80.185 E7.76712
G1 X179.244 Y80.123 E7.77242
G1 X180.107 Y79.803 E7.80304
G1 X180.994 Y79.558 E7.83364
G1 X181.9 Y79.391 E7.86429
G1 X183.172 Y79.292 E7.90672
G1 X184.229 Y79.273 E7.94188
G1 X184.435 Y79.271 E7.94873
G1 X185.126 Y79.272 E7.97172
G1 X185.291 Y79.274 E7.9772
G1 X186.038 Y79.287 E8.00205
G1 X190.657 Y79.271 E8.15568
G1 X190.829 Y79.272 E8.1614
G1 X191.531 Y79.281 E8.18475
G1 X192.45 Y79.333 E8.21537
G1 X193.361 Y79.464 E8.24598
G1 X194.258 Y79.674 E8.27662
G1 X195.133 Y79.961 E8.30725
G1 X195.789 Y80.233 E8.33087
G1 X195.991 Y80.325 E8.33825
G1 X196.811 Y80.743 E8.36887
G1 X197.592 Y81.23 E8.39948
G1 X198.328 Y81.783 E8.4301
G1 X199.013 Y82.398 E8.46072
G1 X199.642 Y83.07 E8.49133
G1 X200.211 Y83.795 E8.52198
G1 X200.714 Y84.565 E8.55257
G1 X201.149 Y85.377 E8.58321
G1 X201.406 Y85.955 E8.60425
G1 X201.501 Y86.187 E8.61259
G1 X201.813 Y87.054 E8.64324
G1 X202.048 Y87.944 E8.67385
G1 X202.205 Y88.851 E8.70447
G1 X202.291 Y90.091 E8.74581
G1 X202.297 Y90.653 E8.7645
G1 X202.298 Y90.767 E8.76829
G1 X202.297 Y104.135 E9.21292
G1 X202.296 Y104.285 E9.2179
G1 X202.286 Y104.987 E9.24126
G1 X202.26 Y105.587 E9.26123
G1 X202.234 Y105.953 E9.27343
G1 X202.214 Y106.196 E9.28154
G1 X202.177 Y106.589 E9.29467
G1 X202.163 Y106.73 E9.29939
G1 X202.089 Y107.417 E9.32237
G1 X201.951 Y108.327 E9.35298
G1 X201.681 Y109.4 E9.38978
G1 X201.456 Y110.131 E9.41522
G1 X201.414 Y110.266 E9.41992
G1 X201.276 Y110.694 E9.43488
G1 X201.227 Y110.84 E9.44
G1 X200.988 Y111.546 E9.46479
G1 X200.655 Y112.404 E9.4954
G1 X200.249 Y113.231 E9.52605
G1 X199.963 Y113.724 E9.545
G1 X199.418 Y114.605 E9.57946
G1 X199.297 Y114.794 E9.58692
G1 X198.803 Y115.556 E9.61713
G1 X198.27 Y116.306 E9.64773
G1 X197.673 Y117.007 E9.67835
G1 X197.234 Y117.452 E9.69914
G1 X196.371 Y118.277 E9.73885
G1 X196.22 Y118.418 E9.74573
G1 X195.674 Y118.92 E9.77039
G1 X194.97 Y119.513 E9.80101
G1 X193.865 Y120.259 E9.84535
G1 X193.318 Y120.58 E9.86645
G1 X193.069 Y120.721 E9.87597
G1 X192.492 Y121.039 E9.89788
G1 X192.348 Y121.118 E9.90334
G1 X191.753 Y121.434 E9.92575
G1 X190.922 Y121.83 E9.95637
G1 X190.059 Y122.152 E9.987
G1 X189.538 Y122.307 E10.00508
G1 X188.439 Y122.603 E10.04294
G1 X188.219 Y122.66 E10.05049
G1 X187.436 Y122.853 E10.07732
G1 X186.533 Y123.034 E10.10795
G1 X185.591 Y123.138 E10.13947
G1 X185.309 Y123.156 E10.14887
G1 X185.077 Y123.175 E10.15661
G1 X184.447 Y123.207 E10.17759
G1 X182.667 Y123.243 E10.23681
G1 X180.024 Y123.328 E10.32476
G1 X177.506 Y123.481 E10.40866
G1 X174.981 Y123.705 E10.49297
G1 X172.455 Y124.002 E10.57757
G1 X169.975 Y124.365 E10.66093
G1 X167.479 Y124.802 E10.74521
G1 X165.042 Y125.301 E10.82795
G1 X162.347 Y125.933 E10.92002
G1 X161.443 Y126.104 E10.95062
G1 X160.21 Y126.209 E10.99177
G1 X159.504 Y126.228 E11.01526
G1 X159.279 Y126.232 E11.02275
G1 X158.389 Y126.237 E11.05235
G1 X149.063 Y126.237 E11.36254
G1 X148.917 Y126.236 E11.36739
G1 X148.263 Y126.227 E11.38915
G1 X147.344 Y126.174 E11.41976
G1 X146.433 Y126.042 E11.45038
G1 X145.813 Y125.905 E11.4715
G1 X145.619 Y125.856 E11.47815
G1 X144.737 Y125.592 E11.50877
G1 X143.881 Y125.253 E11.5394
G1 X143.058 Y124.84 E11.57002
G1 X142.274 Y124.358 E11.60063
G1 X141.535 Y123.809 E11.63125
G1 X140.846 Y123.199 E11.66186
G1 X140.486 Y122.833 E11.67893
G1 X140.364 Y122.703 E11.68486
G1 X139.763 Y122.005 E11.7155
G1 X139.226 Y121.257 E11.74613
G1 X138.755 Y120.466 E11.77674
G1 X138.355 Y119.637 E11.80736
G1 X138.029 Y118.776 E11.83798
G1 X137.778 Y117.89 E11.86861
G1 X137.605 Y116.986 E11.89922
G1 X137.536 Y116.404 E11.91871
G1 X137.499 Y115.995 E11.93237
G1 X137.457 Y115.157 E11.96028
G1 X137.451 Y114.614 E11.97834
G1 X137.45 Y114.509 E11.98183
G1 X137.449 Y113.647 E12.0105
G1 X137.45 Y113.483 E12.01596
G1 X137.458 Y112.958 E12.03342
G1 X137.44 Y109.383 E12.15233
G1 X137.41 Y108.092 E12.19528
G1 X137.407 Y107.893 E12.2019
G1 X137.403 Y107.064 E12.22947
G1 X137.404 Y106.891 E12.23523
G1 X137.411 Y106.281 E12.25552
G1 X137.461 Y105.362 E12.28613
G1 X137.534 Y104.786 E12.30544
G1 X137.559 Y104.624 E12.31089
G1 X137.739 Y103.721 E12.34152
G1 X137.996 Y102.837 E12.37213
G1 X138.329 Y101.979 E12.40275
G1 X138.736 Y101.153 E12.43337
G1 X139.212 Y100.365 E12.46399
G1 X139.578 Y99.85 E12.48501
G0 F6000 X139.897 Y100.091
G1 F1200 X139.996 Y99.96 E12.49047
G1 X140.572 Y99.265 E12.52049
G1 X141.207 Y98.623 E12.55052
G1 X141.897 Y98.039 E12.58059
G1 X142.635 Y97.519 E12.61062
G1 X143.417 Y97.066 E12.64068
G1 X144.235 Y96.685 E12.67069
G1 X144.885 Y96.441 E12.69378
G1 X145.135 Y96.357 E12.70255
G1 X145.83 Y96.151 E12.72666
G1 X147.065 Y95.831 E12.76909
G1 X149.065 Y95.293 E12.83798
G1 X151.541 Y94.556 E12.9239
G1 X153.922 Y93.773 E13.00727
G1 X156.346 Y92.899 E13.09297
G1 X158.67 Y91.987 E13.17601
G1 X161.026 Y90.983 E13.26119
G1 X163.334 Y89.922 E13.34567
G1 X165.625 Y88.79 E13.43067
G1 X167.845 Y87.613 E13.51424
G1 X170.058 Y86.359 E13.59884
G1 X172.255 Y85.03 E13.68424
G1 X174.366 Y83.671 E13.76774
G1 X176.646 Y82.106 E13.85972
G1 X177.323 Y81.627 E13.88731
G1 X178.082 Y81.138 E13.91734
G1 X179.252 Y80.554 E13.96083
G1 X179.399 Y80.492 E13.96614
G1 X180.246 Y80.178 E13.99618
G1 X181.117 Y79.94 E14.02621
G1 X182.006 Y79.781 E14.05625
G1 X183.18 Y79.692 E14.09541
G1 X184.237 Y79.673 E14.13057
G1 X184.435 Y79.671 E14.13716
G1 X185.126 Y79.672 E14.16014
G1 X185.285 Y79.673 E14.16543
G1 X186.082 Y79.687 E14.19194
G1 X190.658 Y79.671 E14.34414
G1 X190.824 Y79.672 E14.34966
G1 X191.526 Y79.681 E14.37301
G1 X192.427 Y79.732 E14.40303
G1 X193.321 Y79.863 E14.43308
G1 X194.199 Y80.073 E14.4631
G1 X195.056 Y80.36 E14.49316
G1 X195.623 Y80.597 E14.5136
G1 X195.825 Y80.689 E14.52099
G1 X196.629 Y81.1 E14.55102
G1 X197.394 Y81.58 E14.58106
G1 X198.114 Y82.125 E14.61109
G1 X198.782 Y82.733 E14.64113
G1 X199.395 Y83.396 E14.67117
G1 X199.946 Y84.112 E14.70122
G1 X200.431 Y84.873 E14.73123
G1 X200.848 Y85.675 E14.7613
G1 X201.036 Y86.107 E14.77697
G1 X201.131 Y86.339 E14.7853
G1 X201.436 Y87.189 E14.81534
G1 X201.665 Y88.063 E14.84539
G1 X201.815 Y88.953 E14.87541
G1 X201.891 Y90.095 E14.91348
G1 X201.897 Y90.657 E14.93217
G1 X201.898 Y90.767 E14.93583
G1 X201.897 Y104.135 E15.38045
G1 X201.896 Y104.279 E15.38524
G1 X201.886 Y104.981 E15.40859
G1 X201.861 Y105.559 E15.42783
G1 X201.835 Y105.925 E15.44004
G1 X201.816 Y106.158 E15.44781
G1 X201.779 Y106.551 E15.46094
G1 X201.765 Y106.687 E15.46549
G1 X201.691 Y107.374 E15.48847
G1 X201.555 Y108.267 E15.51851
G1 X201.299 Y109.283 E15.55336
G1 X201.074 Y110.014 E15.5788
G1 X201.033 Y110.143 E15.5833
G1 X200.895 Y110.571 E15.59826
G1 X200.848 Y110.712 E15.6032
G1 X200.609 Y111.418 E15.62799
G1 X200.282 Y112.259 E15.65801
G1 X199.882 Y113.069 E15.68805
G1 X199.622 Y113.513 E15.70517
G1 X199.077 Y114.394 E15.73962
G1 X198.962 Y114.577 E15.74681
G1 X198.468 Y115.339 E15.77701
G1 X197.943 Y116.074 E15.80706
G1 X197.356 Y116.76 E15.83709
G1 X196.957 Y117.163 E15.85595
G1 X196.094 Y117.988 E15.89566
G1 X195.95 Y118.124 E15.90225
G1 X195.404 Y118.626 E15.92691
G1 X194.712 Y119.207 E15.95697
G1 X193.662 Y119.914 E15.99907
G1 X193.115 Y120.235 E16.02016
G1 X192.876 Y120.371 E16.02931
G1 X192.299 Y120.689 E16.05122
G1 X192.16 Y120.764 E16.05648
G1 X191.565 Y121.08 E16.07888
G1 X190.75 Y121.468 E16.1089
G1 X189.903 Y121.782 E16.13895
G1 X189.434 Y121.921 E16.15522
G1 X188.335 Y122.217 E16.19307
G1 X188.123 Y122.272 E16.20036
G1 X187.34 Y122.465 E16.22718
G1 X186.455 Y122.642 E16.2572
G1 X185.565 Y122.739 E16.28698
G1 X185.319 Y122.755 E16.29518
G1 X185.045 Y122.777 E16.30432
G1 X184.439 Y122.807 E16.3245
G1 X182.645 Y122.843 E16.38418
G1 X179.988 Y122.929 E16.4726
G1 X177.482 Y123.081 E16.5561
G1 X174.931 Y123.307 E16.64128
G1 X172.421 Y123.602 E16.72534
G1 X169.919 Y123.969 E16.80944
G1 X167.401 Y124.41 E16.89447
G1 X164.942 Y124.912 E16.97794
G1 X162.256 Y125.543 E17.06971
G1 X161.368 Y125.71 E17.09976
G1 X160.199 Y125.809 E17.13878
G1 X159.493 Y125.828 E17.16227
G1 X159.276 Y125.832 E17.16949
G1 X158.386 Y125.837 E17.19909
G1 X149.063 Y125.837 E17.50918
G1 X148.923 Y125.836 E17.51384
G1 X148.269 Y125.827 E17.53559
G1 X147.367 Y125.775 E17.56564
G1 X146.474 Y125.643 E17.59566
G1 X145.911 Y125.517 E17.61485
G1 X145.717 Y125.468 E17.62151
G1 X144.852 Y125.209 E17.65154
G1 X144.014 Y124.874 E17.68156
G1 X143.208 Y124.465 E17.71162
G1 X142.442 Y123.988 E17.74163
G1 X141.72 Y123.444 E17.7717
G1 X140.777 Y122.559 E17.81471
G1 X140.655 Y122.429 E17.82064
G1 X140.067 Y121.744 E17.85067
G1 X139.542 Y121.009 E17.88071
G1 X139.083 Y120.231 E17.91075
G1 X138.696 Y119.415 E17.94079
G1 X138.382 Y118.569 E17.97081
G1 X138.144 Y117.697 E18.00087
G1 X137.934 Y116.368 E18.04562
G1 X137.897 Y115.959 E18.05928
G1 X137.857 Y115.153 E18.08612
G1 X137.851 Y114.61 E18.10418
G1 X137.85 Y114.509 E18.10754
G1 X137.849 Y113.647 E18.13621
G1 X137.85 Y113.489 E18.14147
G1 X137.858 Y112.962 E18.159
G1 X137.84 Y109.371 E18.27843
G1 X137.81 Y108.082 E18.32132
G1 X137.807 Y107.891 E18.32767
G1 X137.803 Y107.062 E18.35525
G1 X137.804 Y106.896 E18.36077
G1 X137.811 Y106.286 E18.38106
G1 X137.861 Y105.384 E18.4111
G1 X137.929 Y104.847 E18.42911
G1 X137.954 Y104.685 E18.43456
G1 X138.131 Y103.8 E18.46458
G1 X138.386 Y102.933 E18.49463
G1 X138.717 Y102.093 E18.52466
G1 X139.12 Y101.285 E18.5547
G1 X139.593 Y100.516 E18.58472
G1 X139.897 Y100.091 E18.6021
G1 F1500 E12.6021
