;FLAVOR:Marlin
;TIME:28090
;Filament used: 23.0357m
;Layer height: 0.16
;MINX:43.3
;MINY:81.55
;MINZ:0.2
;MAXX:176.696
;MAXY:136.61
;MAXZ:122.32
;Generated with Cura_SteamEngine 4.4.1
M140 S40
M105
M190 S40
M104 S215
M105
M109 S215
M82 ;absolute extrusion mode
M201 X500.00 Y500.00 Z100.00 E5000.00 ;Setup machine max acceleration
M203 X500.00 Y500.00 Z10.00 E50.00 ;Setup machine max feedrate
M204 P500.00 R1000.00 T500.00 ;Setup Print/Retract/Travel acceleration
M205 X8.00 Y8.00 Z0.40 E5.00 ;Setup Jerk
M220 S100 ;Reset Feedrate
M221 S100 ;Reset Flowrate

G28 ;Home

G92 E0 ;Reset Extruder
G1 Z2.0 F3000 ;Move Z Axis up
G1 X10.1 Y20 Z0.28 F5000.0 ;Move to start position
G1 X10.1 Y200.0 Z0.28 F1500.0 E15 ;Draw the first line
G1 X10.4 Y200.0 Z0.28 F5000.0 ;Move to side a little
G1 X10.4 Y20 Z0.28 F1500.0 E30 ;Draw the second line
G92 E0 ;Reset Extruder
G1 Z2.0 F3000 ;Move Z Axis up

G92 E0
G92 E0
G1 F1800 E-3
;LAYER_COUNT:717
;LAYER:0
M107
G0 F6000 X48.705 Y82.931 Z0.2
;TYPE:SKIRT
G1 F1800 E0
G1 F1200 X49.526 Y82.514 E0.03063
G1 X50.379 Y82.17 E0.06122
G1 X51.26 Y81.902 E0.09185
G1 X52.161 Y81.71 E0.12249
G1 X53.074 Y81.598 E0.15308
G1 X53.613 Y81.569 E0.17103
G1 X53.934 Y81.56 E0.18171
G1 X54.23 Y81.556 E0.19156
G1 X165.183 Y81.55 E3.88187
G1 X165.337 Y81.551 E3.88699
G1 X166.028 Y81.561 E3.90998
G1 X166.947 Y81.614 E3.9406
G1 X167.859 Y81.747 E3.97125
G1 X168.755 Y81.959 E4.00187
G1 X169.629 Y82.247 E4.03248
G1 X170.475 Y82.61 E4.0631
G1 X171.286 Y83.045 E4.09371
G1 X172.057 Y83.549 E4.12435
G1 X172.781 Y84.118 E4.15497
G1 X173.452 Y84.748 E4.18559
G1 X174.067 Y85.433 E4.2162
G1 X174.62 Y86.169 E4.24682
G1 X175.107 Y86.951 E4.27746
G1 X175.524 Y87.771 E4.30806
G1 X175.868 Y88.625 E4.33868
G1 X176.137 Y89.506 E4.36932
G1 X176.329 Y90.406 E4.39993
G1 X176.442 Y91.32 E4.43056
G1 X176.472 Y91.888 E4.44948
G1 X176.496 Y92.824 E4.48062
G1 X176.499 Y93.031 E4.4875
G1 X176.696 Y125.017 E5.55138
G1 X176.696 Y125.17 E5.55647
G1 X176.69 Y125.889 E5.58039
G1 X176.642 Y126.809 E5.61103
G1 X176.515 Y127.721 E5.64165
G1 X176.309 Y128.618 E5.67227
G1 X176.026 Y129.494 E5.70288
G1 X175.668 Y130.342 E5.7335
G1 X175.238 Y131.156 E5.76412
G1 X174.739 Y131.93 E5.79475
G1 X174.174 Y132.657 E5.82537
G1 X173.644 Y133.237 E5.8515
G1 X173.454 Y133.43 E5.86051
G1 X172.78 Y134.058 E5.89115
G1 X172.054 Y134.624 E5.92177
G1 X171.282 Y135.126 E5.9524
G1 X170.47 Y135.558 E5.98299
G1 X169.622 Y135.919 E6.01364
G1 X168.747 Y136.204 E6.04425
G1 X167.85 Y136.413 E6.07488
G1 X166.939 Y136.543 E6.10549
G1 X166.159 Y136.591 E6.13148
G1 X165.546 Y136.606 E6.15188
G1 X165.287 Y136.609 E6.16049
G1 X54.809 Y136.61 E9.83501
G1 X54.657 Y136.609 E9.84006
G1 X53.959 Y136.599 E9.86328
G1 X53.04 Y136.546 E9.8939
G1 X52.129 Y136.413 E9.92452
G1 X51.233 Y136.202 E9.95513
G1 X50.359 Y135.914 E9.98574
G1 X49.512 Y135.551 E10.01639
G1 X48.701 Y135.116 E10.047
G1 X47.931 Y134.612 E10.07761
G1 X47.207 Y134.043 E10.10823
G1 X46.285 Y133.15 E10.15093
G1 X46.084 Y132.93 E10.16084
G1 X45.493 Y132.224 E10.19146
G1 X44.966 Y131.469 E10.22208
G1 X44.506 Y130.672 E10.25269
G1 X44.117 Y129.837 E10.28333
G1 X43.802 Y128.972 E10.31395
G1 X43.563 Y128.083 E10.34457
G1 X43.402 Y127.176 E10.3752
G1 X43.312 Y125.971 E10.41539
G1 X43.302 Y125.416 E10.43386
G1 X43.3 Y125.225 E10.44021
G1 X43.3 Y92.836 E11.51747
G1 X43.301 Y92.678 E11.52273
G1 X43.311 Y92.007 E11.54505
G1 X43.365 Y91.088 E11.57567
G1 X43.498 Y90.177 E11.60629
G1 X43.71 Y89.281 E11.63691
G1 X43.999 Y88.407 E11.66753
G1 X44.362 Y87.561 E11.69815
G1 X44.798 Y86.75 E11.72877
G1 X45.302 Y85.98 E11.75938
G1 X45.871 Y85.256 E11.79001
G1 X46.501 Y84.584 E11.82065
G1 X47.187 Y83.97 E11.85127
G1 X47.923 Y83.418 E11.88187
G1 X48.705 Y82.931 E11.91251
G0 F6000 X49.082 Y83.18
G1 F1200 X49.896 Y82.788 E11.94256
G1 X50.741 Y82.47 E11.97258
G1 X51.611 Y82.228 E12.00262
G1 X52.499 Y82.063 E12.03266
G1 X53.624 Y81.969 E12.07021
G1 X53.945 Y81.96 E12.08089
G1 X54.23 Y81.956 E12.09037
G1 X165.183 Y81.95 E15.78068
G1 X165.332 Y81.951 E15.78564
G1 X166.023 Y81.961 E15.80862
G1 X166.924 Y82.014 E15.83864
G1 X167.817 Y82.147 E15.86867
G1 X168.696 Y82.358 E15.89874
G1 X169.552 Y82.646 E15.92878
G1 X170.379 Y83.008 E15.9588
G1 X171.171 Y83.442 E15.98884
G1 X171.921 Y83.945 E16.01887
G1 X172.624 Y84.512 E16.04891
G1 X173.274 Y85.139 E16.07895
G1 X173.866 Y85.821 E16.10899
G1 X174.395 Y86.553 E16.13903
G1 X174.858 Y87.328 E16.16905
G1 X175.25 Y88.142 E16.1991
G1 X175.569 Y88.987 E16.22914
G1 X175.812 Y89.857 E16.25919
G1 X175.976 Y90.744 E16.28919
G1 X176.072 Y91.899 E16.32774
G1 X176.096 Y92.835 E16.35888
G1 X176.099 Y93.033 E16.36547
G1 X176.296 Y125.019 E17.42934
G1 X176.296 Y125.167 E17.43427
G1 X176.29 Y125.886 E17.45818
G1 X176.242 Y126.788 E17.48823
G1 X176.115 Y127.682 E17.51826
G1 X175.909 Y128.561 E17.54829
G1 X175.627 Y129.419 E17.57832
G1 X175.269 Y130.249 E17.60839
G1 X174.84 Y131.043 E17.63841
G1 X174.342 Y131.796 E17.66843
G1 X173.779 Y132.503 E17.69849
G1 X173.359 Y132.957 E17.71906
G1 X173.169 Y133.15 E17.72807
G1 X172.507 Y133.765 E17.75812
G1 X171.794 Y134.319 E17.78816
G1 X171.035 Y134.807 E17.81817
G1 X170.235 Y135.227 E17.84822
G1 X169.401 Y135.574 E17.87826
G1 X168.54 Y135.846 E17.9083
G1 X167.658 Y136.041 E17.93834
G1 X166.763 Y136.157 E17.96836
G1 X166.15 Y136.191 E17.98878
G1 X165.537 Y136.206 E18.00917
G1 X165.287 Y136.209 E18.01749
G1 X54.809 Y136.21 E21.692
G1 X54.663 Y136.209 E21.69686
G1 X53.965 Y136.199 E21.72007
G1 X53.063 Y136.146 E21.75013
G1 X52.17 Y136.014 E21.78015
G1 X51.292 Y135.803 E21.81018
G1 X50.436 Y135.515 E21.84022
G1 X49.609 Y135.153 E21.87025
G1 X48.817 Y134.718 E21.9003
G1 X48.066 Y134.216 E21.93035
G1 X47.363 Y133.649 E21.96039
G1 X46.581 Y132.88 E21.99687
G1 X46.38 Y132.66 E22.00678
G1 X45.801 Y131.967 E22.03681
G1 X45.285 Y131.225 E22.06687
G1 X44.837 Y130.441 E22.09691
G1 X44.461 Y129.62 E22.12694
G1 X44.158 Y128.769 E22.15698
G1 X43.932 Y127.895 E22.18701
G1 X43.784 Y127.004 E22.21705
G1 X43.712 Y125.964 E22.25172
G1 X43.702 Y125.409 E22.27019
G1 X43.7 Y125.225 E22.27631
G1 X43.7 Y92.836 E23.35357
G1 X43.701 Y92.684 E23.35862
G1 X43.711 Y92.013 E23.38094
G1 X43.765 Y91.111 E23.411
G1 X43.898 Y90.218 E23.44103
G1 X44.109 Y89.34 E23.47106
G1 X44.397 Y88.484 E23.5011
G1 X44.76 Y87.657 E23.53114
G1 X45.195 Y86.866 E23.56116
G1 X45.698 Y86.116 E23.5912
G1 X46.265 Y85.413 E23.62124
G1 X46.892 Y84.763 E23.65128
G1 X47.574 Y84.171 E23.68131
G1 X48.306 Y83.642 E23.71135
G1 X49.082 Y83.18 E23.74139
G1 F1800 E20.74139
;MESH:Control_Panel_Back_Cover.stl
G0 F6000 X54.313 Y91.491
G0 X54.314 Y92.57
G0 X54.9 Y125.01
;TYPE:WALL-INNER
G1 F1800 E23.74139
G1 F1200 X54.9 Y124.811 E23.74801
G1 X54.9 Y93.156 E24.80086
G1 X164.901 Y93.15 E28.45951
G1 X165.1 Y93.15 E28.46613
G1 X165.1 Y93.349 E28.47041
G1 X165.1 Y125.009 E29.52342
G1 X55.099 Y125.01 E33.18207
G1 X54.9 Y125.01 E33.18635
G0 F6000 X54.699 Y125.41
G1 F1200 X54.5 Y125.41 E33.19297
G1 X54.5 Y125.211 E33.19726
G1 X54.5 Y92.756 E34.27671
G1 X165.301 Y92.75 E37.96197
G1 X165.5 Y92.75 E37.96859
G1 X165.5 Y92.949 E37.97287
G1 X165.5 Y125.409 E39.05249
G1 X54.699 Y125.41 E42.73775
G0 F6000 X54.19 Y125.81
;TYPE:WALL-OUTER
G1 F1200 X54.1 Y125.708 E42.74228
G1 X54.1 Y92.356 E43.85157
G1 X165.89 Y92.35 E47.56972
G1 X165.9 Y92.35 E47.57005
G1 X165.9 Y125.725 E48.68011
G1 X165.817 Y125.809 E48.68404
G1 X54.19 Y125.81 E52.39676
G0 F6000 X54.54 Y125.409
G0 X55.01 Y124.62
G0 X55.29 Y124.62
;TYPE:SKIN
G1 F1200 X55.29 Y93.546 E53.43029
G1 X164.71 Y93.54 E57.06961
G1 X164.71 Y124.619 E58.10331
G1 X55.29 Y124.62 E61.74263
G0 F6000 X56.011 Y124.459
G1 F1200 X55.449 Y123.897 E61.76906
G0 F6000 X55.449 Y123.332
G1 F1200 X56.577 Y124.459 E61.8221
G0 F6000 X57.142 Y124.459
G1 F1200 X55.449 Y122.766 E61.90173
G0 F6000 X55.449 Y122.2
G1 F1200 X57.708 Y124.459 E62.00799
G0 F6000 X58.274 Y124.459
G1 F1200 X55.449 Y121.635 E62.14084
G0 F6000 X55.449 Y121.069
G1 F1200 X58.839 Y124.459 E62.3003
G0 F6000 X59.405 Y124.459
G1 F1200 X55.449 Y120.503 E62.48638
G0 F6000 X55.449 Y119.938
G1 F1200 X59.971 Y124.459 E62.69906
G0 F6000 X60.536 Y124.459
G1 F1200 X55.449 Y119.372 E62.93833
G0 F6000 X55.449 Y118.806
G1 F1200 X61.102 Y124.459 E63.20423
G0 F6000 X61.668 Y124.459
G1 F1200 X55.449 Y118.24 E63.49675
G0 F6000 X55.449 Y117.675
G1 F1200 X62.233 Y124.459 E63.81585
G0 F6000 X62.799 Y124.459
G1 F1200 X55.449 Y117.109 E64.16157
G0 F6000 X55.449 Y116.543
G1 F1200 X63.365 Y124.459 E64.53392
G0 F6000 X63.93 Y124.459
G1 F1200 X55.449 Y115.978 E64.93284
G0 F6000 X55.449 Y115.412
G1 F1200 X64.496 Y124.459 E65.35838
G0 F6000 X65.062 Y124.459
G1 F1200 X55.449 Y114.846 E65.81055
G0 F6000 X55.449 Y114.281
G1 F1200 X65.627 Y124.459 E66.28929
G0 F6000 X66.193 Y124.459
G1 F1200 X55.449 Y113.715 E66.79465
G0 F6000 X55.449 Y113.149
G1 F1200 X66.759 Y124.459 E67.32664
G0 F6000 X67.325 Y124.459
G1 F1200 X55.449 Y112.584 E67.88523
G0 F6000 X55.449 Y112.018
G1 F1200 X67.89 Y124.459 E68.47042
G0 F6000 X68.456 Y124.459
G1 F1200 X55.449 Y111.452 E69.08223
G0 F6000 X55.449 Y110.887
G1 F1200 X69.022 Y124.459 E69.72063
G0 F6000 X69.587 Y124.459
G1 F1200 X55.449 Y110.321 E70.38564
G0 F6000 X55.449 Y109.755
G1 F1200 X70.153 Y124.459 E71.07727
G0 F6000 X70.719 Y124.459
G1 F1200 X55.449 Y109.19 E71.7955
G0 F6000 X55.449 Y108.624
G1 F1200 X71.284 Y124.459 E72.54033
G0 F6000 X71.85 Y124.459
G1 F1200 X55.449 Y108.058 E73.31179
G0 F6000 X55.449 Y107.492
G1 F1200 X72.416 Y124.459 E74.10986
G0 F6000 X72.981 Y124.459
G1 F1200 X55.449 Y106.927 E74.93451
G0 F6000 X55.449 Y106.361
G1 F1200 X73.547 Y124.459 E75.78579
G0 F6000 X74.113 Y124.459
G1 F1200 X55.449 Y105.795 E76.66369
G0 F6000 X55.449 Y105.23
G1 F1200 X74.678 Y124.459 E77.56816
G0 F6000 X75.244 Y124.459
G1 F1200 X55.449 Y104.664 E78.49926
G0 F6000 X55.449 Y104.098
G1 F1200 X75.81 Y124.459 E79.45697
G0 F6000 X76.376 Y124.459
G1 F1200 X55.449 Y103.533 E80.44129
G0 F6000 X55.449 Y102.967
G1 F1200 X76.941 Y124.459 E81.45221
G0 F6000 X77.507 Y124.459
G1 F1200 X55.449 Y102.401 E82.48975
G0 F6000 X55.449 Y101.836
G1 F1200 X78.073 Y124.459 E83.55389
G0 F6000 X78.638 Y124.459
G1 F1200 X55.449 Y101.27 E84.64463
G0 F6000 X55.449 Y100.704
G1 F1200 X79.204 Y124.459 E85.76199
G0 F6000 X79.77 Y124.459
G1 F1200 X55.449 Y100.139 E86.90595
G0 F6000 X55.449 Y99.573
G1 F1200 X80.335 Y124.459 E88.07652
G0 F6000 X80.901 Y124.459
G1 F1200 X55.449 Y99.007 E89.2737
G0 F6000 X55.449 Y98.441
G1 F1200 X81.467 Y124.459 E90.49751
G0 F6000 X82.032 Y124.459
G1 F1200 X55.449 Y97.876 E91.74789
G0 F6000 X55.449 Y97.31
G1 F1200 X82.598 Y124.459 E93.0249
G0 F6000 X83.164 Y124.459
G1 F1200 X55.449 Y96.744 E94.32852
G0 F6000 X55.449 Y96.179
G1 F1200 X83.729 Y124.459 E95.65873
G0 F6000 X84.295 Y124.459
G1 F1200 X55.449 Y95.613 E97.01556
G0 F6000 X55.449 Y95.047
G1 F1200 X84.861 Y124.459 E98.39901
G0 F6000 X85.426 Y124.459
G1 F1200 X55.449 Y94.482 E99.80903
G0 F6000 X55.449 Y93.916
G1 F1200 X85.992 Y124.459 E101.24568
G0 F6000 X86.558 Y124.459
G1 F1200 X55.804 Y93.705 E102.69226
G0 F6000 X56.37 Y93.705
G1 F1200 X87.124 Y124.459 E104.13883
G0 F6000 X87.689 Y124.459
G1 F1200 X56.936 Y93.705 E105.58538
G0 F6000 X57.501 Y93.705
G1 F1200 X88.255 Y124.459 E107.03195
G0 F6000 X88.821 Y124.459
G1 F1200 X58.067 Y93.705 E108.47853
G0 F6000 X58.633 Y93.705
G1 F1200 X89.386 Y124.459 E109.92508
G0 F6000 X89.952 Y124.459
G1 F1200 X59.198 Y93.705 E111.37165
G0 F6000 X59.764 Y93.705
G1 F1200 X90.518 Y124.459 E112.81823
G0 F6000 X91.083 Y124.459
G1 F1200 X60.33 Y93.705 E114.26478
G0 F6000 X60.896 Y93.705
G1 F1200 X91.649 Y124.459 E115.71133
G0 F6000 X92.215 Y124.459
G1 F1200 X61.461 Y93.705 E117.1579
G0 F6000 X62.027 Y93.705
G1 F1200 X92.78 Y124.459 E118.60445
G0 F6000 X93.346 Y124.459
G1 F1200 X62.593 Y93.705 E120.051
G0 F6000 X63.158 Y93.705
G1 F1200 X93.912 Y124.459 E121.49757
G0 F6000 X94.477 Y124.459
G1 F1200 X63.724 Y93.705 E122.94412
G0 F6000 X64.29 Y93.705
G1 F1200 X95.043 Y124.459 E124.39068
G0 F6000 X95.609 Y124.459
G1 F1200 X64.855 Y93.705 E125.83725
G0 F6000 X65.421 Y93.705
G1 F1200 X96.175 Y124.459 E127.28382
G0 F6000 X96.74 Y124.459
G1 F1200 X65.987 Y93.705 E128.73037
G0 F6000 X66.552 Y93.705
G1 F1200 X97.306 Y124.459 E130.17695
G0 F6000 X97.872 Y124.459
G1 F1200 X67.118 Y93.705 E131.62352
G0 F6000 X67.684 Y93.705
G1 F1200 X98.437 Y124.459 E133.07007
G0 F6000 X99.003 Y124.459
G1 F1200 X68.249 Y93.705 E134.51665
G0 F6000 X68.815 Y93.705
G1 F1200 X99.569 Y124.459 E135.96322
G0 F6000 X100.134 Y124.459
G1 F1200 X69.38 Y93.705 E137.40979
G0 F6000 X69.946 Y93.705
G1 F1200 X100.7 Y124.459 E138.85637
G0 F6000 X101.266 Y124.459
G1 F1200 X70.511 Y93.705 E140.30296
G0 F6000 X71.077 Y93.705
G1 F1200 X101.831 Y124.459 E141.74954
G0 F6000 X102.397 Y124.459
G1 F1200 X71.643 Y93.705 E143.19611
G0 F6000 X72.209 Y93.705
G1 F1200 X102.963 Y124.459 E144.64269
G0 F6000 X103.528 Y124.459
G1 F1200 X72.774 Y93.705 E146.08926
G0 F6000 X73.34 Y93.705
G1 F1200 X104.094 Y124.459 E147.53583
G0 F6000 X104.66 Y124.459
G1 F1200 X73.906 Y93.705 E148.98241
G0 F6000 X74.471 Y93.705
G1 F1200 X105.225 Y124.459 E150.42898
G0 F6000 X105.791 Y124.459
G1 F1200 X75.037 Y93.705 E151.87556
G0 F6000 X75.603 Y93.705
G1 F1200 X106.357 Y124.459 E153.32213
G0 F6000 X106.923 Y124.459
G1 F1200 X76.168 Y93.705 E154.76873
G0 F6000 X76.734 Y93.705
G1 F1200 X107.488 Y124.459 E156.2153
G0 F6000 X108.054 Y124.459
G1 F1200 X77.3 Y93.705 E157.66187
G0 F6000 X77.865 Y93.705
G1 F1200 X108.62 Y124.459 E159.10847
G0 F6000 X109.185 Y124.459
G1 F1200 X78.431 Y93.705 E160.55505
G0 F6000 X78.997 Y93.705
G1 F1200 X109.751 Y124.459 E162.00162
G0 F6000 X110.317 Y124.459
G1 F1200 X79.562 Y93.705 E163.44822
G0 F6000 X80.128 Y93.705
G1 F1200 X110.882 Y124.459 E164.89479
G0 F6000 X111.448 Y124.459
G1 F1200 X80.694 Y93.705 E166.34136
G0 F6000 X81.26 Y93.705
G1 F1200 X112.014 Y124.459 E167.78794
G0 F6000 X112.579 Y124.459
G1 F1200 X81.825 Y93.705 E169.23451
G0 F6000 X82.391 Y93.705
G1 F1200 X113.145 Y124.459 E170.68109
G0 F6000 X113.711 Y124.459
G1 F1200 X82.956 Y93.704 E172.12771
G0 F6000 X83.522 Y93.704
G1 F1200 X114.276 Y124.459 E173.5743
G0 F6000 X114.842 Y124.459
G1 F1200 X84.087 Y93.704 E175.02093
G0 F6000 X84.653 Y93.704
G1 F1200 X115.408 Y124.459 E176.46755
G0 F6000 X115.973 Y124.459
G1 F1200 X85.219 Y93.704 E177.91414
G0 F6000 X85.784 Y93.704
G1 F1200 X116.539 Y124.459 E179.36076
G0 F6000 X117.105 Y124.459
G1 F1200 X86.35 Y93.704 E180.80739
G0 F6000 X86.916 Y93.704
G1 F1200 X117.671 Y124.459 E182.25401
G0 F6000 X118.236 Y124.459
G1 F1200 X87.481 Y93.704 E183.70063
G0 F6000 X88.047 Y93.704
G1 F1200 X118.802 Y124.459 E185.14725
G0 F6000 X119.368 Y124.459
G1 F1200 X88.613 Y93.704 E186.59387
G0 F6000 X89.178 Y93.704
G1 F1200 X119.933 Y124.459 E188.04049
G0 F6000 X120.499 Y124.459
G1 F1200 X89.744 Y93.704 E189.48711
G0 F6000 X90.31 Y93.704
G1 F1200 X121.065 Y124.459 E190.93373
G0 F6000 X121.63 Y124.459
G1 F1200 X90.875 Y93.704 E192.38035
G0 F6000 X91.441 Y93.704
G1 F1200 X122.196 Y124.459 E193.82697
G0 F6000 X122.762 Y124.459
G1 F1200 X92.007 Y93.704 E195.27359
G0 F6000 X92.573 Y93.704
G1 F1200 X123.327 Y124.459 E196.72019
G0 F6000 X123.893 Y124.459
G1 F1200 X93.138 Y93.704 E198.16681
G0 F6000 X93.704 Y93.704
G1 F1200 X124.459 Y124.459 E199.61343
G0 F6000 X125.024 Y124.459
G1 F1200 X94.27 Y93.704 E201.06003
G0 F6000 X94.835 Y93.704
G1 F1200 X125.59 Y124.459 E202.50665
G0 F6000 X126.156 Y124.459
G1 F1200 X95.401 Y93.704 E203.95327
G0 F6000 X95.967 Y93.704
G1 F1200 X126.722 Y124.459 E205.39989
G0 F6000 X127.287 Y124.459
G1 F1200 X96.532 Y93.703 E206.84654
G0 F6000 X97.097 Y93.703
G1 F1200 X127.853 Y124.459 E208.29321
G0 F6000 X128.419 Y124.459
G1 F1200 X97.663 Y93.703 E209.73987
G0 F6000 X98.229 Y93.703
G1 F1200 X128.984 Y124.459 E211.18652
G0 F6000 X129.55 Y124.459
G1 F1200 X98.794 Y93.703 E212.63319
G0 F6000 X99.36 Y93.703
G1 F1200 X130.116 Y124.459 E214.07985
G0 F6000 X130.681 Y124.459
G1 F1200 X99.926 Y93.703 E215.5265
G0 F6000 X100.491 Y93.703
G1 F1200 X131.247 Y124.459 E216.97317
G0 F6000 X131.813 Y124.459
G1 F1200 X101.057 Y93.703 E218.41983
G0 F6000 X101.623 Y93.703
G1 F1200 X132.378 Y124.459 E219.86648
G0 F6000 X132.944 Y124.459
