;FLAVOR:Marlin
;TIME:7520
;Filament used: 8.21231m
;Layer height: 0.25
;MINX:56.78
;MINY:33.231
;MINZ:0.2
;MAXX:174.811
;MAXY:145.939
;MAXZ:30.7
;Generated with Cura_SteamEngine 4.4.1
M140 S80
M105
M190 S80
M104 S230
M105
M109 S230
M82 ;absolute extrusion mode
M201 X500.00 Y500.00 Z100.00 E5000.00 ;Setup machine max acceleration
M203 X500.00 Y500.00 Z10.00 E50.00 ;Setup machine max feedrate
M204 P500.00 R1000.00 T500.00 ;Setup Print/Retract/Travel acceleration
M205 X8.00 Y8.00 Z0.40 E5.00 ;Setup Jerk
M220 S100 ;Reset Feedrate
M221 S100 ;Reset Flowrate

G28 ;Home

G92 E0 ;Reset Extruder
G1 Z2.0 F3000 ;Move Z Axis up
G1 X10.1 Y20 Z0.28 F5000.0 ;Move to start position
G1 X10.1 Y200.0 Z0.28 F1500.0 E15 ;Draw the first line
G1 X10.4 Y200.0 Z0.28 F5000.0 ;Move to side a little
G1 X10.4 Y20 Z0.28 F1500.0 E30 ;Draw the second line
G92 E0 ;Reset Extruder
G1 Z2.0 F3000 ;Move Z Axis up

G92 E0
G92 E0
G1 F1500 E-6.5
;LAYER_COUNT:123
;LAYER:0
M107
G0 F6000 X61.262 Y38.77 Z0.2
;TYPE:SKIRT
G1 F1500 E0
G1 F1200 X61.767 Y37.98 E0.03119
G1 X62.337 Y37.236 E0.06236
G1 X62.969 Y36.543 E0.09355
G1 X63.658 Y35.906 E0.12476
G1 X64.398 Y35.33 E0.15595
G1 X65.185 Y34.82 E0.18714
G1 X66.012 Y34.378 E0.21833
G1 X66.874 Y34.008 E0.24953
G1 X67.744 Y33.72 E0.28001
G1 X67.915 Y33.671 E0.28593
G1 X68.827 Y33.451 E0.31713
G1 X69.754 Y33.31 E0.34832
G1 X70.751 Y33.247 E0.38155
G1 X71.431 Y33.235 E0.40417
G1 X71.8 Y33.234 E0.41644
G1 X72.115 Y33.239 E0.42692
G1 X73.051 Y33.294 E0.4581
G1 X73.775 Y33.392 E0.4824
G1 X74.57 Y33.527 E0.50922
G1 X77.169 Y33.935 E0.59672
G1 X79.64 Y34.253 E0.67959
G1 X82.181 Y34.507 E0.76452
G1 X84.658 Y34.683 E0.84712
G1 X87.191 Y34.792 E0.93144
G1 X89.706 Y34.829 E1.0151
G1 X92.237 Y34.794 E1.09929
G1 X94.723 Y34.69 E1.18205
G1 X97.257 Y34.512 E1.26654
G1 X99.74 Y34.266 E1.34952
G1 X102.226 Y33.95 E1.43287
G1 X105.615 Y33.406 E1.54704
G1 X106.086 Y33.341 E1.56285
G1 X106.378 Y33.307 E1.57263
G1 X107.571 Y33.233 E1.61238
G1 X107.849 Y33.231 E1.62163
G1 X108.096 Y33.232 E1.62985
G1 X108.684 Y33.241 E1.6494
G1 X109.621 Y33.296 E1.68062
G1 X110.549 Y33.429 E1.7118
G1 X111.321 Y33.604 E1.73813
G1 X111.522 Y33.657 E1.74505
G1 X112.417 Y33.934 E1.77621
G1 X113.286 Y34.287 E1.8074
G1 X114.122 Y34.713 E1.83861
G1 X114.919 Y35.208 E1.86982
G1 X115.67 Y35.769 E1.90099
G1 X116.371 Y36.392 E1.93219
G1 X117.016 Y37.073 E1.96338
G1 X117.601 Y37.806 E1.99458
G1 X118.121 Y38.587 E2.02578
G1 X118.573 Y39.408 E2.05695
G1 X118.953 Y40.266 E2.08816
G1 X119.259 Y41.152 E2.11934
G1 X119.42 Y41.754 E2.14007
G1 X119.442 Y41.848 E2.14328
G1 X120.091 Y44.451 E2.23251
G1 X120.765 Y46.86 E2.31571
G1 X121.514 Y49.276 E2.39984
G1 X122.327 Y51.654 E2.48342
G1 X123.203 Y54 E2.56671
G1 X124.16 Y56.355 E2.65126
G1 X125.164 Y58.64 E2.73427
G1 X126.251 Y60.936 E2.81876
G1 X127.375 Y63.146 E2.90123
G1 X128.594 Y65.384 E2.98599
G1 X129.852 Y67.542 E3.06907
G1 X131.186 Y69.692 E3.15323
G1 X132.568 Y71.784 E3.23662
G1 X134.024 Y73.856 E3.32085
G1 X135.513 Y75.858 E3.40383
G1 X137.074 Y77.833 E3.48756
G1 X138.715 Y79.793 E3.57258
G1 X140.362 Y81.65 E3.65514
G1 X142.09 Y83.494 E3.73919
G1 X143.843 Y85.26 E3.82196
G1 X145.687 Y87.015 E3.90662
G1 X147.563 Y88.703 E3.99056
G1 X149.46 Y90.314 E4.07334
G1 X151.459 Y91.917 E4.15856
G1 X153.435 Y93.413 E4.24099
G1 X155.511 Y94.891 E4.32575
G1 X157.594 Y96.29 E4.40921
G1 X159.709 Y97.624 E4.49238
G1 X161.879 Y98.908 E4.57624
G1 X164.081 Y100.13 E4.66
G1 X166.315 Y101.286 E4.74366
G1 X167.48 Y101.846 E4.78666
G1 X167.603 Y101.906 E4.79121
G1 X168.486 Y102.344 E4.82399
G1 X169.308 Y102.796 E4.85519
G1 X170.261 Y103.446 E4.89356
G1 X170.416 Y103.564 E4.90004
G1 X171.137 Y104.163 E4.93121
G1 X171.805 Y104.822 E4.96242
G1 X172.414 Y105.535 E4.99361
G1 X172.96 Y106.297 E5.02479
G1 X173.44 Y107.103 E5.05599
G1 X173.848 Y107.948 E5.0872
G1 X174.293 Y109.17 E5.13046
G1 X174.333 Y109.304 E5.13511
G1 X174.563 Y110.213 E5.16629
G1 X174.715 Y111.138 E5.19747
G1 X174.791 Y112.249 E5.23451
G1 X174.809 Y113.236 E5.26734
G1 X174.811 Y113.438 E5.27406
G1 X174.81 Y126.438 E5.70644
G1 X174.809 Y126.594 E5.71163
G1 X174.799 Y127.296 E5.73498
G1 X174.772 Y127.927 E5.75599
G1 X174.746 Y128.289 E5.76806
G1 X174.728 Y128.511 E5.77547
G1 X174.69 Y128.923 E5.78923
G1 X174.671 Y129.103 E5.79525
G1 X174.598 Y129.774 E5.8177
G1 X174.457 Y130.701 E5.84889
G1 X174.176 Y131.822 E5.88733
G1 X173.941 Y132.585 E5.91388
G1 X173.895 Y132.731 E5.91897
G1 X173.755 Y133.164 E5.93411
G1 X173.705 Y133.315 E5.9394
G1 X173.478 Y133.984 E5.96289
G1 X173.139 Y134.858 E5.99407
G1 X172.727 Y135.7 E6.02525
G1 X172.416 Y136.236 E6.04586
G1 X171.871 Y137.117 E6.08032
G1 X171.741 Y137.322 E6.08839
G1 X171.246 Y138.084 E6.11861
G1 X170.702 Y138.848 E6.14981
G1 X170.094 Y139.563 E6.18102
G1 X169.628 Y140.037 E6.20313
G1 X168.782 Y140.847 E6.24209
G1 X168.634 Y140.986 E6.24884
G1 X168.065 Y141.511 E6.27459
G1 X167.35 Y142.117 E6.30576
G1 X166.585 Y142.66 E6.33697
G1 X166.025 Y142.999 E6.35874
G1 X164.967 Y143.598 E6.39918
G1 X164.715 Y143.737 E6.40875
G1 X164.061 Y144.085 E6.43339
G1 X163.215 Y144.49 E6.46459
G1 X162.338 Y144.821 E6.49576
G1 X161.742 Y144.999 E6.51645
G1 X160.604 Y145.304 E6.55564
G1 X160.383 Y145.361 E6.56323
G1 X159.639 Y145.544 E6.58871
G1 X158.72 Y145.729 E6.61989
G1 X157.754 Y145.837 E6.65222
G1 X157.625 Y145.846 E6.65652
G1 X157.29 Y145.873 E6.6677
G1 X156.645 Y145.906 E6.68918
G1 X155.314 Y145.936 E6.73346
G1 X155.066 Y145.939 E6.74171
G1 X130.119 Y145.939 E7.57145
G1 X129.968 Y145.938 E7.57647
G1 X129.312 Y145.929 E7.59829
G1 X128.376 Y145.876 E7.62947
G1 X127.447 Y145.744 E7.66068
G1 X126.761 Y145.593 E7.68405
G1 X126.54 Y145.537 E7.69163
G1 X125.642 Y145.268 E7.72281
G1 X124.641 Y144.865 E7.7587
G1 X124.132 Y144.631 E7.77733
G1 X121.76 Y143.578 E7.86365
G1 X119.393 Y142.608 E7.94873
G1 X117.584 Y141.918 E8.01312
G1 X116.324 Y141.453 E8.0578
G1 X115.459 Y141.091 E8.08898
G1 X114.628 Y140.656 E8.12018
G1 X114.112 Y140.339 E8.14032
G1 X113.204 Y139.745 E8.17641
G1 X111.043 Y138.372 E8.26157
G1 X108.837 Y137.058 E8.34697
G1 X106.67 Y135.846 E8.42955
G1 X104.443 Y134.683 E8.51311
G1 X102.159 Y133.572 E8.59759
G1 X99.878 Y132.541 E8.68085
G1 X97.55 Y131.567 E8.76478
G1 X95.168 Y130.647 E8.84971
G1 X92.834 Y129.824 E8.93202
G1 X90.46 Y129.06 E9.01497
G1 X88.004 Y128.345 E9.10005
G1 X85.587 Y127.715 E9.18312
G1 X83.804 Y127.304 E9.24398
G1 X83.557 Y127.244 E9.25244
G1 X83.157 Y127.142 E9.26617
G1 X82.056 Y126.799 E9.30452
G1 X81.821 Y126.712 E9.31286
G1 X81.279 Y126.494 E9.33229
G1 X80.978 Y126.364 E9.34319
G1 X80.135 Y125.957 E9.37433
G1 X79.919 Y125.841 E9.38248
G1 X79.554 Y125.636 E9.3964
G1 X79.198 Y125.427 E9.41013
G1 X78.41 Y124.918 E9.44134
G1 X77.922 Y124.552 E9.46162
G1 X77.327 Y124.079 E9.48691
G1 X76.618 Y123.464 E9.51812
G1 X76.142 Y122.986 E9.54056
G1 X75.834 Y122.657 E9.55555
G1 X75.422 Y122.191 E9.57624
G1 X75.209 Y121.936 E9.58729
G1 X74.442 Y120.9 E9.63016
G1 X74.263 Y120.626 E9.64105
G1 X73.986 Y120.179 E9.65854
G1 X73.767 Y119.806 E9.67292
G1 X73.217 Y118.741 E9.71279
G1 X73.125 Y118.536 E9.72026
G1 X72.922 Y118.052 E9.73772
G1 X72.752 Y117.619 E9.75319
G1 X72.54 Y117.031 E9.77398
G1 X72.345 Y116.436 E9.79481
G1 X71.499 Y113.978 E9.88127
G1 X70.607 Y111.604 E9.96562
G1 X69.665 Y109.302 E10.04834
G1 X68.633 Y106.969 E10.13319
G1 X67.563 Y104.72 E10.21603
G1 X66.422 Y102.49 E10.29934
G1 X65.205 Y100.266 E10.38366
G1 X63.937 Y98.101 E10.46711
G1 X62.595 Y95.947 E10.55152
G1 X62.361 Y95.592 E10.56566
G1 X62.296 Y95.491 E10.56966
G1 X61.957 Y94.964 E10.5905
G1 X61.871 Y94.828 E10.59585
G1 X61.526 Y94.274 E10.61756
G1 X61.361 Y94.002 E10.62814
G1 X61.186 Y93.702 E10.63969
G1 X61.051 Y93.463 E10.64882
G1 X60.805 Y93.016 E10.66579
G1 X60.715 Y92.848 E10.67213
G1 X60.555 Y92.545 E10.68353
G1 X60.385 Y92.21 E10.69602
G1 X59.816 Y91.037 E10.73938
G1 X59.644 Y90.665 E10.75302
G1 X59.527 Y90.399 E10.76268
G1 X59.389 Y90.07 E10.77455
G1 X58.917 Y88.895 E10.81666
G1 X58.775 Y88.522 E10.82994
G1 X58.578 Y87.975 E10.84927
G1 X58.488 Y87.716 E10.85839
G1 X58.386 Y87.409 E10.86915
G1 X58.288 Y87.1 E10.87994
G1 X58.145 Y86.623 E10.8965
G1 X58.093 Y86.442 E10.90276
G1 X57.985 Y86.058 E10.91603
G1 X57.892 Y85.707 E10.92811
G1 X57.586 Y84.463 E10.97072
G1 X57.511 Y84.135 E10.98191
G1 X57.461 Y83.901 E10.98987
G1 X57.375 Y83.453 E11.00504
G1 X57.157 Y82.176 E11.04813
G1 X57.105 Y81.844 E11.0593
G1 X57.07 Y81.593 E11.06773
G1 X57.019 Y81.166 E11.08203
G1 X56.888 Y79.853 E11.12592
G1 X56.859 Y79.506 E11.1375
G1 X56.844 Y79.285 E11.14487
G1 X56.824 Y78.868 E11.15876
G1 X56.785 Y77.562 E11.20221
G1 X56.78 Y77.189 E11.21462
G1 X56.781 Y76.945 E11.22274
G1 X56.79 Y76.545 E11.23604
G1 X56.843 Y75.237 E11.27958
G1 X56.868 Y74.823 E11.29338
G1 X56.885 Y74.606 E11.30062
G1 X56.918 Y74.252 E11.31244
G1 X57.065 Y72.927 E11.35678
G1 X57.116 Y72.534 E11.36996
G1 X57.2 Y71.965 E11.38909
G1 X57.248 Y71.668 E11.3991
G1 X57.31 Y71.315 E11.41102
G1 X57.37 Y71.001 E11.42165
G1 X57.47 Y70.515 E11.43816
G1 X57.501 Y70.368 E11.44315
G1 X57.668 Y69.608 E11.46903
G1 X58.186 Y67.086 E11.55467
G1 X58.624 Y64.597 E11.63872
G1 X58.993 Y62.095 E11.72284
G1 X59.288 Y59.596 E11.80654
G1 X59.512 Y57.094 E11.89008
G1 X59.665 Y54.597 E11.97329
G1 X59.748 Y52.065 E12.05755
G1 X59.764 Y50.308 E12.11599
G1 X59.764 Y44.989 E12.2929
G1 X59.765 Y44.831 E12.29816
G1 X59.775 Y44.136 E12.32128
G1 X59.829 Y43.199 E12.35249
G1 X59.962 Y42.271 E12.38367
G1 X60.173 Y41.357 E12.41487
G1 X60.462 Y40.465 E12.44606
G1 X60.826 Y39.6 E12.47727
G1 X61.262 Y38.77 E12.50845
G0 F6000 X61.659 Y38.884
G1 F1200 X62.163 Y38.113 E12.53909
G1 X62.731 Y37.389 E12.5697
G1 X63.361 Y36.717 E12.60033
G1 X64.046 Y36.103 E12.63093
G1 X64.783 Y35.55 E12.66158
G1 X65.564 Y35.063 E12.69219
G1 X66.385 Y34.646 E12.72282
G1 X67.238 Y34.301 E12.75342
G1 X67.854 Y34.104 E12.77493
G1 X68.025 Y34.055 E12.78085
G1 X68.92 Y33.84 E12.81146
G1 X69.831 Y33.704 E12.8421
G1 X70.758 Y33.647 E12.87299
G1 X71.438 Y33.635 E12.89561
G1 X71.793 Y33.634 E12.90742
G1 X72.108 Y33.639 E12.91789
G1 X73.027 Y33.694 E12.94851
G1 X73.708 Y33.786 E12.97137
G1 X74.521 Y33.924 E12.9988
G1 X77.128 Y34.333 E13.08657
G1 X79.586 Y34.649 E13.16899
G1 X82.149 Y34.905 E13.25466
G1 X84.648 Y35.083 E13.33799
G1 X87.166 Y35.192 E13.42182
G1 X89.707 Y35.229 E13.50634
G1 X92.224 Y35.194 E13.59007
G1 X94.767 Y35.088 E13.67472
G1 X97.288 Y34.911 E13.75877
G1 X99.793 Y34.663 E13.8425
G1 X102.283 Y34.346 E13.92598
G1 X105.679 Y33.801 E14.04038
G1 X106.132 Y33.738 E14.05559
G1 X106.424 Y33.704 E14.06537
G1 X107.574 Y33.633 E14.10369
G1 X107.852 Y33.631 E14.11294
G1 X108.09 Y33.632 E14.12086
G1 X108.678 Y33.641 E14.14041
G1 X109.597 Y33.695 E14.17103
G1 X110.508 Y33.829 E14.20166
G1 X111.219 Y33.99 E14.22591
G1 X111.42 Y34.043 E14.23282
G1 X112.299 Y34.317 E14.26344
G1 X113.151 Y34.665 E14.29405
G1 X113.97 Y35.086 E14.32468
G1 X114.749 Y35.577 E14.35531
G1 X115.482 Y36.133 E14.38591
G1 X116.165 Y36.751 E14.41654
G1 X116.791 Y37.425 E14.44714
G1 X117.357 Y38.152 E14.47778
G1 X117.857 Y38.925 E14.5084
G1 X118.288 Y39.738 E14.53901
G1 X118.648 Y40.586 E14.56965
G1 X119.031 Y41.846 E14.61345
G1 X119.082 Y42.061 E14.6208
G1 X119.692 Y44.508 E14.70468
G1 X120.384 Y46.98 E14.79006
G1 X121.139 Y49.418 E14.87494
G1 X121.949 Y51.786 E14.95819
G1 X122.833 Y54.155 E15.04229
G1 X123.781 Y56.488 E15.12604
G1 X124.8 Y58.807 E15.21029
G1 X125.884 Y61.096 E15.29453
G1 X127.04 Y63.367 E15.37929
G1 X128.234 Y65.559 E15.46231
G1 X129.516 Y67.76 E15.54702
G1 X130.846 Y69.904 E15.63094
G1 X132.239 Y72.012 E15.71498
G1 X133.691 Y74.078 E15.79897
G1 X135.206 Y76.115 E15.8834
G1 X136.769 Y78.092 E15.96722
G1 X138.393 Y80.032 E16.05137
G1 X140.071 Y81.925 E16.13551
G1 X141.797 Y83.765 E16.21942
G1 X143.585 Y85.566 E16.30383
G1 X145.409 Y87.303 E16.3876
G1 X147.281 Y88.987 E16.47135
G1 X149.234 Y90.647 E16.5566
G1 X151.195 Y92.219 E16.64019
G1 X153.224 Y93.754 E16.72482
G1 X155.261 Y95.205 E16.808
G1 X157.363 Y96.617 E16.89222
G1 X159.513 Y97.973 E16.97676
G1 X161.687 Y99.259 E17.06077
G1 X163.887 Y100.48 E17.14446
G1 X166.123 Y101.637 E17.2282
G1 X167.307 Y102.206 E17.27189
G1 X167.425 Y102.264 E17.27626
G1 X168.308 Y102.702 E17.30904
G1 X169.115 Y103.147 E17.3397
G1 X170.019 Y103.764 E17.3761
G1 X170.174 Y103.882 E17.38258
G1 X170.881 Y104.471 E17.41318
G1 X171.535 Y105.119 E17.44381
G1 X172.13 Y105.821 E17.47441
G1 X172.662 Y106.573 E17.50505
G1 X173.127 Y107.368 E17.53568
G1 X173.521 Y108.2 E17.5663
G1 X173.91 Y109.284 E17.60461
G1 X173.95 Y109.418 E17.60926
G1 X174.175 Y110.311 E17.63989
G1 X174.321 Y111.22 E17.67051
G1 X174.391 Y112.257 E17.70508
G1 X174.409 Y113.244 E17.73791
G1 X174.411 Y113.438 E17.74436
G1 X174.41 Y126.438 E18.17675
G1 X174.409 Y126.588 E18.18173
G1 X174.399 Y127.29 E18.20509
G1 X174.373 Y127.898 E18.22533
G1 X174.347 Y128.26 E18.2374
G1 X174.329 Y128.475 E18.24457
G1 X174.291 Y128.887 E18.25833
G1 X174.274 Y129.059 E18.26408
G1 X174.201 Y129.73 E18.28653
G1 X174.062 Y130.641 E18.31718
G1 X173.793 Y131.704 E18.35365
G1 X173.558 Y132.467 E18.38021
G1 X173.514 Y132.608 E18.38512
G1 X173.374 Y133.041 E18.40026
G1 X173.326 Y133.186 E18.40534
G1 X173.099 Y133.855 E18.42883
G1 X172.765 Y134.713 E18.45946
G1 X172.359 Y135.539 E18.49007
G1 X172.076 Y136.026 E18.5088
G1 X171.531 Y136.907 E18.54326
G1 X171.405 Y137.104 E18.55104
G1 X170.91 Y137.866 E18.58126
G1 X170.376 Y138.616 E18.61188
G1 X169.778 Y139.316 E18.6425
G1 X169.352 Y139.748 E18.66268
G1 X168.506 Y140.558 E18.70164
G1 X168.363 Y140.692 E18.70815
G1 X167.794 Y141.217 E18.7339
G1 X167.091 Y141.812 E18.76454
G1 X166.339 Y142.343 E18.79515
G1 X165.828 Y142.651 E18.815
G1 X164.77 Y143.25 E18.85544
G1 X164.527 Y143.384 E18.86467
G1 X163.873 Y143.732 E18.88931
G1 X163.043 Y144.128 E18.91989
G1 X162.18 Y144.452 E18.95055
G1 X161.638 Y144.613 E18.96936
G1 X160.5 Y144.918 E19.00854
G1 X160.288 Y144.972 E19.01582
G1 X159.544 Y145.155 E19.0413
G1 X158.641 Y145.336 E19.07194
G1 X157.727 Y145.438 E19.10252
G1 X157.563 Y145.449 E19.10799
G1 X157.257 Y145.474 E19.1182
G1 X156.636 Y145.506 E19.13888
G1 X155.305 Y145.536 E19.18316
G1 X155.066 Y145.539 E19.19111
G1 X130.119 Y145.539 E20.02086
G1 X129.974 Y145.538 E20.02568
G1 X129.318 Y145.529 E20.0475
G1 X128.398 Y145.476 E20.07815
G1 X127.487 Y145.344 E20.10877
G1 X126.859 Y145.205 E20.13016
G1 X126.638 Y145.149 E20.13774
G1 X125.757 Y144.885 E20.16833
G1 X124.808 Y144.502 E20.20237
G1 X124.312 Y144.274 E20.22052
G1 X121.895 Y143.202 E20.30847
G1 X119.539 Y142.236 E20.39316
G1 X117.642 Y141.512 E20.46069
G1 X116.463 Y141.077 E20.50249
G1 X115.614 Y140.721 E20.53311
G1 X114.799 Y140.293 E20.56373
G1 X114.331 Y140.004 E20.58202
G1 X113.432 Y139.416 E20.61775
G1 X111.241 Y138.024 E20.70409
G1 X109.058 Y136.724 E20.78859
G1 X106.844 Y135.485 E20.87298
G1 X104.624 Y134.326 E20.95627
G1 X102.35 Y133.22 E21.04038
G1 X100.031 Y132.172 E21.12502
G1 X97.699 Y131.196 E21.2091
G1 X95.308 Y130.272 E21.29436
G1 X92.953 Y129.441 E21.37742
G1 X90.579 Y128.678 E21.46035
G1 X88.112 Y127.959 E21.54582
G1 X85.68 Y127.326 E21.6294
G1 X83.893 Y126.914 E21.6904
G1 X83.656 Y126.856 E21.69851
G1 X83.256 Y126.754 E21.71224
G1 X82.195 Y126.424 E21.7492
G1 X81.96 Y126.337 E21.75754
G1 X81.437 Y126.127 E21.77628
G1 X81.136 Y125.997 E21.78719
G1 X80.324 Y125.605 E21.81718
G1 X80.108 Y125.489 E21.82533
G1 X79.756 Y125.291 E21.83876
G1 X79.4 Y125.082 E21.85249
G1 X78.627 Y124.582 E21.88311
G1 X78.171 Y124.239 E21.90209
G1 X77.576 Y123.766 E21.92737
G1 X76.881 Y123.162 E21.958
G1 X76.434 Y122.712 E21.97909
G1 X76.126 Y122.383 E21.99408
G1 X75.729 Y121.934 E22.01402
G1 X75.516 Y121.679 E22.02507
G1 X74.777 Y120.681 E22.06637
G1 X74.598 Y120.407 E22.07726
G1 X74.331 Y119.977 E22.09409
G1 X74.112 Y119.604 E22.10848
G1 X73.582 Y118.577 E22.14692
G1 X73.49 Y118.372 E22.15439
G1 X73.294 Y117.906 E22.1712
G1 X73.124 Y117.473 E22.18668
G1 X72.92 Y116.906 E22.20672
G1 X72.723 Y116.307 E22.22769
G1 X71.869 Y113.823 E22.31505
G1 X70.988 Y111.478 E22.39837
G1 X70.03 Y109.137 E22.4825
G1 X69.008 Y106.829 E22.56646
G1 X67.915 Y104.531 E22.65109
G1 X66.755 Y102.264 E22.73579
G1 X65.558 Y100.077 E22.81871
