;FLAVOR:Marlin
;TIME:3660
;Filament used: 0.495812m
;Layer height: 0.16
;MINX:89.759
;MINY:88.075
;MINZ:0.2
;MAXX:131.05
;MAXY:131.925
;MAXZ:5.92
;Generated with Cura_SteamEngine 4.4.1
M140 S80
M105
M190 S80
M104 S240
M105
M109 S240
M82 ;absolute extrusion mode
M201 X500.00 Y500.00 Z100.00 E5000.00 ;Setup machine max acceleration
M203 X500.00 Y500.00 Z10.00 E50.00 ;Setup machine max feedrate
M204 P500.00 R1000.00 T500.00 ;Setup Print/Retract/Travel acceleration
M205 X8.00 Y8.00 Z0.40 E5.00 ;Setup Jerk
M220 S100 ;Reset Feedrate
M221 S100 ;Reset Flowrate

G28 ;Home

G92 E0 ;Reset Extruder
G1 Z2.0 F3000 ;Move Z Axis up
G1 X10.1 Y20 Z0.28 F5000.0 ;Move to start position
G1 X10.1 Y200.0 Z0.28 F1500.0 E15 ;Draw the first line
G1 X10.4 Y200.0 Z0.28 F5000.0 ;Move to side a little
G1 X10.4 Y20 Z0.28 F1500.0 E30 ;Draw the second line
G92 E0 ;Reset Extruder
G1 Z2.0 F3000 ;Move Z Axis up

G92 E0
G92 E0
G1 F1800 E-3
;LAYER_COUNT:38
;LAYER:0
M107
G0 F6000 X92.179 Y92.228 Z0.2
;TYPE:SKIRT
G1 F1800 E0
G1 F1200 X92.571 Y91.878 E0.01748
G1 X93.017 Y91.507 E0.03677
G1 X93.122 Y91.421 E0.04129
G1 X93.568 Y91.063 E0.06031
G1 X93.72 Y90.945 E0.06671
G1 X94.201 Y90.578 E0.08683
G1 X94.402 Y90.429 E0.09516
G1 X94.852 Y90.108 E0.11354
G1 X95.131 Y89.918 E0.12477
G1 X95.574 Y89.63 E0.14234
G1 X96.015 Y89.364 E0.15947
G1 X96.542 Y89.069 E0.17956
G1 X97.25 Y88.718 E0.20584
G1 X97.989 Y88.441 E0.23209
G1 X98.753 Y88.241 E0.25836
G1 X99.533 Y88.118 E0.28462
G1 X100.352 Y88.075 E0.3119
G1 X100.596 Y88.075 E0.32001
G1 X101.385 Y88.115 E0.34629
G1 X102.005 Y88.21 E0.36715
G1 X102.217 Y88.166 E0.37435
G1 X103.002 Y88.085 E0.4006
G1 X103.404 Y88.075 E0.41398
G1 X105.22 Y88.075 E0.47438
G1 X106.009 Y88.115 E0.50065
G1 X106.789 Y88.234 E0.5269
G1 X107.554 Y88.432 E0.55318
G1 X108.294 Y88.706 E0.57942
G1 X109.003 Y89.054 E0.60569
G1 X109.674 Y89.472 E0.63199
G1 X110.298 Y89.955 E0.65823
G1 X110.634 Y90.264 E0.67341
G1 X110.852 Y90.108 E0.68233
G1 X111.131 Y89.918 E0.69356
G1 X111.574 Y89.63 E0.71113
G1 X112.015 Y89.364 E0.72826
G1 X112.542 Y89.069 E0.74835
G1 X113.25 Y88.718 E0.77463
G1 X113.989 Y88.441 E0.80088
G1 X114.753 Y88.241 E0.82715
G1 X115.533 Y88.118 E0.85341
G1 X116.352 Y88.075 E0.88069
G1 X116.596 Y88.075 E0.8888
G1 X117.385 Y88.115 E0.91508
G1 X118.005 Y88.21 E0.93594
G1 X118.217 Y88.166 E0.94314
G1 X119.002 Y88.085 E0.96939
G1 X119.404 Y88.075 E0.98277
G1 X121.22 Y88.075 E1.04317
G1 X122.009 Y88.115 E1.06944
G1 X122.789 Y88.234 E1.09568
G1 X123.554 Y88.432 E1.12197
G1 X124.294 Y88.706 E1.14821
G1 X125.003 Y89.054 E1.17448
G1 X125.674 Y89.472 E1.20078
G1 X126.298 Y89.955 E1.22702
G1 X126.694 Y90.319 E1.24491
G1 X128.724 Y92.319 E1.33969
G1 X129.258 Y92.901 E1.36596
G1 X129.73 Y93.534 E1.39223
G1 X130.136 Y94.211 E1.41848
G1 X130.471 Y94.926 E1.44474
G1 X130.732 Y95.671 E1.471
G1 X130.917 Y96.439 E1.49727
G1 X131.023 Y97.222 E1.52355
G1 X131.05 Y97.875 E1.54529
G1 X131.05 Y99.375 E1.59518
G1 X131.01 Y100.164 E1.62146
G1 X130.891 Y100.944 E1.6477
G1 X130.693 Y101.709 E1.67398
G1 X130.419 Y102.449 E1.70023
G1 X130.071 Y103.158 E1.7265
G1 X129.653 Y103.829 E1.75279
G1 X129.17 Y104.453 E1.77904
G1 X129.006 Y104.626 E1.78696
G1 X129.258 Y104.901 E1.79937
G1 X129.73 Y105.534 E1.82563
G1 X130.136 Y106.211 E1.85189
G1 X130.471 Y106.926 E1.87815
G1 X130.732 Y107.671 E1.90441
G1 X130.917 Y108.439 E1.93068
G1 X131.023 Y109.222 E1.95696
G1 X131.05 Y109.875 E1.9787
G1 X131.05 Y111.375 E2.02859
G1 X131.01 Y112.164 E2.05486
G1 X130.891 Y112.944 E2.08111
G1 X130.693 Y113.709 E2.10739
G1 X130.419 Y114.449 E2.13364
G1 X130.071 Y115.158 E2.1599
G1 X129.653 Y115.829 E2.1862
G1 X129.17 Y116.453 E2.21244
G1 X129.006 Y116.626 E2.22037
G1 X129.258 Y116.901 E2.23278
G1 X129.73 Y117.534 E2.25904
G1 X130.136 Y118.211 E2.2853
G1 X130.471 Y118.926 E2.31156
G1 X130.732 Y119.671 E2.33781
G1 X130.917 Y120.439 E2.36409
G1 X131.023 Y121.222 E2.39037
G1 X131.05 Y121.875 E2.4121
G1 X131.05 Y123.375 E2.462
G1 X131.01 Y124.164 E2.48827
G1 X130.891 Y124.944 E2.51451
G1 X130.693 Y125.709 E2.5408
G1 X130.419 Y126.449 E2.56704
G1 X130.071 Y127.158 E2.59331
G1 X129.653 Y127.829 E2.6196
G1 X129.17 Y128.453 E2.64585
G1 X128.627 Y129.026 E2.67211
G1 X128.028 Y129.541 E2.69838
G1 X127.38 Y129.992 E2.72464
G1 X126.689 Y130.376 E2.75093
G1 X125.964 Y130.688 E2.77718
G1 X125.211 Y130.925 E2.80344
G1 X124.56 Y131.059 E2.82555
G1 X124.439 Y131.126 E2.83015
G1 X123.714 Y131.438 E2.8564
G1 X122.961 Y131.675 E2.88265
G1 X122.187 Y131.834 E2.90893
G1 X121.402 Y131.915 E2.93518
G1 X121 Y131.925 E2.94856
G1 X116.925 Y131.925 E3.08409
G1 X116.136 Y131.885 E3.11037
G1 X115.356 Y131.766 E3.13661
G1 X114.591 Y131.568 E3.16289
G1 X113.851 Y131.294 E3.18914
G1 X113.609 Y131.175 E3.19811
G1 X113.56 Y131.175 E3.19974
G1 X112.771 Y131.135 E3.22601
G1 X111.991 Y131.016 E3.25226
G1 X111.226 Y130.818 E3.27854
G1 X110.486 Y130.544 E3.30479
G1 X110.398 Y130.501 E3.30804
G1 X109.964 Y130.688 E3.32376
G1 X109.211 Y130.925 E3.35002
G1 X108.56 Y131.059 E3.37212
G1 X108.439 Y131.126 E3.37672
G1 X107.714 Y131.438 E3.40298
G1 X106.961 Y131.675 E3.42923
G1 X106.187 Y131.834 E3.45551
G1 X105.402 Y131.915 E3.48176
G1 X105 Y131.925 E3.49513
G1 X100.925 Y131.925 E3.63067
G1 X100.136 Y131.885 E3.65695
G1 X99.356 Y131.766 E3.68319
G1 X98.591 Y131.568 E3.70947
G1 X97.851 Y131.294 E3.73572
G1 X97.609 Y131.175 E3.74469
G1 X97.56 Y131.175 E3.74632
G1 X96.771 Y131.135 E3.77259
G1 X95.991 Y131.016 E3.79884
G1 X95.226 Y130.818 E3.82512
G1 X94.486 Y130.544 E3.85136
G1 X93.777 Y130.196 E3.87763
G1 X93.106 Y129.778 E3.90393
G1 X92.482 Y129.295 E3.93017
G1 X91.909 Y128.752 E3.95643
G1 X91.394 Y128.153 E3.9827
G1 X90.943 Y127.505 E4.00896
G1 X90.559 Y126.814 E4.03525
G1 X90.247 Y126.089 E4.0615
G1 X90.01 Y125.336 E4.08776
G1 X89.851 Y124.562 E4.11404
G1 X89.77 Y123.777 E4.14029
G1 X89.76 Y123.38 E4.1535
G1 X89.759 Y121.88 E4.20339
G1 X89.798 Y121.092 E4.22963
G1 X89.917 Y120.311 E4.25591
G1 X90.115 Y119.546 E4.28219
G1 X90.388 Y118.805 E4.30845
G1 X90.735 Y118.096 E4.33471
G1 X91.153 Y117.426 E4.36097
G1 X91.635 Y116.801 E4.38722
G1 X91.801 Y116.626 E4.39525
G1 X91.394 Y116.153 E4.416
G1 X90.943 Y115.505 E4.44226
G1 X90.559 Y114.814 E4.46855
G1 X90.247 Y114.089 E4.4948
G1 X90.01 Y113.336 E4.52106
G1 X89.851 Y112.562 E4.54734
G1 X89.77 Y111.777 E4.57359
G1 X89.76 Y111.38 E4.5868
G1 X89.759 Y109.88 E4.63669
G1 X89.798 Y109.092 E4.66293
G1 X89.917 Y108.311 E4.6892
G1 X90.115 Y107.546 E4.71549
G1 X90.388 Y106.805 E4.74175
G1 X90.735 Y106.096 E4.76801
G1 X91.153 Y105.426 E4.79427
G1 X91.635 Y104.801 E4.82052
G1 X91.801 Y104.626 E4.82855
G1 X91.394 Y104.153 E4.8493
G1 X90.943 Y103.505 E4.87556
G1 X90.559 Y102.814 E4.90185
G1 X90.247 Y102.089 E4.9281
G1 X90.01 Y101.336 E4.95436
G1 X89.851 Y100.562 E4.98064
G1 X89.77 Y99.777 E5.00689
G1 X89.76 Y99.38 E5.0201
G1 X89.759 Y97.88 E5.06999
G1 X89.798 Y97.092 E5.09623
G1 X89.917 Y96.311 E5.1225
G1 X90.115 Y95.546 E5.14879
G1 X90.388 Y94.805 E5.17505
G1 X90.735 Y94.096 E5.20131
G1 X91.153 Y93.426 E5.22757
G1 X91.635 Y92.801 E5.25382
G1 X92.179 Y92.228 E5.2801
G0 F6000 X92.827 Y92.186
G1 F1200 X93.273 Y91.815 E5.2994
G1 X93.373 Y91.733 E5.3037
G1 X93.819 Y91.375 E5.32272
G1 X93.962 Y91.263 E5.32876
G1 X94.443 Y90.896 E5.34889
G1 X94.635 Y90.755 E5.35681
G1 X95.085 Y90.434 E5.37519
G1 X95.349 Y90.254 E5.38582
G1 X95.792 Y89.966 E5.40339
G1 X96.21 Y89.713 E5.41965
G1 X96.737 Y89.418 E5.43973
G1 X97.427 Y89.078 E5.46532
G1 X98.149 Y88.811 E5.49092
G1 X98.894 Y88.62 E5.5165
G1 X99.655 Y88.508 E5.54208
G1 X100.352 Y88.475 E5.56529
G1 X100.596 Y88.475 E5.57341
G1 X101.364 Y88.515 E5.59899
G1 X102.01 Y88.616 E5.62073
G1 X102.555 Y88.524 E5.63912
G1 X103.404 Y88.475 E5.6674
G1 X105.22 Y88.475 E5.7278
G1 X105.988 Y88.515 E5.75338
G1 X106.748 Y88.634 E5.77897
G1 X107.491 Y88.832 E5.80454
G1 X108.21 Y89.106 E5.83013
G1 X108.896 Y89.453 E5.8557
G1 X109.543 Y89.869 E5.88129
G1 X110.411 Y90.601 E5.91905
G1 X110.596 Y90.783 E5.92768
G1 X110.635 Y90.755 E5.92928
G1 X111.085 Y90.434 E5.94766
G1 X111.349 Y90.254 E5.95829
G1 X111.792 Y89.966 E5.97587
G1 X112.21 Y89.713 E5.99212
G1 X112.737 Y89.418 E6.0122
G1 X113.427 Y89.078 E6.03779
G1 X114.149 Y88.811 E6.06339
G1 X114.894 Y88.62 E6.08897
G1 X115.655 Y88.508 E6.11456
G1 X116.352 Y88.475 E6.13776
G1 X116.596 Y88.475 E6.14588
G1 X117.364 Y88.515 E6.17146
G1 X118.01 Y88.616 E6.1932
G1 X118.555 Y88.524 E6.21159
G1 X119.404 Y88.475 E6.23987
G1 X121.22 Y88.475 E6.30027
G1 X121.988 Y88.515 E6.32585
G1 X122.748 Y88.634 E6.35144
G1 X123.491 Y88.832 E6.37701
G1 X124.21 Y89.106 E6.4026
G1 X124.896 Y89.453 E6.42817
G1 X125.543 Y89.869 E6.45376
G1 X126.413 Y90.604 E6.49164
G1 X128.443 Y92.604 E6.58642
G1 X128.963 Y93.171 E6.61201
G1 X129.42 Y93.79 E6.6376
G1 X129.811 Y94.452 E6.66317
G1 X130.131 Y95.152 E6.68877
G1 X130.376 Y95.88 E6.71432
G1 X130.545 Y96.631 E6.73992
G1 X130.634 Y97.395 E6.7655
G1 X130.65 Y97.875 E6.78148
G1 X130.65 Y99.375 E6.83137
G1 X130.61 Y100.143 E6.85695
G1 X130.491 Y100.903 E6.88253
G1 X130.293 Y101.646 E6.90811
G1 X130.019 Y102.365 E6.9337
G1 X129.672 Y103.051 E6.95927
G1 X129.256 Y103.698 E6.98485
G1 X128.775 Y104.298 E7.01043
G1 X128.457 Y104.619 E7.02546
G1 X128.963 Y105.171 E7.05036
G1 X129.42 Y105.79 E7.07595
G1 X129.811 Y106.452 E7.10153
G1 X130.131 Y107.152 E7.12712
G1 X130.376 Y107.88 E7.15267
G1 X130.545 Y108.631 E7.17828
G1 X130.634 Y109.395 E7.20386
G1 X130.65 Y109.875 E7.21983
G1 X130.65 Y111.375 E7.26972
G1 X130.61 Y112.143 E7.2953
G1 X130.491 Y112.903 E7.32089
G1 X130.293 Y113.646 E7.34646
G1 X130.019 Y114.365 E7.37205
G1 X129.672 Y115.051 E7.39762
G1 X129.256 Y115.698 E7.42321
G1 X128.775 Y116.298 E7.44878
G1 X128.457 Y116.619 E7.46381
G1 X128.963 Y117.171 E7.48872
G1 X129.42 Y117.79 E7.51431
G1 X129.811 Y118.452 E7.53988
G1 X130.131 Y119.152 E7.56548
G1 X130.376 Y119.88 E7.59103
G1 X130.545 Y120.631 E7.61663
G1 X130.634 Y121.395 E7.64221
G1 X130.65 Y121.875 E7.65819
G1 X130.65 Y123.375 E7.70808
G1 X130.61 Y124.143 E7.73366
G1 X130.491 Y124.903 E7.75924
G1 X130.293 Y125.646 E7.78482
G1 X130.019 Y126.365 E7.81041
G1 X129.672 Y127.051 E7.83598
G1 X129.256 Y127.698 E7.86156
G1 X128.775 Y128.298 E7.88714
G1 X128.234 Y128.845 E7.91273
G1 X127.639 Y129.333 E7.93832
G1 X126.997 Y129.756 E7.96389
G1 X126.314 Y130.111 E7.98949
G1 X125.599 Y130.392 E8.01505
G1 X124.857 Y130.598 E8.04066
G1 X124.432 Y130.67 E8.05499
G1 X124.064 Y130.861 E8.06878
G1 X123.349 Y131.142 E8.09434
G1 X122.607 Y131.348 E8.11995
G1 X121.849 Y131.476 E8.14552
G1 X121 Y131.525 E8.1738
G1 X116.925 Y131.525 E8.30934
G1 X116.157 Y131.485 E8.33492
G1 X115.397 Y131.366 E8.3605
G1 X114.654 Y131.168 E8.38608
G1 X113.935 Y130.894 E8.41167
G1 X113.7 Y130.775 E8.42043
G1 X113.56 Y130.775 E8.42508
G1 X112.792 Y130.735 E8.45066
G1 X112.032 Y130.616 E8.47625
G1 X111.289 Y130.418 E8.50182
G1 X110.57 Y130.144 E8.52742
G1 X110.408 Y130.062 E8.53345
G1 X110.314 Y130.111 E8.53698
G1 X109.599 Y130.392 E8.56253
G1 X108.857 Y130.598 E8.58814
G1 X108.432 Y130.67 E8.60248
G1 X108.064 Y130.861 E8.61627
G1 X107.349 Y131.142 E8.64182
G1 X106.607 Y131.348 E8.66744
G1 X105.849 Y131.476 E8.693
G1 X105 Y131.525 E8.72129
G1 X100.925 Y131.525 E8.85682
G1 X100.157 Y131.485 E8.8824
G1 X99.397 Y131.366 E8.90799
G1 X98.654 Y131.168 E8.93356
G1 X97.935 Y130.894 E8.95915
G1 X97.7 Y130.775 E8.96791
G1 X97.56 Y130.775 E8.97257
G1 X96.792 Y130.735 E8.99815
G1 X96.032 Y130.616 E9.02374
G1 X95.289 Y130.418 E9.04931
G1 X94.57 Y130.144 E9.0749
G1 X93.884 Y129.797 E9.10047
G1 X93.237 Y129.381 E9.12605
G1 X92.637 Y128.9 E9.15163
G1 X92.09 Y128.359 E9.17722
G1 X91.602 Y127.764 E9.20281
G1 X91.179 Y127.122 E9.22839
G1 X90.824 Y126.439 E9.25399
G1 X90.543 Y125.724 E9.27954
G1 X90.337 Y124.982 E9.30515
G1 X90.209 Y124.224 E9.33072
G1 X90.16 Y123.38 E9.35884
G1 X90.159 Y121.88 E9.40873
G1 X90.198 Y121.112 E9.43431
G1 X90.317 Y120.352 E9.45989
G1 X90.515 Y119.608 E9.4855
G1 X90.788 Y118.889 E9.51108
G1 X91.134 Y118.203 E9.53663
G1 X91.55 Y117.556 E9.56222
G1 X92.031 Y116.955 E9.58782
G1 X92.366 Y116.632 E9.6033
G1 X92.09 Y116.359 E9.61621
G1 X91.602 Y115.764 E9.6418
G1 X91.179 Y115.122 E9.66737
G1 X90.824 Y114.439 E9.69298
G1 X90.543 Y113.724 E9.71853
G1 X90.337 Y112.982 E9.74414
G1 X90.209 Y112.224 E9.76971
G1 X90.16 Y111.38 E9.79783
G1 X90.159 Y109.88 E9.84772
G1 X90.198 Y109.112 E9.87329
G1 X90.317 Y108.352 E9.89888
G1 X90.515 Y107.608 E9.92449
G1 X90.788 Y106.889 E9.95007
G1 X91.134 Y106.203 E9.97562
G1 X91.55 Y105.556 E10.0012
G1 X92.031 Y104.955 E10.02681
G1 X92.366 Y104.632 E10.04229
G1 X92.09 Y104.359 E10.0552
G1 X91.602 Y103.764 E10.08079
G1 X91.179 Y103.122 E10.10636
G1 X90.824 Y102.439 E10.13197
G1 X90.543 Y101.724 E10.15752
G1 X90.337 Y100.982 E10.18313
G1 X90.209 Y100.224 E10.2087
G1 X90.16 Y99.38 E10.23682
G1 X90.159 Y97.88 E10.28671
G1 X90.198 Y97.112 E10.31228
G1 X90.317 Y96.352 E10.33787
G1 X90.515 Y95.608 E10.36348
G1 X90.788 Y94.889 E10.38906
G1 X91.134 Y94.203 E10.41461
G1 X91.55 Y93.556 E10.44019
G1 X92.031 Y92.955 E10.4658
G1 X92.827 Y92.186 E10.50261
G0 F6000 X92.426 Y93.115
G1 F1200 X93.082 Y92.493 E10.53268
G1 X93.528 Y92.122 E10.55197
G1 X93.623 Y92.045 E10.55604
G1 X94.069 Y91.687 E10.57506
G1 X94.205 Y91.581 E10.5808
G1 X94.686 Y91.214 E10.60092
G1 X94.867 Y91.08 E10.60841
G1 X95.317 Y90.759 E10.62679
G1 X95.567 Y90.589 E10.63685
G1 X96.01 Y90.301 E10.65442
G1 X96.406 Y90.062 E10.66981
G1 X96.933 Y89.767 E10.68989
G1 X97.604 Y89.437 E10.71476
G1 X98.307 Y89.18 E10.73966
G1 X99.033 Y89 E10.76454
G1 X99.774 Y88.899 E10.78941
G1 X100.352 Y88.875 E10.80865
G1 X100.596 Y88.875 E10.81677
G1 X101.343 Y88.915 E10.84165
G1 X102.007 Y89.022 E10.86402
G1 X102.145 Y88.989 E10.86874
G1 X102.887 Y88.894 E10.89362
G1 X103.404 Y88.875 E10.91083
G1 X105.22 Y88.875 E10.97123
G1 X105.967 Y88.915 E10.99611
G1 X106.705 Y89.034 E11.02097
G1 X107.427 Y89.232 E11.04587
G1 X108.123 Y89.505 E11.07074
G1 X108.786 Y89.852 E11.09563
G1 X109.409 Y90.267 E11.12052
G1 X110.13 Y90.886 E11.15213
G1 X110.561 Y91.31 E11.17224
G1 X110.686 Y91.214 E11.17748
G1 X110.867 Y91.08 E11.18497
G1 X111.317 Y90.759 E11.20336
G1 X111.567 Y90.589 E11.21341
G1 X112.01 Y90.301 E11.23098
G1 X112.406 Y90.062 E11.24637
G1 X112.933 Y89.767 E11.26646
G1 X113.604 Y89.437 E11.29133
G1 X114.307 Y89.18 E11.31622
G1 X115.033 Y89 E11.3411
G1 X115.774 Y88.899 E11.36597
G1 X116.352 Y88.875 E11.38521
G1 X116.596 Y88.875 E11.39333
G1 X117.343 Y88.915 E11.41821
G1 X118.007 Y89.022 E11.44058
G1 X118.145 Y88.989 E11.4453
G1 X118.887 Y88.894 E11.47018
G1 X119.404 Y88.875 E11.48739
G1 X121.22 Y88.875 E11.54779
G1 X121.967 Y88.915 E11.57267
G1 X122.705 Y89.034 E11.59753
G1 X123.427 Y89.232 E11.62243
G1 X124.123 Y89.505 E11.6473
G1 X124.786 Y89.852 E11.67219
G1 X125.409 Y90.267 E11.69708
G1 X126.133 Y90.889 E11.72883
G1 X128.163 Y92.889 E11.82361
G1 X128.667 Y93.441 E11.84847
G1 X129.109 Y94.045 E11.87337
G1 X129.484 Y94.692 E11.89824
G1 X129.788 Y95.375 E11.92311
G1 X130.018 Y96.087 E11.94799
G1 X130.17 Y96.82 E11.97289
G1 X130.25 Y97.875 E12.00808
G1 X130.25 Y99.375 E12.05797
G1 X130.21 Y100.122 E12.08285
G1 X130.091 Y100.86 E12.10771
G1 X129.893 Y101.582 E12.13262
G1 X129.62 Y102.278 E12.15748
G1 X129.273 Y102.941 E12.18237
G1 X128.858 Y103.564 E12.20727
G1 X128.379 Y104.138 E12.23213
G1 X127.886 Y104.616 E12.25497
G1 X128.163 Y104.889 E12.26791
G1 X128.667 Y105.441 E12.29277
G1 X129.109 Y106.045 E12.31766
G1 X129.484 Y106.692 E12.34254
G1 X129.788 Y107.375 E12.3674
G1 X130.018 Y108.087 E12.39229
G1 X130.17 Y108.82 E12.41719
G1 X130.25 Y109.875 E12.45238
G1 X130.25 Y111.375 E12.50227
G1 X130.21 Y112.122 E12.52715
G1 X130.091 Y112.86 E12.55201
G1 X129.893 Y113.582 E12.57691
G1 X129.62 Y114.278 E12.60178
G1 X129.273 Y114.941 E12.62667
G1 X128.858 Y115.564 E12.65156
G1 X128.379 Y116.138 E12.67643
G1 X127.886 Y116.616 E12.69927
G1 X128.163 Y116.889 E12.7122
G1 X128.667 Y117.441 E12.73706
G1 X129.109 Y118.045 E12.76196
G1 X129.484 Y118.692 E12.78683
G1 X129.788 Y119.375 E12.8117
G1 X130.018 Y120.087 E12.83658
G1 X130.17 Y120.82 E12.86148
G1 X130.25 Y121.875 E12.89667
G1 X130.25 Y123.375 E12.94656
G1 X130.21 Y124.122 E12.97144
