;FLAVOR:Marlin
;TIME:201
;Filament used: 0.116666m
;Layer height: 0.16
;MINX:91.555
;MINY:91.611
;MINZ:0.24
;MAXX:128.444
;MAXY:128.386
;MAXZ:1.56
;Generated with Cura_SteamEngine 4.5.0
M140 S50
M105
M190 S50
M104 S215
M105
M109 S215
M82 ;absolute extrusion mode
M201 X500.00 Y500.00 Z100.00 E5000.00 ;Setup machine max acceleration
M203 X500.00 Y500.00 Z10.00 E50.00 ;Setup machine max feedrate
M204 P500.00 R1000.00 T500.00 ;Setup Print/Retract/Travel acceleration
M205 X8.00 Y8.00 Z0.40 E5.00 ;Setup Jerk
M220 S100 ;Reset Feedrate
M221 S100 ;Reset Flowrate

G28 ;Home

G92 E0 ;Reset Extruder
G1 Z2.0 F3000 ;Move Z Axis up
G1 X10.1 Y20 Z0.28 F5000.0 ;Move to start position
G1 X10.1 Y200.0 Z0.28 F1500.0 E15 ;Draw the first line
G1 X10.4 Y200.0 Z0.28 F5000.0 ;Move to side a little
G1 X10.4 Y20 Z0.28 F1500.0 E30 ;Draw the second line
G92 E0 ;Reset Extruder
G1 Z2.0 F3000 ;Move Z Axis up

G92 E0
G92 E0
G1 F1800 E-3
;LAYER_COUNT:11
;LAYER:0
M106 S63.8
M204 S500
M205 X6 Y6
G0 F9000 X95.061 Y95.349 Z0.24
;TYPE:SKIRT
G1 F1800 E0
G1 X95.802 Y94.632 E0.04115
G1 X96.683 Y93.91 E0.08662
G1 X97.46 Y93.385 E0.12404
G1 X97.988 Y93.08 E0.14838
G1 X99.025 Y92.564 E0.19461
G1 X99.9 Y92.227 E0.23203
G1 X100.801 Y91.965 E0.26948
G1 X101.72 Y91.781 E0.30689
G1 X102.938 Y91.659 E0.35575
G1 X103.699 Y91.635 E0.38614
G1 X106.53 Y91.611 E0.49913
G1 X115.798 Y91.623 E0.86904
G1 X116.664 Y91.635 E0.9036
G1 X117.601 Y91.69 E0.94107
G1 X118.529 Y91.824 E0.97849
G1 X119.24 Y91.982 E1.00756
G1 X120.362 Y92.313 E1.05425
G1 X121.233 Y92.661 E1.09168
G1 X122.071 Y93.082 E1.12911
G1 X122.87 Y93.573 E1.16654
G1 X123.625 Y94.13 E1.20399
G1 X124.426 Y94.843 E1.24679
G1 X125.289 Y95.746 E1.29664
G1 X125.899 Y96.527 E1.3362
G1 X126.587 Y97.56 E1.38573
G1 X127.22 Y98.806 E1.44151
G1 X127.7 Y100.021 E1.49365
G1 X128.017 Y101.184 E1.54176
G1 X128.309 Y102.86 E1.60967
G1 X128.368 Y103.439 E1.63289
G1 X128.423 Y104.356 E1.66956
G1 X128.435 Y105.022 E1.69615
G1 X128.444 Y114.621 E2.07926
G1 X128.434 Y115.448 E2.11227
G1 X128.379 Y116.407 E2.15061
G1 X128.323 Y116.961 E2.17283
G1 X128.215 Y117.749 E2.20458
G1 X128.118 Y118.304 E2.22707
G1 X127.917 Y119.22 E2.2645
G1 X127.764 Y119.747 E2.2864
G1 X127.287 Y121.046 E2.34163
G1 X126.768 Y122.131 E2.38963
G1 X126.285 Y122.935 E2.42707
G1 X125.817 Y123.591 E2.45923
G1 X125.317 Y124.223 E2.49139
G1 X124.595 Y125.021 E2.53435
G1 X123.905 Y125.657 E2.5718
G1 X123.164 Y126.231 E2.60921
G1 X122.376 Y126.74 E2.64665
G1 X121.548 Y127.18 E2.68407
G1 X120.934 Y127.451 E2.71086
G1 X119.777 Y127.877 E2.76007
G1 X118.87 Y128.115 E2.7975
G1 X117.946 Y128.276 E2.83493
G1 X116.721 Y128.365 E2.88395
G1 X116.144 Y128.375 E2.90698
G1 X106.941 Y128.386 E3.2743
G1 X104.153 Y128.383 E3.38557
G1 X103.358 Y128.372 E3.4173
G1 X102.421 Y128.317 E3.45477
G1 X101.493 Y128.183 E3.49219
G1 X100.663 Y127.993 E3.52617
G1 X99.532 Y127.646 E3.57339
G1 X98.665 Y127.288 E3.61083
G1 X97.832 Y126.857 E3.64826
G1 X97.039 Y126.357 E3.68568
G1 X96.291 Y125.791 E3.72312
G1 X95.538 Y125.11 E3.76364
G1 X94.556 Y124.077 E3.82052
G1 X93.981 Y123.336 E3.85796
G1 X93.471 Y122.549 E3.89539
G1 X92.986 Y121.631 E3.93683
G1 X92.44 Y120.37 E3.99167
G1 X92.052 Y119.075 E4.04563
G1 X91.929 Y118.549 E4.06719
G1 X91.702 Y117.214 E4.12124
G1 X91.633 Y116.569 E4.14713
G1 X91.572 Y115.544 E4.18811
G1 X91.563 Y114.862 E4.21533
G1 X91.555 Y105.357 E4.5947
G1 X91.566 Y104.486 E4.62946
G1 X91.595 Y103.828 E4.65575
G1 X91.778 Y102.204 E4.72098
G1 X91.876 Y101.668 E4.74272
G1 X92.084 Y100.753 E4.78018
G1 X92.406 Y99.761 E4.8218
G1 X92.611 Y99.218 E4.84497
G1 X92.979 Y98.355 E4.88241
G1 X93.42 Y97.527 E4.91985
G1 X93.929 Y96.74 E4.95726
G1 X94.277 Y96.275 E4.98044
G1 X95.061 Y95.349 E5.02887
G0 F9000 X95.364 Y95.611
G1 F1800 X96.067 Y94.933 E5.06785
G1 X96.934 Y94.222 E5.1126
G1 X97.699 Y93.708 E5.14939
G1 X98.178 Y93.432 E5.17145
G1 X99.2 Y92.924 E5.217
G1 X100.06 Y92.595 E5.25375
G1 X100.945 Y92.341 E5.2905
G1 X101.849 Y92.166 E5.32725
G1 X102.956 Y92.059 E5.37164
G1 X103.707 Y92.035 E5.40163
G1 X106.533 Y92.011 E5.51443
G1 X115.798 Y92.023 E5.88421
G1 X116.658 Y92.035 E5.91854
G1 X117.577 Y92.089 E5.95528
G1 X118.488 Y92.223 E5.99203
G1 X119.14 Y92.37 E6.01871
G1 X120.246 Y92.696 E6.06473
G1 X121.1 Y93.04 E6.10148
G1 X121.921 Y93.456 E6.13821
G1 X122.703 Y93.942 E6.17496
G1 X123.439 Y94.495 E6.2117
G1 X124.146 Y95.129 E6.2496
G1 X124.996 Y96.02 E6.29875
G1 X125.574 Y96.759 E6.3362
G1 X126.251 Y97.778 E6.38503
G1 X126.852 Y98.964 E6.43809
G1 X127.326 Y100.164 E6.48959
G1 X127.626 Y101.268 E6.53525
G1 X127.911 Y102.9 E6.60137
G1 X127.97 Y103.479 E6.6246
G1 X128.023 Y104.363 E6.65995
G1 X128.035 Y105.029 E6.68653
G1 X128.044 Y114.621 E7.06937
G1 X128.034 Y115.443 E7.10218
G1 X127.981 Y116.367 E7.13912
G1 X127.925 Y116.921 E7.16134
G1 X127.821 Y117.68 E7.19192
G1 X127.724 Y118.235 E7.21441
G1 X127.526 Y119.134 E7.25115
G1 X127.382 Y119.626 E7.27161
G1 X126.92 Y120.886 E7.32517
G1 X126.409 Y121.954 E7.37243
G1 X125.933 Y122.743 E7.4092
G1 X125.5 Y123.347 E7.43887
G1 X125.011 Y123.966 E7.47035
G1 X124.3 Y124.751 E7.51262
G1 X123.621 Y125.373 E7.54937
G1 X122.891 Y125.934 E7.58612
G1 X122.115 Y126.429 E7.62286
G1 X121.299 Y126.856 E7.65961
G1 X120.784 Y127.08 E7.68203
G1 X119.642 Y127.5 E7.73059
G1 X118.752 Y127.732 E7.7673
G1 X117.844 Y127.885 E7.80405
G1 X116.714 Y127.965 E7.84927
G1 X116.137 Y127.975 E7.8723
G1 X106.941 Y127.986 E8.23933
G1 X104.153 Y127.983 E8.35061
G1 X103.364 Y127.972 E8.3821
G1 X102.445 Y127.917 E8.41885
G1 X101.534 Y127.783 E8.4556
G1 X100.768 Y127.606 E8.48698
G1 X99.653 Y127.264 E8.53352
G1 X98.803 Y126.911 E8.57026
G1 X97.987 Y126.485 E8.607
G1 X97.211 Y125.99 E8.64373
G1 X96.48 Y125.429 E8.68051
G1 X95.82 Y124.826 E8.71619
G1 X94.85 Y123.805 E8.7724
G1 X94.287 Y123.077 E8.80913
G1 X93.79 Y122.302 E8.84588
G1 X93.349 Y121.461 E8.88378
G1 X92.81 Y120.216 E8.93793
G1 X92.441 Y118.984 E8.98926
G1 X92.318 Y118.458 E9.01082
G1 X92.1 Y117.172 E9.06288
G1 X92.031 Y116.527 E9.08877
G1 X91.972 Y115.539 E9.12827
G1 X91.963 Y114.857 E9.15549
G1 X91.955 Y105.357 E9.53466
G1 X91.966 Y104.491 E9.56923
G1 X91.994 Y103.858 E9.59451
G1 X92.172 Y102.276 E9.65805
G1 X92.27 Y101.74 E9.6798
G1 X92.475 Y100.842 E9.71656
G1 X92.78 Y99.902 E9.75601
G1 X92.985 Y99.359 E9.77917
G1 X93.347 Y98.513 E9.8159
G1 X93.782 Y97.701 E9.85267
G1 X94.285 Y96.93 E9.88941
G1 X94.591 Y96.524 E9.9097
G1 X95.364 Y95.611 E9.95745
G0 F9000 X95.667 Y95.873
G1 F1800 X96.331 Y95.233 E9.99425
G1 X97.186 Y94.533 E10.03836
G1 X97.936 Y94.032 E10.07436
G1 X98.563 Y93.679 E10.10307
G1 X99.375 Y93.284 E10.13911
G1 X100.22 Y92.963 E10.17519
G1 X101.089 Y92.718 E10.21123
G1 X101.976 Y92.551 E10.24725
G1 X102.973 Y92.459 E10.28721
G1 X103.716 Y92.435 E10.31688
G1 X106.537 Y92.411 E10.42948
G1 X115.797 Y92.423 E10.79907
G1 X116.652 Y92.435 E10.83319
G1 X117.554 Y92.489 E10.86926
G1 X118.447 Y92.623 E10.9053
G1 X119.04 Y92.757 E10.92956
G1 X120.129 Y93.079 E10.97489
G1 X120.966 Y93.418 E11.01093
G1 X121.769 Y93.83 E11.04695
G1 X122.533 Y94.312 E11.08301
G1 X123.252 Y94.859 E11.11906
G1 X123.866 Y95.414 E11.1521
G1 X124.703 Y96.293 E11.20054
G1 X125.248 Y96.991 E11.23589
G1 X125.915 Y97.996 E11.28403
G1 X126.485 Y99.122 E11.3344
G1 X126.951 Y100.306 E11.38518
G1 X127.235 Y101.352 E11.42844
G1 X127.513 Y102.941 E11.49283
G1 X127.572 Y103.52 E11.51606
G1 X127.623 Y104.37 E11.55004
G1 X127.635 Y105.036 E11.57663
G1 X127.644 Y114.621 E11.95919
G1 X127.634 Y115.438 E11.9918
G1 X127.583 Y116.327 E12.02734
G1 X127.527 Y116.881 E12.04956
G1 X127.427 Y117.611 E12.07897
G1 X127.33 Y118.166 E12.10146
G1 X127.135 Y119.048 E12.13751
G1 X126.93 Y119.727 E12.16582
G1 X126.554 Y120.725 E12.20838
G1 X126.049 Y121.778 E12.25499
G1 X125.581 Y122.55 E12.29103
G1 X125.183 Y123.103 E12.31822
G1 X124.705 Y123.709 E12.34902
G1 X124.005 Y124.48 E12.39059
G1 X123.338 Y125.089 E12.42664
G1 X122.619 Y125.636 E12.46269
G1 X121.855 Y126.117 E12.49873
G1 X121.052 Y126.53 E12.53477
G1 X120.36 Y126.821 E12.56473
G1 X119.509 Y127.122 E12.60076
G1 X118.634 Y127.348 E12.63683
G1 X117.743 Y127.495 E12.67287
G1 X116.707 Y127.565 E12.71431
G1 X116.13 Y127.575 E12.73734
G1 X106.94 Y127.586 E13.10414
G1 X104.154 Y127.583 E13.21533
G1 X103.37 Y127.572 E13.24663
G1 X102.469 Y127.518 E13.28265
G1 X101.576 Y127.384 E13.31869
G1 X100.872 Y127.22 E13.34754
G1 X99.774 Y126.882 E13.3934
G1 X98.941 Y126.534 E13.42943
G1 X98.142 Y126.112 E13.46549
G1 X97.384 Y125.622 E13.50152
G1 X96.672 Y125.067 E13.53755
G1 X96.102 Y124.542 E13.56848
G1 X95.145 Y123.534 E13.62395
G1 X94.594 Y122.818 E13.66001
G1 X94.109 Y122.056 E13.69606
G1 X93.711 Y121.291 E13.73048
G1 X93.179 Y120.062 E13.78393
G1 X92.831 Y118.893 E13.83261
G1 X92.708 Y118.367 E13.85417
G1 X92.498 Y117.129 E13.90429
G1 X92.429 Y116.484 E13.93018
G1 X92.372 Y115.534 E13.96816
G1 X92.363 Y114.852 E13.99539
G1 X92.355 Y105.357 E14.37435
G1 X92.366 Y104.497 E14.40868
G1 X92.393 Y103.888 E14.43301
G1 X92.565 Y102.347 E14.4949
G1 X92.663 Y101.811 E14.51664
G1 X92.865 Y100.931 E14.55268
G1 X93.154 Y100.043 E14.58995
G1 X93.359 Y99.5 E14.61312
G1 X93.715 Y98.67 E14.64916
G1 X94.144 Y97.875 E14.68522
G1 X94.905 Y96.772 E14.7387
G1 X95.667 Y95.873 E14.78574
G1 F1800 E11.78574
;MESH:Apple_MBP_Keycap.stl
G0 F9000 X106.418 Y101.947
G0 X106.428 Y103.031
G0 X116.433 Y103.124
G0 X116.472 Y102.824
;TYPE:WALL-OUTER
G1 F1800 E14.78574
G1 X116.627 Y102.864 E14.79213
G1 X116.892 Y103.133 E14.8072
G1 X117.081 Y103.557 E14.82573
G1 X117.196 Y104.106 E14.84811
G1 X117.237 Y104.592 E14.86758
G1 X117.244 Y115.34 E15.29656
G1 X117.155 Y116.091 E15.32674
G1 X117.083 Y116.427 E15.34045
G1 X117.028 Y116.515 E15.3446
G1 X116.924 Y116.809 E15.35704
G1 X116.675 Y117.112 E15.3727
G1 X116.508 Y117.176 E15.37983
G1 X106.93 Y117.186 E15.76211
G1 X103.53 Y117.182 E15.89781
G1 X103.379 Y117.135 E15.90413
G1 X103.091 Y116.838 E15.92064
G1 X102.928 Y116.474 E15.93656
G1 X102.803 Y115.892 E15.96032
G1 X102.762 Y115.408 E15.9797
G1 X102.755 Y104.644 E16.40932
G1 X102.797 Y104.097 E16.43121
G1 X102.888 Y103.651 E16.44938
G1 X103.077 Y103.181 E16.4696
G1 X103.271 Y102.95 E16.48164
G1 X103.472 Y102.838 E16.49082
G1 X106.426 Y102.811 E16.60873
G1 X116.472 Y102.824 E17.00969
G0 F9000 X116.417 Y103.26
G0 X103.876 Y103.812
G0 X103.783 Y104.154
G0 X103.31 Y116.35
;TYPE:WALL-INNER
G1 F1800 X103.207 Y115.866 E17.02944
G1 X103.2 Y115.837 E17.03063
G1 X103.162 Y115.386 E17.04869
G1 X103.155 Y104.662 E17.47671
G1 X103.194 Y104.152 E17.49712
G1 X103.273 Y103.765 E17.51289
G1 X103.424 Y103.389 E17.52906
G1 X103.529 Y103.264 E17.53558
G1 X103.577 Y103.237 E17.53777
G1 X106.429 Y103.211 E17.65161
G1 X116.42 Y103.224 E18.05037
G1 X116.557 Y103.363 E18.05816
G1 X116.697 Y103.678 E18.07192
G1 X116.799 Y104.164 E18.09174
G1 X116.837 Y104.614 E18.10976
G1 X116.844 Y115.318 E18.53698
G1 X116.76 Y116.024 E18.56536
G1 X116.707 Y116.275 E18.5756
G1 X116.666 Y116.34 E18.57867
G1 X116.571 Y116.609 E18.59005
G1 X116.434 Y116.776 E18.59867
G1 X106.93 Y116.786 E18.978
G1 X103.593 Y116.782 E19.11118
G1 X103.427 Y116.611 E19.1207
G1 X103.31 Y116.35 E19.13211
G0 F9000 X103.692 Y116.224
G1 F1800 X103.597 Y115.782 E19.15016
G1 X103.562 Y115.364 E19.1669
G1 X103.555 Y104.679 E19.59336
G1 X103.591 Y104.207 E19.61225
G1 X103.658 Y103.879 E19.62561
G1 X103.756 Y103.635 E19.63611
G1 X106.432 Y103.611 E19.74292
G1 X116.235 Y103.624 E20.13418
G1 X116.315 Y103.805 E20.14208
G1 X116.401 Y104.215 E20.1588
G1 X116.437 Y104.636 E20.17566
G1 X116.444 Y115.296 E20.60112
G1 X116.365 Y115.96 E20.62781
G1 X116.331 Y116.123 E20.63446
G1 X116.304 Y116.165 E20.63645
G1 X116.229 Y116.376 E20.64539
G1 X106.93 Y116.386 E21.01653
G1 X103.763 Y116.382 E21.14293
G1 X103.692 Y116.224 E21.14985
G0 F9000 X104.041 Y115.992
;TYPE:SKIN
G1 F1800 X103.982 Y115.715 E21.16115
G1 X103.952 Y115.364 E21.17521
G1 X103.945 Y104.679 E21.60167
G1 X103.977 Y104.264 E21.61829
G1 X104.027 Y104.023 E21.62811
G1 X106.436 Y104.001 E21.72426
G1 X115.96 Y104.014 E22.10439
G1 X116.015 Y104.276 E22.11507
G1 X116.047 Y104.636 E22.1295
G1 X116.054 Y115.267 E22.5538
G1 X115.979 Y115.899 E22.5792
G1 X115.963 Y115.973 E22.58223
G1 X115.955 Y115.986 E22.58283
G1 X106.93 Y115.996 E22.94304
G1 X104.041 Y115.992 E23.05835
G0 F9000 X104.517 Y115.831
G1 F1800 X104.117 Y115.43 E23.08095
G0 F9000 X104.111 Y114.859
G1 F1800 X105.083 Y115.831 E23.13582
G0 F9000 X105.65 Y115.833
G1 F1800 X104.11 Y114.293 E23.22274
G0 F9000 X104.11 Y113.727
G1 F1800 X106.217 Y115.833 E23.34164
G0 F9000 X106.783 Y115.834
G1 F1800 X104.11 Y113.161 E23.49252
G0 F9000 X104.11 Y112.595
G1 F1800 X107.349 Y115.834 E23.67534
G0 F9000 X107.914 Y115.833
G1 F1800 X104.109 Y112.029 E23.89008
G0 F9000 X104.109 Y111.463
G1 F1800 X108.479 Y115.833 E24.13675
G0 F9000 X109.044 Y115.832
G1 F1800 X104.108 Y110.896 E24.41535
G0 F9000 X104.108 Y110.331
G1 F1800 X109.61 Y115.832 E24.72588
G0 F9000 X110.175 Y115.831
G1 F1800 X104.108 Y109.764 E25.06833
G0 F9000 X104.108 Y109.199
G1 F1800 X110.739 Y115.831 E25.44264
G0 F9000 X111.304 Y115.83
G1 F1800 X104.107 Y108.632 E25.8489
G0 F9000 X104.107 Y108.067
G1 F1800 X111.869 Y115.829 E26.28702
G0 F9000 X112.434 Y115.829
G1 F1800 X104.106 Y107.5 E26.75712
G0 F9000 X104.106 Y106.935
G1 F1800 X113 Y115.829 E27.25913
G0 F9000 X113.565 Y115.828
G1 F1800 X104.105 Y106.368 E27.7931
G0 F9000 X104.105 Y105.802
G1 F1800 X114.13 Y115.827 E28.35895
G0 F9000 X114.695 Y115.826
G1 F1800 X104.105 Y105.236 E28.9567
G0 F9000 X104.105 Y104.67
G1 F1800 X115.26 Y115.826 E29.58636
G0 F9000 X115.826 Y115.826
G1 F1800 X104.18 Y104.18 E30.24371
G0 F9000 X104.741 Y104.175
G1 F1800 X115.886 Y115.32 E30.87278
G0 F9000 X115.893 Y114.762
G1 F1800 X105.302 Y104.17 E31.47061
G0 F9000 X105.863 Y104.166
G1 F1800 X115.893 Y114.196 E32.03675
G0 F9000 X115.892 Y113.629
G1 F1800 X106.423 Y104.161 E32.57119
G0 F9000 X106.99 Y104.161
G1 F1800 X115.891 Y113.063 E33.07363
G0 F9000 X115.891 Y112.497
G1 F1800 X107.556 Y104.162 E33.54409
G0 F9000 X108.122 Y104.163
G1 F1800 X115.891 Y111.931 E33.98258
G0 F9000 X115.891 Y111.365
G1 F1800 X108.689 Y104.163 E34.38909
G0 F9000 X109.255 Y104.164
G1 F1800 X115.89 Y110.799 E34.7636
G0 F9000 X115.89 Y110.233
G1 F1800 X109.822 Y104.165 E35.10611
G0 F9000 X110.388 Y104.166
G1 F1800 X115.889 Y109.667 E35.41661
G0 F9000 X115.889 Y109.101
G1 F1800 X110.955 Y104.167 E35.6951
G0 F9000 X111.522 Y104.168
G1 F1800 X115.889 Y108.535 E35.9416
G0 F9000 X115.889 Y107.969
G1 F1800 X112.088 Y104.168 E36.15614
G0 F9000 X112.654 Y104.169
G1 F1800 X115.888 Y107.403 E36.33868
G0 F9000 X115.888 Y106.837
G1 F1800 X113.221 Y104.17 E36.48922
G0 F9000 X113.787 Y104.17
G1 F1800 X115.887 Y106.271 E36.60778
G0 F9000 X115.887 Y105.705
G1 F1800 X114.354 Y104.172 E36.69431
G0 F9000 X114.921 Y104.173
G1 F1800 X115.887 Y105.139 E36.74883
G0 F9000 X115.879 Y104.566
G1 F1800 X115.487 Y104.173 E36.77099
G0 F9000 X115.488 Y103.434
;MESH:NONMESH
G0 F300 X115.488 Y103.434 Z0.4
G0 F9000 X103.876 Y103.812
G0 X103.054 Y104.647
G0 X102.703 Y104.655
;TIME_ELAPSED:42.284486
;LAYER:1
M140 S40
M106 S127.5
;TYPE:WALL-OUTER
;MESH:Apple_MBP_Keycap.stl
G1 F1800 X102.728 Y104.217 E36.78266
G1 X102.853 Y103.562 E36.8004
G1 X103.01 Y103.161 E36.81186
G1 X103.247 Y102.836 E36.82257
G1 X103.541 Y102.708 E36.8311
G1 X105.421 Y102.706 E36.88112
G1 X116.464 Y102.707 E37.17495
G1 X116.68 Y102.782 E37.18104
G1 X116.924 Y103.047 E37.19062
G1 X117.093 Y103.393 E37.20087
G1 X117.22 Y103.859 E37.21372
G1 X117.285 Y104.371 E37.22745
G1 X117.297 Y115.342 E37.51937
G1 X117.193 Y116.241 E37.54345
G1 X117.079 Y116.645 E37.55462
G1 X116.882 Y117.016 E37.5658
G1 X116.681 Y117.222 E37.57346
G1 X116.469 Y117.287 E37.57936
G1 X115.1 Y117.291 E37.61578
G1 X103.529 Y117.29 E37.92367
G1 X103.37 Y117.244 E37.92807
G1 X103.101 Y116.99 E37.93791
G1 X102.86 Y116.474 E37.95307
G1 X102.725 Y115.781 E37.97185
G1 X102.703 Y104.655 E38.2679
G0 F9000 X103.142 Y104.667
G0 X103.696 Y115.684
G0 X103.861 Y116.31
G0 X116.466 Y116.87
;TYPE:WALL-INNER
G1 F1800 X116.41 Y116.887 E38.26945
G1 X115.099 Y116.891 E38.30434
G1 X103.575 Y116.887 E38.61097
G1 X103.43 Y116.75 E38.61628
G1 X103.244 Y116.352 E38.62797
