;FLAVOR:Marlin
;TIME:1617
;Filament used: 1.20847m
;Layer height: 0.16
;MINX:86.615
;MINY:86.839
;MINZ:0.24
;MAXX:133.385
;MAXY:132.863
;MAXZ:9.8
;Generated with Cura_SteamEngine 4.5.0
M140 S50
M105
M190 S50
M104 S215
M105
M109 S215
M82 ;absolute extrusion mode
M201 X500.00 Y500.00 Z100.00 E5000.00 ;Setup machine max acceleration
M203 X500.00 Y500.00 Z10.00 E50.00 ;Setup machine max feedrate
M204 P500.00 R1000.00 T500.00 ;Setup Print/Retract/Travel acceleration
M205 X8.00 Y8.00 Z0.40 E5.00 ;Setup Jerk
M220 S100 ;Reset Feedrate
M221 S100 ;Reset Flowrate

G28 ;Home

G92 E0 ;Reset Extruder
G1 Z2.0 F3000 ;Move Z Axis up
G1 X10.1 Y20 Z0.28 F5000.0 ;Move to start position
G1 X10.1 Y200.0 Z0.28 F1500.0 E15 ;Draw the first line
G1 X10.4 Y200.0 Z0.28 F5000.0 ;Move to side a little
G1 X10.4 Y20 Z0.28 F1500.0 E30 ;Draw the second line
G92 E0 ;Reset Extruder
G1 Z2.0 F3000 ;Move Z Axis up

G92 E0
G92 E0
G1 F1800 E-3
;LAYER_COUNT:51
;LAYER:0
M106 S63.8
M204 S500
M205 X6 Y6
G0 F9000 X96.307 Y95.743 Z0.24
;TYPE:SKIRT
G1 F1800 E0
G1 X93.228 Y99.761 E0.20204
G1 X91.295 Y104.435 E0.40391
G1 X90.634 Y109.453 E0.60592
G1 X91.295 Y114.471 E0.80793
G1 X93.228 Y119.145 E1.0098
G1 X96.307 Y123.162 E1.21181
G1 X100.319 Y126.243 E1.41371
G1 X104.989 Y128.179 E1.61548
G1 X110 Y128.841 E1.81722
G1 X115.011 Y128.179 E2.01895
G1 X119.681 Y126.243 E2.22073
G1 X123.692 Y123.162 E2.42259
G1 X126.771 Y119.145 E2.6246
G1 X128.705 Y114.471 E2.82649
G1 X129.366 Y109.453 E3.0285
G1 X128.705 Y104.435 E3.2305
G1 X126.771 Y99.761 E3.43239
G1 X123.691 Y95.742 E3.63449
G1 X119.681 Y92.662 E3.8363
G1 X115.011 Y90.726 E4.03807
G1 X110.15 Y90.086 E4.23376
G1 X110.01 Y90.05 E4.23952
G1 X104.989 Y90.726 E4.44173
G1 X100.319 Y92.662 E4.6435
G1 X96.307 Y95.743 E4.8454
G0 F9000 X96.022 Y95.457
G1 F1800 X92.877 Y99.56 E5.05173
G1 X90.905 Y104.331 E5.25778
G1 X90.23 Y109.453 E5.46398
G1 X90.905 Y114.575 E5.67017
G1 X92.877 Y119.346 E5.87622
G1 X96.022 Y123.448 E6.08252
G1 X100.115 Y126.591 E6.28849
G1 X104.888 Y128.57 E6.49472
G1 X110 Y129.245 E6.70052
G1 X115.112 Y128.57 E6.90632
G1 X119.885 Y126.591 E7.11255
G1 X123.977 Y123.448 E7.31848
G1 X127.122 Y119.345 E7.52482
G1 X129.095 Y114.575 E7.73084
G1 X129.77 Y109.453 E7.93704
G1 X129.095 Y104.331 E8.14324
G1 X127.122 Y99.561 E8.34926
G1 X123.977 Y95.457 E8.55563
G1 X119.885 Y92.314 E8.76156
G1 X115.113 Y90.336 E8.96774
G1 X110.202 Y89.689 E9.16544
G1 X110.008 Y89.635 E9.17348
G1 X104.888 Y90.336 E9.37973
G1 X100.115 Y92.314 E9.58594
G1 X96.022 Y95.457 E9.79191
G0 F9000 X95.736 Y95.173
G1 F1800 X92.527 Y99.359 E10.00243
G1 X90.516 Y104.223 E10.2125
G1 X89.827 Y109.453 E10.42304
G1 X90.516 Y114.683 E10.63359
G1 X92.527 Y119.547 E10.84366
G1 X95.736 Y123.732 E11.05414
G1 X99.915 Y126.941 E11.26444
G1 X104.779 Y128.958 E11.4746
G1 X110 Y129.648 E11.68479
G1 X115.221 Y128.958 E11.89499
G1 X120.085 Y126.941 E12.10515
G1 X124.263 Y123.732 E12.31541
G1 X127.472 Y119.547 E12.5259
G1 X129.484 Y114.683 E12.73598
G1 X130.173 Y109.453 E12.94653
G1 X129.484 Y104.223 E13.15707
G1 X127.472 Y99.359 E13.36716
G1 X124.263 Y95.173 E13.57767
G1 X120.085 Y91.964 E13.78794
G1 X115.22 Y89.947 E13.99814
G1 X110.255 Y89.293 E14.19801
G1 X109.997 Y89.186 E14.20916
G1 X104.78 Y89.947 E14.41958
G1 X99.915 Y91.964 E14.62978
G1 X95.736 Y95.173 E14.84008
G0 F9000 X95.451 Y94.888
G1 F1800 X92.178 Y99.158 E15.05481
G1 X90.125 Y104.122 E15.26921
G1 X89.423 Y109.453 E15.48382
G1 X90.125 Y114.784 E15.69843
G1 X92.178 Y119.748 E15.91283
G1 X95.451 Y124.017 E16.12753
G1 X99.713 Y127.29 E16.342
G1 X104.679 Y129.349 E16.55657
G1 X110 Y130.052 E16.77079
G1 X115.321 Y129.349 E16.98501
G1 X120.287 Y127.29 E17.19957
G1 X124.548 Y124.017 E17.41402
G1 X127.821 Y119.748 E17.62872
G1 X129.875 Y114.784 E17.84313
G1 X130.577 Y109.453 E18.05774
G1 X129.875 Y104.122 E18.27235
G1 X127.821 Y99.158 E18.48676
G1 X124.548 Y94.888 E18.70149
G1 X120.287 Y91.615 E18.91594
G1 X115.321 Y89.556 E19.13051
G1 X110.307 Y88.896 E19.33235
G1 X110.194 Y88.842 E19.33735
G1 X110.134 Y88.713 E19.34303
G1 X110.109 Y88.389 E19.356
G1 X110.138 Y88.268 E19.36096
G1 X110.255 Y88.181 E19.36678
G1 X110.753 Y88.045 E19.38739
G1 X115.524 Y88.657 E19.57937
G1 X120.713 Y90.797 E19.80339
G1 X125.172 Y94.209 E20.02749
G1 X128.599 Y98.663 E20.25179
G1 X130.754 Y103.844 E20.47575
G1 X131.496 Y109.414 E20.70002
G1 X130.774 Y114.985 E20.92423
G1 X128.638 Y120.175 E21.14823
G1 X125.228 Y124.641 E21.3725
G1 X120.781 Y128.069 E21.5966
G1 X115.6 Y130.228 E21.82062
G1 X110.039 Y130.972 E22.04455
G1 X104.475 Y130.248 E22.2685
G1 X99.287 Y128.108 E22.49248
G1 X94.828 Y124.697 E22.71655
G1 X91.401 Y120.243 E22.94085
G1 X89.246 Y115.061 E23.16485
G1 X88.503 Y109.492 E23.38909
G1 X89.226 Y103.92 E23.61334
G1 X91.362 Y98.731 E23.83731
G1 X94.772 Y94.265 E24.06158
G1 X99.219 Y90.836 E24.2857
G1 X104.399 Y88.677 E24.50969
G1 X109.165 Y88.039 E24.7016
G1 X109.744 Y88.18 E24.72539
G1 X109.849 Y88.249 E24.7304
G1 X109.891 Y88.388 E24.7362
G1 X109.866 Y88.712 E24.74917
G1 X109.818 Y88.828 E24.75418
G1 X109.693 Y88.895 E24.75984
G1 X104.679 Y89.556 E24.96169
G1 X99.713 Y91.615 E25.17626
G1 X95.451 Y94.888 E25.39073
G0 F9000 X94.455 Y94.022
G1 F1800 X98.975 Y90.519 E25.61897
G1 X104.246 Y88.308 E25.84711
G1 X109.112 Y87.642 E26.04313
G1 X109.849 Y87.794 E26.07317
G1 X109.994 Y87.863 E26.07957
G1 X110.648 Y87.659 E26.10692
G1 X110.884 Y87.643 E26.11636
G1 X115.576 Y88.26 E26.30524
G1 X120.866 Y90.428 E26.53342
G1 X125.415 Y93.892 E26.76162
G1 X128.916 Y98.42 E26.99007
G1 X131.123 Y103.691 E27.21814
G1 X131.893 Y109.361 E27.44652
G1 X131.171 Y115.037 E27.67489
G1 X129.008 Y120.328 E27.90303
G1 X125.545 Y124.884 E28.13143
G1 X121.025 Y128.386 E28.35965
G1 X115.753 Y130.597 E28.58782
G1 X110.092 Y131.369 E28.81585
G1 X104.423 Y130.645 E29.04395
G1 X99.134 Y128.477 E29.27209
G1 X94.585 Y125.014 E29.50028
G1 X91.084 Y120.486 E29.72872
G1 X88.877 Y115.214 E29.95683
G1 X88.106 Y109.545 E30.18518
G1 X88.829 Y103.868 E30.41359
G1 X90.992 Y98.578 E30.64169
G1 X94.455 Y94.022 E30.8701
G0 F9000 X94.321 Y93.594
G1 F1800 X98.731 Y90.202 E31.09215
G1 X98.957 Y90.072 E31.10256
G1 X104.092 Y87.939 E31.32448
G1 X104.345 Y87.871 E31.33494
G1 X109.06 Y87.246 E31.52477
G1 X109.954 Y87.408 E31.56104
G1 X110.543 Y87.273 E31.58515
G1 X110.936 Y87.247 E31.60087
G1 X115.628 Y87.864 E31.78975
G1 X115.88 Y87.931 E31.80016
G1 X121.019 Y90.058 E32.02214
G1 X121.246 Y90.189 E32.0326
G1 X125.659 Y93.575 E32.25461
G1 X125.843 Y93.759 E32.26499
G1 X129.233 Y98.176 E32.48722
G1 X129.364 Y98.402 E32.49765
G1 X131.493 Y103.538 E32.71955
G1 X131.56 Y103.79 E32.72996
G1 X132.289 Y109.309 E32.95215
G1 X132.29 Y109.57 E32.96256
G1 X131.568 Y115.089 E33.18472
G1 X131.5 Y115.341 E33.19513
G1 X129.377 Y120.481 E33.41709
G1 X129.247 Y120.707 E33.4275
G1 X125.863 Y125.127 E33.64968
G1 X125.679 Y125.312 E33.66009
G1 X121.269 Y128.703 E33.88212
G1 X121.043 Y128.834 E33.89255
G1 X115.907 Y130.967 E34.11451
G1 X115.655 Y131.034 E34.12492
G1 X110.145 Y131.765 E34.34676
G1 X109.883 Y131.765 E34.35722
G1 X104.371 Y131.041 E34.57911
G1 X104.119 Y130.974 E34.58951
G1 X98.981 Y128.847 E34.81146
G1 X98.754 Y128.716 E34.82192
G1 X94.341 Y125.331 E35.0439
G1 X94.157 Y125.147 E35.05429
G1 X90.767 Y120.73 E35.27651
G1 X90.636 Y120.504 E35.28694
G1 X88.507 Y115.367 E35.50888
G1 X88.44 Y115.115 E35.51929
G1 X87.71 Y109.597 E35.74144
G1 X87.709 Y109.336 E35.75186
G1 X88.432 Y103.816 E35.97405
G1 X88.5 Y103.564 E35.98447
G1 X90.623 Y98.425 E36.20639
G1 X90.753 Y98.199 E36.2168
G1 X94.137 Y93.779 E36.43898
G1 X94.321 Y93.594 E36.44939
G0 F9000 X94.077 Y93.277
G1 F1800 X98.487 Y89.885 E36.67145
G1 X98.804 Y89.702 E36.68606
G1 X103.939 Y87.569 E36.90798
G1 X104.292 Y87.474 E36.92257
G1 X109.007 Y86.849 E37.11241
G1 X109.341 Y86.845 E37.12574
G1 X110.001 Y87.006 E37.15285
G1 X110.768 Y86.839 E37.18418
G1 X115.681 Y87.467 E37.38187
G1 X116.033 Y87.561 E37.39641
G1 X121.172 Y89.688 E37.61839
G1 X121.489 Y89.871 E37.633
G1 X125.902 Y93.257 E37.855
G1 X126.161 Y93.516 E37.86962
G1 X129.551 Y97.933 E38.09185
G1 X129.733 Y98.249 E38.10641
G1 X131.862 Y103.385 E38.32831
G1 X131.957 Y103.738 E38.3429
G1 X132.686 Y109.257 E38.56509
G1 X132.686 Y109.622 E38.57966
G1 X131.964 Y115.141 E38.80181
G1 X131.87 Y115.493 E38.81635
G1 X129.747 Y120.633 E39.03831
G1 X129.565 Y120.95 E39.0529
G1 X126.181 Y125.37 E39.27508
G1 X125.922 Y125.629 E39.28969
G1 X121.512 Y129.02 E39.51173
G1 X121.196 Y129.203 E39.5263
G1 X116.06 Y131.336 E39.74826
G1 X115.707 Y131.431 E39.76285
G1 X110.197 Y132.162 E39.9847
G1 X109.831 Y132.162 E39.99931
G1 X104.319 Y131.438 E40.22119
G1 X103.966 Y131.344 E40.23577
G1 X98.828 Y129.217 E40.45772
G1 X98.511 Y129.034 E40.47233
G1 X94.098 Y125.649 E40.69431
G1 X93.839 Y125.39 E40.70893
G1 X90.449 Y120.973 E40.93115
G1 X90.267 Y120.657 E40.94571
G1 X88.138 Y115.52 E41.16765
G1 X88.043 Y115.168 E41.1822
G1 X87.313 Y109.65 E41.40435
G1 X87.313 Y109.284 E41.41896
G1 X88.036 Y103.764 E41.64116
G1 X88.13 Y103.411 E41.65574
G1 X90.253 Y98.272 E41.87766
G1 X90.435 Y97.956 E41.89222
G1 X93.819 Y93.536 E42.11439
G1 X94.077 Y93.277 E42.12898
G1 F1800 E39.12898
;MESH:Anniversary Ring (2).stl
G0 F9000 X95.308 Y94.745
G0 X99.59 Y91.406
G0 X104.612 Y89.324
G0 X110 Y88.615
G0 X115.388 Y89.324
G0 X120.41 Y91.406
G0 X124.719 Y94.717
G0 X128.027 Y99.033
G0 X130.107 Y104.059
G0 X130.979 Y109.453
;TYPE:WALL-OUTER
G1 F1800 E42.12898
G1 X130.264 Y104.018 E42.34778
G1 X128.168 Y98.952 E42.56659
G1 X124.834 Y94.602 E42.78534
G1 X120.49 Y91.265 E43.00397
G1 X115.429 Y89.167 E43.22263
G1 X110.52 Y88.521 E43.42025
G1 X110.802 Y88.439 E43.43197
G1 X115.457 Y89.051 E43.61936
G1 X120.549 Y91.162 E43.83937
G1 X124.918 Y94.519 E44.05927
G1 X128.272 Y98.894 E44.2793
G1 X130.38 Y103.987 E44.4993
G1 X131.098 Y109.453 E44.71933
G1 X130.38 Y114.918 E44.93932
G1 X128.272 Y120.012 E45.15936
G1 X124.918 Y124.387 E45.37938
G1 X120.549 Y127.743 E45.59926
G1 X115.457 Y129.854 E45.81927
G1 X110 Y130.574 E46.03896
G1 X104.542 Y129.854 E46.25869
G1 X99.451 Y127.743 E46.47865
G1 X95.082 Y124.387 E46.69854
G1 X91.728 Y120.012 E46.91856
G1 X89.62 Y114.918 E47.13859
G1 X88.901 Y109.453 E47.35859
G1 X89.62 Y103.987 E47.57863
G1 X91.728 Y98.894 E47.79863
G1 X95.082 Y94.519 E48.01865
G1 X99.451 Y91.162 E48.23856
G1 X104.542 Y89.051 E48.45853
G1 X109.196 Y88.438 E48.64588
G1 X109.48 Y88.52 E48.65768
G1 X104.571 Y89.167 E48.85531
G1 X99.51 Y91.265 E49.07397
G1 X95.165 Y94.602 E49.29263
G1 X91.831 Y98.952 E49.51138
G1 X89.736 Y104.018 E49.73018
G1 X89.021 Y109.453 E49.94897
G1 X89.736 Y114.888 E50.16776
G1 X91.831 Y119.954 E50.38656
G1 X95.165 Y124.303 E50.60528
G1 X99.51 Y127.64 E50.82394
G1 X104.571 Y129.738 E51.0426
G1 X110 Y130.454 E51.26116
G1 X115.429 Y129.738 E51.47972
G1 X120.49 Y127.64 E51.69839
G1 X124.834 Y124.303 E51.91702
G1 X128.168 Y119.954 E52.13573
G1 X130.264 Y114.888 E52.35455
G1 X130.979 Y109.453 E52.57334
G0 F9000 X130.899 Y109.489
;MESH:NONMESH
G0 F300 X130.899 Y109.489 Z0.44
G0 F9000 X130.856 Y109.454
;TIME_ELAPSED:51.649041
;LAYER:1
M140 S40
M106 S127.5
;TYPE:WALL-OUTER
;MESH:Anniversary Ring (2).stl
G1 F1571.7 X130.145 Y104.048 E52.75469
G1 X128.061 Y99.014 E52.93591
G1 X124.748 Y94.689 E53.11711
G1 X120.428 Y91.372 E53.29826
G1 X115.398 Y89.287 E53.47936
G1 X110.556 Y88.65 E53.6418
G1 X111.564 Y88.357 E53.67671
G1 X115.504 Y88.875 E53.80888
G1 X120.639 Y91.005 E53.99378
G1 X125.046 Y94.391 E54.17863
G1 X128.429 Y98.803 E54.36355
G1 X130.555 Y103.94 E54.54846
G1 X131.28 Y109.453 E54.7334
G1 X130.555 Y114.965 E54.91831
G1 X128.429 Y120.103 E55.10325
G1 X125.046 Y124.515 E55.28817
G1 X120.639 Y127.9 E55.47299
G1 X115.504 Y130.03 E55.6579
G1 X110 Y130.756 E55.84254
G1 X104.495 Y130.03 E56.02723
G1 X99.36 Y127.9 E56.21213
G1 X94.954 Y124.515 E56.39693
G1 X91.571 Y120.103 E56.58184
G1 X89.445 Y114.965 E56.76679
G1 X88.72 Y109.453 E56.9517
G1 X89.445 Y103.94 E57.13664
G1 X91.571 Y98.803 E57.32155
G1 X94.954 Y94.391 E57.50647
G1 X99.36 Y91.005 E57.69128
G1 X104.495 Y88.875 E57.87619
G1 X108.432 Y88.356 E58.00826
G1 X109.44 Y88.649 E58.04318
G1 X104.601 Y89.287 E58.20552
G1 X99.572 Y91.372 E58.38659
G1 X95.252 Y94.689 E58.56774
G1 X91.938 Y99.014 E58.74896
G1 X89.855 Y104.049 E58.93019
G1 X89.144 Y109.452 E59.11145
G1 X89.855 Y114.857 E59.29277
G1 X91.938 Y119.891 E59.47397
G1 X95.252 Y124.216 E59.65519
G1 X99.572 Y127.533 E59.83634
G1 X104.602 Y129.619 E60.01746
G1 X110 Y130.331 E60.19855
G1 X115.399 Y129.619 E60.37968
G1 X120.428 Y127.533 E60.56076
G1 X124.748 Y124.216 E60.74191
G1 X128.061 Y119.891 E60.92312
G1 X130.145 Y114.856 E61.10436
G1 X130.856 Y109.454 E61.28558
G1 F1800 E58.28558
;MESH:NONMESH
G0 F300 X130.856 Y109.454 Z0.64
G0 F9000 X131.053 Y109.48
G0 X130.28 Y114.893
G0 X128.182 Y119.961
G0 X124.847 Y124.315
G0 X120.499 Y127.654
G0 X115.436 Y129.754
G0 X110 Y130.471
G0 X104.565 Y129.754
G0 X99.501 Y127.654
G0 X95.153 Y124.315
G0 X91.817 Y119.961
G0 X89.72 Y114.894
G0 X89.004 Y109.452
G0 X89.69 Y103.995
G0 X91.361 Y99.846
G0 X89.638 Y103.989
G0 X89.288 Y103.898
;TIME_ELAPSED:64.227340
;LAYER:2
M106 S191.3
;TYPE:WALL-OUTER
;MESH:Anniversary Ring (2).stl
G1 F1800 E61.28558
G1 F2400 X91.43 Y98.721 E61.47193
G1 X94.838 Y94.275 E61.65825
G1 X99.279 Y90.864 E61.8445
G1 X104.453 Y88.718 E62.0308
G1 X107.715 Y88.289 E62.14023
G1 X109.344 Y88.761 E62.19664
G1 X104.628 Y89.383 E62.35485
G1 X99.622 Y91.458 E62.53509
G1 X95.323 Y94.76 E62.71538
G1 X92.024 Y99.064 E62.89575
G1 X89.951 Y104.075 E63.07611
G1 X89.244 Y109.453 E63.25653
G1 X89.951 Y114.83 E63.4369
G1 X92.024 Y119.841 E63.61727
G1 X95.323 Y124.145 E63.79764
G1 X99.622 Y127.447 E63.97793
G1 X104.628 Y129.523 E64.15818
G1 X110 Y130.231 E64.3384
G1 X115.372 Y129.523 E64.51862
G1 X120.378 Y127.447 E64.69887
G1 X124.677 Y124.145 E64.87916
G1 X127.975 Y119.841 E65.05951
G1 X130.049 Y114.83 E65.23989
G1 X130.756 Y109.453 E65.42027
G1 X130.049 Y104.075 E65.60068
G1 X127.975 Y99.064 E65.78106
G1 X124.677 Y94.76 E65.9614
G1 X120.378 Y91.458 E66.1417
G1 X115.372 Y89.383 E66.32193
G1 X110.656 Y88.761 E66.48015
G1 X112.283 Y88.289 E66.53649
G1 X115.546 Y88.718 E66.64595
G1 X120.721 Y90.864 E66.83229
G1 X125.161 Y94.275 E67.01851
G1 X128.57 Y98.721 E67.20485
G1 X130.712 Y103.898 E67.3912
G1 X131.442 Y109.453 E67.57754
G1 X130.712 Y115.007 E67.76386
G1 X128.57 Y120.184 E67.9502
G1 X125.161 Y124.631 E68.13657
G1 X120.721 Y128.041 E68.32277
G1 X115.546 Y130.187 E68.50911
G1 X110 Y130.918 E68.69516
G1 X104.453 Y130.187 E68.88125
G1 X99.279 Y128.041 E69.06756
G1 X94.838 Y124.631 E69.25378
G1 X91.43 Y120.184 E69.44013
G1 X89.288 Y115.007 E69.62648
G1 X88.558 Y109.453 E69.81279
G1 X89.288 Y103.898 E69.99914
G0 F9000 X89.617 Y104.042
;TYPE:SKIN
G1 F2400 X89.684 Y103.826 E70.00536
G1 X91.671 Y99.025 E70.14829
G1 X92.627 Y97.718 E70.19283
G1 X95.081 Y94.516 E70.3038
G1 X99.401 Y91.198 E70.45364
G1 X102.987 Y89.693 E70.56061
G1 X104.603 Y89.047 E70.60849
G1 X107.847 Y88.614 E70.69851
G1 X108.171 Y88.655 E70.7075
G1 F1800 E67.7075
G0 F9000 X108.243 Y88.761
G0 X104.591 Y89.248
G0 X99.551 Y91.337
G0 X95.224 Y94.661
G0 X91.903 Y98.994
G0 X89.816 Y104.038
G0 X89.104 Y109.453
G0 X89.816 Y114.867
G0 X91.903 Y119.911
G0 X95.224 Y124.244
G0 X99.551 Y127.568
G0 X104.591 Y129.658
G0 X110 Y130.371
G0 X115.409 Y129.658
G0 X120.449 Y127.568
G0 X124.776 Y124.244
G0 X128.096 Y119.911
G0 X130.184 Y114.867
G0 X130.896 Y109.453
G0 X130.184 Y104.038
G0 X128.096 Y98.994
G0 X124.776 Y94.661
G0 X120.449 Y91.337
G0 X115.409 Y89.248
G0 X111.809 Y88.635
G0 X111.875 Y88.682
G1 F1800 E70.7075
G1 F2400 X112.147 Y88.671 E70.71455
G1 X113.384 Y88.776 E70.74673
G1 X115.366 Y89.061 E70.79862
G1 X116.247 Y89.377 E70.82288
G0 F9000 X116.908 Y89.473
G1 F2400 X117.519 Y90.083 E70.83724
G0 F9000 X117.875 Y89.873
G1 F2400 X118.485 Y90.484 E70.85159
G0 F9000 X118.842 Y90.274
G1 F2400 X119.452 Y90.885 E70.86595
G0 F9000 X120.113 Y90.98
G1 F2400 X120.93 Y91.514 E70.91036
G0 F9000 X122.209 Y92.227
G1 F2400 X124.012 Y94.031 E70.95277
G0 F9000 X124.649 Y94.102
G1 F2400 X125.326 Y94.779 E70.96869
G0 F9000 X125.399 Y95.417
G1 F2400 X127.185 Y97.203 E71.0107
G0 F9000 X127.258 Y97.842
