;FLAVOR:Marlin
;TIME:2295
;Filament used: 1.61275m
;Layer height: 0.16
;MINX:84.418
;MINY:84.685
;MINZ:0.24
;MAXX:135.556
;MAXY:135.803
;MAXZ:10
;Generated with Cura_SteamEngine 4.5.0
M140 S50
M105
M190 S50
M104 S215
M105
M109 S215
M82 ;absolute extrusion mode
M201 X500.00 Y500.00 Z100.00 E5000.00 ;Setup machine max acceleration
M203 X500.00 Y500.00 Z10.00 E50.00 ;Setup machine max feedrate
M204 P500.00 R1000.00 T500.00 ;Setup Print/Retract/Travel acceleration
M205 X8.00 Y8.00 Z0.40 E5.00 ;Setup Jerk
M220 S100 ;Reset Feedrate
M221 S100 ;Reset Flowrate

G28 ;Home

G92 E0 ;Reset Extruder
G1 Z2.0 F3000 ;Move Z Axis up
G1 X10.1 Y20 Z0.28 F5000.0 ;Move to start position
G1 X10.1 Y200.0 Z0.28 F1500.0 E15 ;Draw the first line
G1 X10.4 Y200.0 Z0.28 F5000.0 ;Move to side a little
G1 X10.4 Y20 Z0.28 F1500.0 E30 ;Draw the second line
G92 E0 ;Reset Extruder
G1 Z2.0 F3000 ;Move Z Axis up

G92 E0
G92 E0
G1 F1800 E-3
;LAYER_COUNT:73
;LAYER:0
M106 S63.8
M204 S500
M205 X6 Y6
G0 F9000 X93.12 Y91.183 Z0.24
;TYPE:SKIRT
G1 F1800 E0
G1 X93.696 Y90.623 E0.03206
G1 X94.385 Y90.012 E0.06882
G1 X95.107 Y89.473 E0.10478
G1 X96.433 Y88.648 E0.16711
G1 X96.921 Y88.389 E0.18916
G1 X99.825 Y86.906 E0.3193
G1 X100.594 Y86.527 E0.35352
G1 X101.437 Y86.157 E0.39027
G1 X102.294 Y85.866 E0.42639
G1 X103.656 Y85.533 E0.48235
G1 X104.382 Y85.404 E0.51178
G1 X107.526 Y84.905 E0.63883
G1 X108.338 Y84.787 E0.67158
G1 X109.254 Y84.696 E0.70832
G1 X110.175 Y84.685 E0.74509
G1 X111.116 Y84.757 E0.78275
G1 X111.687 Y84.826 E0.80571
G1 X115.463 Y85.385 E0.95806
G1 X116.284 Y85.519 E0.99126
G1 X117.185 Y85.708 E1.028
G1 X118.067 Y85.973 E1.06476
G1 X119.165 Y86.428 E1.1122
G1 X120.027 Y86.843 E1.15038
G1 X122.839 Y88.266 E1.27617
G1 X123.526 Y88.625 E1.3071
G1 X124.328 Y89.091 E1.34413
G1 X125.36 Y89.801 E1.39412
G1 X126.267 Y90.587 E1.44202
G1 X126.781 Y91.086 E1.47062
G1 X128.995 Y93.297 E1.5955
G1 X129.632 Y93.952 E1.63197
G1 X130.244 Y94.64 E1.66872
G1 X130.648 Y95.169 E1.69528
G1 X131.318 Y96.176 E1.74356
G1 X131.934 Y97.313 E1.79517
G1 X133.299 Y99.989 E1.91507
G1 X133.7 Y100.8 E1.95118
G1 X134.07 Y101.643 E1.98792
G1 X134.276 Y102.222 E2.01245
G1 X134.682 Y103.722 E2.07447
G1 X134.802 Y104.371 E2.10081
G1 X135.348 Y107.82 E2.24019
G1 X135.456 Y108.569 E2.27039
G1 X135.546 Y109.486 E2.30716
G1 X135.556 Y110.431 E2.34488
G1 X135.462 Y111.861 E2.40208
G1 X135.386 Y112.423 E2.42472
G1 X134.861 Y115.759 E2.5595
G1 X134.722 Y116.576 E2.59258
G1 X134.527 Y117.475 E2.62929
G1 X134.181 Y118.552 E2.67444
G1 X133.791 Y119.498 E2.71528
G1 X133.497 Y120.114 E2.74252
G1 X131.972 Y123.106 E2.87656
G1 X131.581 Y123.85 E2.9101
G1 X130.94 Y124.911 E2.95958
G1 X130.238 Y125.864 E3.00682
G1 X129.661 Y126.509 E3.04136
G1 X129.107 Y127.08 E3.07312
G1 X126.69 Y129.498 E3.20957
G1 X126.211 Y129.964 E3.23624
G1 X125.523 Y130.576 E3.27299
G1 X124.786 Y131.127 E3.30972
G1 X123.784 Y131.732 E3.35644
G1 X123.086 Y132.102 E3.38797
G1 X120.064 Y133.641 E3.52332
G1 X119.319 Y134.009 E3.55649
G1 X118.476 Y134.379 E3.59323
G1 X117.604 Y134.674 E3.62997
G1 X116.477 Y134.937 E3.67616
G1 X115.738 Y135.067 E3.70611
G1 X112.463 Y135.587 E3.83846
G1 X111.694 Y135.699 E3.86948
G1 X110.445 Y135.803 E3.9195
G1 X109.193 Y135.793 E3.96947
G1 X108.401 Y135.713 E4.00124
G1 X107.745 Y135.62 E4.02769
G1 X104.413 Y135.092 E4.16233
G1 X103.572 Y134.948 E4.19639
G1 X102.672 Y134.752 E4.23315
G1 X101.793 Y134.478 E4.2699
G1 X100.721 Y134.025 E4.31635
G1 X99.989 Y133.667 E4.34887
G1 X97.089 Y132.192 E4.47873
G1 X96.343 Y131.799 E4.51238
G1 X95.549 Y131.335 E4.54908
G1 X94.797 Y130.803 E4.58585
G1 X94.07 Y130.184 E4.62396
G1 X93.141 Y129.319 E4.67462
G1 X90.766 Y126.953 E4.80842
G1 X90.285 Y126.459 E4.83594
G1 X89.672 Y125.772 E4.87269
G1 X89.121 Y125.034 E4.90945
G1 X88.513 Y124.026 E4.95643
G1 X88.139 Y123.32 E4.98832
G1 X86.604 Y120.31 E5.12318
G1 X86.241 Y119.577 E5.15582
G1 X85.87 Y118.734 E5.19258
G1 X85.574 Y117.863 E5.2293
G1 X85.303 Y116.696 E5.27711
G1 X85.168 Y115.917 E5.30867
G1 X84.638 Y112.579 E5.44357
G1 X84.521 Y111.772 E5.47611
G1 X84.43 Y110.856 E5.51285
G1 X84.418 Y109.936 E5.54957
G1 X84.519 Y108.765 E5.59648
G1 X84.624 Y108.029 E5.62616
G1 X85.121 Y104.856 E5.75434
G1 X85.271 Y103.977 E5.78993
G1 X85.48 Y103.028 E5.82872
G1 X85.805 Y101.97 E5.87289
G1 X86.224 Y100.978 E5.91587
G1 X86.686 Y100.023 E5.95821
G1 X87.997 Y97.446 E6.07361
G1 X88.301 Y96.866 E6.09975
G1 X88.641 Y96.268 E6.1272
G1 X88.919 Y95.814 E6.14845
G1 X89.434 Y95.05 E6.18522
G1 X90.225 Y94.101 E6.23453
G1 X90.623 Y93.683 E6.25757
G1 X93.12 Y91.183 E6.39859
G0 F9000 X93.403 Y91.466
G1 F1800 X93.975 Y90.91 E6.43043
G1 X94.65 Y90.311 E6.46645
G1 X95.333 Y89.804 E6.5004
G1 X96.62 Y89.001 E6.56095
G1 X97.108 Y88.742 E6.583
G1 X100.007 Y87.262 E6.71291
G1 X100.77 Y86.886 E6.74686
G1 X101.597 Y86.524 E6.78289
G1 X102.406 Y86.25 E6.81698
G1 X103.726 Y85.927 E6.87122
G1 X104.452 Y85.798 E6.90065
G1 X107.588 Y85.3 E7.02738
G1 X108.395 Y85.183 E7.05993
G1 X109.294 Y85.095 E7.09598
G1 X110.197 Y85.086 E7.13202
G1 X111.068 Y85.154 E7.16689
G1 X111.639 Y85.223 E7.18985
G1 X115.404 Y85.781 E7.34176
G1 X116.22 Y85.914 E7.37476
G1 X117.103 Y86.099 E7.41076
G1 X117.967 Y86.362 E7.44681
G1 X118.992 Y86.789 E7.49113
G1 X119.854 Y87.204 E7.52931
G1 X122.659 Y88.623 E7.65478
G1 X123.34 Y88.979 E7.68545
G1 X124.112 Y89.428 E7.72109
G1 X125.129 Y90.128 E7.77037
G1 X125.988 Y90.874 E7.81577
G1 X126.502 Y91.373 E7.84437
G1 X128.712 Y93.58 E7.96902
G1 X129.345 Y94.231 E8.00527
G1 X129.945 Y94.906 E8.04131
G1 X130.323 Y95.402 E8.0662
G1 X130.983 Y96.394 E8.11376
G1 X131.58 Y97.5 E8.16392
G1 X132.942 Y100.17 E8.28355
G1 X133.341 Y100.977 E8.31948
G1 X133.704 Y101.804 E8.35553
G1 X133.896 Y102.345 E8.37844
G1 X134.289 Y103.799 E8.43855
G1 X134.407 Y104.433 E8.46429
G1 X134.953 Y107.882 E8.60366
G1 X135.06 Y108.626 E8.63366
G1 X135.148 Y109.525 E8.66972
G1 X135.156 Y110.418 E8.70536
G1 X135.065 Y111.81 E8.76104
G1 X134.991 Y112.361 E8.78322
G1 X134.466 Y115.697 E8.91801
G1 X134.328 Y116.508 E8.95084
G1 X134.135 Y117.39 E8.98688
G1 X133.807 Y118.409 E9.02961
G1 X133.429 Y119.329 E9.0693
G1 X133.141 Y119.932 E9.09597
G1 X131.616 Y122.924 E9.23001
G1 X131.227 Y123.664 E9.26338
G1 X130.611 Y124.685 E9.31097
G1 X129.918 Y125.623 E9.35751
G1 X129.374 Y126.231 E9.39008
G1 X128.82 Y126.802 E9.42183
G1 X126.411 Y129.211 E9.5578
G1 X125.932 Y129.677 E9.58448
G1 X125.257 Y130.277 E9.62052
G1 X124.532 Y130.816 E9.65658
G1 X123.596 Y131.378 E9.70015
G1 X122.898 Y131.748 E9.73168
G1 X119.882 Y133.285 E9.86679
G1 X119.143 Y133.65 E9.89969
G1 X118.316 Y134.012 E9.93572
G1 X117.46 Y134.3 E9.97176
G1 X116.408 Y134.543 E10.01486
G1 X115.669 Y134.673 E10.04481
G1 X112.401 Y135.192 E10.17687
G1 X111.637 Y135.303 E10.20769
G1 X110.436 Y135.403 E10.25579
G1 X109.201 Y135.393 E10.30508
G1 X108.456 Y135.317 E10.33497
G1 X107.808 Y135.225 E10.36109
G1 X104.476 Y134.697 E10.49574
G1 X103.64 Y134.554 E10.52959
G1 X102.758 Y134.361 E10.56562
G1 X101.896 Y134.09 E10.60169
G1 X100.897 Y133.666 E10.645
G1 X100.165 Y133.308 E10.67753
G1 X97.27 Y131.835 E10.80717
G1 X96.53 Y131.446 E10.84054
G1 X95.751 Y130.989 E10.87658
G1 X95.015 Y130.465 E10.91264
G1 X94.342 Y129.891 E10.94795
G1 X93.413 Y129.026 E10.99861
G1 X91.053 Y126.674 E11.13159
G1 X90.572 Y126.18 E11.15911
G1 X89.971 Y125.505 E11.19518
G1 X89.432 Y124.781 E11.23121
G1 X88.867 Y123.839 E11.27505
G1 X88.493 Y123.133 E11.30694
G1 X86.96 Y120.128 E11.44158
G1 X86.6 Y119.4 E11.47399
G1 X86.237 Y118.573 E11.51004
G1 X85.948 Y117.717 E11.5461
G1 X85.697 Y116.628 E11.5907
G1 X85.562 Y115.849 E11.62226
G1 X85.033 Y112.516 E11.75695
G1 X84.917 Y111.715 E11.78925
G1 X84.828 Y110.816 E11.82531
G1 X84.819 Y109.913 E11.86135
G1 X84.915 Y108.821 E11.9051
G1 X85.02 Y108.085 E11.93478
G1 X85.516 Y104.918 E12.06272
G1 X85.666 Y104.045 E12.09807
G1 X85.866 Y103.131 E12.13542
G1 X86.186 Y102.091 E12.17885
G1 X86.584 Y101.152 E12.21955
G1 X87.046 Y100.197 E12.26189
G1 X88.353 Y97.627 E12.37697
G1 X88.655 Y97.052 E12.40289
G1 X88.982 Y96.476 E12.42933
G1 X89.26 Y96.022 E12.45058
G1 X89.766 Y95.274 E12.48662
G1 X90.516 Y94.374 E12.53338
G1 X90.906 Y93.966 E12.5559
G1 X93.403 Y91.466 E12.69693
G1 F1800 E9.69693
;MESH:Anniversary Ring Stand.stl
G0 F9000 X97.21 Y101.258
G0 X98.124 Y101.842
G0 X96.852 Y106.031
G0 X96.188 Y110.257
G0 X96.861 Y114.515
G0 X98.276 Y118.769
G0 X98.029 Y118.945
;TYPE:WALL-OUTER
G1 F1800 E12.69693
G1 X95.927 Y114.819 E12.88175
G1 X95.206 Y110.257 E13.06609
G1 X95.903 Y105.821 E13.24531
G1 X95.961 Y105.605 E13.25424
G1 X97.938 Y101.725 E13.42804
G1 X98.091 Y101.485 E13.4394
G1 X101.224 Y98.352 E13.61624
G1 X101.483 Y98.183 E13.62858
G1 X105.347 Y96.213 E13.80169
G1 X105.586 Y96.147 E13.81159
G1 X109.881 Y95.467 E13.98514
G1 X110.137 Y95.47 E13.99536
G1 X114.537 Y96.166 E14.17316
G1 X118.56 Y98.204 E14.35315
G1 X118.764 Y98.34 E14.36294
G1 X121.879 Y101.454 E14.53873
G1 X122.04 Y101.682 E14.54987
G1 X124.014 Y105.554 E14.72334
G1 X124.094 Y105.8 E14.73366
G1 X124.781 Y110.146 E14.90928
G1 X124.764 Y110.457 E14.92171
G1 X124.087 Y114.745 E15.09497
G1 X124.006 Y114.952 E15.10384
G1 X122.032 Y118.826 E15.27738
G1 X121.894 Y119.022 E15.28694
G1 X118.7 Y122.216 E15.46723
G1 X114.574 Y124.318 E15.65204
G1 X110.093 Y125.027 E15.83312
G1 X109.907 Y125.028 E15.84054
G1 X105.426 Y124.318 E16.02162
G1 X101.393 Y122.264 E16.20226
G1 X101.229 Y122.144 E16.21037
G1 X98.029 Y118.945 E16.39096
G0 F9000 X98.384 Y118.687
G1 F1800 E13.39096
G0 F9000 X96.861 Y114.515
G0 X96.188 Y110.257
G0 X96.874 Y105.95
G0 X98.852 Y102.097
G0 X101.975 Y99.021
G0 X105.794 Y97.096
G0 X109.91 Y95.867
;TYPE:WALL-INNER
G1 F1800 E16.39096
G1 X110.105 Y95.87 E16.39874
G1 X114.411 Y96.551 E16.57274
G1 X118.358 Y98.55 E16.74933
G1 X118.383 Y98.567 E16.75053
G1 X118.509 Y98.651 E16.75658
G1 X121.571 Y101.712 E16.92938
G1 X121.699 Y101.893 E16.93823
G1 X123.63 Y105.682 E17.10796
G1 X123.644 Y105.708 E17.10914
G1 X123.654 Y105.74 E17.11048
G1 X123.693 Y105.86 E17.11552
G1 X123.704 Y105.893 E17.1169
G1 X124.38 Y110.168 E17.28965
G1 X124.366 Y110.413 E17.29944
G1 X123.699 Y114.641 E17.47028
G1 X123.642 Y114.786 E17.4765
G1 X121.689 Y118.619 E17.64819
G1 X121.588 Y118.762 E17.65518
G1 X118.461 Y121.889 E17.83168
G1 X114.449 Y123.933 E18.0114
G1 X110.061 Y124.627 E18.18871
G1 X109.937 Y124.628 E18.19366
G1 X105.551 Y123.933 E18.37089
G1 X101.604 Y121.923 E18.54768
G1 X101.491 Y121.84 E18.55327
G1 X98.356 Y118.706 E18.7302
G1 X96.312 Y114.694 E18.90991
G1 X95.611 Y110.257 E19.0892
G1 X96.295 Y105.903 E19.26511
G1 X96.336 Y105.749 E19.27147
G1 X98.286 Y101.923 E19.44286
G1 X98.403 Y101.739 E19.45156
G1 X101.478 Y98.664 E19.62513
G1 X101.668 Y98.541 E19.63416
G1 X101.687 Y98.528 E19.63508
G1 X101.704 Y98.52 E19.63583
G1 X105.49 Y96.589 E19.80546
G1 X105.647 Y96.546 E19.81196
G1 X105.673 Y96.538 E19.81304
G1 X109.91 Y95.867 E19.98426
G0 F9000 X109.938 Y96.268
G1 F1800 X110.072 Y96.27 E19.98961
G1 X114.285 Y96.936 E20.15984
G1 X118.162 Y98.899 E20.33329
G1 X118.251 Y98.959 E20.33757
G1 X121.263 Y101.97 E20.50755
G1 X121.358 Y102.104 E20.51411
G1 X123.275 Y105.864 E20.68256
G1 X123.314 Y105.984 E20.68759
G1 X123.978 Y110.189 E20.8575
G1 X123.968 Y110.369 E20.8647
G1 X123.311 Y114.536 E21.03307
G1 X123.278 Y114.62 E21.03667
G1 X121.348 Y118.408 E21.20635
G1 X121.28 Y118.504 E21.21105
G1 X118.222 Y121.562 E21.38365
G1 X114.324 Y123.548 E21.55826
G1 X110.029 Y124.227 E21.73181
G1 X109.967 Y124.228 E21.73429
G1 X105.676 Y123.548 E21.90769
G1 X101.814 Y121.581 E22.08067
G1 X101.754 Y121.537 E22.08364
G1 X98.683 Y118.467 E22.25695
G1 X96.697 Y114.569 E22.43156
G1 X96.016 Y110.257 E22.60579
G1 X96.686 Y105.992 E22.7781
G1 X96.713 Y105.89 E22.78231
G1 X98.63 Y102.129 E22.9508
G1 X98.718 Y101.99 E22.95736
G1 X101.733 Y98.975 E23.12754
G1 X101.886 Y98.875 E23.13484
G1 X105.637 Y96.963 E23.30288
G1 X105.755 Y96.93 E23.30777
G1 X109.938 Y96.268 E23.4768
G0 F9000 X109.97 Y96.658
;TYPE:SKIN
G1 F1800 X110.033 Y96.66 E23.47931
G1 X114.166 Y97.313 E23.64632
G1 X117.966 Y99.236 E23.8163
G1 X118.005 Y99.263 E23.81819
G1 X120.958 Y102.215 E23.98484
G1 X121.026 Y102.31 E23.98951
G1 X122.915 Y106.015 E24.15549
G1 X122.93 Y106.062 E24.15746
G1 X123.586 Y110.21 E24.32507
G1 X123.58 Y110.326 E24.32971
G1 X122.924 Y114.456 E24.49661
G1 X121.016 Y118.201 E24.66437
G1 X120.977 Y118.257 E24.66709
G1 X117.991 Y121.243 E24.83563
G1 X114.206 Y123.171 E25.00517
G1 X109.993 Y123.837 E25.17541
G1 X105.794 Y123.171 E25.34509
G1 X102.004 Y121.237 E25.51492
G1 X99.002 Y118.236 E25.68433
G1 X97.074 Y114.451 E25.85387
G1 X96.412 Y110.256 E26.02337
G1 X97.08 Y106.027 E26.19426
G1 X98.967 Y102.324 E26.36013
G1 X99.026 Y102.232 E26.3645
G1 X101.978 Y99.28 E26.53112
G1 X102.08 Y99.213 E26.53599
G1 X105.776 Y97.329 E26.70156
G1 X105.835 Y97.313 E26.704
G1 X109.97 Y96.658 E26.8711
G0 F9000 X109.975 Y96.379
G0 X114.231 Y97.1
G0 X118.141 Y99.091
G0 X121.211 Y102.191
G0 X121.689 Y102.995
G0 X121.296 Y103.194
G1 F1800 X117.058 Y98.956 E27.11031
G0 F9000 X117.257 Y98.564
G0 X116.111 Y97.984
G0 X115.912 Y98.376
G1 F1800 X121.885 Y104.349 E27.44745
G0 F9000 X122.278 Y104.15
G0 X122.866 Y105.304
G0 X122.474 Y105.503
G1 F1800 X114.766 Y97.795 E27.88253
G0 F9000 X114.965 Y97.404
G0 X113.895 Y96.987
G0 X113.826 Y97.421
G1 F1800 X122.823 Y106.418 E28.39035
G0 F9000 X122.929 Y107.09
G1 F1800 X113.155 Y97.316 E28.94204
G0 F9000 X112.483 Y97.21
G1 F1800 X123.036 Y107.763 E29.5377
G0 F9000 X123.142 Y108.434
G1 F1800 X111.811 Y97.104 E30.17724
G0 F9000 X111.14 Y96.998
G1 F1800 X123.249 Y109.107 E30.86072
G0 F9000 X123.355 Y109.779
G1 F1800 X110.469 Y96.892 E31.58809
G0 F9000 X109.851 Y96.84
G1 F1800 X123.407 Y110.396 E32.35325
G0 F9000 X123.329 Y110.884
G1 F1800 X109.362 Y96.917 E33.14161
G0 F9000 X108.873 Y96.994
G1 F1800 X123.251 Y111.372 E33.95317
G0 F9000 X123.174 Y111.86
G1 F1800 X108.386 Y97.072 E34.78787
G0 F9000 X107.897 Y97.149
G1 F1800 X123.096 Y112.348 E35.64576
G0 F9000 X123.019 Y112.837
G1 F1800 X107.408 Y97.226 E36.52692
G0 F9000 X106.92 Y97.304
G1 F1800 X122.941 Y113.325 E37.43121
G0 F9000 X122.864 Y113.813
G1 F1800 X106.432 Y97.381 E38.3587
G0 F9000 X105.943 Y97.458
G1 F1800 X122.786 Y114.301 E39.3094
G0 F9000 X122.62 Y114.701
G1 F1800 X105.545 Y97.625 E40.27321
G0 F9000 X105.17 Y97.816
G1 F1800 X122.429 Y115.075 E41.24738
G0 F9000 X122.238 Y115.45
G1 F1800 X104.796 Y98.007 E42.23191
G0 F9000 X104.421 Y98.198
G1 F1800 X122.047 Y115.824 E43.2268
G0 F9000 X121.856 Y116.199
G1 F1800 X104.046 Y98.389 E44.23207
G0 F9000 X103.671 Y98.58
G1 F1800 X121.665 Y116.574 E45.24773
G0 F9000 X121.474 Y116.949
G1 F1800 X103.297 Y98.772 E46.27372
G0 F9000 X102.922 Y98.963
G1 F1800 X121.282 Y117.323 E47.31004
G0 F9000 X121.092 Y117.697
G1 F1800 X102.548 Y99.154 E48.35671
G0 F9000 X102.173 Y99.344
G1 F1800 X120.901 Y118.072 E49.4138
G0 F9000 X120.635 Y118.372
G1 F1800 X101.872 Y99.61 E50.47284
G0 F9000 X101.59 Y99.892
G1 F1800 X120.352 Y118.655 E51.53188
G0 F9000 X120.069 Y118.938
G1 F1800 X101.307 Y100.175 E52.59091
G0 F9000 X101.024 Y100.458
G1 F1800 X119.786 Y119.221 E53.64995
G0 F9000 X119.503 Y119.503
G1 F1800 X100.741 Y100.741 E54.70896
G0 F9000 X100.458 Y101.024
G1 F1800 X119.221 Y119.786 E55.768
G0 F9000 X118.938 Y120.069
G1 F1800 X100.175 Y101.307 E56.82703
G0 F9000 X99.892 Y101.59
G1 F1800 X118.655 Y120.352 E57.88607
G0 F9000 X118.372 Y120.635
G1 F1800 X99.61 Y101.872 E58.9451
G0 F9000 X99.327 Y102.155
G1 F1800 X118.089 Y120.918 E60.00414
G0 F9000 X117.777 Y121.171
G1 F1800 X99.073 Y102.467 E61.05988
G0 F9000 X98.881 Y102.841
G1 F1800 X117.402 Y121.362 E62.10528
G0 F9000 X117.027 Y121.553
G1 F1800 X98.69 Y103.216 E63.1403
G0 F9000 X98.499 Y103.591
G1 F1800 X116.652 Y121.743 E64.16491
G0 F9000 X116.278 Y121.934
G1 F1800 X98.309 Y103.965 E65.17915
G0 F9000 X98.118 Y104.34
G1 F1800 X115.903 Y122.125 E66.18302
G0 F9000 X115.529 Y122.317
G1 F1800 X97.927 Y104.715 E67.17655
G0 F9000 X97.735 Y105.089
G1 F1800 X115.154 Y122.508 E68.15975
G0 F9000 X114.779 Y122.699
G1 F1800 X97.544 Y105.464 E69.13257
G0 F9000 X97.353 Y105.839
G1 F1800 X114.404 Y122.89 E70.095
G0 F9000 X113.991 Y123.042
G1 F1800 X97.205 Y106.256 E71.04248
