;FLAVOR:Marlin
;TIME:1592
;Filament used: 0.992274m
;Layer height: 0.16
;MINX:85.52
;MINY:85.737
;MINZ:0.24
;MAXX:134.48
;MAXY:133.925
;MAXZ:10.2
;Generated with Cura_SteamEngine 4.7.1
M140 S50
M105
M190 S50
M104 S215
M105
M109 S215
M82 ;absolute extrusion mode
M201 X500.00 Y500.00 Z100.00 E5000.00 ;Setup machine max acceleration
M203 X500.00 Y500.00 Z10.00 E50.00 ;Setup machine max feedrate
M204 P500.00 R1000.00 T500.00 ;Setup Print/Retract/Travel acceleration
M205 X8.00 Y8.00 Z0.40 E5.00 ;Setup Jerk
M220 S100 ;Reset Feedrate
M221 S100 ;Reset Flowrate

G28 ;Home

G92 E0 ;Reset Extruder
G1 Z2.0 F3000 ;Move Z Axis up
G1 X10.1 Y20 Z0.28 F5000.0 ;Move to start position
G1 X10.1 Y200.0 Z0.28 F1500.0 E15 ;Draw the first line
G1 X10.4 Y200.0 Z0.28 F5000.0 ;Move to side a little
G1 X10.4 Y20 Z0.28 F1500.0 E30 ;Draw the second line
G92 E0 ;Reset Extruder
G1 Z2.0 F3000 ;Move Z Axis up

G92 E0
G92 E0
G1 F2400 E-3
;LAYER_COUNT:53
;LAYER:0
M106 S63.8
M204 S500
M205 X6 Y6
G1 F300 Z0.44
G0 F9000 X92.443 Y92.381 Z0.44
;TYPE:SKIRT
G1 F300 Z0.24
G1 F2400 E0
G1 F1800 X93.103 Y91.739 E0.03675
G1 X93.573 Y91.342 E0.0613
G1 X94.271 Y90.788 E0.09687
G1 X96.047 Y89.423 E0.18627
G1 X96.704 Y88.933 E0.21898
G1 X97.465 Y88.416 E0.2557
G1 X98.269 Y87.967 E0.29246
G1 X98.792 Y87.722 E0.31551
G1 X99.677 Y87.336 E0.35405
G1 X99.859 Y87.259 E0.36193
G1 X101.087 Y86.751 E0.41497
G1 X101.735 Y86.492 E0.44283
G1 X102.604 Y86.188 E0.47957
G1 X103.496 Y85.96 E0.51632
G1 X104.404 Y85.811 E0.55304
G1 X105.322 Y85.741 E0.58979
G1 X105.882 Y85.737 E0.61214
G1 X106.181 Y85.744 E0.62408
G1 X108.488 Y85.812 E0.71619
G1 X111.038 Y85.816 E0.81797
G1 X112.688 Y85.78 E0.88384
G1 X113.977 Y85.741 E0.93531
G1 X114.897 Y85.753 E0.97203
G1 X115.813 Y85.845 E1.00878
G1 X116.718 Y86.016 E1.04554
G1 X117.604 Y86.265 E1.08227
G1 X118.143 Y86.458 E1.10512
G1 X119.104 Y86.832 E1.14628
G1 X119.316 Y86.917 E1.15539
G1 X120.514 Y87.414 E1.20716
G1 X121.101 Y87.666 E1.23265
G1 X121.93 Y88.065 E1.26937
G1 X122.722 Y88.535 E1.30613
G1 X123.229 Y88.888 E1.33079
G1 X123.962 Y89.431 E1.3672
G1 X125.734 Y90.789 E1.4563
G1 X126.367 Y91.287 E1.48845
G1 X127.064 Y91.888 E1.52518
G1 X127.706 Y92.548 E1.56193
G1 X128.103 Y93.018 E1.58648
G1 X128.657 Y93.716 E1.62205
G1 X130.022 Y95.492 E1.71145
G1 X130.509 Y96.144 E1.74393
G1 X131.027 Y96.905 E1.78067
G1 X131.476 Y97.708 E1.81739
G1 X131.728 Y98.245 E1.84107
G1 X132.11 Y99.122 E1.87925
G1 X132.185 Y99.299 E1.88692
G1 X132.994 Y101.254 E1.97137
G1 X133.249 Y101.893 E1.99883
G1 X133.553 Y102.762 E2.03557
G1 X133.78 Y103.654 E2.07231
G1 X133.887 Y104.252 E2.09655
G1 X134.024 Y105.167 E2.13348
G1 X134.05 Y105.353 E2.14098
G1 X134.329 Y107.474 E2.22636
G1 X134.412 Y108.176 E2.25457
G1 X134.48 Y109.095 E2.29135
G1 X134.468 Y110.015 E2.32807
G1 X134.417 Y110.618 E2.35223
G1 X134.314 Y111.524 E2.38862
G1 X134.291 Y111.713 E2.39622
G1 X134.009 Y113.846 E2.48209
G1 X133.91 Y114.53 E2.50968
G1 X133.738 Y115.435 E2.54645
G1 X133.489 Y116.321 E2.58318
G1 X133.28 Y116.901 E2.60778
G1 X132.94 Y117.763 E2.64477
G1 X132.086 Y119.828 E2.73396
G1 X132.032 Y119.957 E2.73954
G1 X131.778 Y120.548 E2.76521
G1 X131.378 Y121.378 E2.80199
G1 X130.907 Y122.169 E2.83873
G1 X130.56 Y122.669 E2.86302
G1 X130.002 Y123.423 E2.90046
G1 X128.566 Y125.295 E2.99462
G1 X128.158 Y125.812 E3.02091
G1 X127.557 Y126.509 E3.05764
G1 X126.897 Y127.151 E3.09439
G1 X126.427 Y127.548 E3.11895
G1 X125.729 Y128.102 E3.15451
G1 X123.953 Y129.467 E3.24392
G1 X123.829 Y129.561 E3.25013
G1 X123.3 Y129.955 E3.27645
G1 X122.538 Y130.473 E3.31323
G1 X121.735 Y130.922 E3.34995
G1 X121.206 Y131.17 E3.37326
G1 X120.328 Y131.553 E3.4115
G1 X120.145 Y131.631 E3.41944
G1 X118.324 Y132.385 E3.4981
G1 X117.554 Y132.693 E3.5312
G1 X116.685 Y132.997 E3.56794
G1 X115.793 Y133.224 E3.60468
G1 X115.193 Y133.332 E3.62901
G1 X114.278 Y133.469 E3.66594
G1 X114.092 Y133.495 E3.67344
G1 X111.969 Y133.774 E3.7589
G1 X111.266 Y133.857 E3.78715
G1 X110.348 Y133.925 E3.82389
G1 X109.427 Y133.913 E3.86065
G1 X108.824 Y133.862 E3.88481
G1 X107.919 Y133.759 E3.92116
G1 X107.732 Y133.736 E3.92868
G1 X105.601 Y133.454 E4.01447
G1 X104.916 Y133.355 E4.0421
G1 X104.011 Y133.184 E4.07886
G1 X103.125 Y132.935 E4.11559
G1 X102.539 Y132.723 E4.14046
G1 X101.678 Y132.383 E4.17741
G1 X101.515 Y132.317 E4.18443
G1 X99.488 Y131.477 E4.272
G1 X98.897 Y131.223 E4.29768
G1 X98.067 Y130.823 E4.33445
G1 X97.276 Y130.352 E4.37119
G1 X96.777 Y130.005 E4.39545
G1 X96.012 Y129.439 E4.43343
G1 X95.863 Y129.327 E4.44087
G1 X94.15 Y128.011 E4.52709
G1 X93.633 Y127.603 E4.55337
G1 X92.936 Y127.002 E4.59011
G1 X92.294 Y126.342 E4.62685
G1 X91.897 Y125.872 E4.65141
G1 X91.343 Y125.174 E4.68698
G1 X89.978 Y123.398 E4.77638
G1 X89.491 Y122.746 E4.80886
G1 X88.973 Y121.985 E4.8456
G1 X88.524 Y121.182 E4.88232
G1 X88.272 Y120.645 E4.906
G1 X87.89 Y119.768 E4.94417
G1 X87.815 Y119.591 E4.95185
G1 X87.004 Y117.63 E5.03654
G1 X86.749 Y116.99 E5.06404
G1 X86.446 Y116.121 E5.10077
G1 X86.219 Y115.229 E5.13751
G1 X86.113 Y114.638 E5.16147
G1 X85.976 Y113.724 E5.19836
G1 X85.95 Y113.537 E5.2059
G1 X85.671 Y111.414 E5.29136
G1 X85.588 Y110.711 E5.31961
G1 X85.52 Y109.793 E5.35635
G1 X85.532 Y108.872 E5.39311
G1 X85.583 Y108.269 E5.41727
G1 X85.686 Y107.364 E5.45362
G1 X85.709 Y107.177 E5.46114
G1 X85.991 Y105.044 E5.54701
G1 X86.09 Y104.36 E5.5746
G1 X86.262 Y103.455 E5.61136
G1 X86.511 Y102.569 E5.6481
G1 X86.72 Y101.989 E5.6727
G1 X87.06 Y101.127 E5.70969
G1 X87.914 Y99.062 E5.79888
G1 X87.968 Y98.933 E5.80446
G1 X88.222 Y98.342 E5.83013
G1 X88.622 Y97.512 E5.8669
G1 X89.093 Y96.721 E5.90365
G1 X89.44 Y96.221 E5.92794
G1 X89.998 Y95.467 E5.96538
G1 X91.434 Y93.595 E6.05954
G1 X91.842 Y93.078 E6.08583
G1 X92.443 Y92.381 E6.12256
G0 F9000 X92.746 Y92.643
G1 F1800 X93.395 Y92.014 E6.15863
G1 X93.822 Y91.656 E6.18087
G1 X94.648 Y91.001 E6.22295
G1 X96.29 Y89.74 E6.30558
G1 X96.942 Y89.254 E6.33804
G1 X97.69 Y88.747 E6.3741
G1 X98.48 Y88.309 E6.41016
G1 X98.952 Y88.089 E6.43094
G1 X99.837 Y87.703 E6.46948
G1 X100.013 Y87.628 E6.47711
G1 X101.235 Y87.123 E6.52989
G1 X101.883 Y86.864 E6.55774
G1 X102.736 Y86.566 E6.5938
G1 X103.612 Y86.345 E6.62986
G1 X104.503 Y86.202 E6.66588
G1 X105.404 Y86.138 E6.70193
G1 X106.073 Y86.141 E6.72863
G1 X108.511 Y86.212 E6.82598
G1 X111.046 Y86.216 E6.92715
G1 X112.697 Y86.18 E6.99306
G1 X113.989 Y86.141 E7.04465
G1 X114.892 Y86.153 E7.0807
G1 X115.79 Y86.246 E7.11673
G1 X116.677 Y86.417 E7.15278
G1 X117.545 Y86.666 E7.18883
G1 X117.998 Y86.83 E7.20805
G1 X118.959 Y87.204 E7.24921
G1 X119.163 Y87.286 E7.25799
G1 X120.356 Y87.781 E7.30954
G1 X120.943 Y88.033 E7.33503
G1 X121.756 Y88.426 E7.37108
G1 X122.531 Y88.889 E7.40711
G1 X122.991 Y89.21 E7.42949
G1 X123.724 Y89.753 E7.4659
G1 X125.491 Y91.107 E7.55475
G1 X125.602 Y91.193 E7.56036
G1 X126.119 Y91.601 E7.58664
G1 X126.802 Y92.191 E7.62267
G1 X127.431 Y92.84 E7.65874
G1 X127.789 Y93.267 E7.68098
G1 X128.444 Y94.093 E7.72305
G1 X129.705 Y95.735 E7.80568
G1 X130.188 Y96.383 E7.83794
G1 X130.696 Y97.13 E7.874
G1 X131.135 Y97.919 E7.91003
G1 X131.361 Y98.405 E7.93143
G1 X131.816 Y99.452 E7.97699
G1 X132.623 Y101.402 E8.06122
G1 X132.878 Y102.041 E8.08868
G1 X133.175 Y102.894 E8.12473
G1 X133.395 Y103.77 E8.16078
G1 X133.492 Y104.312 E8.18275
G1 X133.629 Y105.227 E8.21968
G1 X133.654 Y105.405 E8.22685
G1 X133.915 Y107.387 E8.30664
G1 X134.014 Y108.223 E8.34024
G1 X134.081 Y109.124 E8.3763
G1 X134.067 Y110.027 E8.41235
G1 X134.02 Y110.573 E8.43422
G1 X133.917 Y111.479 E8.47061
G1 X133.613 Y113.789 E8.56361
G1 X133.514 Y114.473 E8.59119
G1 X133.345 Y115.36 E8.62723
G1 X133.098 Y116.229 E8.66329
G1 X132.908 Y116.755 E8.68561
G1 X132.568 Y117.617 E8.72259
G1 X132.503 Y117.777 E8.72948
G1 X131.717 Y119.675 E8.81148
G1 X131.41 Y120.391 E8.84257
G1 X131.017 Y121.204 E8.87861
G1 X130.554 Y121.979 E8.91464
G1 X130.238 Y122.431 E8.93665
G1 X129.68 Y123.185 E8.97409
G1 X129.574 Y123.326 E8.98113
G1 X128.338 Y124.937 E9.06218
G1 X127.844 Y125.564 E9.09403
G1 X127.254 Y126.247 E9.13006
G1 X126.605 Y126.876 E9.16613
G1 X126.178 Y127.234 E9.18837
G1 X125.352 Y127.889 E9.23044
G1 X123.71 Y129.15 E9.31308
G1 X123.061 Y129.634 E9.34539
G1 X122.313 Y130.141 E9.38145
G1 X121.524 Y130.58 E9.41749
G1 X121.046 Y130.803 E9.43854
G1 X120.168 Y131.186 E9.47678
G1 X119.992 Y131.261 E9.48441
G1 X118.171 Y132.015 E9.56308
G1 X117.406 Y132.321 E9.59596
G1 X116.553 Y132.619 E9.63202
G1 X115.678 Y132.84 E9.66804
G1 X115.133 Y132.937 E9.69014
G1 X114.218 Y133.074 E9.72706
G1 X114.04 Y133.099 E9.73424
G1 X111.922 Y133.377 E9.8195
G1 X111.219 Y133.46 E9.84775
G1 X110.318 Y133.526 E9.88381
G1 X109.415 Y133.512 E9.91985
G1 X108.87 Y133.465 E9.94168
G1 X107.965 Y133.362 E9.97804
G1 X105.658 Y133.058 E10.07091
G1 X104.973 Y132.959 E10.09854
G1 X104.086 Y132.79 E10.13457
G1 X103.217 Y132.544 E10.17062
G1 X102.686 Y132.351 E10.19317
G1 X101.668 Y131.948 E10.23687
G1 X99.77 Y131.162 E10.31886
G1 X99.054 Y130.855 E10.34995
G1 X98.241 Y130.462 E10.386
G1 X97.466 Y129.999 E10.42203
G1 X97.015 Y129.684 E10.44398
G1 X96.25 Y129.118 E10.48196
G1 X96.107 Y129.01 E10.48912
G1 X94.398 Y127.697 E10.57513
G1 X93.881 Y127.289 E10.60142
G1 X93.198 Y126.699 E10.63744
G1 X92.569 Y126.05 E10.67351
G1 X92.211 Y125.623 E10.69575
G1 X91.556 Y124.797 E10.73783
G1 X90.295 Y123.155 E10.82046
G1 X89.812 Y122.507 E10.85272
G1 X89.304 Y121.76 E10.88877
G1 X88.865 Y120.971 E10.92481
G1 X88.639 Y120.485 E10.9462
G1 X88.184 Y119.438 E10.99177
G1 X87.375 Y117.482 E11.07625
G1 X87.12 Y116.842 E11.10374
G1 X86.824 Y115.989 E11.13978
G1 X86.603 Y115.114 E11.1758
G1 X86.509 Y114.579 E11.19748
G1 X86.346 Y113.485 E11.24163
G1 X86.068 Y111.367 E11.32689
G1 X85.985 Y110.664 E11.35514
G1 X85.919 Y109.763 E11.3912
G1 X85.933 Y108.86 E11.42724
G1 X85.98 Y108.315 E11.44907
G1 X86.083 Y107.41 E11.48543
G1 X86.387 Y105.101 E11.57838
G1 X86.486 Y104.417 E11.60596
G1 X86.655 Y103.53 E11.642
G1 X86.902 Y102.661 E11.67806
G1 X87.092 Y102.135 E11.70038
G1 X87.432 Y101.273 E11.73737
G1 X87.497 Y101.113 E11.74426
G1 X88.283 Y99.215 E11.82625
G1 X88.59 Y98.499 E11.85734
G1 X88.983 Y97.686 E11.89339
G1 X89.446 Y96.911 E11.92942
G1 X89.762 Y96.459 E11.95143
G1 X90.32 Y95.705 E11.98887
G1 X90.426 Y95.564 E11.99591
G1 X91.662 Y93.953 E12.07695
G1 X92.156 Y93.326 E12.10881
G1 X92.746 Y92.643 E12.14483
G1 F2400 E9.14483
G1 F300 Z0.44
;MESH:DiamondRingBand_RingSize10mm.stl
G0 F9000 X119.684 Y99.761 Z0.44
;TYPE:WALL-OUTER
G1 F300 Z0.24
G1 F2400 E12.14483
G1 F1800 X120.794 Y101.209 E12.21765
G1 X121.861 Y102.597 E12.28753
G1 X123.23 Y105.902 E12.4303
G1 X123.697 Y109.445 E12.57294
G1 X123.23 Y112.988 E12.71557
G1 X122.53 Y114.675 E12.78847
G1 X121.861 Y116.293 E12.85835
G1 X119.684 Y119.129 E13.00104
G1 X118.236 Y120.239 E13.07386
G1 X116.848 Y121.306 E13.14374
G1 X113.543 Y122.675 E13.28652
G1 X110 Y123.142 E13.42915
G1 X106.457 Y122.675 E13.57178
G1 X104.77 Y121.975 E13.64468
G1 X103.152 Y121.306 E13.71456
G1 X100.316 Y119.129 E13.85725
G1 X99.206 Y117.681 E13.93007
G1 X98.139 Y116.293 E13.99995
G1 X96.77 Y112.988 E14.14273
G1 X96.303 Y109.445 E14.28536
G1 X96.77 Y105.902 E14.42799
G1 X97.47 Y104.215 E14.50089
G1 X98.139 Y102.597 E14.57077
G1 X100.316 Y99.761 E14.71346
G1 X101.764 Y98.651 E14.78628
G1 X103.153 Y97.583 E14.85621
G1 X104.835 Y96.888 E14.92885
G1 X105.643 Y96.552 E14.96378
G1 X106.152 Y96.908 E14.98857
G1 X110 Y98.024 E15.14848
G1 X113.846 Y96.909 E15.3083
G1 X114.356 Y96.553 E15.33313
G1 X116.847 Y97.583 E15.44071
G1 X119.684 Y99.761 E15.58346
G0 F9000 X119.373 Y100.072
G1 F2400 E12.58346
G1 F300 Z0.44
G0 F9000 X100.146 Y106.805 Z0.44
G1 F300 Z0.24
G1 F2400 E15.58346
G1 F1800 X99.798 Y109.445 E15.68974
G1 X100.146 Y112.085 E15.79602
G1 X101.165 Y114.546 E15.90233
G1 X102.786 Y116.659 E16.00862
G1 X104.899 Y118.28 E16.11492
G1 X107.36 Y119.299 E16.22123
G1 X110 Y119.647 E16.32751
G1 X112.64 Y119.299 E16.43379
G1 X115.101 Y118.28 E16.5401
G1 X117.214 Y116.659 E16.64639
G1 X118.835 Y114.546 E16.75268
G1 X119.854 Y112.085 E16.85899
G1 X120.202 Y109.445 E16.96527
G1 X119.854 Y106.805 E17.07155
G1 X118.835 Y104.344 E17.17786
G1 X117.214 Y102.231 E17.28416
G1 X115.101 Y100.61 E17.39045
G1 X112.64 Y99.591 E17.49676
G1 X110 Y99.243 E17.60304
G1 X107.36 Y99.591 E17.70932
G1 X104.899 Y100.61 E17.81563
G1 X102.786 Y102.231 E17.92192
G1 X101.165 Y104.344 E18.02821
G1 X100.146 Y106.805 E18.13453
G0 F9000 X99.756 Y106.701
;TYPE:WALL-INNER
G1 F1800 X99.395 Y109.445 E18.24499
G1 X99.756 Y112.189 E18.35545
G1 X100.816 Y114.748 E18.466
G1 X102.501 Y116.944 E18.57648
G1 X104.697 Y118.629 E18.68695
G1 X107.256 Y119.689 E18.7975
G1 X110 Y120.05 E18.90797
G1 X112.744 Y119.689 E19.01843
G1 X115.303 Y118.629 E19.12898
G1 X117.499 Y116.944 E19.23945
G1 X119.184 Y114.748 E19.34993
G1 X120.244 Y112.189 E19.46048
G1 X120.605 Y109.445 E19.57094
G1 X120.244 Y106.701 E19.68141
G1 X119.184 Y104.142 E19.79196
G1 X117.499 Y101.946 E19.90243
G1 X115.303 Y100.261 E20.01291
G1 X112.744 Y99.201 E20.12346
G1 X110 Y98.84 E20.23392
G1 X107.256 Y99.201 E20.34438
G1 X104.697 Y100.261 E20.45494
G1 X102.501 Y101.946 E20.56541
G1 X100.816 Y104.142 E20.67589
G1 X99.756 Y106.701 E20.78644
G1 F2400 E17.78644
G1 F300 Z0.44
G0 F9000 X97.839 Y104.368 Z0.44
G1 F300 Z0.24
G1 F2400 E20.78644
G1 F1800 X98.487 Y102.8 E20.85415
G1 X100.603 Y100.045 E20.9928
G1 X103.352 Y97.934 E21.13114
G1 X104.988 Y97.258 E21.20179
G1 X105.594 Y97.006 E21.22798
G1 X105.977 Y97.274 E21.24664
G1 X110 Y98.44 E21.41382
G1 X114.021 Y97.275 E21.5809
G1 X114.405 Y97.007 E21.59959
G1 X116.646 Y97.933 E21.69637
G1 X119.4 Y100.048 E21.83496
G1 X121.51 Y102.796 E21.97324
G1 X122.84 Y106.007 E22.11196
G1 X123.293 Y109.445 E22.25036
G1 X122.839 Y112.887 E22.38893
G1 X122.161 Y114.522 E22.45958
G1 X121.513 Y116.09 E22.52729
G1 X119.397 Y118.845 E22.66594
G1 X116.649 Y120.955 E22.80422
G1 X113.438 Y122.285 E22.94294
G1 X110 Y122.738 E23.08134
G1 X106.558 Y122.284 E23.21991
G1 X104.923 Y121.606 E23.29055
G1 X103.355 Y120.958 E23.35827
G1 X100.6 Y118.842 E23.49692
G1 X98.49 Y116.094 E23.6352
G1 X97.16 Y112.883 E23.77391
G1 X96.707 Y109.445 E23.91232
G1 X97.161 Y106.003 E24.05089
G1 X97.839 Y104.368 E24.12153
G0 F9000 X98.207 Y104.521
G1 F1800 X98.835 Y103.003 E24.1871
G1 X100.888 Y100.33 E24.32162
G1 X103.553 Y98.284 E24.45571
G1 X105.545 Y97.46 E24.54175
G1 X105.802 Y97.64 E24.55428
G1 X108.09 Y98.303 E24.64935
G1 X109.005 Y98.568 E24.68737
G1 X108.06 Y98.691 E24.70678
G1 X107.152 Y98.811 E24.74333
G1 X104.495 Y99.912 E24.85813
G1 X102.216 Y101.661 E24.97278
G1 X100.467 Y103.94 E25.08744
G1 X99.366 Y106.597 E25.20223
G1 X98.992 Y109.445 E25.31688
G1 X99.366 Y112.293 E25.43153
G1 X100.467 Y114.95 E25.54632
G1 X102.216 Y117.229 E25.66097
G1 X104.495 Y118.978 E25.77563
G1 X107.152 Y120.079 E25.89042
G1 X110 Y120.453 E26.00507
G1 X112.848 Y120.079 E26.11972
G1 X115.505 Y118.978 E26.23451
G1 X117.784 Y117.229 E26.34916
G1 X119.533 Y114.95 E26.46382
G1 X120.634 Y112.293 E26.57861
G1 X121.008 Y109.445 E26.69326
G1 X120.634 Y106.597 E26.80791
G1 X119.533 Y103.94 E26.9227
G1 X117.784 Y101.661 E27.03736
G1 X115.505 Y99.912 E27.15201
G1 X112.848 Y98.811 E27.2668
G1 X111.941 Y98.692 E27.30332
G1 X111.94 Y98.691 E27.30337
G1 X110.996 Y98.568 E27.34137
G1 X111.911 Y98.303 E27.36078
G1 X114.196 Y97.641 E27.45573
G1 X114.454 Y97.461 E27.46828
G1 X116.445 Y98.283 E27.55425
G1 X119.115 Y100.333 E27.68861
G1 X121.16 Y102.997 E27.82265
G1 X122.45 Y106.112 E27.95721
G1 X122.889 Y109.445 E28.09139
G1 X122.448 Y112.786 E28.22589
G1 X121.793 Y114.369 E28.29427
G1 X121.165 Y115.887 E28.35984
G1 X119.112 Y118.56 E28.49436
G1 X116.448 Y120.605 E28.6284
G1 X113.333 Y121.895 E28.76296
G1 X110 Y122.334 E28.89714
G1 X106.659 Y121.893 E29.03164
G1 X105.076 Y121.238 E29.10002
G1 X103.558 Y120.61 E29.16558
G1 X100.885 Y118.557 E29.30011
G1 X98.84 Y115.893 E29.43415
G1 X97.55 Y112.778 E29.56871
G1 X97.111 Y109.445 E29.70289
G1 X97.552 Y106.104 E29.83739
G1 X98.207 Y104.521 E29.90577
G1 F2400 E26.90577
G1 F300 Z0.44
G0 F9000 X99.176 Y103.201 Z0.44
;TYPE:SKIN
G1 F300 Z0.24
G1 F2400 E29.90577
G1 F1800 X101.167 Y100.609 E30.03622
G1 X103.751 Y98.625 E30.16624
