;FLAVOR:Marlin
;TIME:1917
;Filament used: 1.14968m
;Layer height: 0.16
;MINX:90.28
;MINY:90.281
;MINZ:0.24
;MAXX:129.72
;MAXY:129.719
;MAXZ:19.8
;Generated with Cura_SteamEngine 4.5.0
M140 S50
M105
M190 S50
M104 S215
M105
M109 S215
M82 ;absolute extrusion mode
M201 X500.00 Y500.00 Z100.00 E5000.00 ;Setup machine max acceleration
M203 X500.00 Y500.00 Z10.00 E50.00 ;Setup machine max feedrate
M204 P500.00 R1000.00 T500.00 ;Setup Print/Retract/Travel acceleration
M205 X8.00 Y8.00 Z0.40 E5.00 ;Setup Jerk
M220 S100 ;Reset Feedrate
M221 S100 ;Reset Flowrate

G28 ;Home

G92 E0 ;Reset Extruder
G1 Z2.0 F3000 ;Move Z Axis up
G1 X10.1 Y20 Z0.28 F5000.0 ;Move to start position
G1 X10.1 Y200.0 Z0.28 F1500.0 E15 ;Draw the first line
G1 X10.4 Y200.0 Z0.28 F5000.0 ;Move to side a little
G1 X10.4 Y20 Z0.28 F1500.0 E30 ;Draw the second line
G92 E0 ;Reset Extruder
G1 Z2.0 F3000 ;Move Z Axis up

G92 E0
G92 E0
G1 F1800 E-3
;LAYER_COUNT:154
;LAYER:0
M106 S63.8
M204 S500
M205 X6 Y6
G0 F9000 X99.5 Y99.332 Z0.24
;TYPE:SKIRT
G1 F1800 E0
G1 X99.866 Y99.11 E0.01709
G1 X109.464 Y95.134 E0.43173
G1 X109.786 Y95.043 E0.44509
G1 X110.12 Y95.032 E0.45842
G1 X110.536 Y95.134 E0.47552
G1 X120.132 Y99.111 E0.89011
G1 X120.423 Y99.274 E0.90342
G1 X120.667 Y99.503 E0.91677
G1 X120.889 Y99.868 E0.93382
G1 X124.865 Y109.465 E1.34843
G1 X124.956 Y109.787 E1.36179
G1 X124.967 Y110.121 E1.37513
G1 X124.865 Y110.537 E1.39222
G1 X121.007 Y119.849 E1.79452
G1 X120.725 Y120.425 E1.82011
G1 X120.496 Y120.669 E1.83347
G1 X120.132 Y120.89 E1.85047
G1 X110.536 Y124.866 E2.26504
G1 X110.214 Y124.957 E2.27839
G1 X109.88 Y124.968 E2.29173
G1 X109.463 Y124.866 E2.30887
G1 X108.52 Y124.474 E2.34962
G1 X99.867 Y120.892 E2.72341
G1 X99.575 Y120.728 E2.73677
G1 X99.331 Y120.5 E2.7501
G1 X99.109 Y120.134 E2.76719
G1 X95.134 Y110.537 E3.18178
G1 X95.043 Y110.215 E3.19513
G1 X95.032 Y109.881 E3.20847
G1 X95.135 Y109.462 E3.22569
G1 X95.528 Y108.519 E3.26647
G1 X99.108 Y99.868 E3.64015
G1 X99.272 Y99.576 E3.65351
G1 X99.5 Y99.332 E3.66684
G0 F9000 X99.827 Y99.585
G1 F1800 X109.617 Y95.503 E4.09019
G1 X109.891 Y95.433 E4.10147
G1 X110.173 Y95.442 E4.11273
G1 X119.979 Y99.48 E4.536
G1 X120.222 Y99.624 E4.54727
G1 X120.415 Y99.83 E4.55854
G1 X124.496 Y109.618 E4.98179
G1 X124.566 Y109.892 E4.99308
G1 X124.557 Y110.174 E5.00434
G1 X120.638 Y119.696 E5.41531
G1 X120.376 Y120.223 E5.4388
G1 X120.17 Y120.416 E5.45007
G1 X110.383 Y124.497 E5.87329
G1 X110.11 Y124.567 E5.88454
G1 X109.828 Y124.558 E5.8958
G1 X108.673 Y124.104 E5.94533
G1 X100.02 Y120.522 E6.31911
G1 X99.777 Y120.378 E6.33039
G1 X99.584 Y120.173 E6.34162
G1 X95.503 Y110.384 E6.76492
G1 X95.433 Y110.11 E6.7762
G1 X95.442 Y109.828 E6.78747
G1 X95.897 Y108.673 E6.83701
G1 X99.478 Y100.021 E7.21074
G1 X99.622 Y99.778 E7.22202
G1 X99.827 Y99.585 E7.23325
G0 F9000 X99.966 Y99.99
G1 F1800 X100.172 Y99.849 E7.24322
G1 X109.77 Y95.873 E7.65786
G1 X109.984 Y95.827 E7.6666
G1 X110.23 Y95.873 E7.67659
G1 X119.826 Y99.85 E8.09117
G1 X120.009 Y99.969 E8.09989
G1 X120.15 Y100.174 E8.10982
G1 X124.126 Y109.771 E8.52442
G1 X124.172 Y109.985 E8.53316
G1 X124.126 Y110.231 E8.54315
G1 X120.268 Y119.543 E8.94545
G1 X120.032 Y120.01 E8.96633
G1 X119.826 Y120.151 E8.97629
G1 X110.23 Y124.127 E9.39087
G1 X110.016 Y124.173 E9.3996
G1 X109.77 Y124.127 E9.40959
G1 X108.827 Y123.735 E9.45035
G1 X100.172 Y120.152 E9.82422
G1 X99.989 Y120.033 E9.83293
G1 X99.848 Y119.828 E9.84286
G1 X95.873 Y110.231 E10.25746
G1 X95.827 Y110.017 E10.26619
G1 X95.873 Y109.77 E10.27622
G1 X96.266 Y108.827 E10.317
G1 X99.848 Y100.174 E10.69078
G1 X99.966 Y99.99 E10.6995
G0 F9000 X100.325 Y100.218
G1 F1800 X109.923 Y96.242 E11.11415
G1 X110.077 Y96.242 E11.12029
G1 X119.673 Y100.219 E11.53488
G1 X119.781 Y100.327 E11.54098
G1 X123.757 Y109.924 E11.95558
G1 X123.757 Y110.078 E11.96173
G1 X119.899 Y119.39 E12.36403
G1 X119.781 Y119.674 E12.3763
G1 X119.673 Y119.782 E12.3824
G1 X110.077 Y123.758 E12.79697
G1 X109.923 Y123.758 E12.80312
G1 X108.98 Y123.366 E12.84388
G1 X100.325 Y119.783 E13.21775
G1 X100.217 Y119.675 E13.22384
G1 X96.242 Y110.078 E13.63843
G1 X96.242 Y109.924 E13.64458
G1 X96.635 Y108.981 E13.68536
G1 X100.217 Y100.326 E14.05921
G1 X100.325 Y100.218 E14.06531
;MESH:Diamond (1).stl
G0 F9000 X100.555 Y100.556
;TYPE:WALL-OUTER
G1 F1800 X110 Y96.645 E14.47332
G1 X119.443 Y100.557 E14.88127
G1 X123.355 Y110 E15.28922
G1 X119.443 Y119.444 E15.69721
G1 X110.001 Y123.356 E16.10513
G1 X109.134 Y122.996 E16.1426
G1 X100.555 Y119.445 E16.51317
G1 X96.645 Y110.001 E16.92113
G1 X97.005 Y109.135 E16.95856
G1 X100.555 Y100.556 E17.32913
G0 F9000 X100.866 Y100.867
G0 X97.698 Y110.001
G0 X100.862 Y119.14
;TYPE:WALL-INNER
G1 F1800 X97.078 Y110 E17.72395
G1 X97.374 Y109.289 E17.75469
G1 X100.861 Y100.863 E18.11865
G1 X110 Y97.078 E18.51345
G1 X119.137 Y100.863 E18.90818
G1 X122.922 Y110 E19.30291
G1 X119.137 Y119.138 E19.69768
G1 X110 Y122.923 E20.09241
G1 X109.287 Y122.627 E20.12322
G1 X100.862 Y119.14 E20.48714
G0 F9000 X101.169 Y118.835
G1 F1800 X97.511 Y110 E20.8688
G1 X97.743 Y109.443 E20.89288
G1 X101.167 Y101.17 E21.25024
G1 X110 Y97.511 E21.63183
G1 X118.831 Y101.169 E22.01334
G1 X122.489 Y110 E22.39484
G1 X118.831 Y118.832 E22.77638
G1 X109.999 Y122.49 E23.15793
G1 X109.44 Y122.258 E23.18208
G1 X101.169 Y118.835 E23.53935
G0 F9000 X101.468 Y118.537
;TYPE:SKIN
G1 F1800 X97.934 Y109.999 E23.90816
G1 X98.103 Y109.593 E23.92571
G1 X101.465 Y101.469 E24.27663
G1 X110 Y97.934 E24.64534
G1 X118.532 Y101.468 E25.01392
G1 X122.066 Y110 E25.38251
G1 X118.532 Y118.533 E25.75113
G1 X109.998 Y122.067 E26.11979
G1 X101.468 Y118.537 E26.48825
G0 F9000 X102.305 Y118.71
G1 F1800 X101.293 Y117.697 E26.5454
G0 F9000 X100.887 Y117.864
G0 X100.487 Y116.901
G0 X100.894 Y116.733
G1 F1800 X103.27 Y119.11 E26.67954
G0 F9000 X103.102 Y119.515
G0 X104.066 Y119.914
G0 X104.235 Y119.508
G1 F1800 X100.494 Y115.768 E26.89067
G0 F9000 X100.088 Y115.935
G0 X99.688 Y114.971
G0 X100.095 Y114.803
G1 F1800 X105.199 Y119.907 E27.17876
G0 F9000 X105.03 Y120.313
G0 X105.995 Y120.712
G0 X106.164 Y120.306
G1 F1800 X99.696 Y113.838 E27.54384
G0 F9000 X99.289 Y114.006
G0 X98.889 Y113.042
G0 X99.297 Y112.874
G1 F1800 X107.128 Y120.705 E27.98586
G0 F9000 X106.959 Y121.111
G0 X107.924 Y121.511
G0 X108.093 Y121.104
G1 F1800 X98.898 Y111.908 E28.50489
G0 F9000 X98.49 Y112.076
G0 X98.09 Y111.112
G0 X98.499 Y110.944
G1 F1800 X109.058 Y121.503 E29.10088
G0 F9000 X108.889 Y121.91
G0 X109.788 Y122.227
G0 X110.177 Y122.297
G0 X110.007 Y121.886
G1 F1800 X98.111 Y109.99 E29.77235
G0 F9000 X98.276 Y109.59
G1 F1800 X110.407 Y121.721 E30.45707
G0 F9000 X110.807 Y121.555
G1 F1800 X98.441 Y109.19 E31.15503
G0 F9000 X98.608 Y108.79
G1 F1800 X111.208 Y121.39 E31.86623
G0 F9000 X111.607 Y121.224
G1 F1800 X98.773 Y108.39 E32.59064
G0 F9000 X98.939 Y107.99
G1 F1800 X112.007 Y121.058 E33.32825
G0 F9000 X112.408 Y120.893
G1 F1800 X99.104 Y107.589 E34.07919
G0 F9000 X99.27 Y107.189
G1 F1800 X112.808 Y120.727 E34.84333
G0 F9000 X113.208 Y120.562
G1 F1800 X99.435 Y106.789 E35.62074
G0 F9000 X99.6 Y106.389
G1 F1800 X113.608 Y120.396 E36.41138
G0 F9000 X114.008 Y120.23
G1 F1800 X99.766 Y105.988 E37.21526
G0 F9000 X99.932 Y105.589
G1 F1800 X114.408 Y120.065 E38.03235
G0 F9000 X114.808 Y119.899
G1 F1800 X100.098 Y105.189 E38.86265
G0 F9000 X100.263 Y104.788
G1 F1800 X115.208 Y119.734 E39.70624
G0 F9000 X115.609 Y119.568
G1 F1800 X100.428 Y104.388 E40.56309
G0 F9000 X100.594 Y103.988
G1 F1800 X116.009 Y119.403 E41.43318
G0 F9000 X116.408 Y119.237
G1 F1800 X100.759 Y103.588 E42.31648
G0 F9000 X100.925 Y103.188
G1 F1800 X116.809 Y119.071 E43.21301
G0 F9000 X117.209 Y118.906
G1 F1800 X101.09 Y102.787 E44.12283
G0 F9000 X101.256 Y102.387
G1 F1800 X117.609 Y118.74 E45.04587
G0 F9000 X118.009 Y118.575
G1 F1800 X101.422 Y101.988 E45.98211
G0 F9000 X101.589 Y101.589
G1 F1800 X118.409 Y118.409 E46.9315
G0 F9000 X118.576 Y118.01
G1 F1800 X101.989 Y101.423 E47.86775
G0 F9000 X102.389 Y101.258
G1 F1800 X118.741 Y117.61 E48.79072
G0 F9000 X118.907 Y117.21
G1 F1800 X102.789 Y101.092 E49.70049
G0 F9000 X103.19 Y100.927
G1 F1800 X119.072 Y116.809 E50.59694
G0 F9000 X119.238 Y116.41
G1 F1800 X103.589 Y100.761 E51.48024
G0 F9000 X103.989 Y100.595
G1 F1800 X119.404 Y116.01 E52.35033
G0 F9000 X119.569 Y115.609
G1 F1800 X104.39 Y100.43 E53.2071
G0 F9000 X104.79 Y100.264
G1 F1800 X119.735 Y115.209 E54.05066
G0 F9000 X119.9 Y114.809
G1 F1800 X105.19 Y100.099 E54.88095
G0 F9000 X105.59 Y99.933
G1 F1800 X120.066 Y114.409 E55.69804
G0 F9000 X120.232 Y114.009
G1 F1800 X105.99 Y99.767 E56.50192
G0 F9000 X106.39 Y99.602
G1 F1800 X120.397 Y113.609 E57.29254
G0 F9000 X120.563 Y113.209
G1 F1800 X106.79 Y99.436 E58.06994
G0 F9000 X107.191 Y99.271
G1 F1800 X120.728 Y112.808 E58.83403
G0 F9000 X120.894 Y112.409
G1 F1800 X107.59 Y99.105 E59.58497
G0 F9000 X107.99 Y98.939
G1 F1800 X121.06 Y112.009 E60.32269
G0 F9000 X121.225 Y111.609
G1 F1800 X108.39 Y98.774 E61.04716
G0 F9000 X108.791 Y98.608
G1 F1800 X121.391 Y111.208 E61.75835
G0 F9000 X121.556 Y110.808
G1 F1800 X109.191 Y98.443 E62.45629
G0 F9000 X109.59 Y98.277
G1 F1800 X121.722 Y110.409 E63.14107
G0 F9000 X121.888 Y110.008
G1 F1800 X109.991 Y98.111 E63.81259
G0 F9000 X109.823 Y97.703
G0 X109.923 Y97.701
G0 X111.114 Y98.092
G0 X110.945 Y98.499
G1 F1800 X121.5 Y109.054 E64.40836
G0 F9000 X121.908 Y108.886
G0 X121.508 Y107.92
G0 X121.099 Y108.089
G1 F1800 X111.91 Y98.9 E64.92703
G0 F9000 X112.08 Y98.492
G0 X113.045 Y98.892
G0 X112.876 Y99.299
G1 F1800 X120.7 Y107.123 E65.36865
G0 F9000 X121.108 Y106.955
G0 X120.709 Y105.99
G0 X120.3 Y106.158
G1 F1800 X113.841 Y99.699 E65.73322
G0 F9000 X114.01 Y99.292
G0 X114.975 Y99.692
G0 X114.806 Y100.098
G1 F1800 X119.901 Y105.193 E66.0208
G0 F9000 X120.309 Y105.025
G0 X119.909 Y104.06
G0 X119.501 Y104.228
G1 F1800 X115.771 Y100.498 E66.23134
G0 F9000 X115.94 Y100.092
G0 X116.905 Y100.491
G0 X116.736 Y100.897
G1 F1800 X119.102 Y103.263 E66.36489
G0 F9000 X119.509 Y103.095
G0 X119.109 Y102.129
G0 X118.702 Y102.297
G1 F1800 X117.702 Y101.297 E66.42133
G0 F9000 X117.987 Y100.615
;MESH:NONMESH
G0 F300 X117.987 Y100.615 Z0.4
G0 F9000 X119.22 Y100.78
G0 X119.568 Y100.432
;TIME_ELAPSED:70.076139
;LAYER:1
M140 S40
M106 S127.5
;TYPE:WALL-OUTER
;MESH:Diamond (1).stl
G1 F2100 X123.531 Y110.001 E66.69692
G1 X119.568 Y119.569 E66.97248
G1 X119.173 Y119.733 E66.98386
G1 X110 Y123.532 E67.24804
G1 X100.43 Y119.57 E67.52364
G1 X96.468 Y110.001 E67.79921
G1 X100.43 Y100.431 E68.07481
G1 X110 Y96.468 E68.35042
G1 X119.568 Y100.432 E68.62599
G0 F9000 X119.257 Y100.743
G0 X110 Y96.901
;TYPE:WALL-INNER
G1 F2100 X119.262 Y100.738 E68.89275
G1 X123.098 Y110.001 E69.15952
G1 X119.261 Y119.264 E69.4263
G1 X119.108 Y119.327 E69.4307
G1 X119.02 Y119.364 E69.43324
G1 X110.001 Y123.099 E69.69298
G1 X100.736 Y119.264 E69.95979
G1 X96.901 Y110.001 E70.22655
G1 X100.736 Y100.737 E70.49333
G1 X110 Y96.901 E70.76013
G0 F9000 X110 Y97.334
G1 F2100 X118.956 Y101.044 E71.01807
G1 X122.665 Y110.001 E71.27602
G1 X118.954 Y118.959 E71.53402
G1 X110.002 Y122.666 E71.79183
G1 X101.042 Y118.958 E72.04985
G1 X97.334 Y110.001 E72.30779
G1 X101.042 Y101.043 E72.56576
G1 X110 Y97.334 E72.82374
G0 F9000 X110 Y97.757
;TYPE:SKIN
G1 F2100 X118.657 Y101.343 E73.07307
G1 X122.242 Y110.001 E73.32241
G1 X118.655 Y118.66 E73.57179
G1 X110.001 Y122.243 E73.82101
G1 X101.341 Y118.659 E74.07039
G1 X97.756 Y110.001 E74.31974
G1 X101.341 Y101.343 E74.56908
G1 X110 Y97.757 E74.81845
G0 F9000 X110.108 Y97.498
G0 X101.175 Y101.176
G0 X100.949 Y101.558
G0 X101.354 Y101.726
G1 F2100 X101.725 Y101.355 E74.83241
G0 F9000 X101.558 Y100.949
G0 X102.523 Y100.549
G0 X102.69 Y100.955
G1 F2100 X100.955 Y102.691 E74.89772
G0 F9000 X100.55 Y102.523
G0 X100.15 Y103.488
G0 X100.555 Y103.656
G1 F2100 X103.656 Y100.556 E75.01439
G0 F9000 X103.488 Y100.15
G0 X104.454 Y99.75
G0 X104.621 Y100.156
G1 F2100 X100.156 Y104.622 E75.18242
G0 F9000 X99.75 Y104.453
G0 X99.351 Y105.419
G0 X99.756 Y105.587
G1 F2100 X105.586 Y99.757 E75.4018
G0 F9000 X105.418 Y99.35
G0 X106.384 Y98.951
G0 X106.551 Y99.357
G1 F2100 X99.356 Y106.552 E75.67255
G0 F9000 X98.951 Y106.384
G0 X98.552 Y107.348
G0 X98.958 Y107.517
G1 F2100 X107.517 Y98.958 E75.99462
G0 F9000 X107.349 Y98.551
G0 X108.314 Y98.151
G0 X108.482 Y98.558
G1 F2100 X98.558 Y108.482 E76.36806
G0 F9000 X98.152 Y108.313
G0 X97.753 Y109.278
G0 X98.159 Y109.447
G1 F2100 X109.447 Y98.159 E76.79282
G0 F9000 X110.17 Y98.001
G1 F2100 X98.001 Y110.17 E77.25073
G0 F9000 X98.166 Y110.57
G1 F2100 X110.57 Y98.166 E77.71749
G0 F9000 X110.971 Y98.332
G1 F2100 X98.332 Y110.971 E78.19309
G0 F9000 X98.497 Y111.371
G1 F2100 X111.371 Y98.497 E78.67753
G0 F9000 X111.77 Y98.664
G1 F2100 X98.664 Y111.77 E79.1707
G0 F9000 X98.829 Y112.171
G1 F2100 X112.171 Y98.829 E79.67276
G0 F9000 X112.571 Y98.994
G1 F2100 X98.994 Y112.571 E80.18365
G0 F9000 X99.16 Y112.971
G1 F2100 X112.971 Y99.16 E80.70336
G0 F9000 X113.371 Y99.326
G1 F2100 X99.326 Y113.371 E81.23186
G0 F9000 X99.492 Y113.771
G1 F2100 X113.771 Y99.492 E81.76918
G0 F9000 X114.171 Y99.657
G1 F2100 X99.657 Y114.171 E82.31533
G0 F9000 X99.822 Y114.571
G1 F2100 X114.571 Y99.823 E82.87031
G0 F9000 X114.971 Y99.989
G1 F2100 X99.988 Y114.972 E83.43411
G0 F9000 X100.154 Y115.371
G1 F2100 X115.371 Y100.154 E84.00672
G0 F9000 X115.771 Y100.32
G1 F2100 X100.32 Y115.771 E84.58814
G0 F9000 X100.485 Y116.171
G1 F2100 X116.171 Y100.486 E85.17838
G0 F9000 X116.571 Y100.651
G1 F2100 X100.65 Y116.572 E85.77748
G0 F9000 X100.817 Y116.971
G1 F2100 X116.971 Y100.817 E86.38534
G0 F9000 X117.371 Y100.982
G1 F2100 X100.982 Y117.371 E87.00205
G0 F9000 X101.148 Y117.772
G1 F2100 X117.771 Y101.148 E87.62759
G0 F9000 X118.171 Y101.314
G1 F2100 X101.313 Y118.172 E88.26195
G0 F9000 X101.499 Y118.552
G1 F2100 X118.549 Y101.502 E88.90353
G0 F9000 X118.714 Y101.902
G1 F2100 X101.899 Y118.717 E89.53627
G0 F9000 X102.299 Y118.883
G1 F2100 X118.88 Y102.302 E90.16021
G0 F9000 X119.046 Y102.702
G1 F2100 X102.7 Y119.048 E90.7753
G0 F9000 X103.1 Y119.213
G1 F2100 X119.211 Y103.102 E91.38155
G0 F9000 X119.377 Y103.502
G1 F2100 X103.5 Y119.379 E91.97899
G0 F9000 X103.9 Y119.544
G1 F2100 X119.542 Y103.902 E92.5676
G0 F9000 X119.708 Y104.303
G1 F2100 X104.3 Y119.711 E93.14739
G0 F9000 X104.7 Y119.876
G1 F2100 X119.874 Y104.702 E93.71838
G0 F9000 X120.039 Y105.102
G1 F2100 X105.1 Y120.041 E94.28053
G0 F9000 X105.501 Y120.207
G1 F2100 X120.205 Y105.503 E94.83383
G0 F9000 X120.37 Y105.903
G1 F2100 X105.901 Y120.372 E95.3783
G0 F9000 X106.301 Y120.538
G1 F2100 X120.536 Y106.303 E95.91395
G0 F9000 X120.701 Y106.703
G1 F2100 X106.7 Y120.704 E96.4408
G0 F9000 X107.101 Y120.87
G1 F2100 X120.867 Y107.103 E96.95883
G0 F9000 X121.033 Y107.503
G1 F2100 X107.501 Y121.035 E97.46803
G0 F9000 X107.901 Y121.2
G1 F2100 X121.198 Y107.903 E97.96839
G0 F9000 X121.364 Y108.304
G1 F2100 X108.301 Y121.366 E98.45993
G0 F9000 X108.702 Y121.531
G1 F2100 X121.529 Y108.704 E98.9426
G0 F9000 X121.695 Y109.104
G1 F2100 X109.102 Y121.697 E99.41647
G0 F9000 X109.501 Y121.863
G1 F2100 X121.861 Y109.503 E99.88158
G0 F9000 X122.026 Y109.904
G1 F2100 X109.902 Y122.028 E100.3378
G0 F9000 X110.73 Y121.766
G1 F2100 X121.763 Y110.732 E100.75298
G0 F9000 X122.172 Y110.902
G0 X121.772 Y111.868
G0 X121.364 Y111.698
G1 F2100 X111.695 Y121.367 E101.11682
G0 F9000 X111.864 Y121.776
G0 X112.829 Y121.376
G0 X112.66 Y120.967
G1 F2100 X120.964 Y112.663 E101.4293
G0 F9000 X121.372 Y112.833
G0 X120.972 Y113.797
G0 X120.565 Y113.628
G1 F2100 X113.625 Y120.568 E101.69045
G0 F9000 X113.793 Y120.977
G0 X114.758 Y120.577
G0 X114.59 Y120.169
G1 F2100 X120.165 Y114.594 E101.90023
G0 F9000 X120.572 Y114.763
G0 X120.172 Y115.728
G0 X119.765 Y115.559
G1 F2100 X115.555 Y119.769 E102.05865
G0 F9000 X115.723 Y120.177
G0 X116.688 Y119.778
G0 X116.52 Y119.37
G1 F2100 X119.365 Y116.524 E102.16573
G0 F9000 X119.772 Y116.693
G0 X119.372 Y117.659
G0 X118.966 Y117.49
G1 F2100 X117.485 Y118.97 E102.22144
G0 F9000 X117.653 Y119.378
G0 X118.618 Y118.979
G0 X118.45 Y118.571
G1 F2100 X118.566 Y118.455 E102.2258
G0 F9000 X119.249 Y118.741
;MESH:NONMESH
G0 F300 X119.249 Y118.741 Z0.56
