;FLAVOR:Marlin
;TIME:6014
;Filament used: 2.9703m
;Layer height: 0.2
;MINX:12.574
;MINY:60.459
;MINZ:0.24
;MAXX:207.666
;MAXY:162.179
;MAXZ:1.84
;Generated with Cura_SteamEngine 4.10.0
M82 ;absolute extrusion mode
M201 X500.00 Y500.00 Z100.00 E5000.00 ;Setup machine max acceleration
M203 X500.00 Y500.00 Z10.00 E50.00 ;Setup machine max feedrate
M204 P500.00 R1000.00 T500.00 ;Setup Print/Retract/Travel acceleration
M205 X8.00 Y8.00 Z0.40 E5.00 ;Setup Jerk
M220 S100 ;Reset Feedrate
M221 S100 ;Reset Flowrate

;*** Start Dual Nozzle/Bed Preheating ***
M140 S50 ; start preheating the bed
M104 S200 ?T0 ; start preheating hotend
M190 S50 ; heat to Cura Bed setting and WAIT
M109 S200 ?T0 ; heat to Cura Hotend and WAIT
;*** End Preheating ***

;*** Single Print Start Tone
M300 S1000 P500 ; chirp to indicate starting to print
;*** End Single Start Tone

G28 ;Home

G92 E0 ;Reset Extruder
G1 Z2.0 F3000 ;Move Z Axis up

G1 X10.1 Y20 Z0.28 F5000.0 ;Move to start position
G1 X10.1 Y200.0 Z0.28 F1500.0 E15 ;Draw the first line
G1 X10.4 Y200.0 Z0.28 F5000.0 ;Move to side a little
G1 X10.4 Y20 Z0.28 F1500.0 E30 ;Draw the second line
G92 E0 ;Reset Extruder
G1 Z2.0 F3000 ;Move Z Axis up
G92 E0
G92 E0
G1 F2400 E-3.2
;LAYER_COUNT:13
;LAYER:0
M106 S63.8
M204 S500
M205 X6 Y6
G0 F9000 X23.688 Y77.424 Z0.24
;TYPE:SKIRT
G1 F1440 E0
G1 F1800 X24.324 Y77.251 E0.02631
G1 X24.99 Y77.107 E0.0535
G1 X25.467 Y77.021 E0.07285
G1 X26.214 Y76.926 E0.1029
G1 X26.835 Y76.87 E0.12779
G1 X27.499 Y76.832 E0.15433
G1 X28.197 Y76.831 E0.18219
G1 X28.577 Y76.842 E0.19736
G1 X29.372 Y76.906 E0.2292
G1 X30.01 Y76.982 E0.25484
G1 X30.635 Y77.076 E0.28007
G1 X31.431 Y77.23 E0.31243
G1 X31.572 Y77.251 E0.31812
G1 X32.946 Y77.531 E0.37408
G1 X35.485 Y77.974 E0.47695
G1 X37.976 Y78.338 E0.57743
G1 X40.51 Y78.633 E0.67925
G1 X43.01 Y78.854 E0.77942
G1 X45.572 Y79.008 E0.88186
G1 X48.104 Y79.087 E0.98296
G1 X50.637 Y79.096 E1.08406
G1 X53.205 Y79.031 E1.18659
G1 X55.714 Y78.897 E1.28687
G1 X58.246 Y78.69 E1.38827
G1 X60.773 Y78.411 E1.48974
G1 X63.279 Y78.063 E1.59072
G1 X65.79 Y77.64 E1.69235
G1 X68.3 Y77.146 E1.79445
G1 X70.736 Y76.593 E1.89415
G1 X73.221 Y75.956 E1.99654
G1 X75.692 Y75.246 E2.09915
G1 X78.073 Y74.489 E2.19887
G1 X80.496 Y73.642 E2.30131
G1 X82.849 Y72.745 E2.40182
G1 X85.188 Y71.775 E2.50288
G1 X87.528 Y70.727 E2.60522
G1 X89.812 Y69.627 E2.7064
G1 X92.049 Y68.469 E2.80694
G1 X94.294 Y67.225 E2.90938
G1 X96.491 Y65.925 E3.01126
G1 X98.611 Y64.589 E3.11128
G1 X99.98 Y63.664 E3.17722
G1 X101.285 Y62.815 E3.23936
G1 X101.851 Y62.472 E3.26577
G1 X102.102 Y62.331 E3.27726
G1 X102.791 Y61.978 E3.30816
G1 X103.128 Y61.821 E3.323
G1 X103.727 Y61.565 E3.349
G1 X104.219 Y61.373 E3.37008
G1 X105.125 Y61.067 E3.40825
G1 X105.67 Y60.923 E3.43074
G1 X106.2 Y60.798 E3.45248
G1 X106.879 Y60.662 E3.48012
G1 X107.431 Y60.581 E3.50238
G1 X107.755 Y60.542 E3.51541
G1 X108.784 Y60.471 E3.55658
G1 X109.428 Y60.459 E3.58228
G1 X110.29 Y60.479 E3.6167
G1 X110.593 Y60.499 E3.62882
G1 X111.092 Y60.544 E3.64881
G1 X111.291 Y60.567 E3.65681
G1 X111.952 Y60.666 E3.68349
G1 X112.193 Y60.71 E3.69326
G1 X112.925 Y60.871 E3.72318
G1 X113.364 Y60.985 E3.74128
G1 X114.074 Y61.198 E3.77087
G1 X114.434 Y61.32 E3.78604
G1 X115.135 Y61.587 E3.81598
G1 X115.48 Y61.733 E3.83093
G1 X116.08 Y62.009 E3.85729
G1 X116.357 Y62.148 E3.86966
G1 X117.02 Y62.513 E3.89986
G1 X117.558 Y62.835 E3.92489
G1 X117.851 Y63.017 E3.93866
G1 X118.819 Y63.642 E3.98464
G1 X121.04 Y65.032 E4.08922
G1 X123.253 Y66.33 E4.19162
G1 X125.481 Y67.555 E4.29309
G1 X127.709 Y68.699 E4.39306
G1 X130.04 Y69.813 E4.49617
G1 X132.333 Y70.83 E4.59629
G1 X134.71 Y71.808 E4.69887
G1 X137.081 Y72.7 E4.79998
G1 X139.447 Y73.518 E4.8999
G1 X141.896 Y74.288 E5.00236
G1 X144.331 Y74.978 E5.10337
G1 X146.8 Y75.603 E5.20502
G1 X149.31 Y76.165 E5.30768
G1 X151.764 Y76.639 E5.40744
G1 X154.279 Y77.053 E5.50917
G1 X156.79 Y77.393 E5.6103
G1 X159.283 Y77.659 E5.71037
G1 X161.879 Y77.864 E5.8143
G1 X164.36 Y77.988 E5.91345
G1 X166.928 Y78.043 E6.01597
G1 X169.468 Y78.026 E6.11735
G1 X171.99 Y77.939 E6.21806
G1 X174.571 Y77.775 E6.32128
G1 X177.045 Y77.548 E6.42044
G1 X179.574 Y77.244 E6.52211
G1 X182.113 Y76.865 E6.62457
G1 X184.565 Y76.429 E6.72397
G1 X188.216 Y75.648 E6.87298
G1 X188.807 Y75.51 E6.8972
G1 X189.469 Y75.378 E6.92415
G1 X189.991 Y75.301 E6.94521
G1 X190.291 Y75.264 E6.95727
G1 X191.327 Y75.189 E6.99873
G1 X191.853 Y75.178 E7.01973
G1 X192.586 Y75.189 E7.04899
G1 X193.115 Y75.216 E7.07013
G1 X194.014 Y75.302 E7.10617
G1 X194.491 Y75.381 E7.12547
G1 X195.136 Y75.503 E7.15167
G1 X195.886 Y75.674 E7.18237
G1 X195.953 Y75.692 E7.18514
G1 X196.598 Y75.889 E7.21206
G1 X197.17 Y76.084 E7.23618
G1 X197.873 Y76.352 E7.2662
G1 X197.92 Y76.372 E7.26824
G1 X198.51 Y76.646 E7.29421
G1 X199.003 Y76.894 E7.31623
G1 X199.657 Y77.253 E7.34601
G1 X199.906 Y77.402 E7.35759
G1 X200.492 Y77.781 E7.38545
G1 X200.942 Y78.094 E7.40732
G1 X201.66 Y78.642 E7.44337
G1 X202.067 Y79.001 E7.46503
G1 X202.514 Y79.417 E7.4894
G1 X202.977 Y79.877 E7.51545
G1 X203.219 Y80.133 E7.52951
G1 X203.563 Y80.515 E7.55003
G1 X203.645 Y80.611 E7.55507
G1 X204.053 Y81.122 E7.58117
G1 X204.226 Y81.353 E7.59269
G1 X204.804 Y82.212 E7.63401
G1 X205.11 Y82.721 E7.65772
G1 X205.438 Y83.309 E7.68459
G1 X205.633 Y83.688 E7.7016
G1 X205.897 Y84.241 E7.72606
G1 X206.214 Y85.039 E7.76033
G1 X206.433 Y85.666 E7.78684
G1 X206.711 Y86.607 E7.826
G1 X206.832 Y87.143 E7.84793
G1 X206.943 Y87.705 E7.87079
G1 X207.04 Y88.282 E7.89414
G1 X207.049 Y88.347 E7.89676
G1 X207.129 Y89.178 E7.93008
G1 X207.165 Y89.823 E7.95587
G1 X207.181 Y90.46 E7.9813
G1 X207.173 Y91.039 E8.00441
G1 X207.105 Y92.995 E8.08253
G1 X207.088 Y95.539 E8.18407
G1 X207.143 Y98.11 E8.2867
G1 X207.266 Y100.606 E8.38644
G1 X207.467 Y103.184 E8.48965
G1 X207.55 Y104.011 E8.52282
G1 X207.604 Y104.636 E8.54786
G1 X207.654 Y105.459 E8.58077
G1 X207.666 Y106.209 E8.61071
G1 X207.663 Y106.357 E8.61662
G1 X207.629 Y107.004 E8.64247
G1 X207.597 Y107.385 E8.65773
G1 X207.516 Y108.071 E8.6853
G1 X207.428 Y108.647 E8.70856
G1 X207.252 Y109.533 E8.74461
G1 X207.118 Y110.026 E8.765
G1 X206.963 Y110.545 E8.78662
G1 X206.72 Y111.262 E8.81684
G1 X206.551 Y111.705 E8.83576
G1 X206.317 Y112.267 E8.86006
G1 X206.099 Y112.727 E8.88038
G1 X205.766 Y113.362 E8.909
G1 X205.671 Y113.53 E8.9167
G1 X205.372 Y114.025 E8.93978
G1 X205.111 Y114.431 E8.95904
G1 X204.792 Y114.897 E8.98158
G1 X204.708 Y115.013 E8.9873
G1 X204.183 Y115.679 E9.02115
G1 X203.804 Y116.12 E9.04435
G1 X203.369 Y116.595 E9.07006
G1 X203.329 Y116.636 E9.07235
G1 X202.743 Y117.19 E9.10453
G1 X202.344 Y117.539 E9.12569
G1 X201.778 Y118 E9.15483
G1 X201.512 Y118.201 E9.16813
G1 X200.943 Y118.601 E9.19589
G1 X199.777 Y119.363 E9.25149
G1 X199.598 Y119.477 E9.25996
G1 X198.876 Y119.927 E9.29391
G1 X196.759 Y121.334 E9.39537
G1 X194.672 Y122.808 E9.49734
G1 X192.634 Y124.333 E9.59894
G1 X190.632 Y125.923 E9.70097
G1 X188.721 Y127.531 E9.80066
G1 X186.821 Y129.224 E9.90223
G1 X184.967 Y130.97 E10.00387
G1 X182.74 Y133.207 E10.12986
G1 X181.682 Y134.304 E10.19068
G1 X180.99 Y135.006 E10.23003
G1 X180.816 Y135.178 E10.23979
G1 X180.266 Y135.709 E10.2703
G1 X177.207 Y138.612 E10.43862
G1 X176.48 Y139.285 E10.47816
G1 X176.307 Y139.442 E10.48749
G1 X175.656 Y140.017 E10.52215
G1 X172.581 Y142.683 E10.68459
G1 X172.028 Y143.15 E10.71348
G1 X170.071 Y144.851 E10.81697
G1 X168.182 Y146.589 E10.91942
G1 X166.387 Y148.336 E11.01939
G1 X164.6 Y150.178 E11.12182
G1 X162.907 Y152.024 E11.22179
G1 X161.228 Y153.963 E11.32416
G1 X159.972 Y155.499 E11.40335
G1 X159.88 Y155.602 E11.40886
G1 X159.269 Y156.359 E11.44769
G1 X159.057 Y156.613 E11.4609
G1 X158.651 Y157.084 E11.48572
G1 X158.275 Y157.496 E11.50798
G1 X158.224 Y157.549 E11.51091
G1 X157.591 Y158.153 E11.54583
G1 X157.199 Y158.496 E11.56662
G1 X156.653 Y158.942 E11.59476
G1 X156.295 Y159.214 E11.61271
G1 X155.761 Y159.593 E11.63884
G1 X155.669 Y159.654 E11.64325
G1 X154.984 Y160.07 E11.67523
G1 X154.595 Y160.286 E11.69299
G1 X153.988 Y160.597 E11.72021
G1 X153.525 Y160.815 E11.74064
G1 X153.008 Y161.042 E11.76318
G1 X152.397 Y161.271 E11.78922
G1 X152.079 Y161.379 E11.80262
G1 X151.157 Y161.645 E11.84092
G1 X150.551 Y161.789 E11.86578
G1 X149.693 Y161.954 E11.90065
G1 X149.619 Y161.965 E11.90364
G1 X149.038 Y162.034 E11.92699
G1 X148.397 Y162.092 E11.95268
G1 X147.761 Y162.13 E11.97811
G1 X147.041 Y162.132 E12.00685
G1 X146.612 Y162.118 E12.02398
G1 X145.872 Y162.057 E12.05361
G1 X145.363 Y161.996 E12.07407
G1 X144.706 Y161.895 E12.1006
G1 X144.229 Y161.806 E12.11997
G1 X143.436 Y161.625 E12.15244
G1 X142.85 Y161.455 E12.17679
G1 X142.372 Y161.3 E12.19684
G1 X142.126 Y161.213 E12.20726
G1 X139.868 Y160.386 E12.30323
G1 X137.464 Y159.58 E12.40443
G1 X135.005 Y158.833 E12.50701
G1 X132.549 Y158.163 E12.60861
G1 X130.09 Y157.564 E12.70963
G1 X127.635 Y157.042 E12.8098
G1 X125.092 Y156.574 E12.913
G1 X122.611 Y156.19 E13.0132
G1 X120.098 Y155.874 E13.11429
G1 X117.557 Y155.627 E13.21619
G1 X115.04 Y155.454 E13.31688
G1 X112.463 Y155.349 E13.41982
G1 X109.971 Y155.319 E13.51929
G1 X107.402 Y155.361 E13.62184
G1 X104.863 Y155.474 E13.72328
G1 X102.34 Y155.657 E13.82424
G1 X99.824 Y155.912 E13.92517
G1 X97.271 Y156.244 E14.02793
G1 X94.79 Y156.639 E14.12819
G1 X92.302 Y157.107 E14.22924
G1 X89.814 Y157.648 E14.33086
G1 X87.362 Y158.254 E14.43167
G1 X84.886 Y158.941 E14.53422
G1 X82.503 Y159.676 E14.63376
G1 X78.795 Y160.963 E14.79041
G1 X78.241 Y161.168 E14.81399
G1 X77.558 Y161.401 E14.84279
G1 X76.983 Y161.579 E14.86682
G1 X76.093 Y161.811 E14.90352
G1 X75.788 Y161.876 E14.91597
G1 X75.183 Y161.986 E14.94051
G1 X74.984 Y162.016 E14.94855
G1 X74.359 Y162.091 E14.97367
G1 X73.826 Y162.138 E14.99503
G1 X73.224 Y162.173 E15.01909
G1 X72.69 Y162.179 E15.04041
G1 X72.465 Y162.176 E15.04939
G1 X71.959 Y162.157 E15.0696
G1 X71.753 Y162.144 E15.07784
G1 X71.162 Y162.089 E15.10153
G1 X70.661 Y162.028 E15.12167
G1 X70.069 Y161.938 E15.14557
G1 X69.981 Y161.922 E15.14914
G1 X69.169 Y161.74 E15.18235
G1 X68.743 Y161.626 E15.19995
G1 X68.109 Y161.434 E15.22639
G1 X67.725 Y161.304 E15.24257
G1 X67.019 Y161.036 E15.27271
G1 X66.712 Y160.906 E15.28602
G1 X66.097 Y160.621 E15.31307
G1 X65.734 Y160.438 E15.3293
G1 X65.105 Y160.092 E15.35795
G1 X64.865 Y159.949 E15.3691
G1 X64.278 Y159.572 E15.39694
G1 X63.842 Y159.27 E15.41811
G1 X63.012 Y158.629 E15.45997
G1 X62.635 Y158.296 E15.48005
G1 X62.269 Y157.957 E15.49996
G1 X61.816 Y157.511 E15.52533
G1 X61.735 Y157.426 E15.53002
G1 X61.216 Y156.838 E15.56132
G1 X59.997 Y155.344 E15.63828
G1 X58.309 Y153.33 E15.74316
G1 X56.648 Y151.46 E15.84299
G1 X54.883 Y149.583 E15.94582
G1 X53.119 Y147.81 E16.04564
G1 X51.269 Y146.052 E16.1475
G1 X49.366 Y144.343 E16.24959
G1 X48.178 Y143.324 E16.31206
G1 X47.452 Y142.712 E16.34995
G1 X47.037 Y142.355 E16.3718
G1 X44.233 Y139.921 E16.52
G1 X43.576 Y139.337 E16.55508
G1 X42.941 Y138.753 E16.58952
G1 X42.431 Y138.273 E16.61747
G1 X39.646 Y135.626 E16.77082
G1 X39.048 Y135.044 E16.80413
G1 X38.906 Y134.903 E16.81211
G1 X38.319 Y134.307 E16.8455
G1 X36.468 Y132.382 E16.95209
G1 X34.599 Y130.493 E17.05815
G1 X32.779 Y128.752 E17.15867
G1 X30.88 Y127.038 E17.26077
G1 X28.969 Y125.407 E17.36105
G1 X26.974 Y123.801 E17.46327
G1 X24.967 Y122.277 E17.56385
G1 X22.908 Y120.802 E17.66494
G1 X20.036 Y118.883 E17.8028
G1 X19.395 Y118.464 E17.83336
G1 X18.83 Y118.072 E17.86081
G1 X18.111 Y117.525 E17.89687
G1 X17.713 Y117.176 E17.91799
G1 X17.28 Y116.775 E17.94155
G1 X16.787 Y116.285 E17.96929
G1 X16.237 Y115.687 E18.00172
G1 X16.138 Y115.572 E18.00777
G1 X15.704 Y115.032 E18.03542
G1 X15.507 Y114.769 E18.04854
G1 X14.926 Y113.905 E18.0901
G1 X14.654 Y113.452 E18.11118
G1 X14.326 Y112.862 E18.13813
G1 X14.121 Y112.463 E18.15603
G1 X13.771 Y111.707 E18.18928
G1 X13.725 Y111.596 E18.19408
G1 X13.517 Y111.051 E18.21736
G1 X13.33 Y110.515 E18.24002
G1 X13.07 Y109.647 E18.27618
G1 X13.038 Y109.52 E18.28141
G1 X12.923 Y109.007 E18.30239
G1 X12.814 Y108.456 E18.32481
G1 X12.685 Y107.623 E18.35845
G1 X12.666 Y107.455 E18.3652
G1 X12.615 Y106.843 E18.38971
G1 X12.588 Y106.328 E18.41029
G1 X12.574 Y105.794 E18.43162
G1 X12.574 Y105.698 E18.43545
G1 X12.588 Y105.161 E18.45689
G1 X12.631 Y104.378 E18.48819
G1 X12.735 Y102.894 E18.54756
G1 X12.841 Y100.358 E18.64887
G1 X12.874 Y97.81 E18.75057
G1 X12.835 Y95.272 E18.85188
G1 X12.73 Y92.787 E18.95115
G1 X12.718 Y92.579 E18.95947
G1 X12.703 Y91.861 E18.98813
G1 X12.705 Y91.726 E18.99352
G1 X12.74 Y91.024 E19.02157
G1 X12.788 Y90.452 E19.04448
G1 X12.884 Y89.672 E19.07585
G1 X12.902 Y89.561 E19.08033
G1 X13.025 Y88.928 E19.10607
G1 X13.156 Y88.353 E19.12961
G1 X13.293 Y87.817 E19.15169
G1 X13.309 Y87.761 E19.15401
G1 X13.584 Y86.934 E19.1888
G1 X13.82 Y86.314 E19.21528
G1 X14.078 Y85.699 E19.2419
G1 X14.105 Y85.64 E19.24448
G1 X14.448 Y84.959 E19.27492
G1 X14.652 Y84.589 E19.29178
G1 X15.012 Y83.987 E19.31978
G1 X15.346 Y83.469 E19.34438
G1 X15.967 Y82.607 E19.38678
G1 X16.395 Y82.09 E19.41357
G1 X16.511 Y81.958 E19.42058
G1 X16.948 Y81.491 E19.44611
G1 X17.234 Y81.204 E19.46228
G1 X17.746 Y80.724 E19.49029
G1 X18.159 Y80.363 E19.51218
G1 X18.865 Y79.8 E19.54822
G1 X19.304 Y79.497 E19.56951
G1 X19.789 Y79.181 E19.59262
G1 X20.388 Y78.819 E19.62055
G1 X20.587 Y78.708 E19.62965
G1 X21.199 Y78.394 E19.6571
G1 X21.762 Y78.128 E19.68195
G1 X22.851 Y77.688 E19.72883
G1 X23.193 Y77.576 E19.74319
G1 X23.688 Y77.424 E19.76386
G1 F2400 E16.56386
G0 F9000 X110.455 Y74.302
G0 X189.661 Y88.81
G1 F1440 E19.76386
G1 F1800 X189.976 Y88.416 E19.78399
G1 X190.418 Y88.043 E19.80708
G1 X190.934 Y87.767 E19.83043
G1 X191.069 Y87.717 E19.83618
G1 X189.826 Y88.685 E19.89906
G1 X189.661 Y88.81 E19.90732
G0 F9000 X189.276 Y88.667
G1 F1800 X189.69 Y88.135 E19.93422
G1 X190.207 Y87.703 E19.96111
G1 X190.783 Y87.396 E19.98717
G1 X191.456 Y87.204 E20.0151
G1 X192.1 Y87.16 E20.04086
G1 X192.755 Y87.251 E20.06726
G1 X193.403 Y87.486 E20.09477
G1 X193.971 Y87.844 E20.12156
G1 X194.452 Y88.312 E20.14835
G1 X194.814 Y88.853 E20.17433
G1 X195.066 Y89.469 E20.20089
G1 X195.181 Y90.112 E20.22696
G1 X195.162 Y90.788 E20.25396
G1 X195.001 Y91.441 E20.2808
G1 X194.976 Y91.502 E20.28343
G1 X194.859 Y90.856 E20.30963
G1 X194.831 Y90.728 E20.31486
G1 X194.695 Y90.199 E20.33666
G1 X194.325 Y88.847 E20.39261
G1 X194.187 Y88.494 E20.40773
G1 X193.978 Y88.178 E20.42286
G1 X193.708 Y87.912 E20.43798
G1 X193.388 Y87.709 E20.45311
G1 X193.033 Y87.578 E20.46821
G1 X192.658 Y87.523 E20.48334
G1 X192.28 Y87.549 E20.49846
G1 X191.915 Y87.653 E20.51361
G1 X191.484 Y87.901 E20.53346
G1 X190.068 Y89.003 E20.60507
G1 X189.39 Y89.515 E20.63898
G1 X188.823 Y89.924 E20.66688
G1 X188.98 Y89.278 E20.69342
G1 X189.276 Y88.667 E20.72051
G0 F9000 X189.088 Y88.23
G1 F1800 X189.587 Y87.68 E20.75015
G1 X190.199 Y87.237 E20.78031
G1 X190.87 Y86.938 E20.80963
G1 X191.386 Y86.81 E20.83085
G1 X192.114 Y86.76 E20.85997
G1 X192.625 Y86.814 E20.88048
G1 X193.343 Y87.021 E20.9103
G1 X194.009 Y87.377 E20.94044
G1 X194.574 Y87.852 E20.9699
G1 X194.895 Y88.228 E20.98964
G1 X195.172 Y88.673 E21.01056
G1 X195.378 Y89.139 E21.03089
G1 X195.555 Y89.854 E21.06029
G1 X195.59 Y90.357 E21.08042
G1 X195.555 Y90.86 E21.10054
G1 X195.451 Y91.352 E21.12061
G1 X195.276 Y91.83 E21.14093
G1 X194.898 Y92.481 E21.17097
G1 X194.775 Y92.639 E21.17896
G1 X194.466 Y90.927 E21.2484
G1 X194.444 Y90.828 E21.25245
G1 X194.309 Y90.304 E21.27404
G1 X193.939 Y88.952 E21.32999
G1 X193.813 Y88.643 E21.34331
G1 X193.618 Y88.372 E21.35663
G1 X193.363 Y88.156 E21.36997
G1 X193.065 Y88.005 E21.3833
G1 X192.74 Y87.93 E21.39662
G1 X192.405 Y87.934 E21.40999
G1 X192.082 Y88.017 E21.4233
G1 X191.729 Y88.217 E21.43949
G1 X190.309 Y89.322 E21.5113
G1 X189.777 Y89.726 E21.53797
G1 X189.629 Y89.836 E21.54533
G1 X189.048 Y90.256 E21.57394
G1 X188.411 Y90.689 E21.60468
G1 X188.403 Y90.1 E21.62819
G1 X188.473 Y89.598 E21.64842
G1 X188.705 Y88.889 E21.6782
G1 X189.088 Y88.23 E21.70862
G0 F9000 X188.764 Y87.995
G1 F1800 X189.113 Y87.581 E21.73023
G1 X189.533 Y87.201 E21.75283
G1 X189.989 Y86.895 E21.77475
G1 X190.478 Y86.655 E21.79649
