;FLAVOR:Marlin
;TIME:19493
;Filament used: 34.2348m
;Layer height: 0.24
;MINX:52.423
;MINY:25.7
;MINZ:0.24
;MAXX:172.72
;MAXY:194.3
;MAXZ:31.04
;Generated with Cura_SteamEngine 4.7.1
M140 S50
M105
M190 S50
M104 S230
M105
M109 S230
M82 ;absolute extrusion mode
M201 X500.00 Y500.00 Z100.00 E5000.00 ;Setup machine max acceleration
M203 X500.00 Y500.00 Z10.00 E50.00 ;Setup machine max feedrate
M204 P500.00 R1000.00 T500.00 ;Setup Print/Retract/Travel acceleration
M205 X8.00 Y8.00 Z0.40 E5.00 ;Setup Jerk
M220 S100 ;Reset Feedrate
M221 S100 ;Reset Flowrate

G28 ;Home

G92 E0 ;Reset Extruder
G1 Z2.0 F3000 ;Move Z Axis up
G1 X10.1 Y20 Z0.28 F5000.0 ;Move to start position
G1 X10.1 Y200.0 Z0.28 F1500.0 E15 ;Draw the first line
G1 X10.4 Y200.0 Z0.28 F5000.0 ;Move to side a little
G1 X10.4 Y20 Z0.28 F1500.0 E30 ;Draw the second line
G92 E0 ;Reset Extruder
G1 Z2.0 F3000 ;Move Z Axis up

G92 E0
G92 E0
G1 F1800 E-3
;LAYER_COUNT:157
;LAYER:0
M107
M205 X6 Y6
G0 F9000 X53.921 Y30.679 Z0.24
;TYPE:SKIRT
G1 F1800 E0
G1 F3600 X54.424 Y29.924 E0.05431
G1 X54.992 Y29.216 E0.10865
G1 X55.62 Y28.561 E0.16298
G1 X56.304 Y27.964 E0.21733
G1 X57.037 Y27.429 E0.27166
G1 X57.814 Y26.961 E0.32597
G1 X58.63 Y26.563 E0.38032
G1 X59.477 Y26.238 E0.43463
G1 X60.35 Y25.989 E0.48898
G1 X61.241 Y25.818 E0.5433
G1 X62.445 Y25.713 E0.61565
G1 X63.055 Y25.7 E0.65218
G1 X161.713 Y25.7 E6.55866
G1 X162.559 Y25.711 E6.60932
G1 X163.465 Y25.764 E6.66365
G1 X164.362 Y25.897 E6.71794
G1 X165.245 Y26.108 E6.77229
G1 X166.106 Y26.395 E6.82663
G1 X166.938 Y26.758 E6.88097
G1 X167.734 Y27.192 E6.93525
G1 X168.49 Y27.695 E6.98961
G1 X169.198 Y28.263 E7.04395
G1 X169.854 Y28.89 E7.09828
G1 X170.452 Y29.573 E7.15263
G1 X170.987 Y30.306 E7.20696
G1 X171.456 Y31.083 E7.26129
G1 X171.855 Y31.898 E7.31562
G1 X172.18 Y32.745 E7.36993
G1 X172.429 Y33.618 E7.42428
G1 X172.601 Y34.509 E7.47861
G1 X172.707 Y35.72 E7.55139
G1 X172.72 Y36.33 E7.58791
G1 X172.72 Y183.295 E16.38645
G1 X172.711 Y184.022 E16.42998
G1 X172.668 Y184.928 E16.48428
G1 X172.546 Y185.828 E16.53865
G1 X172.345 Y186.713 E16.59299
G1 X172.067 Y187.577 E16.64732
G1 X171.714 Y188.413 E16.70165
G1 X171.288 Y189.214 E16.75597
G1 X170.794 Y189.975 E16.81028
G1 X170.235 Y190.69 E16.86462
G1 X169.615 Y191.353 E16.91896
G1 X168.939 Y191.958 E16.97328
G1 X168.212 Y192.502 E17.02764
G1 X167.44 Y192.98 E17.082
G1 X166.63 Y193.387 E17.13627
G1 X165.786 Y193.722 E17.19063
G1 X164.917 Y193.982 E17.24494
G1 X164.027 Y194.163 E17.29931
G1 X163.126 Y194.266 E17.3536
G1 X162.555 Y194.29 E17.38782
G1 X161.766 Y194.3 E17.43506
G1 X65.611 Y194.3 E23.19169
G1 X64.765 Y194.289 E23.24234
G1 X63.859 Y194.236 E23.29667
G1 X62.961 Y194.104 E23.35101
G1 X62.078 Y193.893 E23.40536
G1 X61.218 Y193.605 E23.45966
G1 X60.386 Y193.242 E23.51401
G1 X59.589 Y192.808 E23.56834
G1 X58.833 Y192.305 E23.6227
G1 X58.125 Y191.738 E23.677
G1 X57.469 Y191.11 E23.73137
G1 X56.871 Y190.427 E23.78572
G1 X56.336 Y189.695 E23.84
G1 X55.867 Y188.918 E23.89434
G1 X55.469 Y188.102 E23.94869
G1 X55.221 Y187.479 E23.98883
G1 X54.933 Y186.621 E24.04302
G1 X54.884 Y186.467 E24.05269
G1 X53.095 Y180.658 E24.41659
G1 X52.882 Y179.934 E24.46177
G1 X52.656 Y179.055 E24.5161
G1 X52.503 Y178.114 E24.57318
G1 X52.433 Y177.05 E24.63702
G1 X52.423 Y176.242 E24.68539
G1 X52.423 Y97.566 E29.39559
G1 X52.425 Y93.061 E29.6653
G1 X52.425 Y36.674 E33.04109
G1 X52.426 Y36.519 E33.05037
G1 X52.436 Y35.854 E33.09018
G1 X52.49 Y34.948 E33.14452
G1 X52.623 Y34.05 E33.19887
G1 X52.835 Y33.168 E33.25318
G1 X53.123 Y32.308 E33.30747
G1 X53.486 Y31.476 E33.36182
G1 X53.921 Y30.679 E33.41618
G1 F1800 E30.41618
;MESH:RingDoorbell_Solar_Charger_Angle_Bracket.stl
G0 F9000 X86.814 Y93.007
G0 X86.814 Y90.572
G0 X84.387 Y90.842
;TYPE:WALL-INNER
G1 F1800 E33.41618
G1 F3600 X84.387 Y129.157 E35.71003
G1 X133.094 Y129.157 E38.62603
G1 X133.094 Y90.842 E40.91988
G1 X84.387 Y90.842 E43.83589
G0 F9000 X84.987 Y91.442
G1 F3600 X84.987 Y128.557 E46.05789
G1 X132.494 Y128.557 E48.90206
G1 X132.494 Y91.442 E51.12407
G1 X84.987 Y91.442 E53.96823
G0 F9000 X85.587 Y92.042
;TYPE:WALL-OUTER
G1 F3600 X85.587 Y127.957 E56.11839
G1 X131.894 Y127.957 E58.89071
G1 X131.894 Y92.042 E61.04088
G1 X85.587 Y92.042 E63.8132
G1 F1800 E60.8132
G0 F9000 X85.587 Y91.642
G0 X132.222 Y91.714
G0 X133.364 Y115.165
G0 X130.929 Y115.165
G0 X163.085 Y129.453
G0 X160.61 Y129.453
G0 X160.92 Y182.5
;TYPE:WALL-INNER
G1 F1800 E63.8132
G1 F3600 X66.01 Y182.5 E69.49529
G1 X64.223 Y176.702 E69.85852
G1 X64.223 Y97.571 E74.59596
G1 X64.225 Y93.066 E74.86566
G1 X64.225 Y37.5 E78.1923
G1 X160.92 Y37.5 E83.98126
G1 X160.92 Y182.5 E92.66216
G0 F9000 X161.52 Y183.1
G1 F3600 X65.567 Y183.1 E98.4067
G1 X63.623 Y176.791 E98.80193
G1 X63.623 Y97.571 E103.54469
G1 X63.625 Y93.066 E103.8144
G1 X63.625 Y36.9 E107.17696
G1 X161.52 Y36.9 E113.03776
G1 X161.52 Y183.1 E121.7905
G0 F9000 X162.12 Y183.7
;TYPE:WALL-OUTER
G1 F3600 X65.124 Y183.7 E127.59748
G1 X63.023 Y176.88 E128.02471
G1 X63.023 Y97.571 E132.7728
G1 X63.025 Y93.066 E133.04251
G1 X63.025 Y36.3 E136.44099
G1 X162.12 Y36.3 E142.37363
G1 X162.12 Y183.7 E151.19821
G0 F9000 X161.75 Y183.33
G0 X160.71 Y181.91
G0 X160.33 Y181.91
;TYPE:SKIN
G1 F3600 X66.446 Y181.91 E156.81888
G1 X64.813 Y176.613 E157.15073
G1 X64.813 Y97.571 E161.88284
G1 X64.815 Y93.066 E162.15254
G1 X64.815 Y38.09 E165.44386
G1 X160.33 Y38.09 E171.16218
G1 X160.33 Y181.91 E179.77243
G1 F1800 E176.77243
G0 F9000 X160.71 Y181.91
G0 X160.61 Y129.397
G0 X163.085 Y129.397
G0 X130.667 Y126.992
G0 X130.667 Y129.427
G0 X133.304 Y129.397
G0 X133.684 Y129.747
G1 F1800 E179.77243
G1 F3600 X133.684 Y90.252 E182.13692
G1 X83.797 Y90.252 E185.12357
G1 X83.797 Y129.747 E187.48807
G1 X133.684 Y129.747 E190.47471
G1 F1800 E187.47471
G0 F9000 X133.304 Y129.397
G0 X130.667 Y129.427
G0 X130.667 Y126.992
G0 X62.058 Y176.656
G0 X64.533 Y176.656
G0 X66.216 Y182.222
G0 X67.117 Y182.29
G0 X67.117 Y181.669
G1 F1800 E190.47471
G1 F3600 X66.403 Y180.954 E190.53521
G0 F9000 X65.81 Y181.136
G0 X65.432 Y179.91
G0 X66.025 Y179.728
G1 F3600 X67.966 Y181.669 E190.69955
G0 F9000 X68.814 Y181.669
G1 F3600 X65.647 Y178.501 E190.96773
G0 F9000 X65.054 Y178.683
G0 X64.675 Y177.456
G0 X65.268 Y177.274
G1 F3600 X69.663 Y181.669 E191.33984
G0 F9000 X70.511 Y181.669
G1 F3600 X65.053 Y176.21 E191.80199
G0 F9000 X65.053 Y175.361
G1 F3600 X71.36 Y181.669 E192.33602
G0 F9000 X72.209 Y181.669
G1 F3600 X65.053 Y174.513 E192.9419
G0 F9000 X65.053 Y173.664
G1 F3600 X73.057 Y181.669 E193.61961
G0 F9000 X73.906 Y181.669
G1 F3600 X65.053 Y172.816 E194.36916
G0 F9000 X65.053 Y171.967
G1 F3600 X74.754 Y181.669 E195.19055
G0 F9000 X75.603 Y181.669
G1 F3600 X65.053 Y171.119 E196.08378
G0 F9000 X65.053 Y170.27
G1 F3600 X76.451 Y181.669 E197.04885
G0 F9000 X77.3 Y181.669
G1 F3600 X65.053 Y169.422 E198.08576
G0 F9000 X65.053 Y168.573
G1 F3600 X78.148 Y181.669 E199.19451
G0 F9000 X78.997 Y181.669
G1 F3600 X65.053 Y167.725 E200.3751
G0 F9000 X65.053 Y166.876
G1 F3600 X79.845 Y181.669 E201.62753
G0 F9000 X80.694 Y181.669
G1 F3600 X65.053 Y166.027 E202.95184
G0 F9000 X65.053 Y165.179
G1 F3600 X81.542 Y181.669 E204.34795
G0 F9000 X82.391 Y181.669
G1 F3600 X65.053 Y164.33 E205.81594
G0 F9000 X65.053 Y163.482
G1 F3600 X83.239 Y181.669 E207.35573
G0 F9000 X84.088 Y181.669
G1 F3600 X65.053 Y162.633 E208.9674
G0 F9000 X65.053 Y161.785
G1 F3600 X84.936 Y181.669 E210.65086
G0 F9000 X85.785 Y181.669
G1 F3600 X65.053 Y160.936 E212.40621
G0 F9000 X65.053 Y160.088
G1 F3600 X86.634 Y181.669 E214.2334
G0 F9000 X87.482 Y181.669
G1 F3600 X65.053 Y159.239 E216.13243
G0 F9000 X65.053 Y158.391
G1 F3600 X88.331 Y181.669 E218.10329
G0 F9000 X89.179 Y181.669
G1 F3600 X65.053 Y157.542 E220.146
G0 F9000 X65.053 Y156.694
G1 F3600 X90.028 Y181.669 E222.26054
G0 F9000 X90.876 Y181.669
G1 F3600 X65.053 Y155.845 E224.44693
G0 F9000 X65.053 Y154.997
G1 F3600 X91.725 Y181.669 E226.70515
G0 F9000 X92.573 Y181.669
G1 F3600 X65.053 Y154.148 E229.03522
G0 F9000 X65.053 Y153.3
G1 F3600 X93.422 Y181.669 E231.43712
G0 F9000 X94.27 Y181.669
G1 F3600 X65.053 Y152.451 E233.91086
G0 F9000 X65.053 Y151.602
G1 F3600 X95.119 Y181.669 E236.45649
G0 F9000 X95.967 Y181.669
G1 F3600 X65.053 Y150.754 E239.07391
G0 F9000 X65.053 Y149.905
G1 F3600 X96.816 Y181.669 E241.76321
G0 F9000 X97.664 Y181.669
G1 F3600 X65.053 Y149.057 E244.52431
G0 F9000 X65.053 Y148.208
G1 F3600 X98.513 Y181.669 E247.3573
G0 F9000 X99.361 Y181.669
G1 F3600 X65.053 Y147.36 E250.26208
G0 F9000 X65.053 Y146.511
G1 F3600 X100.21 Y181.669 E253.23874
G0 F9000 X101.058 Y181.669
G1 F3600 X65.053 Y145.663 E256.2872
G0 F9000 X65.053 Y144.814
G1 F3600 X101.907 Y181.669 E259.40754
G0 F9000 X102.756 Y181.669
G1 F3600 X65.053 Y143.966 E262.59972
G0 F9000 X65.053 Y143.117
G1 F3600 X103.604 Y181.669 E265.86374
G0 F9000 X104.453 Y181.669
G1 F3600 X65.053 Y142.269 E269.1996
G0 F9000 X65.053 Y141.42
G1 F3600 X105.301 Y181.669 E272.6073
G0 F9000 X106.15 Y181.669
G1 F3600 X65.053 Y140.572 E276.08684
G0 F9000 X65.053 Y139.723
G1 F3600 X106.998 Y181.669 E279.63821
G0 F9000 X107.847 Y181.669
G1 F3600 X65.053 Y138.875 E283.26143
G0 F9000 X65.053 Y138.026
G1 F3600 X108.695 Y181.669 E286.95649
G0 F9000 X109.544 Y181.669
G1 F3600 X65.053 Y137.178 E290.72338
G0 F9000 X65.053 Y136.329
G1 F3600 X110.392 Y181.669 E294.56212
G0 F9000 X111.241 Y181.669
G1 F3600 X65.053 Y135.48 E298.47274
G0 F9000 X65.053 Y134.632
G1 F3600 X112.089 Y181.669 E302.45515
G0 F9000 X112.938 Y181.669
G1 F3600 X65.053 Y133.783 E306.50945
G0 F9000 X65.053 Y132.935
G1 F3600 X113.786 Y181.669 E310.63554
G0 F9000 X114.635 Y181.669
G1 F3600 X65.053 Y132.086 E314.83352
G0 F9000 X65.053 Y131.238
G1 F3600 X115.483 Y181.669 E319.10329
G0 F9000 X116.332 Y181.669
G1 F3600 X65.053 Y130.389 E323.44495
G0 F9000 X65.053 Y129.541
G1 F3600 X117.181 Y181.669 E327.85844
G0 F9000 X118.029 Y181.669
G1 F3600 X65.053 Y128.692 E332.34377
G0 F9000 X65.053 Y127.844
G1 F3600 X118.878 Y181.669 E336.90095
G0 F9000 X119.726 Y181.669
G1 F3600 X65.053 Y126.995 E341.52996
G0 F9000 X65.053 Y126.147
G1 F3600 X120.575 Y181.669 E346.23081
G0 F9000 X121.423 Y181.669
G1 F3600 X65.053 Y125.298 E351.00351
G0 F9000 X65.053 Y124.45
G1 F3600 X122.272 Y181.669 E355.84804
G0 F9000 X123.12 Y181.669
G1 F3600 X65.053 Y123.601 E360.76441
G0 F9000 X65.053 Y122.753
G1 F3600 X123.969 Y181.669 E365.75262
G0 F9000 X124.817 Y181.669
G1 F3600 X65.053 Y121.904 E370.81267
G0 F9000 X65.053 Y121.055
G1 F3600 X125.666 Y181.669 E375.9446
G0 F9000 X126.514 Y181.669
G1 F3600 X65.053 Y120.207 E381.14833
G0 F9000 X65.053 Y119.358
G1 F3600 X127.363 Y181.669 E386.42394
G0 F9000 X128.211 Y181.669
G1 F3600 X65.053 Y118.51 E391.77135
G0 F9000 X65.053 Y117.661
G1 F3600 X129.06 Y181.669 E397.19064
G0 F9000 X129.908 Y181.669
G1 F3600 X65.053 Y116.813 E402.68172
G0 F9000 X65.053 Y115.964
G1 F3600 X130.757 Y181.669 E408.24469
G0 F9000 X131.606 Y181.669
G1 F3600 X65.053 Y115.116 E413.8795
G0 F9000 X65.053 Y114.267
G1 F3600 X132.454 Y181.669 E419.58615
G0 F9000 X133.303 Y181.669
G1 F3600 X65.053 Y113.419 E425.36464
G0 F9000 X65.053 Y112.57
G1 F3600 X134.151 Y181.669 E431.21496
G0 F9000 X135 Y181.669
G1 F3600 X65.053 Y111.722 E437.13713
G0 F9000 X65.053 Y110.873
G1 F3600 X83.557 Y129.377 E438.7038
G0 F9000 X83.557 Y128.529
G1 F3600 X65.053 Y110.025 E440.27047
G0 F9000 X65.053 Y109.176
G1 F3600 X83.557 Y127.68 E441.83714
G0 F9000 X83.557 Y126.832
G1 F3600 X65.053 Y108.328 E443.4038
G0 F9000 X65.053 Y107.479
G1 F3600 X83.557 Y125.983 E444.97047
G0 F9000 X83.557 Y125.135
G1 F3600 X65.053 Y106.63 E446.53718
G0 F9000 X65.053 Y105.782
G1 F3600 X83.557 Y124.286 E448.10385
G0 F9000 X83.557 Y123.438
G1 F3600 X65.053 Y104.933 E449.67056
G0 F9000 X65.053 Y104.085
G1 F3600 X83.557 Y122.589 E451.23723
G0 F9000 X83.557 Y121.741
G1 F3600 X65.053 Y103.236 E452.80394
G0 F9000 X65.053 Y102.388
G1 F3600 X83.557 Y120.892 E454.37061
G0 F9000 X83.557 Y120.044
G1 F3600 X65.053 Y101.539 E455.93732
G0 F9000 X65.053 Y100.691
G1 F3600 X83.557 Y119.195 E457.50399
G0 F9000 X83.557 Y118.347
G1 F3600 X65.053 Y99.842 E459.0707
G0 F9000 X65.053 Y98.994
G1 F3600 X83.557 Y117.498 E460.63737
G0 F9000 X83.557 Y116.649
G1 F3600 X65.053 Y98.145 E462.20404
G0 F9000 X65.053 Y97.297
G1 F3600 X83.557 Y115.801 E463.77071
G0 F9000 X83.557 Y114.952
G1 F3600 X65.053 Y96.448 E465.33738
G0 F9000 X65.053 Y95.6
G1 F3600 X83.557 Y114.104 E466.90404
G0 F9000 X83.557 Y113.255
G1 F3600 X65.053 Y94.752 E468.47067
G0 F9000 X65.054 Y93.904
G1 F3600 X83.557 Y112.407 E470.03725
G0 F9000 X83.557 Y111.558
G1 F3600 X65.054 Y93.055 E471.60384
G0 F9000 X65.054 Y92.207
G1 F3600 X83.557 Y110.71 E473.17042
G0 F9000 X83.557 Y109.861
G1 F3600 X65.054 Y91.358 E474.73701
G0 F9000 X65.054 Y90.51
G1 F3600 X83.557 Y109.013 E476.30359
G0 F9000 X83.557 Y108.164
G1 F3600 X65.054 Y89.661 E477.87017
G0 F9000 X65.054 Y88.813
G1 F3600 X83.557 Y107.316 E479.43676
G0 F9000 X83.557 Y106.467
G1 F3600 X65.054 Y87.964 E481.00334
G0 F9000 X65.054 Y87.116
G1 F3600 X83.557 Y105.619 E482.56993
G0 F9000 X83.557 Y104.77
G1 F3600 X65.054 Y86.267 E484.13651
G0 F9000 X65.054 Y85.419
G1 F3600 X83.557 Y103.922 E485.70309
G0 F9000 X83.557 Y103.073
G1 F3600 X65.054 Y84.57 E487.26968
G0 F9000 X65.054 Y83.722
G1 F3600 X83.557 Y102.225 E488.83626
G0 F9000 X83.557 Y101.376
G1 F3600 X65.054 Y82.873 E490.40285
G0 F9000 X65.054 Y82.025
G1 F3600 X83.557 Y100.527 E491.96939
G0 F9000 X83.557 Y99.679
G1 F3600 X65.054 Y81.176 E493.53597
G0 F9000 X65.054 Y80.328
G1 F3600 X83.557 Y98.83 E495.10251
G0 F9000 X83.557 Y97.982
G1 F3600 X65.054 Y79.479 E496.6691
G0 F9000 X65.054 Y78.63
G1 F3600 X83.557 Y97.133 E498.23568
G0 F9000 X83.557 Y96.285
G1 F3600 X65.054 Y77.782 E499.80226
G0 F9000 X65.054 Y76.933
G1 F3600 X83.557 Y95.436 E501.36885
G0 F9000 X83.557 Y94.588
G1 F3600 X65.054 Y76.085 E502.93543
G0 F9000 X65.054 Y75.236
G1 F3600 X83.557 Y93.739 E504.50202
G0 F9000 X83.557 Y92.891
G1 F3600 X65.054 Y74.388 E506.0686
G0 F9000 X65.054 Y73.539
G1 F3600 X83.557 Y92.042 E507.63518
G0 F9000 X83.557 Y91.194
G1 F3600 X65.054 Y72.691 E509.20177
G0 F9000 X65.054 Y71.842
G1 F3600 X83.557 Y90.345 E510.76835
G0 F9000 X84.071 Y90.011
G1 F3600 X65.054 Y70.994 E512.37845
G0 F9000 X65.054 Y70.145
G1 F3600 X84.919 Y90.011 E514.0604
G0 F9000 X85.768 Y90.011
G1 F3600 X65.054 Y69.297 E515.81418
G0 F9000 X65.054 Y68.448
G1 F3600 X86.617 Y90.011 E517.63984
G0 F9000 X87.465 Y90.011
G1 F3600 X65.054 Y67.6 E519.5373
G0 F9000 X65.054 Y66.751
G1 F3600 X88.314 Y90.011 E521.50664
G0 F9000 X89.162 Y90.011
G1 F3600 X65.054 Y65.903 E523.54778
G0 F9000 X65.054 Y65.054
G1 F3600 X90.011 Y90.011 E525.6608
G0 F9000 X90.859 Y90.011
G1 F3600 X65.054 Y64.206 E527.84562
G0 F9000 X65.054 Y63.357
G1 F3600 X91.708 Y90.011 E530.10232
G0 F9000 X92.556 Y90.011
G1 F3600 X65.054 Y62.508 E532.43086
G0 F9000 X65.054 Y61.66
G1 F3600 X93.405 Y90.011 E534.83124
G0 F9000 X94.253 Y90.011
G1 F3600 X65.054 Y60.811 E537.30346
G0 F9000 X65.054 Y59.963
G1 F3600 X95.102 Y90.011 E539.84752
G0 F9000 X95.95 Y90.011
G1 F3600 X65.054 Y59.114 E542.46342
G0 F9000 X65.054 Y58.266
G1 F3600 X96.799 Y90.011 E545.15116
G0 F9000 X97.647 Y90.011
G1 F3600 X65.054 Y57.417 E547.91073
G0 F9000 X65.054 Y56.569
G1 F3600 X98.496 Y90.011 E550.74215
G0 F9000 X99.344 Y90.011
G1 F3600 X65.054 Y55.72 E553.6454
G0 F9000 X65.054 Y54.872
G1 F3600 X100.193 Y90.011 E556.6205
G0 F9000 X101.042 Y90.011
G1 F3600 X65.054 Y54.023 E559.66748
G0 F9000 X65.054 Y53.175
G1 F3600 X101.89 Y90.011 E562.78625
G0 F9000 X102.739 Y90.011
G1 F3600 X65.054 Y52.326 E565.97691
G0 F9000 X65.054 Y51.478
G1 F3600 X103.587 Y90.011 E569.23936
G0 F9000 X104.436 Y90.011
G1 F3600 X65.054 Y50.629 E572.5737
G0 F9000 X65.054 Y49.781
G1 F3600 X105.284 Y90.011 E575.97983
G0 F9000 X106.133 Y90.011
G1 F3600 X65.054 Y48.932 E579.45784
G0 F9000 X65.054 Y48.083
G1 F3600 X106.981 Y90.011 E583.0077
G0 F9000 X107.83 Y90.011
G1 F3600 X65.054 Y47.235 E586.62939
G0 F9000 X65.054 Y46.386
G1 F3600 X108.678 Y90.011 E590.32292
G0 F9000 X109.527 Y90.011
G1 F3600 X65.054 Y45.538 E594.0883
G0 F9000 X65.054 Y44.689
G1 F3600 X110.375 Y90.011 E597.92551
G0 F9000 X111.224 Y90.011
G1 F3600 X65.054 Y43.841 E601.83456
G0 F9000 X65.054 Y42.992
