;FLAVOR:Marlin
;TIME:10741
;Filament used: 8.96139m
;Layer height: 0.2
;MINX:65.297
;MINY:65.297
;MINZ:0.24
;MAXX:154.703
;MAXY:154.703
;MAXZ:89.88
;Generated with Cura_SteamEngine 4.8.0
M82 ;absolute extrusion mode
M201 X500.00 Y500.00 Z100.00 E5000.00 ;Setup machine max acceleration
M203 X500.00 Y500.00 Z10.00 E50.00 ;Setup machine max feedrate
M204 P500.00 R1000.00 T500.00 ;Setup Print/Retract/Travel acceleration
M205 X8.00 Y8.00 Z0.40 E5.00 ;Setup Jerk
M220 S100 ;Reset Feedrate
M221 S100 ;Reset Flowrate

;*** Start Dual Nozzle/Bed Preheating ***
M140 S50 ; start preheating the bed
M104 S200 ﻿T0 ; start preheating hotend
M190 S50 ; heat to Cura Bed setting and WAIT
M109 S200 ﻿T0 ; heat to Cura Hotend and WAIT
;*** End Preheating ***

G28 ; home

G92 E0 ;Reset Extruder
G1 Z2.0 F3000 ;Move Z Axis up

;*** Single Print Start Tone
M300 S1000 P500 ; chirp to indicate starting to print
;*** End Single Start Tone

G1 X10.1 Y20 Z0.28 F5000.0 ;Move to start position
G1 X10.1 Y200.0 Z0.28 F1500.0 E15 ;Draw the first line
G1 X10.4 Y200.0 Z0.28 F5000.0 ;Move to side a little
G1 X10.4 Y20 Z0.28 F1500.0 E30 ;Draw the second line
G92 E0 ;Reset Extruder
G1 Z2.0 F3000 ;Move Z Axis up
G92 E0
G92 E0
G1 F2400 E-3.2
;LAYER_COUNT:510
;LAYER:0
M106 S63.8
M204 S500
M205 X6 Y6
G0 F9000 X83.431 Y83.282 Z0.24
;TYPE:SKIRT
G1 F1440 E0
G1 F1800 X84.091 Y82.64 E0.03675
G1 X84.804 Y82.058 E0.07348
G1 X85.566 Y81.54 E0.11026
G1 X86.745 Y80.909 E0.16363
G1 X87.229 Y80.692 E0.1848
G1 X87.495 Y80.58 E0.19632
G1 X104.06 Y73.72 E0.91192
G1 X104.684 Y73.472 E0.93872
G1 X105.554 Y73.17 E0.97547
G1 X106.139 Y73.012 E0.99966
G1 X107.114 Y72.781 E1.03965
G1 X107.585 Y72.677 E1.0589
G1 X108.287 Y72.533 E1.0875
G1 X109.196 Y72.388 E1.12424
G1 X110.114 Y72.321 E1.16098
G1 X111.035 Y72.335 E1.19774
G1 X111.951 Y72.429 E1.23449
G1 X112.855 Y72.601 E1.27122
G1 X114.164 Y73.001 E1.32585
G1 X114.741 Y73.224 E1.35054
G1 X131.465 Y80.151 E2.07302
G1 X132.068 Y80.411 E2.09923
G1 X132.897 Y80.812 E2.13599
G1 X133.416 Y81.111 E2.15989
G1 X134.318 Y81.666 E2.20216
G1 X134.673 Y81.894 E2.219
G1 X135.272 Y82.288 E2.24762
G1 X136.019 Y82.827 E2.28438
G1 X136.716 Y83.429 E2.32114
G1 X137.358 Y84.088 E2.35786
G1 X137.94 Y84.801 E2.39459
G1 X138.458 Y85.562 E2.43134
G1 X139.1 Y86.764 E2.48572
G1 X139.343 Y87.314 E2.50972
G1 X146.273 Y104.045 E3.23251
G1 X146.522 Y104.669 E3.25932
G1 X146.826 Y105.539 E3.29611
G1 X146.988 Y106.141 E3.32099
G1 X147.219 Y107.114 E3.3609
G1 X147.323 Y107.585 E3.38015
G1 X147.467 Y108.287 E3.40876
G1 X147.612 Y109.196 E3.44549
G1 X147.679 Y110.114 E3.48223
G1 X147.665 Y111.035 E3.519
G1 X147.571 Y111.951 E3.55575
G1 X147.399 Y112.855 E3.59247
G1 X146.999 Y114.164 E3.6471
G1 X146.776 Y114.741 E3.67179
G1 X139.846 Y131.471 E4.39454
G1 X139.586 Y132.073 E4.42072
G1 X139.185 Y132.901 E4.45743
G1 X138.892 Y133.411 E4.48091
G1 X138.361 Y134.274 E4.52135
G1 X138.125 Y134.644 E4.53887
G1 X137.715 Y135.268 E4.56867
G1 X137.176 Y136.014 E4.6054
G1 X136.575 Y136.712 E4.64216
G1 X135.916 Y137.354 E4.67888
G1 X135.203 Y137.937 E4.71564
G1 X134.442 Y138.456 E4.75241
G1 X133.255 Y139.091 E4.80614
G1 X132.771 Y139.308 E4.82731
G1 X132.505 Y139.42 E4.83883
G1 X115.94 Y146.28 E5.55442
G1 X115.316 Y146.528 E5.58122
G1 X114.446 Y146.83 E5.61798
G1 X113.861 Y146.988 E5.64216
G1 X112.886 Y147.219 E5.68215
G1 X112.415 Y147.323 E5.70141
G1 X111.713 Y147.467 E5.73001
G1 X110.804 Y147.612 E5.76675
G1 X109.886 Y147.679 E5.80348
G1 X108.965 Y147.665 E5.84025
G1 X108.049 Y147.571 E5.877
G1 X107.145 Y147.399 E5.91373
G1 X105.836 Y146.999 E5.96836
G1 X105.239 Y146.768 E5.99391
G1 X88.534 Y139.848 E6.71558
G1 X87.931 Y139.588 E6.74179
G1 X87.102 Y139.187 E6.77854
G1 X86.586 Y138.89 E6.80231
G1 X85.697 Y138.343 E6.84397
G1 X85.277 Y138.074 E6.86387
G1 X84.723 Y137.709 E6.89035
G1 X83.977 Y137.169 E6.92711
G1 X83.281 Y136.567 E6.96384
G1 X82.639 Y135.907 E7.00059
G1 X82.057 Y135.193 E7.03735
G1 X81.539 Y134.432 E7.07409
G1 X81.09 Y133.629 E7.11081
G1 X80.785 Y132.978 E7.13951
G1 X80.551 Y132.432 E7.16321
G1 X73.788 Y116.106 E7.86852
G1 X73.471 Y115.31 E7.90271
G1 X73.168 Y114.441 E7.93944
G1 X73.01 Y113.852 E7.96378
G1 X72.779 Y112.877 E8.00378
G1 X72.677 Y112.415 E8.02266
G1 X72.533 Y111.713 E8.05126
G1 X72.388 Y110.804 E8.088
G1 X72.321 Y109.886 E8.12474
G1 X72.335 Y108.965 E8.1615
G1 X72.429 Y108.049 E8.19825
G1 X72.601 Y107.145 E8.23498
G1 X73.001 Y105.836 E8.28961
G1 X73.193 Y105.339 E8.31087
G1 X73.313 Y105.043 E8.32362
G1 X80.155 Y88.525 E9.03721
G1 X80.417 Y87.919 E9.06356
G1 X80.819 Y87.091 E9.1003
G1 X81.112 Y86.582 E9.12374
G1 X81.571 Y85.834 E9.15876
G1 X81.897 Y85.322 E9.18299
G1 X82.29 Y84.725 E9.21152
G1 X82.829 Y83.978 E9.24828
G1 X83.431 Y83.282 E9.28501
G0 F9000 X83.746 Y83.531
G1 F1800 X84.396 Y82.904 E9.32106
G1 X85.099 Y82.337 E9.3571
G1 X85.849 Y81.835 E9.39312
G1 X86.911 Y81.273 E9.44108
G1 X87.386 Y81.06 E9.46186
G1 X87.648 Y80.949 E9.47321
G1 X104.208 Y74.092 E10.18858
G1 X104.832 Y73.844 E10.21538
G1 X105.685 Y73.548 E10.25142
G1 X106.232 Y73.401 E10.27402
G1 X107.202 Y73.171 E10.31381
G1 X107.665 Y73.069 E10.33273
G1 X108.367 Y72.925 E10.36134
G1 X109.259 Y72.783 E10.39738
G1 X110.16 Y72.72 E10.43343
G1 X111.063 Y72.737 E10.46948
G1 X111.961 Y72.835 E10.50553
G1 X112.847 Y73.011 E10.54159
G1 X114.022 Y73.375 E10.59068
G1 X114.707 Y73.642 E10.62003
G1 X131.171 Y80.461 E11.33127
G1 X131.91 Y80.779 E11.36338
G1 X132.722 Y81.173 E11.3994
G1 X133.207 Y81.452 E11.42174
G1 X133.958 Y81.913 E11.45691
G1 X134.453 Y82.228 E11.48032
G1 X135.052 Y82.622 E11.50894
G1 X135.784 Y83.151 E11.54499
G1 X136.466 Y83.743 E11.58103
G1 X137.093 Y84.393 E11.61708
G1 X137.66 Y85.096 E11.65312
G1 X138.163 Y85.846 E11.68917
G1 X138.736 Y86.929 E11.73807
G1 X138.973 Y87.467 E11.76153
G1 X145.902 Y104.194 E12.48416
G1 X146.151 Y104.818 E12.51097
G1 X146.448 Y105.67 E12.54698
G1 X146.599 Y106.234 E12.57029
G1 X146.829 Y107.202 E12.61
G1 X146.931 Y107.665 E12.62892
G1 X147.075 Y108.367 E12.65752
G1 X147.217 Y109.259 E12.69357
G1 X147.28 Y110.16 E12.72962
G1 X147.263 Y111.063 E12.76567
G1 X147.165 Y111.961 E12.80172
G1 X146.989 Y112.847 E12.83777
G1 X146.625 Y114.022 E12.88687
G1 X146.358 Y114.707 E12.91621
G1 X139.539 Y131.171 E13.62746
G1 X139.219 Y131.914 E13.65975
G1 X138.825 Y132.727 E13.6958
G1 X138.551 Y133.202 E13.71769
G1 X138.023 Y134.06 E13.7579
G1 X137.791 Y134.424 E13.77513
G1 X137.381 Y135.048 E13.80493
G1 X136.852 Y135.78 E13.84097
G1 X136.26 Y136.463 E13.87705
G1 X135.611 Y137.09 E13.91307
G1 X134.908 Y137.657 E13.94911
G1 X134.158 Y138.161 E13.98518
G1 X133.089 Y138.727 E14.03346
G1 X132.614 Y138.94 E14.05423
G1 X132.352 Y139.051 E14.06559
G1 X115.792 Y145.908 E14.78096
G1 X115.168 Y146.156 E14.80776
G1 X114.315 Y146.452 E14.84379
G1 X113.768 Y146.599 E14.8664
G1 X112.798 Y146.829 E14.90619
G1 X112.335 Y146.931 E14.92511
G1 X111.633 Y147.075 E14.95371
G1 X110.741 Y147.217 E14.98976
G1 X109.84 Y147.28 E15.02581
G1 X108.937 Y147.263 E15.06186
G1 X108.039 Y147.165 E15.09791
G1 X107.153 Y146.989 E15.13396
G1 X105.978 Y146.625 E15.18306
G1 X105.388 Y146.397 E15.2083
G1 X88.828 Y139.538 E15.9237
G1 X88.089 Y139.22 E15.95581
G1 X87.277 Y138.826 E15.99183
G1 X86.795 Y138.549 E16.01402
G1 X86.063 Y138.1 E16.0483
G1 X85.497 Y137.74 E16.07507
G1 X84.943 Y137.375 E16.10155
G1 X84.212 Y136.845 E16.13758
G1 X83.53 Y136.252 E16.17366
G1 X82.904 Y135.602 E16.20967
G1 X82.337 Y134.899 E16.24572
G1 X81.835 Y134.148 E16.28177
G1 X81.254 Y133.044 E16.33157
G1 X80.961 Y132.375 E16.36072
G1 X74.102 Y115.815 E17.07611
G1 X73.843 Y115.163 E17.10411
G1 X73.547 Y114.309 E17.14019
G1 X73.399 Y113.76 E17.16288
G1 X73.169 Y112.789 E17.20271
G1 X73.069 Y112.335 E17.22126
G1 X72.925 Y111.633 E17.24987
G1 X72.783 Y110.741 E17.28592
G1 X72.72 Y109.84 E17.32196
G1 X72.737 Y108.937 E17.35801
G1 X72.835 Y108.039 E17.39406
G1 X73.011 Y107.153 E17.43012
G1 X73.375 Y105.978 E17.47921
G1 X73.563 Y105.489 E17.50012
G1 X73.682 Y105.196 E17.51275
G1 X80.461 Y88.829 E18.2198
G1 X80.785 Y88.078 E18.25245
G1 X81.179 Y87.266 E18.28847
G1 X81.453 Y86.791 E18.31036
G1 X81.999 Y85.904 E18.35193
G1 X82.231 Y85.542 E18.36909
G1 X82.624 Y84.945 E18.39762
G1 X83.154 Y84.213 E18.43369
G1 X83.746 Y83.531 E18.46973
G1 F2400 E15.26973
;MESH:Rose_Vase.stl
G0 F9000 X89.609 Y91.707
G0 X90.523 Y92.289
G0 X84.131 Y109.692
G0 X84.366 Y110.769
G0 X90.948 Y128.527
G0 X90.708 Y128.73
;TYPE:WALL-OUTER
G1 F1440 E18.46973
G1 F1800 X83.494 Y111.315 E19.22208
G1 X83.115 Y109.602 E19.2921
G1 X90.327 Y92.189 E20.04434
G1 X91.271 Y90.707 E20.11447
G1 X108.685 Y83.494 E20.86676
G1 X110.398 Y83.115 E20.93679
G1 X127.811 Y90.327 E21.68903
G1 X129.293 Y91.271 E21.75916
G1 X136.506 Y108.685 E22.51145
G1 X136.885 Y110.398 E22.58148
G1 X129.673 Y127.811 E23.33372
G1 X128.729 Y129.293 E23.40385
G1 X111.315 Y136.506 E24.15614
G1 X109.602 Y136.885 E24.22616
G1 X92.189 Y129.673 E24.97841
G1 X90.708 Y128.73 E25.04848
G0 F9000 X91.03 Y128.461
;TYPE:WALL-INNER
G1 F1800 X83.877 Y111.194 E25.79444
G1 X83.533 Y109.639 E25.858
G1 X90.685 Y92.371 E26.60398
G1 X91.54 Y91.029 E26.66749
G1 X108.806 Y83.877 E27.41339
G1 X110.361 Y83.533 E27.47696
G1 X127.629 Y90.685 E28.22294
G1 X128.971 Y91.54 E28.28645
G1 X136.123 Y108.806 E29.03235
G1 X136.467 Y110.361 E29.09591
G1 X129.315 Y127.629 E29.84189
G1 X128.46 Y128.971 E29.9054
G1 X111.194 Y136.123 E30.65131
G1 X109.639 Y136.467 E30.71487
G1 X92.371 Y129.315 E31.46085
G1 X91.03 Y128.461 E31.5243
G0 F9000 X91.352 Y128.192
G1 F1800 X84.26 Y111.073 E32.26387
G1 X83.951 Y109.676 E32.32098
G1 X91.043 Y92.553 E33.06069
G1 X91.809 Y91.351 E33.11758
G1 X108.927 Y84.26 E33.85709
G1 X110.324 Y83.951 E33.9142
G1 X127.447 Y91.043 E34.65391
G1 X128.649 Y91.809 E34.7108
G1 X135.74 Y108.927 E35.45032
G1 X136.049 Y110.324 E35.50742
G1 X128.957 Y127.447 E36.24714
G1 X128.191 Y128.649 E36.30403
G1 X111.073 Y135.74 E37.04354
G1 X109.676 Y136.049 E37.10065
G1 X92.553 Y128.957 E37.84036
G1 X91.352 Y128.192 E37.89719
G0 F9000 X91.667 Y127.931
;TYPE:SKIN
G1 F1800 X84.632 Y110.951 E38.63077
G1 X84.359 Y109.713 E38.68136
G1 X91.393 Y92.728 E39.41511
G1 X92.07 Y91.666 E39.46537
G1 X109.049 Y84.632 E40.19889
G1 X110.287 Y84.359 E40.24949
G1 X127.272 Y91.393 E40.98323
G1 X128.334 Y92.07 E41.0335
G1 X135.368 Y109.049 E41.76702
G1 X135.641 Y110.287 E41.81762
G1 X128.607 Y127.272 E42.55136
G1 X127.93 Y128.334 E42.60162
G1 X110.951 Y135.368 E43.33514
G1 X109.713 Y135.641 E43.38574
G1 X92.728 Y128.607 E44.11948
G1 X91.667 Y127.931 E44.16969
G0 F9000 X91.557 Y127.195
G1 F1800 X92.801 Y128.439 E44.23991
G0 F9000 X92.554 Y128.826
G0 X93.593 Y129.268
G0 X93.77 Y128.842
G1 F1800 X91.157 Y126.229 E44.3874
G0 F9000 X90.73 Y126.405
G0 X90.33 Y125.439
G0 X90.757 Y125.263
G1 F1800 X94.736 Y129.242 E44.61199
G0 F9000 X94.559 Y129.668
G0 X95.524 Y130.068
G0 X95.701 Y129.642
G1 F1800 X90.356 Y124.298 E44.91366
G0 F9000 X89.93 Y124.474
G0 X89.53 Y123.508
G0 X89.956 Y123.332
G1 F1800 X96.667 Y130.042 E45.29243
G0 F9000 X96.49 Y130.468
G0 X97.455 Y130.867
G0 X97.632 Y130.442
G1 F1800 X89.556 Y122.366 E45.74827
G0 F9000 X89.13 Y122.542
G0 X88.73 Y121.576
G0 X89.156 Y121.4
G1 F1800 X98.598 Y130.842 E46.28122
G0 F9000 X98.421 Y131.268
G0 X99.386 Y131.667
G0 X99.563 Y131.241
G1 F1800 X88.756 Y120.434 E46.89121
G0 F9000 X88.33 Y120.61
G0 X87.929 Y119.643
G0 X88.355 Y119.468
G1 F1800 X100.528 Y131.641 E47.57831
G0 F9000 X100.351 Y132.067
G0 X101.317 Y132.467
G0 X101.494 Y132.041
G1 F1800 X87.955 Y118.502 E48.34251
G0 F9000 X87.529 Y118.678
G0 X87.129 Y117.712
G0 X87.555 Y117.536
G1 F1800 X102.459 Y132.441 E49.18378
G0 F9000 X102.282 Y132.867
G0 X103.248 Y133.267
G0 X103.425 Y132.841
G1 F1800 X87.155 Y116.57 E50.10216
G0 F9000 X86.729 Y116.746
G0 X86.329 Y115.779
G0 X86.754 Y115.604
G1 F1800 X104.39 Y133.24 E51.09761
G0 F9000 X104.213 Y133.667
G0 X105.179 Y134.067
G0 X105.356 Y133.641
G1 F1800 X86.354 Y114.638 E52.1702
G0 F9000 X85.929 Y114.813
G0 X85.529 Y113.848
G0 X85.954 Y113.673
G1 F1800 X106.321 Y134.04 E53.3198
G0 F9000 X106.144 Y134.466
G0 X107.11 Y134.867
G0 X107.287 Y134.44
G1 F1800 X85.554 Y112.707 E54.5465
G0 F9000 X85.129 Y112.882
G0 X84.728 Y111.916
G0 X85.154 Y111.741
G1 F1800 X108.253 Y134.84 E55.85031
G0 F9000 X108.076 Y135.267
G0 X109.042 Y135.667
G0 X109.219 Y135.24
G1 F1800 X84.782 Y110.804 E57.22961
G0 F9000 X84.623 Y110.079
G1 F1800 X109.948 Y135.403 E58.65904
G0 F9000 X110.411 Y135.302
G1 F1800 X84.632 Y109.523 E60.11411
G0 F9000 X84.798 Y109.122
G1 F1800 X110.875 Y135.199 E61.58601
G0 F9000 X111.277 Y135.036
G1 F1800 X84.963 Y108.722 E63.07129
G0 F9000 X85.129 Y108.323
G1 F1800 X111.677 Y134.87 E64.56974
G0 F9000 X112.077 Y134.704
G1 F1800 X85.295 Y107.922 E66.08144
G0 F9000 X85.46 Y107.522
G1 F1800 X112.477 Y134.539 E67.60639
G0 F9000 X112.877 Y134.373
G1 F1800 X85.626 Y107.122 E69.14456
G0 F9000 X85.792 Y106.722
G1 F1800 X113.277 Y134.207 E70.69593
G0 F9000 X113.677 Y134.041
G1 F1800 X85.958 Y106.322 E72.26051
G0 F9000 X86.123 Y105.922
G1 F1800 X114.077 Y133.876 E73.83835
G0 F9000 X114.477 Y133.71
G1 F1800 X86.288 Y105.522 E75.42943
G0 F9000 X86.455 Y105.122
G1 F1800 X114.877 Y133.544 E77.03369
G0 F9000 X115.277 Y133.379
G1 F1800 X86.62 Y104.722 E78.65122
G0 F9000 X86.786 Y104.322
G1 F1800 X115.677 Y133.213 E80.28195
G0 F9000 X116.077 Y133.047
G1 F1800 X86.952 Y103.922 E81.92589
G0 F9000 X87.117 Y103.522
G1 F1800 X116.477 Y132.882 E83.5831
G0 F9000 X116.876 Y132.716
G1 F1800 X87.283 Y103.122 E85.25348
G0 F9000 X87.448 Y102.722
G1 F1800 X117.277 Y132.55 E86.93713
G0 F9000 X117.677 Y132.385
G1 F1800 X87.614 Y102.322 E88.63402
G0 F9000 X87.78 Y101.922
G1 F1800 X118.076 Y132.219 E90.34408
G0 F9000 X118.477 Y132.053
G1 F1800 X87.945 Y101.522 E92.06741
G0 F9000 X88.111 Y101.121
G1 F1800 X118.877 Y131.888 E93.80401
G0 F9000 X119.276 Y131.721
G1 F1800 X88.277 Y100.722 E95.55372
G0 F9000 X88.442 Y100.322
G1 F1800 X119.677 Y131.556 E97.31673
G0 F9000 X120.077 Y131.391
G1 F1800 X88.608 Y99.921 E99.09301
G0 F9000 X88.774 Y99.522
G1 F1800 X120.476 Y131.224 E100.88241
G0 F9000 X120.877 Y131.059
G1 F1800 X88.939 Y99.122 E102.6851
G0 F9000 X89.105 Y98.722
G1 F1800 X121.277 Y130.893 E104.501
G0 F9000 X121.676 Y130.727
G1 F1800 X89.27 Y98.321 E106.33013
G0 F9000 X89.436 Y97.922
G1 F1800 X122.077 Y130.562 E108.1725
G0 F9000 X122.477 Y130.396
G1 F1800 X89.602 Y97.522 E110.02808
G0 F9000 X89.767 Y97.121
G1 F1800 X122.876 Y130.23 E111.8969
G0 F9000 X123.276 Y130.065
G1 F1800 X89.933 Y96.721 E113.77895
G0 F9000 X90.099 Y96.322
G1 F1800 X123.677 Y129.899 E115.67421
G0 F9000 X124.076 Y129.733
G1 F1800 X90.265 Y95.921 E117.58267
G0 F9000 X90.43 Y95.521
G1 F1800 X124.476 Y129.568 E119.5044
G0 F9000 X124.877 Y129.402
G1 F1800 X90.596 Y95.122 E121.43934
G0 F9000 X90.762 Y94.721
G1 F1800 X125.276 Y129.236 E123.38749
G0 F9000 X125.676 Y129.071
G1 F1800 X90.927 Y94.321 E125.3489
G0 F9000 X91.093 Y93.921
G1 F1800 X126.077 Y128.905 E127.32355
G0 F9000 X126.476 Y128.739
G1 F1800 X91.259 Y93.521 E129.31138
G0 F9000 X91.424 Y93.121
G1 F1800 X126.876 Y128.573 E131.31244
G0 F9000 X127.277 Y128.408
G1 F1800 X91.602 Y92.734 E133.32607
G0 F9000 X91.822 Y92.388
G1 F1800 X127.676 Y128.242 E135.34982
G0 F9000 X127.956 Y127.956
G1 F1800 X92.042 Y92.042 E137.37696
G0 F9000 X92.322 Y91.757
G1 F1800 X128.176 Y127.61 E139.40069
G0 F9000 X128.396 Y127.265
G1 F1800 X92.722 Y91.59 E141.41431
G0 F9000 X93.122 Y91.425
G1 F1800 X128.574 Y126.877 E143.41538
G0 F9000 X128.74 Y126.477
G1 F1800 X93.522 Y91.259 E145.40323
G0 F9000 X93.922 Y91.093
G1 F1800 X128.906 Y126.077 E147.37788
G0 F9000 X129.071 Y125.677
G1 F1800 X94.322 Y90.928 E149.33926
G0 F9000 X94.722 Y90.762
G1 F1800 X129.237 Y125.277 E151.28744
G0 F9000 X129.402 Y124.877
G1 F1800 X95.122 Y90.596 E153.22238
G0 F9000 X95.522 Y90.431
G1 F1800 X129.568 Y124.477 E155.14408
G0 F9000 X129.734 Y124.077
G1 F1800 X95.922 Y90.265 E157.05258
G0 F9000 X96.322 Y90.099
G1 F1800 X129.899 Y123.677 E158.94784
G0 F9000 X130.065 Y123.277
G1 F1800 X96.722 Y89.934 E160.82986
G0 F9000 X97.122 Y89.768
G1 F1800 X130.231 Y122.877 E162.69868
G0 F9000 X130.396 Y122.477
G1 F1800 X97.522 Y89.602 E164.55425
G0 F9000 X97.922 Y89.436
