;FLAVOR:Marlin
;TIME:4008
;Filament used: 1.65607m
;Layer height: 0.2
;MINX:100.89
;MINY:100.889
;MINZ:0.24
;MAXX:119.11
;MAXY:119.111
;MAXZ:128.84
;Generated with Cura_SteamEngine 4.8.0
M82 ;absolute extrusion mode
M201 X500.00 Y500.00 Z100.00 E5000.00 ;Setup machine max acceleration
M203 X500.00 Y500.00 Z10.00 E50.00 ;Setup machine max feedrate
M204 P500.00 R1000.00 T500.00 ;Setup Print/Retract/Travel acceleration
M205 X8.00 Y8.00 Z0.40 E5.00 ;Setup Jerk
M220 S100 ;Reset Feedrate
M221 S100 ;Reset Flowrate

;*** Start Dual Nozzle/Bed Preheating ***
M140 S50 ; start preheating the bed
M104 S200 ﻿T0 ; start preheating hotend
M190 S50 ; heat to Cura Bed setting and WAIT
M109 S200 ﻿T0 ; heat to Cura Hotend and WAIT
;*** End Preheating ***

G28 ; home

G92 E0 ;Reset Extruder
G1 Z2.0 F3000 ;Move Z Axis up

;*** Single Print Start Tone
M300 S1000 P500 ; chirp to indicate starting to print
;*** End Single Start Tone

G1 X10.1 Y20 Z0.28 F5000.0 ;Move to start position
G1 X10.1 Y200.0 Z0.28 F1500.0 E15 ;Draw the first line
G1 X10.4 Y200.0 Z0.28 F5000.0 ;Move to side a little
G1 X10.4 Y20 Z0.28 F1500.0 E30 ;Draw the second line
G92 E0 ;Reset Extruder
G1 Z2.0 F3000 ;Move Z Axis up
G92 E0
G92 E0
G1 F2400 E-3.2
;LAYER_COUNT:582
;LAYER:0
M106 S63.8
M204 S500
M205 X6 Y6
G0 F6000 X103.354 Y103.761 Z0.24
;TYPE:SKIRT
G1 F1440 E0
G1 F1200 X103.761 Y103.354 E0.02297
G1 X105.197 Y102.253 E0.09519
G1 X105.694 Y101.967 E0.11808
G1 X107.362 Y101.276 E0.19014
G1 X107.915 Y101.127 E0.213
G1 X109.711 Y100.889 E0.28531
G1 X110.289 Y100.889 E0.30838
G1 X112.085 Y101.127 E0.38069
G1 X112.639 Y101.276 E0.40358
G1 X114.306 Y101.968 E0.47562
G1 X114.802 Y102.254 E0.49847
G1 X116.238 Y103.355 E0.57069
G1 X116.645 Y103.762 E0.59367
G1 X117.747 Y105.199 E0.66594
G1 X118.034 Y105.697 E0.68888
G1 X118.724 Y107.364 E0.76089
G1 X118.872 Y107.916 E0.7837
G1 X119.11 Y109.711 E0.85597
G1 X119.11 Y110.288 E0.879
G1 X118.873 Y112.083 E0.95127
G1 X118.725 Y112.636 E0.97411
G1 X118.035 Y114.304 E1.04616
G1 X117.748 Y114.802 E1.0691
G1 X116.646 Y116.239 E1.14138
G1 X116.239 Y116.646 E1.16435
G1 X114.803 Y117.747 E1.23657
G1 X114.306 Y118.033 E1.25946
G1 X112.638 Y118.724 E1.33152
G1 X112.085 Y118.873 E1.35437
G1 X110.289 Y119.111 E1.42668
G1 X109.71 Y119.111 E1.44979
G1 X107.915 Y118.872 E1.52207
G1 X107.363 Y118.723 E1.54489
G1 X105.695 Y118.032 E1.61695
G1 X105.198 Y117.746 E1.63983
G1 X103.762 Y116.645 E1.71205
G1 X103.355 Y116.238 E1.73503
G1 X102.253 Y114.801 E1.8073
G1 X101.966 Y114.303 E1.83025
G1 X101.276 Y112.636 E1.90225
G1 X101.128 Y112.084 E1.92506
G1 X100.89 Y110.289 E1.99733
G1 X100.89 Y109.712 E2.02036
G1 X101.127 Y107.916 E2.09267
G1 X101.275 Y107.363 E2.11551
G1 X101.965 Y105.696 E2.18752
G1 X102.252 Y105.198 E2.21046
G1 X103.354 Y103.761 E2.28274
G0 F6000 X103.672 Y104.005
G1 F1200 X104.005 Y103.672 E2.30154
G1 X105.441 Y102.571 E2.37376
G1 X105.847 Y102.336 E2.39248
G1 X107.515 Y101.645 E2.46454
G1 X107.968 Y101.524 E2.48325
G1 X109.764 Y101.286 E2.55556
G1 X110.236 Y101.286 E2.5744
G1 X112.032 Y101.524 E2.64671
G1 X112.486 Y101.646 E2.66547
G1 X114.153 Y102.338 E2.73751
G1 X114.558 Y102.572 E2.75618
G1 X115.994 Y103.673 E2.8284
G1 X116.327 Y104.006 E2.8472
G1 X117.429 Y105.443 E2.91947
G1 X117.664 Y105.85 E2.93823
G1 X118.354 Y107.517 E3.01024
G1 X118.475 Y107.968 E3.02888
G1 X118.713 Y109.763 E3.10115
G1 X118.714 Y110.236 E3.12002
G1 X118.477 Y112.031 E3.19229
G1 X118.355 Y112.483 E3.21097
G1 X117.665 Y114.151 E3.28302
G1 X117.43 Y114.558 E3.30178
G1 X116.328 Y115.995 E3.37405
G1 X115.995 Y116.328 E3.39285
G1 X114.559 Y117.429 E3.46507
G1 X114.153 Y117.664 E3.48379
G1 X112.485 Y118.355 E3.55585
G1 X112.032 Y118.476 E3.57457
G1 X110.236 Y118.714 E3.64688
G1 X109.762 Y118.714 E3.6658
G1 X107.967 Y118.475 E3.73807
G1 X107.516 Y118.354 E3.75671
G1 X105.848 Y117.663 E3.82877
G1 X105.442 Y117.428 E3.84749
G1 X104.006 Y116.327 E3.91971
G1 X103.673 Y115.994 E3.93851
G1 X102.571 Y114.557 E4.01078
G1 X102.336 Y114.15 E4.02954
G1 X101.646 Y112.483 E4.10155
G1 X101.525 Y112.032 E4.12019
G1 X101.287 Y110.237 E4.19246
G1 X101.286 Y109.765 E4.21129
G1 X101.523 Y107.969 E4.2836
G1 X101.645 Y107.516 E4.30232
G1 X102.335 Y105.849 E4.37433
G1 X102.57 Y105.442 E4.39309
G1 X103.672 Y104.005 E4.46536
G0 F6000 X103.989 Y104.248
G1 F1200 X104.248 Y103.989 E4.47998
G1 X105.684 Y102.888 E4.55221
G1 X106 Y102.706 E4.56676
G1 X107.668 Y102.015 E4.63882
G1 X108.02 Y101.92 E4.65337
G1 X109.816 Y101.682 E4.72568
G1 X110.184 Y101.682 E4.74037
G1 X111.98 Y101.92 E4.81268
G1 X112.333 Y102.015 E4.82727
G1 X114 Y102.707 E4.89931
G1 X114.315 Y102.889 E4.91383
G1 X115.751 Y103.99 E4.98605
G1 X116.01 Y104.249 E5.00067
G1 X117.112 Y105.686 E5.07294
G1 X117.295 Y106.003 E5.08755
G1 X117.985 Y107.67 E5.15956
G1 X118.079 Y108.021 E5.17406
G1 X118.317 Y109.816 E5.24633
G1 X118.317 Y110.183 E5.26098
G1 X118.08 Y111.978 E5.33324
G1 X117.986 Y112.33 E5.34779
G1 X117.296 Y113.998 E5.41983
G1 X117.113 Y114.315 E5.43444
G1 X116.011 Y115.752 E5.50672
G1 X115.752 Y116.011 E5.52134
G1 X114.316 Y117.112 E5.59356
G1 X114 Y117.294 E5.60811
G1 X112.332 Y117.985 E5.68017
G1 X111.98 Y118.08 E5.69472
G1 X110.184 Y118.318 E5.76703
G1 X109.815 Y118.318 E5.78176
G1 X108.02 Y118.079 E5.85403
G1 X107.669 Y117.984 E5.86855
G1 X106.001 Y117.293 E5.94061
G1 X105.685 Y117.111 E5.95516
G1 X104.249 Y116.01 E6.02738
G1 X103.99 Y115.751 E6.042
G1 X102.888 Y114.314 E6.11428
G1 X102.705 Y113.997 E6.12889
G1 X102.015 Y112.33 E6.2009
G1 X101.921 Y111.979 E6.2154
G1 X101.683 Y110.184 E6.28767
G1 X101.683 Y109.817 E6.30232
G1 X101.92 Y108.021 E6.37462
G1 X102.014 Y107.669 E6.38916
G1 X102.704 Y106.002 E6.46117
G1 X102.887 Y105.685 E6.47578
G1 X103.989 Y104.248 E6.54805
G0 F6000 X104.306 Y104.491
G1 F1200 X104.492 Y104.306 E6.55853
G1 X105.928 Y103.205 E6.63075
G1 X106.153 Y103.075 E6.64112
G1 X107.821 Y102.384 E6.71318
G1 X108.073 Y102.317 E6.72359
G1 X109.869 Y102.079 E6.79589
G1 X110.131 Y102.079 E6.80635
G1 X111.927 Y102.317 E6.87866
G1 X112.179 Y102.384 E6.88907
G1 X113.846 Y103.076 E6.96111
G1 X114.071 Y103.206 E6.97148
G1 X115.507 Y104.307 E7.0437
G1 X115.693 Y104.492 E7.05417
G1 X116.795 Y105.929 E7.12645
G1 X116.925 Y106.156 E7.13689
G1 X117.615 Y107.823 E7.20889
G1 X117.682 Y108.074 E7.21926
G1 X117.92 Y109.869 E7.29153
G1 X117.92 Y110.131 E7.30199
G1 X117.683 Y111.926 E7.37425
G1 X117.616 Y112.177 E7.38462
G1 X116.926 Y113.845 E7.45667
G1 X116.796 Y114.072 E7.46711
G1 X115.694 Y115.509 E7.53938
G1 X115.508 Y115.694 E7.54985
G1 X114.072 Y116.795 E7.62208
G1 X113.847 Y116.925 E7.63245
G1 X112.179 Y117.616 E7.70451
G1 X111.927 Y117.683 E7.71491
G1 X110.131 Y117.921 E7.78722
G1 X109.868 Y117.921 E7.79772
G1 X108.073 Y117.682 E7.87
G1 X107.822 Y117.615 E7.88036
G1 X106.154 Y116.924 E7.95242
G1 X105.929 Y116.794 E7.9628
G1 X104.493 Y115.693 E8.03502
G1 X104.307 Y115.508 E8.04549
G1 X103.205 Y114.071 E8.11776
G1 X103.075 Y113.844 E8.1282
G1 X102.385 Y112.177 E8.20021
G1 X102.318 Y111.926 E8.21058
G1 X102.08 Y110.131 E8.28285
G1 X102.08 Y109.869 E8.29331
G1 X102.317 Y108.073 E8.36561
G1 X102.384 Y107.822 E8.37598
G1 X103.074 Y106.155 E8.44799
G1 X103.204 Y105.928 E8.45843
G1 X104.306 Y104.491 E8.53071
G0 F6000 X104.624 Y104.735
G1 F1200 X104.735 Y104.624 E8.53697
G1 X106.171 Y103.523 E8.60919
G1 X106.306 Y103.445 E8.61541
G1 X107.974 Y102.754 E8.68747
G1 X108.125 Y102.713 E8.69372
G1 X109.921 Y102.475 E8.76603
G1 X110.079 Y102.475 E8.77233
G1 X111.875 Y102.713 E8.84464
G1 X112.026 Y102.754 E8.85089
G1 X113.693 Y103.446 E8.92293
G1 X113.828 Y103.524 E8.92915
G1 X115.264 Y104.625 E9.00137
G1 X115.375 Y104.736 E9.00764
G1 X116.477 Y106.173 E9.07991
G1 X116.555 Y106.309 E9.08617
G1 X117.245 Y107.976 E9.15818
G1 X117.286 Y108.126 E9.16439
G1 X117.524 Y109.921 E9.23665
G1 X117.524 Y110.079 E9.24296
G1 X117.287 Y111.874 E9.31522
G1 X117.246 Y112.024 E9.32143
G1 X116.556 Y113.692 E9.39348
G1 X116.478 Y113.828 E9.39973
G1 X115.376 Y115.265 E9.47201
G1 X115.265 Y115.376 E9.47828
G1 X113.829 Y116.477 E9.5505
G1 X113.694 Y116.555 E9.55672
G1 X112.026 Y117.246 E9.62878
G1 X111.875 Y117.287 E9.63502
G1 X110.079 Y117.525 E9.70733
G1 X109.921 Y117.525 E9.71364
G1 X108.126 Y117.286 E9.78591
G1 X107.975 Y117.245 E9.79216
G1 X106.307 Y116.554 E9.86422
G1 X106.172 Y116.476 E9.87044
G1 X104.736 Y115.375 E9.94266
G1 X104.625 Y115.264 E9.94893
G1 X103.523 Y113.827 E10.02121
G1 X103.445 Y113.691 E10.02746
G1 X102.755 Y112.024 E10.09947
G1 X102.714 Y111.874 E10.10568
G1 X102.476 Y110.079 E10.17795
G1 X102.476 Y109.922 E10.18421
G1 X102.713 Y108.126 E10.25652
G1 X102.754 Y107.975 E10.26276
G1 X103.444 Y106.308 E10.33477
G1 X103.522 Y106.172 E10.34103
G1 X104.624 Y104.735 E10.4133
G0 F6000 X104.941 Y104.978
G1 F1200 X104.978 Y104.941 E10.41539
G1 X106.414 Y103.84 E10.48761
G1 X106.459 Y103.814 E10.48969
G1 X108.127 Y103.123 E10.56175
G1 X108.178 Y103.11 E10.56385
G1 X109.974 Y102.872 E10.63616
G1 X110.026 Y102.872 E10.63823
G1 X111.822 Y103.11 E10.71054
G1 X111.873 Y103.123 E10.71264
G1 X113.54 Y103.815 E10.78468
G1 X113.585 Y103.841 E10.78676
G1 X115.021 Y104.942 E10.85898
G1 X115.058 Y104.979 E10.86106
G1 X116.16 Y106.416 E10.93334
G1 X116.186 Y106.462 E10.93545
G1 X116.876 Y108.129 E11.00746
G1 X116.889 Y108.179 E11.00952
G1 X117.127 Y109.974 E11.08179
G1 X117.127 Y110.026 E11.08387
G1 X116.89 Y111.821 E11.15613
G1 X116.877 Y111.871 E11.15819
G1 X116.187 Y113.539 E11.23024
G1 X116.161 Y113.585 E11.23235
G1 X115.059 Y115.022 E11.30462
G1 X115.022 Y115.059 E11.30671
G1 X113.586 Y116.16 E11.37893
G1 X113.541 Y116.186 E11.38101
G1 X111.873 Y116.877 E11.45307
G1 X111.822 Y116.89 E11.45517
G1 X110.026 Y117.128 E11.52748
G1 X109.974 Y117.128 E11.52955
G1 X108.179 Y116.889 E11.60183
G1 X108.128 Y116.876 E11.60393
G1 X106.46 Y116.185 E11.67599
G1 X106.415 Y116.159 E11.67806
G1 X104.979 Y115.058 E11.75028
G1 X104.942 Y115.021 E11.75237
G1 X103.84 Y113.584 E11.82465
G1 X103.814 Y113.538 E11.82676
G1 X103.124 Y111.871 E11.89876
G1 X103.111 Y111.821 E11.90083
G1 X102.873 Y110.026 E11.9731
G1 X102.873 Y109.974 E11.97517
G1 X103.11 Y108.178 E12.04747
G1 X103.123 Y108.128 E12.04954
G1 X103.813 Y106.461 E12.12154
G1 X103.839 Y106.415 E12.12365
G1 X104.941 Y104.978 E12.19593
G1 F2400 E8.99593
;MESH:Rose_Stem.stl
G0 F6000 X104.654 Y104.605
G0 X109.533 Y109.198
G0 X108.589 Y107.584
G0 X110.495 Y107.962
G0 X110.457 Y108.259
;TYPE:WALL-OUTER
G1 F1440 E12.19593
G1 F1200 X109.991 Y108.199 E12.21468
G1 X109.526 Y108.263 E12.23342
G1 X109.092 Y108.446 E12.25222
G1 X108.727 Y108.727 E12.2706
G1 X108.44 Y109.099 E12.28935
G1 X108.26 Y109.534 E12.30814
G1 X108.199 Y110.009 E12.32726
G1 X108.263 Y110.474 E12.34599
G1 X108.446 Y110.908 E12.36479
G1 X108.733 Y111.279 E12.38351
G1 X109.108 Y111.563 E12.40229
G1 X109.543 Y111.741 E12.42104
G1 X110.009 Y111.801 E12.4398
G1 X110.474 Y111.737 E12.45853
G1 X110.908 Y111.554 E12.47733
G1 X111.273 Y111.273 E12.49571
G1 X111.56 Y110.901 E12.51447
G1 X111.74 Y110.466 E12.53326
G1 X111.801 Y109.991 E12.55237
G1 X111.737 Y109.526 E12.5711
G1 X111.554 Y109.092 E12.5899
G1 X111.267 Y108.721 E12.60862
G1 X110.892 Y108.437 E12.6274
G1 X110.457 Y108.259 E12.64616
G1 F2400 E9.44616
G0 F6000 X110.495 Y107.962
G0 X111.011 Y108.228
G0 X111.437 Y108.55
G0 X111.762 Y108.97
G0 X111.97 Y109.463
G0 X112.043 Y109.99
G0 X111.973 Y110.528
G0 X111.769 Y111.022
G0 X111.586 Y111.26
G0 X110.014 Y112.801
G0 X110.39 Y115.658
G0 X110.001 Y116.427
G0 X110 Y116.729
G1 F1440 E12.64616
G1 F1200 X108.262 Y116.498 E12.71614
G1 X106.637 Y115.825 E12.78634
G1 X105.244 Y114.756 E12.85642
G1 X104.175 Y113.363 E12.9265
G1 X103.502 Y111.737 E12.99674
G1 X103.272 Y110 E13.06667
G1 X103.501 Y108.261 E13.13667
G1 X104.174 Y106.636 E13.20687
G1 X105.243 Y105.243 E13.27696
G1 X106.636 Y104.174 E13.34704
G1 X108.261 Y103.501 E13.41724
G1 X110 Y103.271 E13.48725
G1 X111.739 Y103.501 E13.55726
G1 X113.363 Y104.175 E13.62744
G1 X114.756 Y105.244 E13.69752
G1 X115.825 Y106.637 E13.7676
G1 X116.497 Y108.259 E13.83768
G1 X116.728 Y110 E13.90777
G1 X116.499 Y111.739 E13.97778
G1 X115.826 Y113.364 E14.04798
G1 X114.757 Y114.757 E14.11806
G1 X113.364 Y115.826 E14.18814
G1 X111.739 Y116.499 E14.25834
G1 X110 Y116.729 E14.32835
G1 F2400 E11.12835
G0 F6000 X110.001 Y116.427
G0 X111.474 Y115.515
G0 X110.739 Y112.7
G0 X111.666 Y111.19
G0 X112.205 Y109.989
;TYPE:WALL-INNER
G1 F1440 E14.32835
G1 F1200 X112.126 Y109.419 E14.35132
G1 X111.902 Y108.889 E14.37429
G1 X111.551 Y108.434 E14.39722
G1 X111.092 Y108.087 E14.42019
G1 X110.56 Y107.869 E14.44314
G1 X109.989 Y107.795 E14.46612
G1 X109.419 Y107.874 E14.48908
G1 X108.889 Y108.098 E14.51205
G1 X108.442 Y108.442 E14.53456
G1 X108.091 Y108.897 E14.5575
G1 X107.87 Y109.43 E14.58053
G1 X107.795 Y110.011 E14.60391
G1 X107.874 Y110.581 E14.62687
G1 X108.098 Y111.111 E14.64984
G1 X108.449 Y111.566 E14.67277
G1 X108.908 Y111.913 E14.69574
G1 X109.44 Y112.131 E14.71869
G1 X110.011 Y112.205 E14.74167
G1 X110.581 Y112.126 E14.76463
G1 X111.111 Y111.902 E14.7876
G1 X111.558 Y111.558 E14.81011
G1 X111.909 Y111.103 E14.83305
G1 X112.13 Y110.57 E14.85608
G1 X112.205 Y109.989 E14.87946
G1 F2400 E11.67946
G0 F6000 X112.7 Y109.261
G0 X115.363 Y108.158
G0 X116.107 Y108.363
G1 F1440 E14.87946
G1 F1200 X116.324 Y110 E14.94537
G1 X116.109 Y111.635 E15.01118
G1 X115.476 Y113.163 E15.0772
G1 X114.472 Y114.472 E15.14304
G1 X113.163 Y115.476 E15.20888
G1 X111.634 Y116.109 E15.27493
G1 X110.001 Y116.325 E15.34068
G1 X108.366 Y116.108 E15.4065
G1 X106.838 Y115.475 E15.47252
G1 X105.529 Y114.471 E15.53836
G1 X104.525 Y113.162 E15.6042
G1 X103.892 Y111.633 E15.67025
G1 X103.676 Y109.999 E15.73603
G1 X103.891 Y108.365 E15.80181
G1 X104.524 Y106.837 E15.86782
G1 X105.528 Y105.528 E15.93367
G1 X106.837 Y104.524 E15.99951
G1 X108.366 Y103.891 E16.06556
G1 X110 Y103.675 E16.13134
G1 X111.638 Y103.891 E16.19728
G1 X113.159 Y104.523 E16.26302
G1 X114.471 Y105.529 E16.32901
G1 X115.475 Y106.838 E16.39485
G1 X116.107 Y108.363 E16.46074
G0 F6000 X115.717 Y108.467
G1 F1200 X115.92 Y109.999 E16.52242
G1 X115.719 Y111.531 E16.58409
G1 X115.125 Y112.965 E16.64604
G1 X114.187 Y114.187 E16.70752
G1 X112.965 Y115.125 E16.76901
G1 X111.529 Y115.719 E16.83103
G1 X110.002 Y115.921 E16.89251
G1 X108.47 Y115.718 E16.95419
G1 X107.036 Y115.124 E17.01614
G1 X105.814 Y114.186 E17.07762
G1 X104.876 Y112.964 E17.13911
G1 X104.282 Y111.528 E17.20113
G1 X104.08 Y109.999 E17.26269
G1 X104.281 Y108.469 E17.32428
G1 X104.875 Y107.035 E17.38623
G1 X105.813 Y105.813 E17.44771
G1 X107.035 Y104.875 E17.5092
G1 X108.471 Y104.281 E17.57122
G1 X110 Y104.079 E17.63277
G1 X111.537 Y104.282 E17.69465
G1 X112.958 Y104.872 E17.75606
G1 X114.186 Y105.814 E17.81783
G1 X115.124 Y107.036 E17.87932
G1 X115.717 Y108.467 E17.94114
G1 F2400 E14.74114
G0 F6000 X115.657 Y109.61
G0 X112.801 Y109.986
G0 X111.444 Y111.444
G0 X111.03 Y111.762
G0 X110.537 Y111.97
G0 X110.01 Y112.043
G0 X109.481 Y111.974
G0 X109.084 Y111.812
G0 X107.485 Y110.688
G1 F1440 E17.94114
G1 F1200 X107.75 Y111.314 E17.96827
G1 X108.165 Y111.853 E17.99542
G1 X108.708 Y112.263 E18.02258
G1 X109.337 Y112.521 E18.04972
G1 X110.013 Y112.609 E18.07692
G1 X110.688 Y112.515 E18.10412
G1 X111.314 Y112.25 E18.13126
G1 X111.843 Y111.843 E18.1579
G1 X112.258 Y111.305 E18.18501
G1 X112.52 Y110.674 E18.21228
G1 X112.609 Y109.987 E18.23993
G1 X112.515 Y109.312 E18.26713
G1 X112.25 Y108.686 E18.29426
G1 X111.835 Y108.147 E18.32141
G1 X111.292 Y107.737 E18.34857
G1 X110.663 Y107.479 E18.37571
G1 X109.987 Y107.391 E18.40291
G1 X109.312 Y107.485 E18.43011
G1 X108.686 Y107.75 E18.45725
G1 X108.157 Y108.157 E18.48389
G1 X107.742 Y108.695 E18.511
G1 X107.48 Y109.326 E18.53827
G1 X107.391 Y110.013 E18.56592
G1 X107.485 Y110.688 E18.59312
G0 F6000 X107.106 Y110.793
;TYPE:SKIN
G1 F1200 X107.411 Y111.513 E18.62433
G1 X107.888 Y112.132 E18.65552
G1 X108.513 Y112.604 E18.68678
G1 X109.236 Y112.901 E18.71798
G1 X110.015 Y113.003 E18.74933
G1 X110.793 Y112.894 E18.78069
G1 X111.512 Y112.59 E18.81185
G1 X112.121 Y112.122 E18.8425
G1 X112.599 Y111.502 E18.87375
G1 X112.9 Y110.775 E18.90515
G1 X113.003 Y109.985 E18.93695
G1 X112.894 Y109.207 E18.9683
