;FLAVOR:Marlin
;TIME:2224
;Filament used: 1.29737m
;Layer height: 0.25
;MINX:86.097
;MINY:90.292
;MINZ:0.2
;MAXX:133.099
;MAXY:137.283
;MAXZ:39.45
;Generated with Cura_SteamEngine 4.4.1
M140 S80
M105
M190 S80
M104 S230
M105
M109 S230
M82 ;absolute extrusion mode
M201 X500.00 Y500.00 Z100.00 E5000.00 ;Setup machine max acceleration
M203 X500.00 Y500.00 Z10.00 E50.00 ;Setup machine max feedrate
M204 P500.00 R1000.00 T500.00 ;Setup Print/Retract/Travel acceleration
M205 X8.00 Y8.00 Z0.40 E5.00 ;Setup Jerk
M220 S100 ;Reset Feedrate
M221 S100 ;Reset Flowrate

G28 ;Home

G92 E0 ;Reset Extruder
G1 Z2.0 F3000 ;Move Z Axis up
G1 X10.1 Y20 Z0.28 F5000.0 ;Move to start position
G1 X10.1 Y200.0 Z0.28 F1500.0 E15 ;Draw the first line
G1 X10.4 Y200.0 Z0.28 F5000.0 ;Move to side a little
G1 X10.4 Y20 Z0.28 F1500.0 E30 ;Draw the second line
G92 E0 ;Reset Extruder
G1 Z2.0 F3000 ;Move Z Axis up

G92 E0
G92 E0
G1 F1500 E-6.5
;LAYER_COUNT:158
;LAYER:0
M107
G0 F6000 X93.516 Y96.665 Z0.2
;TYPE:SKIRT
G1 F1500 E0
G1 F1200 X93.881 Y96.329 E0.0165
G1 X94.166 Y96.076 E0.02918
G1 X94.477 Y95.809 E0.04281
G1 X95.006 Y95.382 E0.06542
G1 X95.778 Y94.798 E0.09762
G1 X96.082 Y94.576 E0.11014
G1 X96.44 Y94.324 E0.1247
G1 X96.924 Y94.002 E0.14403
G1 X97.198 Y93.83 E0.15479
G1 X97.611 Y93.583 E0.1708
G1 X98.387 Y93.142 E0.20048
G1 X99.193 Y92.727 E0.23064
G1 X100.12 Y92.297 E0.26462
G1 X100.55 Y92.109 E0.28023
G1 X100.843 Y91.988 E0.29078
G1 X101.475 Y91.749 E0.31325
G1 X102.394 Y91.434 E0.34556
G1 X102.79 Y91.307 E0.35939
G1 X102.986 Y91.248 E0.3662
G1 X103.639 Y91.073 E0.38869
G1 X104.702 Y90.823 E0.42501
G1 X105.063 Y90.745 E0.43729
G1 X105.408 Y90.676 E0.44899
G1 X106.394 Y90.525 E0.48217
G1 X107.412 Y90.416 E0.51622
G1 X107.762 Y90.384 E0.52791
G1 X108.59 Y90.322 E0.55553
G1 X109.519 Y90.292 E0.58644
G1 X109.722 Y90.294 E0.5932
G1 X109.999 Y90.3 E0.60241
G1 X110.199 Y90.307 E0.60907
G1 X110.461 Y90.319 E0.61779
G1 X111.157 Y90.36 E0.64098
G1 X111.434 Y90.38 E0.65022
G1 X111.766 Y90.408 E0.6613
G1 X112.117 Y90.443 E0.67303
G1 X112.374 Y90.473 E0.68164
G1 X112.522 Y90.491 E0.6866
G1 X113.235 Y90.584 E0.71051
G1 X114.165 Y90.747 E0.74191
G1 X114.85 Y90.897 E0.76524
G1 X115.182 Y90.975 E0.77658
G1 X115.77 Y91.123 E0.79675
G1 X116.343 Y91.283 E0.81653
G1 X116.701 Y91.394 E0.829
G1 X117.143 Y91.542 E0.8445
G1 X117.969 Y91.837 E0.87368
G1 X118.605 Y92.087 E0.8964
G1 X118.985 Y92.25 E0.91016
G1 X119.241 Y92.363 E0.91946
G1 X119.733 Y92.589 E0.93747
G1 X120.16 Y92.797 E0.95327
G1 X120.394 Y92.917 E0.96202
G1 X120.853 Y93.166 E0.97938
G1 X121.344 Y93.448 E0.99822
G1 X121.61 Y93.606 E1.00851
G1 X122.327 Y94.045 E1.03647
G1 X123.143 Y94.596 E1.06922
G1 X123.812 Y95.093 E1.09694
G1 X124.073 Y95.293 E1.10787
G1 X124.55 Y95.67 E1.1281
G1 X125.174 Y96.202 E1.15537
G1 X125.608 Y96.601 E1.17498
G1 X125.867 Y96.847 E1.18686
G1 X126.293 Y97.265 E1.20671
G1 X126.763 Y97.756 E1.22932
G1 X127.297 Y98.349 E1.25586
G1 X127.531 Y98.618 E1.26772
G1 X127.822 Y98.963 E1.28273
G1 X128.352 Y99.644 E1.31143
G1 X128.725 Y100.164 E1.33271
G1 X128.892 Y100.403 E1.34241
G1 X129.357 Y101.089 E1.36997
G1 X129.694 Y101.617 E1.39081
G1 X129.801 Y101.796 E1.39774
G1 X129.958 Y102.068 E1.40819
G1 X130.094 Y102.311 E1.41745
G1 X130.207 Y102.518 E1.4253
G1 X130.533 Y103.131 E1.44839
G1 X130.987 Y104.094 E1.4838
G1 X131.433 Y105.173 E1.52263
G1 X131.57 Y105.523 E1.53513
G1 X131.816 Y106.181 E1.5585
G1 X132.102 Y107.053 E1.58902
G1 X132.158 Y107.252 E1.5959
G1 X132.247 Y107.591 E1.60755
G1 X132.43 Y108.331 E1.63291
G1 X132.474 Y108.516 E1.63923
G1 X132.627 Y109.184 E1.66202
G1 X132.793 Y110.071 E1.69204
G1 X132.86 Y110.536 E1.70766
G1 X132.901 Y110.853 E1.7183
G1 X132.979 Y111.534 E1.74109
G1 X133.009 Y111.837 E1.75122
G1 X133.042 Y112.218 E1.76394
G1 X133.062 Y112.487 E1.77291
G1 X133.075 Y112.697 E1.77991
G1 X133.096 Y113.322 E1.80071
G1 X133.099 Y113.924 E1.82073
G1 X133.091 Y114.391 E1.83627
G1 X133.082 Y114.631 E1.84426
G1 X133.07 Y114.89 E1.85288
G1 X133.034 Y115.479 E1.87251
G1 X132.97 Y116.164 E1.89539
G1 X132.854 Y117.098 E1.92669
G1 X132.803 Y117.462 E1.93892
G1 X132.743 Y117.841 E1.95168
G1 X132.623 Y118.474 E1.97311
G1 X132.496 Y119.054 E1.99286
G1 X132.421 Y119.376 E2.00385
G1 X132.33 Y119.739 E2.0163
G1 X132.249 Y120.044 E2.0268
G1 X132.146 Y120.41 E2.03944
G1 X132.069 Y120.671 E2.04849
G1 X131.991 Y120.924 E2.0573
G1 X131.776 Y121.552 E2.07938
G1 X131.534 Y122.196 E2.10226
G1 X131.414 Y122.501 E2.11316
G1 X131.156 Y123.13 E2.13577
G1 X130.911 Y123.684 E2.15592
G1 X130.692 Y124.144 E2.17286
G1 X130.557 Y124.419 E2.18305
G1 X130.389 Y124.748 E2.19534
G1 X129.883 Y125.635 E2.2293
G1 X129.173 Y126.755 E2.27341
G1 X129.003 Y127.014 E2.28371
G1 X128.643 Y127.548 E2.30513
G1 X128.289 Y128.042 E2.32535
G1 X128.167 Y128.203 E2.33207
G1 X127.858 Y128.592 E2.34859
G1 X127.715 Y128.764 E2.35603
G1 X127.44 Y129.083 E2.37004
G1 X126.777 Y129.821 E2.40303
G1 X126.521 Y130.096 E2.41553
G1 X126.369 Y130.254 E2.42282
G1 X126.139 Y130.486 E2.43369
G1 X125.846 Y130.773 E2.44733
G1 X125.599 Y131.008 E2.45867
G1 X125.423 Y131.17 E2.46662
G1 X125.074 Y131.478 E2.48211
G1 X124.686 Y131.806 E2.499
G1 X124.426 Y132.019 E2.51018
G1 X123.77 Y132.54 E2.53805
G1 X123.294 Y132.898 E2.55786
G1 X123.029 Y133.086 E2.56866
G1 X122.481 Y133.45 E2.59054
G1 X121.733 Y133.916 E2.61986
G1 X121.111 Y134.276 E2.64376
G1 X120.23 Y134.748 E2.677
G1 X119.874 Y134.931 E2.69031
G1 X119.678 Y135.027 E2.69757
G1 X119.383 Y135.166 E2.70842
G1 X119.2 Y135.249 E2.7151
G1 X118.938 Y135.363 E2.72461
G1 X118.628 Y135.494 E2.7358
G1 X118.078 Y135.709 E2.75544
G1 X117.457 Y135.933 E2.7774
G1 X117.167 Y136.034 E2.78761
G1 X116.475 Y136.262 E2.81184
G1 X115.884 Y136.438 E2.83235
G1 X115.612 Y136.511 E2.84172
G1 X115.084 Y136.639 E2.85979
G1 X114.214 Y136.827 E2.8894
G1 X113.549 Y136.949 E2.91188
G1 X112.585 Y137.096 E2.94432
G1 X111.906 Y137.178 E2.96706
G1 X111.223 Y137.239 E2.98987
G1 X110.18 Y137.283 E3.02459
G1 X109.145 Y137.277 E3.05902
G1 X108.824 Y137.27 E3.0697
G1 X108.167 Y137.247 E3.09156
G1 X107.195 Y137.17 E3.12399
G1 X106.455 Y137.078 E3.14879
G1 X106.122 Y137.031 E3.15998
G1 X105.511 Y136.936 E3.18055
G1 X104.915 Y136.827 E3.2007
G1 X104.529 Y136.745 E3.21382
G1 X103.836 Y136.574 E3.23756
G1 X102.734 Y136.264 E3.27564
G1 X102.387 Y136.16 E3.28769
G1 X102.119 Y136.075 E3.29704
G1 X101.492 Y135.855 E3.31914
G1 X101.009 Y135.669 E3.33635
G1 X100.718 Y135.552 E3.34678
G1 X100.235 Y135.35 E3.3642
G1 X99.423 Y134.971 E3.394
G1 X98.824 Y134.661 E3.41643
G1 X98.649 Y134.568 E3.42303
G1 X98.255 Y134.355 E3.43792
G1 X98.14 Y134.292 E3.44228
G1 X97.561 Y133.97 E3.46432
G1 X96.805 Y133.51 E3.49375
G1 X96.517 Y133.318 E3.50527
G1 X96.22 Y133.112 E3.51729
G1 X95.925 Y132.901 E3.52935
G1 X95.781 Y132.797 E3.53526
G1 X95.312 Y132.45 E3.55466
G1 X94.789 Y132.038 E3.57681
G1 X94.233 Y131.572 E3.60094
G1 X93.969 Y131.343 E3.61256
G1 X93.809 Y131.2 E3.6197
G1 X93.19 Y130.601 E3.64835
G1 X92.794 Y130.187 E3.6674
G1 X92.681 Y130.068 E3.67286
G1 X92.189 Y129.538 E3.69691
G1 X92.076 Y129.414 E3.70249
G1 X91.67 Y128.963 E3.72267
G1 X91.039 Y128.195 E3.75573
G1 X90.491 Y127.463 E3.78615
G1 X90.08 Y126.875 E3.81001
G1 X89.682 Y126.264 E3.83426
G1 X89.443 Y125.879 E3.84933
G1 X89.257 Y125.566 E3.86144
G1 X89.102 Y125.298 E3.87174
G1 X88.95 Y125.025 E3.88213
G1 X88.714 Y124.576 E3.899
G1 X88.375 Y123.895 E3.92431
G1 X88.133 Y123.376 E3.94335
G1 X88.017 Y123.109 E3.95303
G1 X87.785 Y122.532 E3.97372
G1 X87.535 Y121.854 E3.99775
G1 X87.44 Y121.586 E4.00721
G1 X87.171 Y120.794 E4.03503
G1 X86.835 Y119.577 E4.07702
G1 X86.672 Y118.822 E4.10271
G1 X86.635 Y118.644 E4.10876
G1 X86.522 Y118.075 E4.12805
G1 X86.491 Y117.912 E4.13357
G1 X86.36 Y117.196 E4.15778
G1 X86.264 Y116.574 E4.17871
G1 X86.239 Y116.373 E4.18545
G1 X86.188 Y115.865 E4.20243
G1 X86.149 Y115.362 E4.21921
G1 X86.129 Y115.052 E4.22954
G1 X86.117 Y114.808 E4.23767
G1 X86.104 Y114.369 E4.25228
G1 X86.097 Y113.608 E4.27759
G1 X86.12 Y112.8 E4.30447
G1 X86.151 Y112.319 E4.32051
G1 X86.17 Y112.061 E4.32911
G1 X86.201 Y111.709 E4.34086
G1 X86.213 Y111.587 E4.34494
G1 X86.284 Y110.872 E4.36884
G1 X86.365 Y110.243 E4.38993
G1 X86.401 Y110.015 E4.39761
G1 X86.482 Y109.562 E4.41291
G1 X86.622 Y108.866 E4.43653
G1 X86.714 Y108.448 E4.45076
G1 X86.819 Y108.014 E4.46561
G1 X86.907 Y107.676 E4.47723
G1 X86.971 Y107.444 E4.48524
G1 X87.134 Y106.906 E4.50393
G1 X87.338 Y106.291 E4.52548
G1 X87.426 Y106.036 E4.53446
G1 X87.695 Y105.287 E4.56093
G1 X88.061 Y104.394 E4.59302
G1 X88.332 Y103.807 E4.61453
G1 X88.456 Y103.548 E4.62408
G1 X88.73 Y102.993 E4.64467
G1 X89.039 Y102.412 E4.66655
G1 X89.31 Y101.937 E4.68474
G1 X89.505 Y101.608 E4.69746
G1 X89.681 Y101.323 E4.7086
G1 X89.814 Y101.113 E4.71687
G1 X89.975 Y100.865 E4.7267
G1 X90.257 Y100.452 E4.74334
G1 X90.703 Y99.829 E4.76882
G1 X91.346 Y99.015 E4.80332
G1 X92.065 Y98.188 E4.83977
G1 X92.3 Y97.925 E4.8515
G1 X92.9 Y97.278 E4.88085
G1 X93.516 Y96.665 E4.90975
G0 F6000 X93.787 Y96.959
G1 F1200 X94.152 Y96.623 E4.92625
G1 X94.426 Y96.379 E4.93846
G1 X94.737 Y96.112 E4.95209
G1 X95.247 Y95.701 E4.97388
G1 X96.019 Y95.117 E5.00607
G1 X96.313 Y94.903 E5.01817
G1 X96.671 Y94.651 E5.03273
G1 X97.136 Y94.341 E5.05132
G1 X97.41 Y94.169 E5.06208
G1 X97.809 Y93.931 E5.07753
G1 X98.585 Y93.49 E5.10721
G1 X99.362 Y93.09 E5.13628
G1 X100.289 Y92.66 E5.17027
G1 X100.703 Y92.479 E5.1853
G1 X100.996 Y92.358 E5.19584
G1 X101.605 Y92.128 E5.21749
G1 X102.524 Y91.813 E5.2498
G1 X102.906 Y91.69 E5.26315
G1 X103.102 Y91.631 E5.26996
G1 X103.73 Y91.463 E5.29158
G1 X104.793 Y91.213 E5.3279
G1 X105.141 Y91.137 E5.33975
G1 X105.486 Y91.068 E5.35145
G1 X106.436 Y90.922 E5.38342
G1 X107.454 Y90.813 E5.41747
G1 X107.791 Y90.783 E5.42872
G1 X108.619 Y90.721 E5.45634
G1 X109.515 Y90.692 E5.48616
G1 X109.718 Y90.694 E5.49291
G1 X109.985 Y90.699 E5.50179
G1 X110.185 Y90.706 E5.50845
G1 X110.437 Y90.718 E5.51684
G1 X111.133 Y90.759 E5.54003
G1 X111.401 Y90.778 E5.54896
G1 X111.733 Y90.806 E5.56005
G1 X112.071 Y90.84 E5.57134
G1 X112.328 Y90.87 E5.57995
G1 X112.47 Y90.888 E5.58471
G1 X113.183 Y90.981 E5.60863
G1 X114.079 Y91.137 E5.63888
G1 X114.764 Y91.287 E5.6622
G1 X115.084 Y91.363 E5.67314
G1 X115.672 Y91.511 E5.69331
G1 X116.224 Y91.665 E5.71237
G1 X116.582 Y91.776 E5.72483
G1 X117.008 Y91.919 E5.73978
G1 X117.834 Y92.214 E5.76895
G1 X118.448 Y92.454 E5.79088
G1 X118.828 Y92.617 E5.80463
G1 X119.074 Y92.727 E5.81359
G1 X119.566 Y92.953 E5.8316
G1 X119.978 Y93.153 E5.84683
G1 X120.212 Y93.273 E5.85558
G1 X120.654 Y93.513 E5.87231
G1 X121.145 Y93.795 E5.89114
G1 X121.401 Y93.947 E5.90104
G1 X122.118 Y94.386 E5.929
G1 X122.904 Y94.917 E5.96055
G1 X123.573 Y95.414 E5.98827
G1 X123.825 Y95.607 E5.99883
G1 X124.302 Y95.984 E6.01905
G1 X124.903 Y96.497 E6.04533
G1 X125.337 Y96.896 E6.06494
G1 X125.587 Y97.133 E6.0764
G1 X126.013 Y97.551 E6.09625
G1 X126.466 Y98.024 E6.11803
G1 X127 Y98.617 E6.14457
G1 X127.226 Y98.876 E6.15601
G1 X127.517 Y99.221 E6.17102
G1 X128.027 Y99.877 E6.19866
G1 X128.4 Y100.397 E6.21994
G1 X128.561 Y100.627 E6.22928
G1 X129.026 Y101.313 E6.25684
G1 X129.35 Y101.822 E6.27691
G1 X129.457 Y102.001 E6.28385
G1 X129.609 Y102.263 E6.29392
G1 X129.745 Y102.506 E6.30318
G1 X129.854 Y102.706 E6.31076
G1 X130.18 Y103.319 E6.33385
G1 X130.617 Y104.247 E6.36797
G1 X131.063 Y105.326 E6.4068
G1 X131.196 Y105.663 E6.41885
G1 X131.442 Y106.321 E6.44222
G1 X131.717 Y107.162 E6.47164
G1 X131.773 Y107.361 E6.47852
G1 X131.859 Y107.687 E6.48973
G1 X132.042 Y108.427 E6.51509
G1 X132.084 Y108.605 E6.52117
G1 X132.237 Y109.273 E6.54396
G1 X132.397 Y110.128 E6.57289
G1 X132.464 Y110.593 E6.58852
G1 X132.503 Y110.899 E6.59878
G1 X132.581 Y111.58 E6.62158
G1 X132.61 Y111.871 E6.63131
G1 X132.643 Y112.252 E6.64402
G1 X132.663 Y112.512 E6.6527
G1 X132.676 Y112.722 E6.6597
G1 X132.696 Y113.324 E6.67973
G1 X132.699 Y113.926 E6.69975
G1 X132.692 Y114.376 E6.71472
G1 X132.683 Y114.616 E6.72271
G1 X132.67 Y114.866 E6.73104
G1 X132.634 Y115.455 E6.75066
G1 X132.573 Y116.114 E6.77267
G1 X132.457 Y117.048 E6.80398
G1 X132.408 Y117.399 E6.81577
G1 X132.348 Y117.778 E6.82853
G1 X132.233 Y118.388 E6.84917
G1 X132.106 Y118.968 E6.86892
G1 X132.033 Y119.279 E6.87955
G1 X131.942 Y119.642 E6.89199
G1 X131.864 Y119.936 E6.90211
G1 X131.761 Y120.302 E6.91476
G1 X131.687 Y120.553 E6.92346
G1 X131.609 Y120.806 E6.93227
G1 X131.402 Y121.412 E6.95357
G1 X131.16 Y122.056 E6.97645
G1 X131.044 Y122.35 E6.98696
G1 X130.786 Y122.979 E7.00957
G1 X130.55 Y123.512 E7.02896
G1 X130.331 Y123.972 E7.0459
G1 X130.2 Y124.237 E7.05574
G1 X130.032 Y124.566 E7.06802
G1 X129.545 Y125.42 E7.10072
G1 X128.835 Y126.54 E7.14483
G1 X128.671 Y126.79 E7.15477
G1 X128.311 Y127.324 E7.17619
G1 X127.97 Y127.801 E7.19569
G1 X127.848 Y127.962 E7.20241
G1 X127.551 Y128.337 E7.21832
G1 X127.408 Y128.509 E7.22576
G1 X127.142 Y128.816 E7.23927
G1 X126.479 Y129.554 E7.27227
G1 X126.233 Y129.819 E7.2843
G1 X126.081 Y129.977 E7.29159
G1 X125.859 Y130.2 E7.30205
G1 X125.566 Y130.487 E7.3157
G1 X125.328 Y130.714 E7.32663
G1 X125.152 Y130.876 E7.33459
G1 X124.816 Y131.172 E7.34948
G1 X124.428 Y131.5 E7.36638
G1 X124.177 Y131.706 E7.37718
G1 X123.521 Y132.227 E7.40504
G1 X123.062 Y132.571 E7.42412
G1 X122.797 Y132.759 E7.43493
G1 X122.269 Y133.111 E7.45604
G1 X121.521 Y133.577 E7.48535
G1 X120.922 Y133.924 E7.50837
G1 X120.041 Y134.396 E7.54161
G1 X119.698 Y134.571 E7.55442
G1 X119.502 Y134.667 E7.56168
G1 X119.217 Y134.801 E7.57215
G1 X119.034 Y134.884 E7.57884
G1 X118.782 Y134.995 E7.588
G1 X118.472 Y135.126 E7.59919
G1 X117.943 Y135.333 E7.61808
G1 X117.322 Y135.557 E7.64004
G1 X117.042 Y135.654 E7.6499
G1 X116.35 Y135.882 E7.67413
G1 X115.781 Y136.052 E7.69388
G1 X115.509 Y136.125 E7.70325
G1 X115 Y136.248 E7.72067
G1 X114.13 Y136.436 E7.75027
G1 X113.489 Y136.554 E7.77195
G1 X112.525 Y136.701 E7.80438
G1 X111.87 Y136.78 E7.82632
G1 X111.187 Y136.841 E7.84913
G1 X110.183 Y136.883 E7.88255
G1 X109.148 Y136.877 E7.91698
G1 X108.838 Y136.871 E7.92729
G1 X108.181 Y136.848 E7.94916
G1 X107.244 Y136.773 E7.98042
G1 X106.504 Y136.681 E8.00522
G1 X106.183 Y136.636 E8.016
G1 X105.572 Y136.541 E8.03657
G1 X104.998 Y136.436 E8.05598
G1 X104.612 Y136.354 E8.0691
G1 X103.945 Y136.189 E8.09196
G1 X102.843 Y135.879 E8.13003
G1 X102.508 Y135.779 E8.14166
G1 X102.24 Y135.694 E8.15101
G1 X101.636 Y135.482 E8.1723
G1 X101.153 Y135.296 E8.18952
G1 X100.872 Y135.183 E8.19959
G1 X100.389 Y134.981 E8.217
G1 X99.607 Y134.616 E8.24571
G1 X99.008 Y134.306 E8.26814
G1 X98.839 Y134.217 E8.27449
G1 X98.445 Y134.004 E8.28939
G1 X98.334 Y133.943 E8.2936
G1 X97.755 Y133.621 E8.31564
G1 X97.027 Y133.177 E8.344
G1 X96.739 Y132.985 E8.35551
G1 X96.452 Y132.787 E8.36711
G1 X96.157 Y132.576 E8.37917
G1 X96.019 Y132.475 E8.38486
G1 X95.55 Y132.128 E8.40426
G1 X95.046 Y131.731 E8.4256
G1 X94.49 Y131.265 E8.44973
G1 X94.235 Y131.044 E8.46095
G1 X94.075 Y130.901 E8.46809
G1 X93.479 Y130.325 E8.49566
G1 X93.083 Y129.911 E8.51471
G1 X92.974 Y129.796 E8.51998
G1 X92.482 Y129.266 E8.54404
G1 X92.373 Y129.146 E8.54943
G1 X91.967 Y128.695 E8.56961
G1 X91.359 Y127.956 E8.60144
G1 X90.811 Y127.224 E8.63185
G1 X90.415 Y126.657 E8.65485
G1 X90.017 Y126.046 E8.67911
G1 X89.787 Y125.675 E8.69363
G1 X89.601 Y125.362 E8.70574
G1 X89.452 Y125.103 E8.71567
G1 X89.3 Y124.83 E8.72607
G1 X89.072 Y124.398 E8.74231
G1 X88.733 Y123.717 E8.76761
G1 X88.5 Y123.217 E8.78596
G1 X88.384 Y122.95 E8.79564
G1 X88.161 Y122.393 E8.8156
G1 X87.911 Y121.715 E8.83963
G1 X87.819 Y121.457 E8.84874
G1 X87.55 Y120.665 E8.87656
G1 X87.226 Y119.493 E8.91701
G1 X87.063 Y118.738 E8.9427
G1 X87.027 Y118.566 E8.94854
G1 X86.914 Y117.997 E8.96784
G1 X86.884 Y117.84 E8.97315
G1 X86.753 Y117.124 E8.99736
G1 X86.661 Y116.524 E9.01755
G1 X86.636 Y116.323 E9.02429
G1 X86.587 Y115.834 E9.04063
G1 X86.548 Y115.331 E9.05741
G1 X86.529 Y115.033 E9.06735
G1 X86.517 Y114.789 E9.07547
G1 X86.504 Y114.365 E9.08958
G1 X86.497 Y113.604 E9.11489
G1 X86.519 Y112.825 E9.14081
G1 X86.55 Y112.344 E9.15684
G1 X86.569 Y112.096 E9.16512
G1 X86.6 Y111.744 E9.17687
G1 X86.611 Y111.627 E9.18078
G1 X86.682 Y110.912 E9.20468
