;FLAVOR:Marlin
;TIME:1540
;Filament used: 0.705988m
;Layer height: 0.16
;MINX:93.82
;MINY:93.954
;MINZ:0.2
;MAXX:126.18
;MAXY:125.775
;MAXZ:16.64
;Generated with Cura_SteamEngine 4.4.1
M140 S80
M105
M190 S80
M104 S240
M105
M109 S240
M82 ;absolute extrusion mode
M201 X500.00 Y500.00 Z100.00 E5000.00 ;Setup machine max acceleration
M203 X500.00 Y500.00 Z10.00 E50.00 ;Setup machine max feedrate
M204 P500.00 R1000.00 T500.00 ;Setup Print/Retract/Travel acceleration
M205 X8.00 Y8.00 Z0.40 E5.00 ;Setup Jerk
M220 S100 ;Reset Feedrate
M221 S100 ;Reset Flowrate

G28 ;Home

G92 E0 ;Reset Extruder
G1 Z2.0 F3000 ;Move Z Axis up
G1 X10.1 Y20 Z0.28 F5000.0 ;Move to start position
G1 X10.1 Y200.0 Z0.28 F1500.0 E15 ;Draw the first line
G1 X10.4 Y200.0 Z0.28 F5000.0 ;Move to side a little
G1 X10.4 Y20 Z0.28 F1500.0 E30 ;Draw the second line
G92 E0 ;Reset Extruder
G1 Z2.0 F3000 ;Move Z Axis up

G92 E0
G92 E0
G1 F1800 E-3
;LAYER_COUNT:111
;LAYER:0
M107
G0 F6000 X98.52 Y98.864 Z0.2
;TYPE:SKIRT
G1 F1800 E0
G1 F1200 X99.391 Y98.038 E0.03992
G1 X99.545 Y97.896 E0.04689
G1 X99.742 Y97.719 E0.0557
G1 X100.29 Y97.27 E0.07926
G1 X100.688 Y96.973 E0.09578
G1 X101.344 Y96.533 E0.12205
G1 X102.041 Y96.162 E0.14831
G1 X102.772 Y95.863 E0.17458
G1 X103.601 Y95.623 E0.20329
G1 X104.074 Y95.514 E0.21943
G1 X104.783 Y95.388 E0.24338
G1 X105.421 Y95.003 E0.26817
G1 X106.136 Y94.667 E0.29444
G1 X106.88 Y94.404 E0.32069
G1 X107.648 Y94.218 E0.34697
G1 X108.175 Y94.136 E0.36471
G1 X109.245 Y94.008 E0.40055
G1 X110.032 Y93.954 E0.42679
G1 X110.822 Y93.98 E0.45308
G1 X111.604 Y94.086 E0.47933
G1 X111.766 Y94.125 E0.48487
G1 X112.485 Y94.24 E0.50909
G1 X113.248 Y94.444 E0.53536
G1 X113.986 Y94.724 E0.56161
G1 X114.934 Y95.219 E0.59718
G1 X115.098 Y95.32 E0.60359
G1 X115.7 Y95.391 E0.62375
G1 X116.206 Y95.495 E0.64093
G1 X116.327 Y95.524 E0.64507
G1 X117.085 Y95.746 E0.67134
G1 X117.816 Y96.045 E0.69761
G1 X118.513 Y96.415 E0.72385
G1 X119.086 Y96.793 E0.74668
G1 X119.5 Y97.093 E0.76369
G1 X120.033 Y97.516 E0.78632
G1 X120.387 Y97.823 E0.8019
G1 X120.606 Y98.02 E0.8117
G1 X120.963 Y98.354 E0.82796
G1 X121.367 Y98.761 E0.84704
G1 X121.784 Y99.213 E0.86749
G1 X122.289 Y99.82 E0.89375
G1 X122.731 Y100.475 E0.92003
G1 X123.104 Y101.171 E0.9463
G1 X123.152 Y101.288 E0.9505
G1 X123.246 Y101.391 E0.95514
G1 X123.616 Y101.851 E0.97478
G1 X124.169 Y102.633 E1.00663
G1 X124.462 Y103.106 E1.02514
G1 X124.88 Y103.873 E1.05419
G1 X125.098 Y104.333 E1.07112
G1 X125.444 Y105.193 E1.10195
G1 X125.605 Y105.673 E1.11879
G1 X125.82 Y106.442 E1.14535
G1 X125.934 Y106.949 E1.16263
G1 X126.08 Y107.834 E1.19247
G1 X126.137 Y108.369 E1.21036
G1 X126.18 Y109.3 E1.24136
G1 X126.173 Y109.82 E1.25866
G1 X126.114 Y110.677 E1.28723
G1 X126.048 Y111.208 E1.30503
G1 X125.873 Y112.148 E1.33683
G1 X125.736 Y112.693 E1.35552
G1 X125.436 Y113.63 E1.38824
G1 X125.216 Y114.193 E1.40835
G1 X124.816 Y115.056 E1.43998
G1 X124.548 Y115.553 E1.45876
G1 X124.14 Y116.215 E1.48463
G1 X123.956 Y116.773 E1.50417
G1 X123.635 Y117.494 E1.53042
G1 X123.118 Y118.366 E1.56414
G1 X122.893 Y118.695 E1.57739
G1 X122.676 Y118.998 E1.58979
G1 X122.325 Y119.462 E1.60914
G1 X121.926 Y119.947 E1.63003
G1 X121.465 Y120.464 E1.65307
G1 X120.833 Y121.096 E1.68279
G1 X120.675 Y121.236 E1.68982
G1 X120.572 Y121.335 E1.69457
G1 X119.94 Y121.876 E1.72224
G1 X117.272 Y123.924 E1.83411
G1 X116.623 Y124.373 E1.86035
G1 X115.931 Y124.753 E1.88661
G1 X115.204 Y125.062 E1.91288
G1 X114.449 Y125.295 E1.93916
G1 X113.675 Y125.451 E1.96543
G1 X112.889 Y125.528 E1.99169
G1 X112.1 Y125.525 E2.01794
G1 X112.036 Y125.518 E2.02008
G1 X111.736 Y125.586 E2.03031
G1 X110.958 Y125.72 E2.05657
G1 X110.17 Y125.775 E2.08284
G1 X109.381 Y125.75 E2.10909
G1 X108.35 Y125.595 E2.14377
G1 X107.956 Y125.509 E2.15718
G1 X107.887 Y125.515 E2.15949
G1 X106.908 Y125.495 E2.19206
G1 X106.645 Y125.473 E2.20083
G1 X105.862 Y125.367 E2.22711
G1 X105.094 Y125.183 E2.25338
G1 X104.349 Y124.922 E2.27964
G1 X103.563 Y124.549 E2.30857
G1 X103.396 Y124.458 E2.3149
G1 X102.722 Y124.046 E2.34117
G1 X102.094 Y123.567 E2.36744
G1 X101.518 Y123.028 E2.39368
G1 X101.223 Y122.691 E2.40858
G1 X100.917 Y122.506 E2.42047
G1 X100.49 Y122.196 E2.43802
G1 X99.768 Y121.634 E2.46845
G1 X99.17 Y121.118 E2.49472
G1 X98.93 Y120.867 E2.50627
G1 X98.406 Y120.358 E2.53057
G1 X97.838 Y119.672 E2.56019
G1 X97.245 Y118.867 E2.59345
G1 X97.031 Y118.562 E2.60584
G1 X96.864 Y118.311 E2.61587
G1 X96.46 Y117.632 E2.64214
G1 X96.128 Y116.916 E2.66839
G1 X95.912 Y116.294 E2.69029
G1 X95.781 Y116.099 E2.69811
G1 X95.312 Y115.304 E2.72881
G1 X95.067 Y114.826 E2.74667
G1 X94.697 Y113.985 E2.77723
G1 X94.519 Y113.506 E2.79423
G1 X94.272 Y112.715 E2.82179
G1 X94.14 Y112.197 E2.83957
G1 X93.968 Y111.316 E2.86942
G1 X93.897 Y110.791 E2.88704
G1 X93.828 Y109.866 E2.9179
G1 X93.82 Y109.345 E2.93523
G1 X93.856 Y108.469 E2.96439
G1 X93.908 Y107.935 E2.98223
G1 X94.051 Y107.026 E3.01284
G1 X94.167 Y106.495 E3.03091
G1 X94.432 Y105.563 E3.06314
G1 X94.635 Y104.988 E3.08342
G1 X95.013 Y104.097 E3.11561
G1 X95.254 Y103.615 E3.13354
G1 X95.713 Y102.819 E3.1641
G1 X96.016 Y102.358 E3.18245
G1 X96.542 Y101.649 E3.21181
G1 X96.752 Y101.397 E3.22272
G1 X96.904 Y101.049 E3.23535
G1 X97.291 Y100.361 E3.26161
G1 X97.746 Y99.715 E3.28789
G1 X98.52 Y98.864 E3.32615
G0 F6000 X98.795 Y99.155
G1 F1200 X99.666 Y98.329 E3.36607
G1 X99.812 Y98.193 E3.37271
G1 X100.009 Y98.016 E3.38152
G1 X100.529 Y97.59 E3.40387
G1 X100.927 Y97.293 E3.42039
G1 X101.567 Y96.866 E3.44598
G1 X102.247 Y96.507 E3.47156
G1 X102.961 Y96.221 E3.49714
G1 X103.691 Y96.013 E3.52238
G1 X104.164 Y95.904 E3.53853
G1 X104.922 Y95.77 E3.56413
G1 X104.929 Y95.77 E3.56436
G1 X104.968 Y95.743 E3.56594
G1 X105.628 Y95.347 E3.59154
G1 X106.325 Y95.022 E3.61712
G1 X107.052 Y94.77 E3.64271
G1 X107.801 Y94.596 E3.66829
G1 X108.222 Y94.533 E3.68244
G1 X109.292 Y94.405 E3.71829
G1 X110.059 Y94.354 E3.74385
G1 X110.828 Y94.382 E3.76945
G1 X111.59 Y94.49 E3.79505
G1 X111.706 Y94.519 E3.79902
G1 X112.44 Y94.64 E3.82376
G1 X113.182 Y94.843 E3.84935
G1 X113.899 Y95.123 E3.87495
G1 X114.725 Y95.56 E3.90603
G1 X114.966 Y95.708 E3.91544
G1 X115.089 Y95.713 E3.91953
G1 X116.113 Y95.884 E3.95406
G1 X116.234 Y95.913 E3.9582
G1 X116.971 Y96.131 E3.98376
G1 X117.682 Y96.424 E4.00934
G1 X118.359 Y96.789 E4.03492
G1 X118.851 Y97.117 E4.05459
G1 X119.265 Y97.417 E4.07159
G1 X119.771 Y97.818 E4.09307
G1 X120.125 Y98.125 E4.10865
G1 X120.333 Y98.312 E4.11796
G1 X120.69 Y98.646 E4.13422
G1 X121.073 Y99.032 E4.1523
G1 X121.49 Y99.484 E4.17276
G1 X121.981 Y100.076 E4.19834
G1 X122.409 Y100.715 E4.22392
G1 X122.767 Y101.396 E4.24951
G1 X122.812 Y101.508 E4.25352
G1 X122.934 Y101.642 E4.25955
G1 X123.304 Y102.102 E4.27918
G1 X123.829 Y102.843 E4.30939
G1 X124.122 Y103.316 E4.32789
G1 X124.518 Y104.044 E4.35546
G1 X124.736 Y104.504 E4.37239
G1 X125.065 Y105.32 E4.40165
G1 X125.226 Y105.8 E4.41849
G1 X125.43 Y106.53 E4.4437
G1 X125.544 Y107.037 E4.46099
G1 X125.682 Y107.876 E4.48927
G1 X125.739 Y108.411 E4.50716
G1 X125.78 Y109.295 E4.53659
G1 X125.773 Y109.815 E4.55389
G1 X125.717 Y110.628 E4.581
G1 X125.651 Y111.159 E4.59879
G1 X125.485 Y112.05 E4.62894
G1 X125.348 Y112.595 E4.64763
G1 X125.063 Y113.484 E4.67868
G1 X124.843 Y114.047 E4.69878
G1 X124.464 Y114.866 E4.7288
G1 X124.196 Y115.363 E4.74758
G1 X123.767 Y116.059 E4.77477
G1 X123.676 Y116.376 E4.78574
G1 X123.387 Y117.089 E4.81133
G1 X123.027 Y117.768 E4.83689
G1 X122.788 Y118.14 E4.8516
G1 X122.563 Y118.469 E4.86485
G1 X122.357 Y118.756 E4.8766
G1 X122.006 Y119.22 E4.89595
G1 X121.627 Y119.681 E4.9158
G1 X121.166 Y120.198 E4.93884
G1 X120.566 Y120.797 E4.96704
G1 X120.431 Y120.917 E4.97305
G1 X120.296 Y121.046 E4.97926
G1 X119.697 Y121.559 E5.00549
G1 X117.029 Y123.607 E5.11736
G1 X116.395 Y124.043 E5.14295
G1 X115.72 Y124.411 E5.16852
G1 X115.01 Y124.707 E5.1941
G1 X114.273 Y124.927 E5.21969
G1 X113.517 Y125.07 E5.24528
G1 X112.751 Y125.133 E5.27084
G1 X111.993 Y125.117 E5.29606
G1 X111.648 Y125.195 E5.30782
G1 X110.89 Y125.325 E5.3334
G1 X110.122 Y125.375 E5.359
G1 X109.354 Y125.346 E5.38456
G1 X108.436 Y125.204 E5.41546
G1 X107.981 Y125.104 E5.43095
G1 X107.85 Y125.116 E5.43533
G1 X106.941 Y125.096 E5.46557
G1 X106.678 Y125.074 E5.47434
G1 X105.916 Y124.97 E5.49992
G1 X105.169 Y124.788 E5.5255
G1 X104.445 Y124.529 E5.55107
G1 X103.754 Y124.198 E5.57655
G1 X103.587 Y124.107 E5.58288
G1 X102.932 Y123.704 E5.60846
G1 X102.322 Y123.236 E5.63403
G1 X101.764 Y122.707 E5.6596
G1 X101.495 Y122.392 E5.67338
G1 X100.736 Y121.88 E5.70383
G1 X100.014 Y121.318 E5.73426
G1 X99.432 Y120.815 E5.75985
G1 X99.205 Y120.576 E5.77081
G1 X98.685 Y120.071 E5.79492
G1 X98.16 Y119.435 E5.82235
G1 X97.567 Y118.63 E5.85561
G1 X97.364 Y118.34 E5.86738
G1 X97.197 Y118.089 E5.87741
G1 X96.805 Y117.427 E5.903
G1 X96.483 Y116.729 E5.92856
G1 X96.276 Y116.119 E5.94999
G1 X96.113 Y115.876 E5.95972
G1 X95.668 Y115.121 E5.98887
G1 X95.423 Y114.643 E6.00673
G1 X95.071 Y113.846 E6.03571
G1 X94.893 Y113.367 E6.05271
G1 X94.659 Y112.616 E6.07887
G1 X94.527 Y112.098 E6.09665
G1 X94.365 Y111.263 E6.12494
G1 X94.294 Y110.738 E6.14256
G1 X94.228 Y109.86 E6.17185
G1 X94.22 Y109.339 E6.18918
G1 X94.254 Y108.508 E6.21684
G1 X94.306 Y107.974 E6.23468
G1 X94.441 Y107.112 E6.2637
G1 X94.557 Y106.581 E6.28178
G1 X94.809 Y105.696 E6.31239
G1 X95.012 Y105.121 E6.33267
G1 X95.371 Y104.276 E6.3632
G1 X95.612 Y103.794 E6.38113
G1 X96.047 Y103.039 E6.41011
G1 X96.35 Y102.578 E6.42846
G1 X96.849 Y101.905 E6.45632
G1 X97.088 Y101.618 E6.46874
G1 X97.138 Y101.489 E6.47335
G1 X97.49 Y100.805 E6.49893
G1 X97.91 Y100.161 E6.5245
G1 X98.395 Y99.564 E6.55009
G1 X98.795 Y99.155 E6.56911
G0 F6000 X99.07 Y99.445
G1 F1200 X99.941 Y98.619 E6.60904
G1 X100.08 Y98.491 E6.61532
G1 X100.277 Y98.314 E6.62413
G1 X100.769 Y97.911 E6.64529
G1 X101.167 Y97.614 E6.6618
G1 X101.789 Y97.199 E6.68667
G1 X102.452 Y96.853 E6.71155
G1 X103.149 Y96.58 E6.73644
G1 X103.781 Y96.403 E6.75827
G1 X104.254 Y96.294 E6.77442
G1 X104.991 Y96.165 E6.7993
G1 X105.064 Y96.16 E6.80174
G1 X105.192 Y96.074 E6.80686
G1 X105.834 Y95.69 E6.83175
G1 X106.513 Y95.377 E6.85661
G1 X107.222 Y95.138 E6.8815
G1 X108.27 Y94.931 E6.91703
G1 X109.34 Y94.803 E6.95287
G1 X110.086 Y94.754 E6.97774
G1 X110.833 Y94.784 E7.0026
G1 X111.573 Y94.895 E7.02749
G1 X111.647 Y94.914 E7.03003
G1 X111.657 Y94.915 E7.03036
G1 X112.395 Y95.04 E7.05526
G1 X113.115 Y95.243 E7.08014
G1 X113.809 Y95.521 E7.10501
G1 X114.516 Y95.901 E7.1317
G1 X114.764 Y96.053 E7.14138
G1 X114.839 Y96.104 E7.14439
G1 X115.255 Y96.134 E7.15827
G1 X116.019 Y96.273 E7.18409
G1 X116.14 Y96.302 E7.18823
G1 X116.858 Y96.515 E7.21314
G1 X117.548 Y96.803 E7.23801
G1 X118.203 Y97.163 E7.26287
G1 X118.616 Y97.441 E7.27943
G1 X119.03 Y97.741 E7.29643
G1 X119.509 Y98.121 E7.31677
G1 X119.863 Y98.428 E7.33235
G1 X120.059 Y98.604 E7.34112
G1 X120.416 Y98.938 E7.35738
G1 X120.779 Y99.303 E7.3745
G1 X121.196 Y99.755 E7.39495
G1 X121.673 Y100.332 E7.41985
G1 X122.086 Y100.955 E7.44471
G1 X122.43 Y101.62 E7.46961
G1 X122.472 Y101.728 E7.47347
G1 X122.622 Y101.893 E7.48088
G1 X122.992 Y102.353 E7.50052
G1 X123.489 Y103.054 E7.5291
G1 X123.782 Y103.527 E7.54761
G1 X124.157 Y104.215 E7.57367
G1 X124.375 Y104.675 E7.5906
G1 X124.686 Y105.447 E7.61828
G1 X124.847 Y105.927 E7.63512
G1 X125.039 Y106.617 E7.65894
G1 X125.153 Y107.124 E7.67622
G1 X125.285 Y107.918 E7.703
G1 X125.342 Y108.453 E7.72089
G1 X125.38 Y109.289 E7.74872
G1 X125.373 Y109.809 E7.76602
G1 X125.321 Y110.578 E7.79166
G1 X125.255 Y111.109 E7.80945
G1 X125.097 Y111.953 E7.83801
G1 X124.96 Y112.498 E7.8567
G1 X124.691 Y113.339 E7.88607
G1 X124.471 Y113.902 E7.90618
G1 X124.112 Y114.676 E7.93455
G1 X123.844 Y115.173 E7.95333
G1 X123.414 Y115.871 E7.9806
G1 X123.407 Y115.881 E7.98101
G1 X123.377 Y116.002 E7.98515
G1 X123.121 Y116.705 E8.01004
G1 X122.791 Y117.376 E8.03491
G1 X122.458 Y117.915 E8.05598
G1 X122.233 Y118.244 E8.06924
G1 X122.038 Y118.515 E8.08034
G1 X121.687 Y118.979 E8.09969
G1 X121.329 Y119.415 E8.11846
G1 X120.868 Y119.932 E8.1415
G1 X120.3 Y120.499 E8.16819
G1 X120.141 Y120.641 E8.17528
G1 X120.02 Y120.756 E8.18083
G1 X119.453 Y121.242 E8.20567
G1 X116.785 Y123.29 E8.31754
G1 X116.168 Y123.713 E8.34242
G1 X115.51 Y124.068 E8.36728
G1 X114.817 Y124.35 E8.39217
G1 X114.098 Y124.557 E8.41705
G1 X113.362 Y124.687 E8.44191
G1 X112.615 Y124.736 E8.46681
G1 X111.98 Y124.71 E8.48795
G1 X111.56 Y124.805 E8.50227
G1 X110.823 Y124.93 E8.52713
G1 X110.076 Y124.976 E8.55203
G1 X109.329 Y124.941 E8.5769
G1 X108.522 Y124.813 E8.60408
G1 X108.006 Y124.7 E8.62165
G1 X107.814 Y124.717 E8.62806
G1 X106.974 Y124.698 E8.656
G1 X106.711 Y124.676 E8.66478
G1 X105.97 Y124.574 E8.68966
G1 X105.244 Y124.393 E8.71454
G1 X104.542 Y124.136 E8.73941
G1 X103.946 Y123.847 E8.76144
G1 X103.779 Y123.756 E8.76776
G1 X103.142 Y123.363 E8.79266
G1 X102.551 Y122.905 E8.81753
G1 X102.012 Y122.386 E8.84241
G1 X101.753 Y122.077 E8.85582
G1 X101.563 Y121.972 E8.86304
G1 X100.981 Y121.565 E8.88667
G1 X100.259 Y121.003 E8.9171
G1 X99.694 Y120.512 E8.94199
G1 X99.486 Y120.293 E8.95204
G1 X98.965 Y119.784 E8.97626
G1 X98.482 Y119.198 E9.00152
G1 X97.889 Y118.393 E9.03478
G1 X97.697 Y118.119 E9.0459
G1 X97.53 Y117.868 E9.05593
G1 X97.15 Y117.223 E9.08083
G1 X96.84 Y116.542 E9.10572
G1 X96.643 Y115.948 E9.12653
G1 X96.445 Y115.653 E9.13835
G1 X96.024 Y114.939 E9.16592
G1 X95.779 Y114.461 E9.18378
G1 X95.446 Y113.706 E9.21123
G1 X95.268 Y113.227 E9.22822
G1 X95.047 Y112.518 E9.25292
G1 X94.915 Y112 E9.2707
G1 X94.761 Y111.209 E9.29751
G1 X94.69 Y110.684 E9.31513
G1 X94.628 Y109.853 E9.34284
G1 X94.62 Y109.332 E9.36017
G1 X94.652 Y108.547 E9.3863
G1 X94.704 Y108.013 E9.40415
G1 X94.832 Y107.197 E9.43162
G1 X94.948 Y106.666 E9.4497
G1 X95.186 Y105.83 E9.47861
G1 X95.389 Y105.255 E9.49889
G1 X95.729 Y104.455 E9.5278
G1 X95.97 Y103.973 E9.54573
G1 X96.381 Y103.258 E9.57316
G1 X96.684 Y102.797 E9.5915
G1 X97.156 Y102.161 E9.61785
G1 X97.428 Y101.835 E9.63197
G1 X97.711 Y101.229 E9.65421
G1 X98.098 Y100.589 E9.67909
G1 X98.551 Y99.994 E9.70396
G1 X99.07 Y99.445 E9.72909
G0 F6000 X99.345 Y99.735
G1 F1200 X100.216 Y98.909 E9.76901
G1 X100.347 Y98.789 E9.77492
G1 X100.544 Y98.612 E9.78373
G1 X101.008 Y98.231 E9.8037
G1 X101.406 Y97.934 E9.82022
G1 X102.011 Y97.533 E9.84436
G1 X102.657 Y97.2 E9.86853
G1 X103.335 Y96.94 E9.89268
G1 X103.871 Y96.793 E9.91117
G1 X104.344 Y96.684 E9.92731
G1 X105.06 Y96.56 E9.95148
G1 X105.199 Y96.551 E9.95611
G1 X105.415 Y96.406 E9.96477
G1 X106.039 Y96.034 E9.98893
G1 X106.7 Y95.733 E10.01309
G1 X107.39 Y95.507 E10.03724
G1 X108.317 Y95.328 E10.06864
G1 X109.387 Y95.2 E10.10448
G1 X110.112 Y95.153 E10.12864
G1 X110.838 Y95.187 E10.15282
G1 X111.555 Y95.3 E10.17696
G1 X111.597 Y95.313 E10.17842
G1 X111.632 Y95.315 E10.17959
G1 X112.348 Y95.439 E10.20376
G1 X113.046 Y95.642 E10.22793
G1 X113.717 Y95.92 E10.25209
G1 X114.307 Y96.242 E10.27445
G1 X114.555 Y96.394 E10.28412
G1 X114.689 Y96.487 E10.28955
G1 X114.691 Y96.487 E10.28961
G1 X115.414 Y96.56 E10.31378
G1 X115.926 Y96.662 E10.33115
G1 X116.047 Y96.691 E10.33528
G1 X116.743 Y96.899 E10.35944
G1 X117.412 Y97.182 E10.3836
G1 X118.046 Y97.537 E10.40777
G1 X118.382 Y97.765 E10.42128
G1 X118.796 Y98.065 E10.43828
G1 X119.247 Y98.423 E10.45743
G1 X119.601 Y98.73 E10.47302
G1 X119.786 Y98.896 E10.48129
G1 X120.143 Y99.23 E10.49755
G1 X120.485 Y99.575 E10.5137
G1 X120.902 Y100.027 E10.53416
G1 X121.364 Y100.587 E10.5583
G1 X121.762 Y101.194 E10.58245
G1 X122.091 Y101.842 E10.60662
G1 X122.129 Y101.943 E10.61021
G1 X122.311 Y102.143 E10.6192
G1 X122.681 Y102.603 E10.63884
G1 X123.149 Y103.264 E10.66577
G1 X123.442 Y103.737 E10.68428
G1 X123.795 Y104.387 E10.70888
G1 X124.013 Y104.847 E10.72581
G1 X124.306 Y105.574 E10.75188
G1 X124.467 Y106.054 E10.76872
G1 X124.649 Y106.705 E10.7912
G1 X124.763 Y107.212 E10.80849
G1 X124.887 Y107.961 E10.83374
G1 X124.944 Y108.496 E10.85163
G1 X124.98 Y109.284 E10.87787
G1 X124.973 Y109.804 E10.89517
G1 X124.924 Y110.529 E10.91933
G1 X124.858 Y111.06 E10.93713
G1 X124.709 Y111.855 E10.96403
G1 X124.572 Y112.4 E10.98272
