;FLAVOR:Marlin
;TIME:2948
;Filament used: 1.37595m
;Layer height: 0.2
;MINX:86.097
;MINY:83.648
;MINZ:0.2
;MAXX:133.498
;MAXY:137.283
;MAXZ:39.4
;Generated with Cura_SteamEngine 4.4.1
M140 S80
M105
M190 S80
M104 S230
M105
M109 S230
M82 ;absolute extrusion mode
M201 X500.00 Y500.00 Z100.00 E5000.00 ;Setup machine max acceleration
M203 X500.00 Y500.00 Z10.00 E50.00 ;Setup machine max feedrate
M204 P500.00 R1000.00 T500.00 ;Setup Print/Retract/Travel acceleration
M205 X8.00 Y8.00 Z0.40 E5.00 ;Setup Jerk
M220 S100 ;Reset Feedrate
M221 S100 ;Reset Flowrate

G28 ;Home

G92 E0 ;Reset Extruder
G1 Z2.0 F3000 ;Move Z Axis up
G1 X10.1 Y20 Z0.28 F5000.0 ;Move to start position
G1 X10.1 Y200.0 Z0.28 F1500.0 E15 ;Draw the first line
G1 X10.4 Y200.0 Z0.28 F5000.0 ;Move to side a little
G1 X10.4 Y20 Z0.28 F1500.0 E30 ;Draw the second line
G92 E0 ;Reset Extruder
G1 Z2.0 F3000 ;Move Z Axis up

G92 E0
G92 E0
G1 F1500 E-6.5
;LAYER_COUNT:197
;LAYER:0
M107
G0 F6000 X93.516 Y96.665 Z0.2
;TYPE:SKIRT
G1 F1500 E0
G1 F1200 X93.881 Y96.329 E0.0165
G1 X94.166 Y96.076 E0.02918
G1 X94.477 Y95.809 E0.04281
G1 X95.006 Y95.382 E0.06542
G1 X95.778 Y94.798 E0.09762
G1 X96.077 Y94.579 E0.10994
G1 X96.436 Y94.326 E0.12455
G1 X96.934 Y93.996 E0.14442
G1 X97.207 Y93.825 E0.15514
G1 X97.613 Y93.583 E0.17086
G1 X98.384 Y93.145 E0.20035
G1 X99.15 Y92.748 E0.22904
G1 X102.281 Y91.281 E0.34405
G1 X104.533 Y90.147 E0.42791
G1 X106.747 Y88.952 E0.51159
G1 X108.913 Y87.703 E0.59475
G1 X111.064 Y86.38 E0.67874
G1 X111.289 Y86.231 E0.68772
G1 X111.461 Y86.119 E0.69454
G1 X112.661 Y85.357 E0.74182
G1 X113.474 Y84.888 E0.77304
G1 X114.323 Y84.491 E0.80421
G1 X115.203 Y84.167 E0.8354
G1 X116.108 Y83.919 E0.86661
G1 X117.03 Y83.75 E0.89779
G1 X117.964 Y83.659 E0.929
G1 X118.902 Y83.648 E0.9602
G1 X119.831 Y83.717 E0.99118
G1 X120.586 Y83.805 E1.01646
G1 X120.99 Y83.86 E1.03003
G1 X121.178 Y83.889 E1.03635
G1 X122.098 Y84.071 E1.06755
G1 X122.999 Y84.331 E1.09874
G1 X123.875 Y84.667 E1.12994
G1 X124.719 Y85.076 E1.16113
G1 X125.525 Y85.556 E1.19234
G1 X126.275 Y86.093 E1.22302
G1 X126.957 Y86.626 E1.25181
G1 X127.111 Y86.749 E1.25836
G1 X128.38 Y87.778 E1.3127
G1 X128.496 Y87.873 E1.31769
G1 X129.29 Y88.535 E1.35207
G1 X129.666 Y88.863 E1.36867
G1 X129.921 Y89.096 E1.38015
G1 X130.586 Y89.758 E1.41136
G1 X131.192 Y90.474 E1.44256
G1 X131.735 Y91.239 E1.47376
G1 X132.21 Y92.047 E1.50494
G1 X132.615 Y92.893 E1.53613
G1 X132.947 Y93.77 E1.56732
G1 X133.203 Y94.672 E1.59851
G1 X133.38 Y95.593 E1.6297
G1 X133.479 Y96.526 E1.66091
G1 X133.498 Y97.464 E1.69211
G1 X133.458 Y98.192 E1.71636
G1 X133.189 Y101.22 E1.81747
G1 X133.038 Y103.725 E1.90094
G1 X132.957 Y106.222 E1.98403
G1 X132.948 Y108.741 E2.06782
G1 X133.011 Y111.307 E2.15319
G1 X133.082 Y112.765 E2.20174
G1 X133.095 Y113.234 E2.21734
G1 X133.099 Y113.914 E2.23996
G1 X133.091 Y114.391 E2.25583
G1 X133.082 Y114.631 E2.26382
G1 X133.07 Y114.89 E2.27244
G1 X133.034 Y115.479 E2.29207
G1 X132.97 Y116.164 E2.31495
G1 X132.854 Y117.098 E2.34625
G1 X132.803 Y117.462 E2.35848
G1 X132.743 Y117.841 E2.37124
G1 X132.623 Y118.474 E2.39267
G1 X132.496 Y119.054 E2.41242
G1 X132.421 Y119.376 E2.42341
G1 X132.33 Y119.739 E2.43586
G1 X132.249 Y120.044 E2.44636
G1 X132.146 Y120.41 E2.459
G1 X132.069 Y120.671 E2.46805
G1 X131.991 Y120.924 E2.47686
G1 X131.776 Y121.552 E2.49894
G1 X131.534 Y122.196 E2.52182
G1 X131.414 Y122.501 E2.53272
G1 X131.156 Y123.13 E2.55533
G1 X130.911 Y123.684 E2.57548
G1 X130.692 Y124.144 E2.59242
G1 X130.557 Y124.419 E2.60261
G1 X130.389 Y124.748 E2.6149
G1 X129.883 Y125.635 E2.64886
G1 X129.173 Y126.755 E2.69297
G1 X129.003 Y127.014 E2.70327
G1 X128.643 Y127.548 E2.72469
G1 X128.289 Y128.042 E2.74491
G1 X128.167 Y128.203 E2.75163
G1 X127.858 Y128.592 E2.76815
G1 X127.715 Y128.764 E2.77559
G1 X127.44 Y129.083 E2.7896
G1 X126.777 Y129.821 E2.82259
G1 X126.521 Y130.096 E2.83509
G1 X126.369 Y130.254 E2.84238
G1 X126.139 Y130.486 E2.85325
G1 X125.846 Y130.773 E2.86689
G1 X125.599 Y131.008 E2.87823
G1 X125.423 Y131.17 E2.88618
G1 X125.074 Y131.478 E2.90167
G1 X124.686 Y131.806 E2.91856
G1 X124.426 Y132.019 E2.92974
G1 X123.77 Y132.54 E2.95761
G1 X123.294 Y132.898 E2.97742
G1 X123.029 Y133.086 E2.98822
G1 X122.481 Y133.45 E3.0101
G1 X121.733 Y133.916 E3.03942
G1 X121.111 Y134.276 E3.06332
G1 X120.23 Y134.748 E3.09656
G1 X119.874 Y134.931 E3.10987
G1 X119.678 Y135.027 E3.11713
G1 X119.383 Y135.166 E3.12798
G1 X119.2 Y135.249 E3.13466
G1 X118.938 Y135.363 E3.14417
G1 X118.628 Y135.494 E3.15536
G1 X118.078 Y135.709 E3.175
G1 X117.457 Y135.933 E3.19696
G1 X117.167 Y136.034 E3.20717
G1 X116.475 Y136.262 E3.23141
G1 X115.884 Y136.438 E3.25191
G1 X115.612 Y136.511 E3.26128
G1 X115.084 Y136.639 E3.27935
G1 X114.214 Y136.827 E3.30896
G1 X113.549 Y136.949 E3.33144
G1 X112.585 Y137.096 E3.36388
G1 X111.906 Y137.178 E3.38662
G1 X111.223 Y137.239 E3.40943
G1 X110.18 Y137.283 E3.44415
G1 X109.145 Y137.277 E3.47858
G1 X108.824 Y137.27 E3.48926
G1 X108.167 Y137.247 E3.51112
G1 X107.195 Y137.17 E3.54355
G1 X106.455 Y137.078 E3.56835
G1 X106.122 Y137.031 E3.57954
G1 X105.511 Y136.936 E3.60011
G1 X104.915 Y136.827 E3.62026
G1 X104.529 Y136.745 E3.63338
G1 X103.836 Y136.574 E3.65712
G1 X102.734 Y136.264 E3.6952
G1 X102.387 Y136.16 E3.70725
G1 X102.119 Y136.075 E3.7166
G1 X101.492 Y135.855 E3.7387
G1 X101.009 Y135.669 E3.75591
G1 X100.718 Y135.552 E3.76634
G1 X100.235 Y135.35 E3.78376
G1 X99.423 Y134.971 E3.81356
G1 X98.824 Y134.661 E3.83599
G1 X98.649 Y134.568 E3.84259
G1 X98.255 Y134.355 E3.85748
G1 X98.14 Y134.292 E3.86184
G1 X97.561 Y133.97 E3.88388
G1 X96.805 Y133.51 E3.91331
G1 X96.517 Y133.318 E3.92483
G1 X96.22 Y133.112 E3.93685
G1 X95.925 Y132.901 E3.94891
G1 X95.781 Y132.797 E3.95482
G1 X95.312 Y132.45 E3.97422
G1 X94.789 Y132.038 E3.99637
G1 X94.233 Y131.572 E4.0205
G1 X93.969 Y131.343 E4.03212
G1 X93.809 Y131.2 E4.03926
G1 X93.19 Y130.601 E4.06791
G1 X92.794 Y130.187 E4.08696
G1 X92.681 Y130.068 E4.09242
G1 X92.189 Y129.538 E4.11647
G1 X92.076 Y129.414 E4.12205
G1 X91.67 Y128.963 E4.14223
G1 X91.039 Y128.195 E4.17529
G1 X90.491 Y127.463 E4.20571
G1 X90.08 Y126.875 E4.22957
G1 X89.682 Y126.264 E4.25382
G1 X89.443 Y125.879 E4.26889
G1 X89.257 Y125.566 E4.281
G1 X89.102 Y125.298 E4.2913
G1 X88.95 Y125.025 E4.30169
G1 X88.714 Y124.576 E4.31856
G1 X88.375 Y123.895 E4.34387
G1 X88.133 Y123.376 E4.36291
G1 X88.017 Y123.109 E4.37259
G1 X87.785 Y122.532 E4.39328
G1 X87.535 Y121.854 E4.41731
G1 X87.44 Y121.586 E4.42677
G1 X87.171 Y120.794 E4.45459
G1 X86.835 Y119.577 E4.49658
G1 X86.672 Y118.822 E4.52227
G1 X86.635 Y118.644 E4.52832
G1 X86.522 Y118.075 E4.54761
G1 X86.491 Y117.912 E4.55313
G1 X86.36 Y117.196 E4.57734
G1 X86.264 Y116.574 E4.59827
G1 X86.239 Y116.373 E4.60501
G1 X86.188 Y115.865 E4.62199
G1 X86.149 Y115.362 E4.63877
G1 X86.129 Y115.052 E4.6491
G1 X86.117 Y114.808 E4.65723
G1 X86.104 Y114.369 E4.67184
G1 X86.097 Y113.608 E4.69715
G1 X86.12 Y112.802 E4.72397
G1 X86.15 Y112.335 E4.73953
G1 X86.169 Y112.082 E4.74797
G1 X86.201 Y111.716 E4.76019
G1 X86.213 Y111.587 E4.7645
G1 X86.284 Y110.872 E4.7884
G1 X86.365 Y110.243 E4.80949
G1 X86.401 Y110.015 E4.81717
G1 X86.482 Y109.562 E4.83247
G1 X86.622 Y108.866 E4.85609
G1 X86.714 Y108.448 E4.87032
G1 X86.819 Y108.014 E4.88517
G1 X86.907 Y107.676 E4.89679
G1 X86.971 Y107.444 E4.90479
G1 X87.134 Y106.906 E4.92349
G1 X87.338 Y106.291 E4.94504
G1 X87.426 Y106.036 E4.95401
G1 X87.695 Y105.287 E4.98048
G1 X88.063 Y104.389 E5.01276
G1 X88.333 Y103.805 E5.03416
G1 X88.451 Y103.558 E5.04327
G1 X88.726 Y103 E5.06396
G1 X89.039 Y102.412 E5.08611
G1 X89.31 Y101.937 E5.1043
G1 X89.505 Y101.608 E5.11702
G1 X89.681 Y101.323 E5.12816
G1 X89.814 Y101.113 E5.13643
G1 X89.975 Y100.865 E5.14626
G1 X90.257 Y100.452 E5.1629
G1 X90.703 Y99.829 E5.18838
G1 X91.346 Y99.015 E5.22288
G1 X92.065 Y98.188 E5.25933
G1 X92.3 Y97.925 E5.27106
G1 X92.9 Y97.278 E5.30041
G1 X93.516 Y96.665 E5.32931
G0 F6000 X93.787 Y96.959
G1 F1200 X94.152 Y96.623 E5.34582
G1 X94.426 Y96.379 E5.35802
G1 X94.737 Y96.112 E5.37165
G1 X95.247 Y95.701 E5.39344
G1 X96.019 Y95.117 E5.42563
G1 X96.308 Y94.906 E5.43753
G1 X96.667 Y94.653 E5.45214
G1 X97.146 Y94.335 E5.47126
G1 X97.419 Y94.164 E5.48198
G1 X97.81 Y93.93 E5.49713
G1 X98.581 Y93.492 E5.52663
G1 X99.32 Y93.11 E5.5543
G1 X102.481 Y91.629 E5.6704
G1 X104.682 Y90.521 E5.75236
G1 X106.945 Y89.299 E5.8379
G1 X109.143 Y88.031 E5.9223
G1 X111.265 Y86.726 E6.00515
G1 X111.509 Y86.565 E6.01487
G1 X111.676 Y86.457 E6.02149
G1 X112.876 Y85.695 E6.06877
G1 X113.674 Y85.235 E6.0994
G1 X114.508 Y84.847 E6.13
G1 X115.374 Y84.533 E6.16064
G1 X116.263 Y84.294 E6.19125
G1 X117.17 Y84.134 E6.22189
G1 X118.087 Y84.053 E6.25251
G1 X119.007 Y84.053 E6.2831
G1 X119.785 Y84.114 E6.30906
G1 X120.54 Y84.202 E6.33434
G1 X120.929 Y84.255 E6.3474
G1 X121.117 Y84.284 E6.35373
G1 X122.02 Y84.464 E6.38435
G1 X122.904 Y84.721 E6.41497
G1 X123.762 Y85.054 E6.44558
G1 X124.588 Y85.461 E6.47621
G1 X125.376 Y85.937 E6.50683
G1 X126.028 Y86.408 E6.53358
G1 X126.71 Y86.941 E6.56237
G1 X126.859 Y87.06 E6.56871
G1 X128.128 Y88.089 E6.62305
G1 X128.24 Y88.181 E6.62787
G1 X129.034 Y88.843 E6.66225
G1 X129.396 Y89.159 E6.67824
G1 X129.651 Y89.392 E6.68973
G1 X130.303 Y90.042 E6.72035
G1 X130.896 Y90.746 E6.75096
G1 X131.426 Y91.499 E6.78159
G1 X131.889 Y92.295 E6.81222
G1 X132.281 Y93.128 E6.84284
G1 X132.598 Y93.992 E6.87345
G1 X132.84 Y94.88 E6.90406
G1 X133.004 Y95.786 E6.93468
G1 X133.089 Y96.703 E6.96531
G1 X133.093 Y97.624 E6.99595
G1 X133.059 Y98.156 E7.01368
G1 X132.792 Y101.158 E7.11392
G1 X132.64 Y103.688 E7.19822
G1 X132.557 Y106.243 E7.28324
G1 X132.548 Y108.75 E7.36662
G1 X132.611 Y111.295 E7.4513
G1 X132.683 Y112.785 E7.50091
G1 X132.695 Y113.237 E7.51595
G1 X132.699 Y113.917 E7.53857
G1 X132.692 Y114.376 E7.55384
G1 X132.683 Y114.616 E7.56183
G1 X132.67 Y114.866 E7.57015
G1 X132.634 Y115.455 E7.58978
G1 X132.573 Y116.114 E7.61179
G1 X132.457 Y117.048 E7.64309
G1 X132.408 Y117.399 E7.65488
G1 X132.348 Y117.778 E7.66764
G1 X132.233 Y118.388 E7.68829
G1 X132.106 Y118.968 E7.70804
G1 X132.033 Y119.279 E7.71866
G1 X131.942 Y119.642 E7.73111
G1 X131.864 Y119.936 E7.74123
G1 X131.761 Y120.302 E7.75387
G1 X131.687 Y120.553 E7.76258
G1 X131.609 Y120.806 E7.77138
G1 X131.402 Y121.412 E7.79268
G1 X131.16 Y122.056 E7.81556
G1 X131.044 Y122.35 E7.82608
G1 X130.786 Y122.979 E7.84869
G1 X130.55 Y123.512 E7.86808
G1 X130.331 Y123.972 E7.88502
G1 X130.2 Y124.237 E7.89485
G1 X130.032 Y124.566 E7.90714
G1 X129.545 Y125.42 E7.93984
G1 X128.835 Y126.54 E7.98394
G1 X128.671 Y126.79 E7.99389
G1 X128.311 Y127.324 E8.01531
G1 X127.97 Y127.801 E8.03481
G1 X127.848 Y127.962 E8.04153
G1 X127.551 Y128.337 E8.05744
G1 X127.408 Y128.509 E8.06488
G1 X127.142 Y128.816 E8.07839
G1 X126.479 Y129.554 E8.11139
G1 X126.233 Y129.819 E8.12341
G1 X126.081 Y129.977 E8.1307
G1 X125.859 Y130.2 E8.14117
G1 X125.566 Y130.487 E8.15481
G1 X125.328 Y130.714 E8.16575
G1 X125.152 Y130.876 E8.17371
G1 X124.816 Y131.172 E8.1886
G1 X124.428 Y131.5 E8.2055
G1 X124.177 Y131.706 E8.2163
G1 X123.521 Y132.227 E8.24416
G1 X123.062 Y132.571 E8.26324
G1 X122.797 Y132.759 E8.27405
G1 X122.269 Y133.111 E8.29515
G1 X121.521 Y133.577 E8.32446
G1 X120.922 Y133.924 E8.34749
G1 X120.041 Y134.396 E8.38073
G1 X119.698 Y134.571 E8.39354
G1 X119.502 Y134.667 E8.4008
G1 X119.217 Y134.801 E8.41127
G1 X119.034 Y134.884 E8.41795
G1 X118.782 Y134.995 E8.42711
G1 X118.472 Y135.126 E8.43831
G1 X117.943 Y135.333 E8.4572
G1 X117.322 Y135.557 E8.47916
G1 X117.042 Y135.654 E8.48901
G1 X116.35 Y135.882 E8.51325
G1 X115.781 Y136.052 E8.533
G1 X115.509 Y136.125 E8.54236
G1 X115 Y136.248 E8.55978
G1 X114.13 Y136.436 E8.58939
G1 X113.489 Y136.554 E8.61106
G1 X112.525 Y136.701 E8.6435
G1 X111.87 Y136.78 E8.66544
G1 X111.187 Y136.841 E8.68825
G1 X110.183 Y136.883 E8.72167
G1 X109.148 Y136.877 E8.75609
G1 X108.838 Y136.871 E8.76641
G1 X108.181 Y136.848 E8.78827
G1 X107.244 Y136.773 E8.81954
G1 X106.504 Y136.681 E8.84434
G1 X106.183 Y136.636 E8.85512
G1 X105.572 Y136.541 E8.87569
G1 X104.998 Y136.436 E8.89509
G1 X104.612 Y136.354 E8.90822
G1 X103.945 Y136.189 E8.93107
G1 X102.843 Y135.879 E8.96915
G1 X102.508 Y135.779 E8.98078
G1 X102.24 Y135.694 E8.99013
G1 X101.636 Y135.482 E9.01142
G1 X101.153 Y135.296 E9.02863
G1 X100.872 Y135.183 E9.03871
G1 X100.389 Y134.981 E9.05612
G1 X99.607 Y134.616 E9.08482
G1 X99.008 Y134.306 E9.10725
G1 X98.839 Y134.217 E9.11361
G1 X98.445 Y134.004 E9.1285
G1 X98.334 Y133.943 E9.13272
G1 X97.755 Y133.621 E9.15475
G1 X97.027 Y133.177 E9.18311
G1 X96.739 Y132.985 E9.19463
G1 X96.452 Y132.787 E9.20622
G1 X96.157 Y132.576 E9.21829
G1 X96.019 Y132.475 E9.22397
G1 X95.55 Y132.128 E9.24338
G1 X95.046 Y131.731 E9.26472
G1 X94.49 Y131.265 E9.28885
G1 X94.235 Y131.044 E9.30007
G1 X94.075 Y130.901 E9.30721
G1 X93.479 Y130.325 E9.33477
G1 X93.083 Y129.911 E9.35383
G1 X92.974 Y129.796 E9.3591
G1 X92.482 Y129.266 E9.38315
G1 X92.373 Y129.146 E9.38854
G1 X91.967 Y128.695 E9.40873
G1 X91.359 Y127.956 E9.44056
G1 X90.811 Y127.224 E9.47097
G1 X90.415 Y126.657 E9.49397
G1 X90.017 Y126.046 E9.51822
G1 X89.787 Y125.675 E9.53274
G1 X89.601 Y125.362 E9.54485
G1 X89.452 Y125.103 E9.55479
G1 X89.3 Y124.83 E9.56518
G1 X89.072 Y124.398 E9.58143
G1 X88.733 Y123.717 E9.60673
G1 X88.5 Y123.217 E9.62508
G1 X88.384 Y122.95 E9.63476
G1 X88.161 Y122.393 E9.65472
G1 X87.911 Y121.715 E9.67875
G1 X87.819 Y121.457 E9.68786
G1 X87.55 Y120.665 E9.71568
G1 X87.226 Y119.493 E9.75612
G1 X87.063 Y118.738 E9.78181
G1 X87.027 Y118.566 E9.78766
G1 X86.914 Y117.997 E9.80695
G1 X86.884 Y117.84 E9.81227
G1 X86.753 Y117.124 E9.83648
G1 X86.661 Y116.524 E9.85667
G1 X86.636 Y116.323 E9.8634
G1 X86.587 Y115.834 E9.87975
G1 X86.548 Y115.331 E9.89653
G1 X86.529 Y115.033 E9.90646
G1 X86.517 Y114.789 E9.91459
G1 X86.504 Y114.365 E9.9287
G1 X86.497 Y113.604 E9.95401
G1 X86.519 Y112.827 E9.97986
G1 X86.549 Y112.36 E9.99543
G1 X86.567 Y112.117 E10.00353
G1 X86.599 Y111.751 E10.01575
G1 X86.611 Y111.627 E10.01989
G1 X86.682 Y110.912 E10.04379
G1 X86.76 Y110.306 E10.06411
G1 X86.796 Y110.078 E10.07179
G1 X86.874 Y109.641 E10.08656
G1 X87.014 Y108.945 E10.11017
G1 X87.103 Y108.542 E10.1239
G1 X87.208 Y108.108 E10.13875
G1 X87.293 Y107.782 E10.14995
G1 X87.357 Y107.55 E10.15796
G1 X87.514 Y107.032 E10.17596
G1 X87.718 Y106.417 E10.19751
G1 X87.803 Y106.171 E10.20617
G1 X88.072 Y105.422 E10.23264
G1 X88.427 Y104.557 E10.26374
G1 X88.697 Y103.973 E10.28513
G1 X88.81 Y103.735 E10.2939
G1 X89.085 Y103.177 E10.31459
G1 X89.386 Y102.61 E10.33594
G1 X89.657 Y102.135 E10.35413
G1 X89.845 Y101.818 E10.36639
G1 X90.021 Y101.533 E10.37753
G1 X90.149 Y101.331 E10.38548
G1 X90.31 Y101.083 E10.39532
G1 X90.582 Y100.685 E10.41135
G1 X91.028 Y100.062 E10.43683
G1 X91.648 Y99.277 E10.4701
G1 X92.367 Y98.45 E10.50655
G1 X92.594 Y98.197 E10.51786
G1 X93.194 Y97.55 E10.5472
G1 X93.787 Y96.959 E10.57505
G0 F6000 X94.058 Y97.254
G1 F1200 X94.423 Y96.918 E10.59155
G1 X94.687 Y96.683 E10.60331
G1 X94.998 Y96.416 E10.61694
G1 X95.488 Y96.02 E10.63789
G1 X96.26 Y95.436 E10.67009
G1 X96.538 Y95.233 E10.68154
G1 X96.897 Y94.98 E10.69615
G1 X97.358 Y94.674 E10.71455
G1 X97.631 Y94.503 E10.72526
G1 X98.008 Y94.278 E10.73987
G1 X98.779 Y93.84 E10.76936
G1 X99.489 Y93.473 E10.79594
G1 X102.622 Y92.005 E10.91102
G1 X104.887 Y90.865 E10.99536
G1 X107.156 Y89.64 E11.08112
G1 X109.331 Y88.385 E11.16464
G1 X111.473 Y87.068 E11.24827
G1 X111.73 Y86.898 E11.25852
G1 X111.89 Y86.794 E11.26487
G1 X113.09 Y86.032 E11.31215
G1 X113.873 Y85.582 E11.34218
G1 X114.693 Y85.204 E11.37222
G1 X115.543 Y84.899 E11.40225
G1 X116.417 Y84.67 E11.4323
G1 X117.307 Y84.52 E11.46232
G1 X118.208 Y84.449 E11.49238
G1 X119.111 Y84.458 E11.52242
G1 X119.739 Y84.512 E11.54338
G1 X120.494 Y84.6 E11.56866
G1 X120.868 Y84.65 E11.58121
G1 X121.056 Y84.679 E11.58754
G1 X121.942 Y84.856 E11.61759
G1 X122.808 Y85.111 E11.64762
G1 X123.649 Y85.441 E11.67766
G1 X124.457 Y85.845 E11.70771
G1 X125.226 Y86.318 E11.73774
G1 X125.782 Y86.723 E11.76062
G1 X126.464 Y87.256 E11.78941
G1 X126.607 Y87.37 E11.79549
G1 X127.876 Y88.399 E11.84983
G1 X127.984 Y88.488 E11.85448
