;FLAVOR:Marlin
;TIME:933
;Filament used: 0.582942m
;Layer height: 0.12
;MINX:103.305
;MINY:92.176
;MINZ:0.28
;MAXX:116.697
;MAXY:127.824
;MAXZ:10
;Generated with Cura_SteamEngine main
M140 S60
M105
M190 S60
M104 S210
M105
M109 S210
M82 ;absolute extrusion mode
M201 X500.00 Y500.00 Z100.00 E5000.00 ;Setup machine max acceleration
M203 X500.00 Y500.00 Z10.00 E50.00 ;Setup machine max feedrate
M204 P500.00 R1000.00 T500.00 ;Setup Print/Retract/Travel acceleration
M205 X8.00 Y8.00 Z0.40 E5.00 ;Setup Jerk
M220 S100 ;Reset Feedrate
M221 S100 ;Reset Flowrate

G28 ;Home

G92 E0 ;Reset Extruder
G1 Z2.0 F3000 ;Move Z Axis up
G1 X10.1 Y20 Z0.28 F5000.0 ;Move to start position
G1 X10.1 Y200.0 Z0.28 F1500.0 E15 ;Draw the first line
G1 X10.4 Y200.0 Z0.28 F5000.0 ;Move to side a little
G1 X10.4 Y20 Z0.28 F1500.0 E30 ;Draw the second line
G92 E0 ;Reset Extruder
G1 Z2.0 F3000 ;Move Z Axis up

G92 E0
G92 E0
G1 F1800 E-2
;LAYER_COUNT:82
;LAYER:0
M107
M204 S500
M205 X5 Y5
;MESH:Quest2_CableClip.stl
G0 F7500 X111.6 Y96.347 Z0.28
M205 X8 Y8
;TYPE:WALL-INNER
G1 F900 E0
G1 F1034.5 X111.521 Y96.642 E0.02326
G1 F1049 X111.441 Y96.938 E0.04629
G1 F1062.3 X111.298 Y97.276 E0.07352
G1 F1076 X111.155 Y97.615 E0.10046
G1 F1082.3 X110.987 Y97.889 E0.12386
G1 F1102.9 X110.774 Y98.144 E0.1476
G1 F1146.8 X110.56 Y98.4 E0.17052
G1 F1225.5 X110.389 Y98.588 E0.18686
G1 F1336.9 X110.171 Y98.714 E0.2017
G1 F1442.3 X109.952 Y98.841 E0.21553
G1 F1500 X109.747 Y98.991 E0.22888
G1 F1482.2 X109.491 Y99.137 E0.24454
G1 F1447.9 X109.235 Y99.284 E0.26061
G1 F1213.6 X108.893 Y99.511 E0.28726
G1 F1173.7 X109.187 Y99.568 E0.30736
G1 F1407.1 X109.442 Y99.635 E0.32213
G1 F1500 X109.698 Y99.721 E0.33631
G1 X110.064 Y99.929 E0.35843
G1 X110.327 Y100.278 E0.38138
G1 F1401.9 X110.485 Y100.54 E0.39858
G1 F1181.1 X110.615 Y100.816 E0.41893
G1 X110.68 Y100.519 E0.43922
G1 F1401.9 X110.715 Y100.149 E0.46011
G1 F1500 X110.719 Y99.912 E0.47256
G1 X110.754 Y99.631 E0.48743
G1 F1442.3 X110.83 Y99.311 E0.5054
G1 F1336.9 X110.907 Y98.99 E0.52486
G1 F1256.3 X111.208 Y98.611 E0.55521
G1 F1203.9 X111.413 Y98.424 E0.57338
G1 F1166.4 X111.619 Y98.236 E0.59222
G1 F1141.6 X111.619 Y97.966 E0.61085
G1 F1127.8 X111.619 Y97.696 E0.62972
G1 F1114.4 X111.619 Y97.426 E0.64881
G1 F1101.3 X111.619 Y97.156 E0.66812
G1 F1088.5 X111.619 Y96.886 E0.68767
G1 F1068.4 X111.61 Y96.616 E0.70759
G1 F1041.7 X111.6 Y96.347 E0.72795
M205 X5 Y5
G0 F7500 X111.584 Y96.495
G0 X109.244 Y99.417
G0 X108.611 Y99.95
G0 X108.233 Y100.245
G0 X108.011 Y100.647
G0 X107.578 Y105.765
G0 X107.619 Y105.494
M205 X8 Y8
G1 F1196.2 X107.473 Y105.74 E0.7468
G1 F1366.1 X107.178 Y106.091 E0.77324
G1 F1229.5 X106.925 Y106.314 E0.79486
G1 X107.267 Y106.35 E0.8169
G1 F1470.6 X107.594 Y106.346 E0.83442
G1 F1546.4 X107.674 Y106.314 E0.83881
G1 F1488.1 X107.727 Y106.146 E0.84814
G1 F1381.2 X107.684 Y105.777 E0.86933
G1 F1196.2 X107.619 Y105.494 E0.88846
M205 X5 Y5
G0 F7500 X107.578 Y105.765
G0 X105.408 Y107.397
G0 X104.979 Y107.835
G0 X104.642 Y108.33
G0 X104.4 Y108.859
G0 X104.258 Y109.403
G0 X104.206 Y109.962
G0 X104.251 Y110.556
G0 X104.413 Y111.163
G0 X105.501 Y113.138
G0 X105.337 Y112.977
M205 X8 Y8
G1 F1124.4 X105.409 Y113.125 E0.89999
G1 F1209.7 X105.507 Y113.374 E0.91742
G1 F1250 X105.606 Y113.623 E0.93431
G1 F1146.8 X105.828 Y114.013 E0.96515
G1 F1085.4 X105.982 Y113.675 E0.99211
G1 F1177.4 X106.137 Y113.337 E1.017
G1 F1325.1 X105.722 Y113.137 E1.04439
G1 F1223.5 X105.337 Y112.977 E1.07124
M205 X5 Y5
G0 F7500 X105.501 Y113.138
G0 X106.224 Y117.39
G0 X106.212 Y116.999
M205 X8 Y8
G1 F1217.5 X106.12 Y117.32 E1.09285
G1 F1394.1 X106.021 Y117.612 E1.11028
G1 F1464.8 X105.922 Y117.904 E1.12686
G1 F1500 X105.742 Y118.191 E1.14466
G1 X105.339 Y118.582 E1.17416
G1 X104.994 Y118.794 E1.19543
G1 X104.702 Y119.064 E1.21632
G1 X104.566 Y119.332 E1.2321
G1 X104.507 Y119.613 E1.24719
G1 X104.554 Y119.964 E1.26579
G1 X104.698 Y120.302 E1.28509
G1 X104.842 Y120.456 E1.29616
G1 X105.089 Y120.631 E1.31207
G1 X105.356 Y120.727 E1.32697
G1 X105.674 Y120.751 E1.34372
G1 X105.865 Y120.725 E1.35385
G1 X106.058 Y120.643 E1.36486
G1 X106.364 Y120.425 E1.3846
G1 X106.48 Y120.263 E1.39507
G1 X106.637 Y119.905 E1.4156
G1 X106.656 Y119.63 E1.43008
G1 F1485.1 X106.62 Y119.356 E1.44474
G1 F1450.7 X106.583 Y119.081 E1.45982
G1 F1420.5 X106.546 Y118.807 E1.47515
G1 F1391.5 X106.509 Y118.532 E1.49087
G1 F1361.2 X106.472 Y118.257 E1.50693
G1 F1334.5 X106.435 Y117.983 E1.52325
G1 F1308.9 X106.398 Y117.708 E1.53996
G1 F1282.1 X106.361 Y117.434 E1.55695
G1 F1179.2 X106.212 Y116.999 E1.58767
M205 X5 Y5
G1 F1800 E-0.41233
G0 F7500 X106.224 Y117.39
G0 X105.241 Y112.471
G0 X104.775 Y111.889
G0 X104.409 Y111.2
G0 X104.238 Y110.479
G0 X104.208 Y109.89
G0 X104.272 Y109.332
G0 X104.427 Y108.79
G0 X104.679 Y108.266
G0 X105.028 Y107.775
G0 X105.467 Y107.347
G0 X105.981 Y107.003
G0 X107.535 Y106.19
G0 X107.964 Y100.894
G0 X108.073 Y100.494
G0 X108.36 Y100.116
G0 X108.769 Y99.887
G0 X109.244 Y99.417
G0 X109.822 Y99.573
G0 X110.331 Y99.966
G0 X110.239 Y100.645
G0 X111.463 Y110.047
G0 X110.77 Y112.959
G1 F900 E1.58767
G0 F7500 X110.842 Y113.003
M205 X8 Y8
G1 F1012.1 X111.159 Y112.588 E1.62833
G1 F1044.6 X111.367 Y112.423 E1.64836
G1 F1116.1 X111.575 Y112.258 E1.6671
G1 F1175.5 X111.602 Y111.993 E1.68496
G1 F1219.5 X111.63 Y111.727 E1.70224
G1 F1264.8 X111.658 Y111.461 E1.7189
G1 F1315.8 X111.686 Y111.196 E1.73486
G1 F1383.8 X111.702 Y110.933 E1.74986
G1 F1473.5 X111.719 Y110.669 E1.76401
G1 F1543.2 X111.726 Y110.323 E1.78168
G1 F1589 X111.733 Y109.977 E1.79884
G1 F1592.4 X111.727 Y109.69 E1.81305
G1 F1552.8 X111.721 Y109.403 E1.82761
G1 F1509.1 X111.704 Y109.067 E1.84518
G1 F1462 X111.686 Y108.731 E1.86331
G1 F1396.6 X111.58 Y108.628 E1.87165
G1 F1536.9 X111.334 Y108.377 E1.88967
G1 F1802.9 X111.17 Y108.144 E1.90212
G1 F1870.3 X111.005 Y107.91 E1.91419
G1 F1879.7 X110.875 Y107.619 E1.92755
G1 F1353.8 X110.636 Y107.233 E1.95397
G1 X110.487 Y107.695 E1.98223
G1 F1851.9 X110.529 Y107.85 E1.98906
G1 F1898.7 X110.712 Y108.161 E2.00403
G1 F1943 X110.797 Y108.282 E2.01003
G1 F1748.3 X110.97 Y108.598 E2.02627
G1 F1467.7 X111.144 Y108.915 E2.04568
G1 F1423.1 X111.22 Y109.312 E2.06806
G1 F1524.4 X111.243 Y109.644 E2.08526
G1 F1582.3 X111.267 Y109.977 E2.10189
G1 F1589 X111.248 Y110.302 E2.11803
G1 F1543.2 X111.229 Y110.627 E2.13465
G1 F1453.5 X111.17 Y110.934 E2.1516
G1 F1334.5 X111.111 Y111.242 E2.17012
G1 F1201.9 X111.012 Y111.552 E2.19145
G1 F1068.4 X110.913 Y111.862 E2.21545
G1 F1012.1 X110.656 Y112.265 E2.25266
G1 F1016.3 X110.652 Y112.903 E2.30213
G1 F1024.6 X110.647 Y113.541 E2.3512
G1 F1020.4 X110.842 Y113.003 E2.39539
M205 X5 Y5
G0 F7500 X110.77 Y112.959
G0 X110.999 Y118.374
G0 X111.586 Y120.15
G0 X111.616 Y120.316
M205 X8 Y8
G1 F1445.1 X111.677 Y120.06 E2.40974
G1 F1582.3 X111.739 Y119.803 E2.4229
G1 F1659.3 X111.699 Y119.656 E2.43014
G1 F1798.6 X111.355 Y119.348 E2.45036
G1 F1773 X111.181 Y119.144 E2.46228
G1 F1479.3 X111.007 Y118.94 E2.47656
G1 F1277.7 X110.836 Y118.695 E2.49499
G1 F1131.2 X110.665 Y118.449 E2.51586
G1 F1053.4 X110.648 Y118.413 E2.51883
G1 F1139.8 X110.581 Y118.634 E2.5348
G1 F1439.5 X110.51 Y118.928 E2.55135
G1 F1663 X110.551 Y119.076 E2.55863
G1 F1681.6 X110.899 Y119.387 E2.5805
G1 F1652 X111.073 Y119.593 E2.59336
G1 F1556 X111.248 Y119.799 E2.60705
G1 F1479.3 X111.432 Y120.057 E2.62393
G1 F1415.1 X111.616 Y120.316 E2.64162
M205 X5 Y5
G1 F1800 E0.64162
G0 F7500 X111.586 Y120.15
G0 X110.999 Y118.374
G0 X111.271 Y111.2
G0 X111.42 Y110.573
G0 X111.463 Y109.94
G0 X110.239 Y100.645
G0 X110.263 Y99.894
G0 X109.291 Y99.433
G1 F900 E2.64162
G0 F7500 X109.064 Y99.866
M205 X8 Y8
;TYPE:WALL-OUTER
G1 F1500 X109.491 Y99.924 E2.66244
G1 X109.887 Y100.158 E2.68467
G1 F1503.3 X110.155 Y100.517 E2.70628
G1 X110.255 Y100.943 E2.72738
G1 X110.255 Y107.762 E3.05621
G1 F1500 X110.316 Y107.95 E3.06576
G1 X110.598 Y108.389 E3.09098
G1 X110.827 Y108.906 E3.1183
G1 X110.948 Y109.382 E3.14204
G1 X111.005 Y109.977 E3.17093
G1 X110.956 Y110.58 E3.20016
G1 X110.836 Y111.05 E3.22361
G1 X110.597 Y111.614 E3.25321
G1 X110.313 Y112.058 E3.27868
G1 X110.256 Y112.233 E3.28758
G1 X110.255 Y119.06 E3.61751
G1 X110.369 Y119.258 E3.62855
G1 X110.765 Y119.559 E3.65259
G1 X111.043 Y119.916 E3.67446
G1 X111.206 Y120.309 E3.69502
G1 X111.252 Y120.674 E3.7128
G1 X111.255 Y125.159 E3.92955
G1 X111.319 Y125.607 E3.95142
G1 X111.438 Y125.96 E3.96942
G1 X111.544 Y126.195 E3.98188
G1 X111.681 Y126.428 E3.99494
G1 X111.904 Y126.741 E4.01352
G1 X112.224 Y127.033 E4.03445
G1 X112.437 Y127.189 E4.04721
G1 X112.762 Y127.38 E4.06543
G1 X113.16 Y127.518 E4.08579
G1 X113.636 Y127.608 E4.1092
G1 X113.888 Y127.619 E4.12139
G1 X114.345 Y127.576 E4.14357
G1 X114.695 Y127.495 E4.16094
G1 X115.081 Y127.322 E4.18138
G1 X115.303 Y127.194 E4.19376
G1 X115.525 Y127.033 E4.20702
G1 X115.721 Y126.859 E4.21968
G1 X115.911 Y126.646 E4.23348
G1 X116.072 Y126.422 E4.24681
G1 X116.202 Y126.202 E4.25916
G1 X116.307 Y125.967 E4.2716
G1 X116.39 Y125.726 E4.28391
G1 X116.475 Y125.354 E4.30236
G1 X116.494 Y124.974 E4.32074
G1 X116.362 Y124.724 E4.33441
G1 X116.186 Y124.647 E4.34369
G1 X116.065 Y124.647 E4.34954
G1 X115.933 Y124.701 E4.35643
G1 X115.823 Y124.81 E4.36391
G1 X115.761 Y124.963 E4.37189
G1 X115.707 Y125.532 E4.39951
G1 X115.427 Y126.064 E4.42857
G1 X115.237 Y126.296 E4.44306
G1 X114.942 Y126.55 E4.46187
G1 X114.596 Y126.737 E4.48088
G1 X114.194 Y126.856 E4.50114
G1 X113.591 Y126.856 E4.53028
G1 X113.205 Y126.759 E4.54952
G1 X112.812 Y126.551 E4.57101
G1 X112.577 Y126.359 E4.58567
G1 X112.324 Y126.064 E4.60445
G1 X112.108 Y125.666 E4.62634
G1 X111.995 Y125.026 E4.65775
G1 X111.995 Y119.671 E4.91654
G1 X111.881 Y119.474 E4.92754
G1 X111.482 Y119.168 E4.95184
G1 X111.209 Y118.822 E4.97314
G1 X111.044 Y118.421 E4.9941
G1 X110.998 Y118.058 E5.01178
G1 X110.998 Y113.946 E5.21051
G1 X111.04 Y113.611 E5.22682
G1 X111.202 Y113.191 E5.24858
G1 X111.464 Y112.854 E5.26921
G1 X111.88 Y112.527 E5.29478
G1 X111.995 Y112.327 E5.30593
G1 X111.995 Y108.671 E5.48262
G1 X111.881 Y108.474 E5.49361
G1 X111.485 Y108.172 E5.51768
G1 F1503.3 X111.206 Y107.812 E5.53965
G1 X111.044 Y107.418 E5.56019
G1 X111.015 Y107.186 E5.57146
G1 F1500 X110.995 Y107.003 E5.58036
G1 X110.997 Y99.946 E5.92141
G1 X111.037 Y99.623 E5.93714
G1 X111.209 Y99.187 E5.95979
G1 X111.457 Y98.857 E5.97974
G1 X111.88 Y98.527 E6.00567
G1 X111.995 Y98.327 E6.01682
G1 X111.998 Y94.761 E6.18915
G1 X112.127 Y94.304 E6.2121
G1 X112.301 Y93.97 E6.2303
G1 X112.536 Y93.682 E6.24827
G1 X112.809 Y93.451 E6.26555
G1 X113.154 Y93.265 E6.28449
G1 X113.555 Y93.145 E6.30472
G1 X114.158 Y93.143 E6.33386
G1 X114.532 Y93.236 E6.35249
G1 X114.939 Y93.448 E6.37467
G1 X115.171 Y93.638 E6.38916
G1 X115.425 Y93.934 E6.40801
G1 X115.709 Y94.474 E6.43749
G1 X115.76 Y95.031 E6.46453
G1 X115.823 Y95.187 E6.47266
G1 X115.934 Y95.301 E6.48035
G1 X116.185 Y95.353 E6.49273
G1 X116.36 Y95.275 E6.50199
G1 X116.494 Y95.027 E6.51562
G1 X116.476 Y94.636 E6.53453
G1 X116.362 Y94.158 E6.55828
G1 X116.202 Y93.797 E6.57736
G1 X116.066 Y93.567 E6.59028
G1 X115.908 Y93.35 E6.60325
G1 X115.734 Y93.154 E6.61592
G1 X115.521 Y92.964 E6.62971
G1 X115.309 Y92.81 E6.64237
G1 X115.084 Y92.677 E6.655
G1 X114.84 Y92.567 E6.66794
G1 X114.466 Y92.442 E6.687
G1 X114.114 Y92.392 E6.70418
G1 X113.746 Y92.377 E6.72198
G1 X113.262 Y92.444 E6.74559
G1 X112.915 Y92.564 E6.76334
G1 X112.566 Y92.723 E6.78187
G1 X112.229 Y92.963 E6.80186
G1 X112.017 Y93.153 E6.81562
G1 X111.78 Y93.417 E6.83277
G1 X111.499 Y93.877 E6.85882
G1 X111.354 Y94.301 E6.88048
G1 X111.267 Y94.76 E6.90305
G1 X111.255 Y95.014 E6.91534
G1 X111.254 Y95.742 E6.95052
G1 X111.211 Y96.28 E6.97661
G1 X111.085 Y96.814 E7.00312
G1 X110.79 Y97.51 E7.03966
G1 X110.535 Y97.882 E7.06145
G1 X110.31 Y98.153 E7.07847
G1 X110.117 Y98.349 E7.09177
G1 X109.664 Y98.71 E7.11976
G1 X109.194 Y98.982 E7.14601
G1 X108.351 Y99.301 E7.18957
G1 X108.085 Y99.45 E7.2043
G1 X107.848 Y99.64 E7.21898
G1 X107.631 Y99.878 E7.23455
G1 X107.47 Y100.135 E7.2492
G1 X107.348 Y100.432 E7.26472
G1 X107.28 Y100.713 E7.27869
G1 X107.255 Y101.012 E7.29319
G1 X107.255 Y105.412 E7.50583
G1 X107.098 Y105.77 E7.52473
G1 X106.808 Y105.96 E7.54148
G1 X106.479 Y106.043 E7.55788
G1 X106.232 Y106.12 E7.57038
G1 X105.958 Y106.234 E7.58472
G1 X105.71 Y106.353 E7.59802
G1 X105.449 Y106.502 E7.61254
G1 X105.219 Y106.658 E7.62597
G1 X104.977 Y106.843 E7.64069
G1 X104.771 Y107.029 E7.65411
G1 X104.573 Y107.234 E7.66788
G1 X104.38 Y107.462 E7.68232
G1 X104.217 Y107.685 E7.69567
G1 X104.064 Y107.928 E7.70954
G1 X103.925 Y108.189 E7.72384
G1 X103.812 Y108.446 E7.7374
G1 X103.715 Y108.707 E7.75086
G1 X103.636 Y108.98 E7.76459
G1 X103.578 Y109.235 E7.77723
G1 X103.534 Y109.524 E7.79136
G1 X103.512 Y109.789 E7.80421
G1 X103.507 Y110.072 E7.81789
G1 X103.522 Y110.359 E7.83178
G1 X103.578 Y110.797 E7.85312
G1 X103.686 Y111.202 E7.87338
G1 X103.77 Y111.452 E7.88612
G1 X103.892 Y111.743 E7.90137
G1 X104.029 Y112.011 E7.91592
G1 X104.279 Y112.408 E7.93859
G1 X104.532 Y112.719 E7.95797
G1 X104.717 Y112.916 E7.97103
G1 X105.091 Y113.271 E7.99595
G1 X105.287 Y113.578 E8.01355
G1 X105.437 Y114.026 E8.03638
G1 X105.844 Y116.953 E8.1792
G1 X105.809 Y117.351 E8.19851
G1 X105.656 Y117.816 E8.22216
G1 X105.547 Y117.99 E8.23209
G1 X105.166 Y118.36 E8.25775
G1 X104.824 Y118.569 E8.27712
G1 X104.475 Y118.892 E8.3001
G1 X104.299 Y119.238 E8.31887
G1 X104.223 Y119.602 E8.33684
G1 X104.281 Y120.039 E8.35814
G1 X104.459 Y120.458 E8.38014
G1 X104.657 Y120.668 E8.39409
G1 X104.958 Y120.882 E8.41194
G1 X105.297 Y121.004 E8.42935
G1 X105.683 Y121.032 E8.44805
G1 X105.939 Y120.997 E8.46054
G1 X106.195 Y120.89 E8.47395
G1 X106.565 Y120.626 E8.49592
G1 X106.725 Y120.403 E8.50918
G1 X106.913 Y119.972 E8.5319
G1 X106.937 Y119.621 E8.54891
G1 X106.2 Y114.132 E8.81656
G1 X106.285 Y113.692 E8.83822
G1 X106.418 Y113.371 E8.85501
G1 X106.529 Y113.215 E8.86426
G1 X105.949 Y112.934 E8.89541
G1 X105.318 Y112.497 E8.9325
G1 X104.816 Y111.887 E8.97068
G1 X104.459 Y111.234 E9.00665
G1 X104.283 Y110.523 E9.04205
G1 X104.245 Y109.947 E9.06994
G1 X104.303 Y109.368 E9.09806
G1 X104.457 Y108.819 E9.12562
G1 X104.676 Y108.347 E9.15077
G1 X105.045 Y107.813 E9.18214
G1 X105.47 Y107.394 E9.21098
G1 X105.976 Y107.048 E9.2406
G1 X106.529 Y106.799 E9.26991
G1 X107.016 Y106.675 E9.2942
G1 X107.658 Y106.614 E9.32537
G1 X107.843 Y106.539 E9.33501
G1 X107.957 Y106.378 E9.34455
G1 X107.995 Y106.19 E9.35382
G1 X107.996 Y100.965 E9.60633
G1 X108.051 Y100.64 E9.62226
G1 X108.273 Y100.245 E9.64416
G1 X108.646 Y99.971 E9.66652
G1 X109.064 Y99.866 E9.68735
M205 X5 Y5
G0 F7500 X109.262 Y99.892
G0 X108.893 Y99.511
M205 X8 Y8
;TYPE:WALL-INNER
G1 F1079.1 X108.506 Y99.636 E9.71705
G1 F1102.9 X108.102 Y99.911 E9.75196
G1 F1096.5 X107.923 Y100.109 E9.77114
G1 F1099.7 X107.698 Y100.524 E9.80497
G1 F1106.2 X107.628 Y100.936 E9.83474
G1 X107.627 Y103.146 E9.99216
G1 F1104.6 X107.625 Y105.356 E10.14981
G1 F1093.3 X107.619 Y105.494 E10.15976
M205 X5 Y5
G0 F7500 X107.578 Y105.765
G0 X107.2 Y106.227
G0 X106.925 Y106.314
M205 X8 Y8
G1 F1094.9 X106.409 Y106.445 E10.19808
G1 F1093.3 X106.118 Y106.572 E10.22096
G1 F1098.1 X105.795 Y106.727 E10.24667
G1 X105.446 Y106.955 E10.27658
G1 F1094.9 X105.222 Y107.119 E10.29656
G1 F1093.3 X105.04 Y107.291 E10.31461
G1 F1096.5 X104.763 Y107.576 E10.34317
G1 F1094.9 X104.528 Y107.896 E10.37174
G1 F1093.3 X104.32 Y108.219 E10.39943
G1 F1104.6 X104.112 Y108.691 E10.43622
G1 F1106.2 X103.952 Y109.218 E10.47545
G1 F1098.1 X103.907 Y109.557 E10.49999
G1 F1096.5 X103.875 Y109.94 E10.52761
G1 X103.893 Y110.315 E10.55459
G1 F1099.7 X103.921 Y110.588 E10.57425
G1 X103.975 Y110.837 E10.59251
G1 X104.043 Y111.086 E10.611
G1 F1119.4 X104.112 Y111.336 E10.62926
G1 F1116.1 X104.227 Y111.586 E10.64869
G1 F1094.9 X104.356 Y111.827 E10.66836
G1 F1096.5 X104.522 Y112.105 E10.69163
G1 F1098.1 X104.805 Y112.464 E10.72443
G1 F1109.5 X105.054 Y112.742 E10.75094
G1 F1096.5 X105.337 Y112.977 E10.77737
M205 X5 Y5
G0 F7500 X105.501 Y113.138
G0 X105.828 Y113.848
G0 X105.828 Y114.013
M205 X8 Y8
G1 F1071.4 X105.843 Y114.254 E10.79513
G1 F1102.9 X105.914 Y114.775 E10.83269
