;FLAVOR:Marlin
;TIME:5116
;Filament used: 8.09299m
;Layer height: 0.2
;MINX:34.34
;MINY:89.463
;MINZ:0.28
;MAXX:186.415
;MAXY:131.424
;MAXZ:24.28
;Generated with Cura_SteamEngine main
M82 ;absolute extrusion mode
M201 X500.00 Y500.00 Z100.00 E5000.00 ;Setup machine max acceleration
M203 X500.00 Y500.00 Z10.00 E50.00 ;Setup machine max feedrate
M204 P500.00 R1000.00 T500.00 ;Setup Print/Retract/Travel acceleration
M205 X8.00 Y8.00 Z0.40 E5.00 ;Setup Jerk
M220 S100 ;Reset Feedrate
M221 S100 ;Reset Flowrate

;*** Start Dual Nozzle/Bed Preheating ***
M140 S50 ; start preheating the bed
M104 S210 ?T0 ; start preheating hotend
M190 S50 ; heat to Cura Bed setting and WAIT
M109 S210 ?T0 ; heat to Cura Hotend and WAIT
;*** End Preheating ***


;*** Single Print Start Tone
M300 S1000 P500 ; chirp to indicate starting to print
;*** End Single Start Tone

G28 ;Home

G92 E0 ;Reset Extruder
G1 Z2.0 F3000 ;Move Z Axis up
G1 X10.1 Y20 Z0.28 F5000.0 ;Move to start position
G1 X10.1 Y200.0 Z0.28 F1500.0 E15 ;Draw the first line
G1 X10.4 Y200.0 Z0.28 F5000.0 ;Move to side a little
G1 X10.4 Y20 Z0.28 F1500.0 E30 ;Draw the second line
G92 E0 ;Reset Extruder
G1 Z2.0 F3000 ;Move Z Axis up
G92 E0
G92 E0
G1 F2400 E-2
;LAYER_COUNT:121
;LAYER:0
M107
M204 S500
M205 X5 Y5
G0 F7500 X37.602 Y109.737 Z0.28
G0 X34.34 Y114.121
M205 X8 Y8
;TYPE:SKIRT
G1 F1200 E0
G1 F1500 X34.366 Y113.537 E0.02764
G1 X34.47 Y112.962 E0.05526
G1 X34.653 Y112.407 E0.08289
G1 X34.909 Y111.881 E0.11055
G1 X35.234 Y111.396 E0.13815
G1 X35.623 Y110.959 E0.16581
G1 X36.157 Y110.515 E0.19864
G1 X36.429 Y110.324 E0.21435
G1 X36.929 Y110.022 E0.24197
G1 X37.361 Y109.829 E0.26434
G1 X37.602 Y109.737 E0.27654
G1 X38.299 Y109.537 E0.31082
G1 X38.613 Y109.475 E0.32595
G1 X39.309 Y109.396 E0.35907
G1 X39.665 Y109.385 E0.3759
G1 X40.44 Y109.432 E0.41261
G1 X40.828 Y109.491 E0.43117
G1 X41.666 Y109.707 E0.47208
G1 X42.01 Y109.834 E0.48942
G1 X42.543 Y110.073 E0.51703
G1 X43.174 Y110.485 E0.55266
G1 X44.396 Y111.448 E0.62622
G1 X45.618 Y112.33 E0.69746
G1 X46.89 Y113.166 E0.76943
G1 X48.251 Y113.975 E0.84428
G1 X49.469 Y114.726 E0.91193
G1 X49.7 Y114.879 E0.92503
G1 X51.086 Y115.863 E1.00539
G1 X52.608 Y116.887 E1.09212
G1 X54.233 Y117.838 E1.18113
G1 X55.991 Y118.683 E1.27335
G1 X57.773 Y119.345 E1.36322
G1 X59.571 Y119.818 E1.45112
G1 X61.214 Y120.063 E1.52965
G1 X62.716 Y120.102 E1.60069
G1 X63.876 Y119.968 E1.65589
G1 X64.756 Y119.713 E1.69921
G1 X65.294 Y119.434 E1.72786
G1 X65.567 Y119.198 E1.74492
G1 X65.688 Y119.024 E1.75494
G1 X65.768 Y118.814 E1.76556
G1 X65.797 Y118.529 E1.77911
G1 X65.313 Y118.432 E1.80245
G1 X60.061 Y117.276 E2.05669
G1 X59.365 Y117.059 E2.09116
G1 X59.039 Y116.926 E2.1078
G1 X58.514 Y116.669 E2.13544
G1 X58.239 Y116.495 E2.15082
G1 X57.982 Y116.319 E2.16555
G1 X57.374 Y115.815 E2.20288
G1 X57.157 Y115.598 E2.21739
G1 X56.72 Y115.086 E2.24922
G1 X56.54 Y114.838 E2.2637
G1 X56.212 Y114.308 E2.29317
G1 X56.076 Y114.048 E2.30704
G1 X55.847 Y113.53 E2.33382
G1 X55.713 Y113.162 E2.35234
G1 X55.551 Y112.6 E2.37999
G1 X55.45 Y111.75 E2.42046
G1 X55.479 Y111.095 E2.45145
G1 X55.584 Y110.52 E2.47909
G1 X55.767 Y109.964 E2.50676
G1 X56.024 Y109.439 E2.53439
G1 X56.35 Y108.954 E2.56202
G1 X56.739 Y108.518 E2.58965
G1 X57.184 Y108.139 E2.61728
G1 X57.676 Y107.824 E2.6449
G1 X58.207 Y107.579 E2.67255
G1 X58.766 Y107.409 E2.70017
G1 X59.343 Y107.317 E2.72779
G1 X59.927 Y107.305 E2.75541
G1 X60.508 Y107.372 E2.78306
G1 X61.03 Y107.503 E2.8085
G1 X61.724 Y107.721 E2.8429
G1 X62.106 Y107.789 E2.86124
G1 X67.334 Y108.94 E3.11432
G1 X67.99 Y109.073 E3.14597
G1 X68.562 Y109.036 E3.17307
G1 X69.117 Y108.931 E3.19977
G1 X69.71 Y108.736 E3.22928
G1 X70.202 Y108.509 E3.2549
G1 X70.715 Y108.203 E3.28314
G1 X70.962 Y107.97 E3.29919
G1 X71.367 Y107.557 E3.32654
G1 X71.804 Y107.169 E3.35417
G1 X72.29 Y106.844 E3.38181
G1 X72.815 Y106.588 E3.40942
G1 X73.371 Y106.406 E3.43708
G1 X74.176 Y106.282 E3.47559
G1 X169.89 Y100.804 E8.00809
G1 X170.314 Y99.986 E8.05165
G1 X170.643 Y99.235 E8.09041
G1 X170.793 Y98.836 E8.11056
G1 X170.882 Y98.63 E8.12117
G1 X171.009 Y98.289 E8.13837
G1 X171.374 Y97.15 E8.19492
G1 X171.59 Y96.607 E8.22255
G1 X171.878 Y96.098 E8.2502
G1 X172.233 Y95.634 E8.27782
G1 X172.648 Y95.222 E8.30546
G1 X173.115 Y94.871 E8.33308
G1 X173.626 Y94.586 E8.36074
G1 X174.17 Y94.374 E8.38835
G1 X174.739 Y94.239 E8.416
G1 X175.444 Y94.18 E8.44944
G1 X182.139 Y94.179 E8.76596
G1 X182.722 Y94.219 E8.79359
G1 X183.295 Y94.338 E8.82126
G1 X183.845 Y94.534 E8.84886
G1 X184.364 Y94.803 E8.8765
G1 X184.841 Y95.141 E8.90414
G1 X185.268 Y95.54 E8.93177
G1 X185.636 Y95.994 E8.9594
G1 X185.939 Y96.494 E8.98704
G1 X186.171 Y97.03 E9.01465
G1 X186.327 Y97.593 E9.04227
G1 X186.415 Y98.454 E9.08319
G1 X186.415 Y126.471 E10.40775
G1 X186.375 Y127.054 E10.43538
G1 X186.256 Y127.626 E10.463
G1 X186.06 Y128.177 E10.49065
G1 X185.791 Y128.696 E10.51829
G1 X185.453 Y129.173 E10.54593
G1 X185.054 Y129.599 E10.57352
G1 X184.6 Y129.968 E10.60118
G1 X184.1 Y130.27 E10.6288
G1 X183.563 Y130.502 E10.65645
G1 X183 Y130.659 E10.68408
G1 X182.139 Y130.746 E10.725
G1 X175.46 Y130.745 E11.04076
G1 X174.877 Y130.705 E11.06839
G1 X174.305 Y130.586 E11.09601
G1 X173.755 Y130.39 E11.12361
G1 X173.236 Y130.12 E11.15127
G1 X172.759 Y129.783 E11.17889
G1 X172.332 Y129.383 E11.20655
G1 X171.964 Y128.929 E11.23418
G1 X171.661 Y128.429 E11.26182
G1 X171.43 Y127.893 E11.28941
G1 X171.325 Y127.551 E11.30632
G1 X171.13 Y126.804 E11.34282
G1 X170.862 Y126.029 E11.38159
G1 X170.57 Y125.362 E11.41602
G1 X170.27 Y124.807 E11.44584
G1 X170.002 Y124.394 E11.46912
G1 X75.426 Y120.934 E15.9434
G1 X75.331 Y121.423 E15.96695
G1 X75.171 Y122.049 E15.9975
G1 X75.039 Y122.485 E16.01903
G1 X74.869 Y122.948 E16.04235
G1 X74.6 Y123.568 E16.0743
G1 X74.359 Y124.039 E16.09932
G1 X74.055 Y124.554 E16.12759
G1 X73.733 Y125.025 E16.15456
G1 X73.4 Y125.448 E16.18001
G1 X73.136 Y125.753 E16.19909
G1 X72.834 Y126.07 E16.21979
G1 X72.541 Y126.35 E16.23895
G1 X72.208 Y126.639 E16.25979
G1 X71.908 Y126.877 E16.2779
G1 X71.448 Y127.209 E16.30472
G1 X70.184 Y128.015 E16.37559
G1 X69.48 Y128.377 E16.41301
G1 X68.229 Y128.88 E16.47676
G1 X67.584 Y129.082 E16.50871
G1 X66.114 Y129.417 E16.57999
G1 X65.571 Y129.505 E16.606
G1 X63.909 Y129.664 E16.68493
G1 X63.431 Y129.682 E16.70755
G1 X61.626 Y129.652 E16.7929
G1 X61.229 Y129.627 E16.8117
G1 X59.323 Y129.417 E16.90236
G1 X58.975 Y129.364 E16.919
G1 X57.056 Y128.991 E17.01142
G1 X56.739 Y128.917 E17.02681
G1 X54.829 Y128.392 E17.12046
G1 X54.546 Y128.304 E17.13447
G1 X52.712 Y127.66 E17.22637
G1 X52.445 Y127.556 E17.23992
G1 X50.734 Y126.823 E17.32792
G1 X50.492 Y126.71 E17.34054
G1 X48.927 Y125.921 E17.4234
G1 X48.701 Y125.798 E17.43557
G1 X47.134 Y124.88 E17.52143
G1 X45.931 Y124.096 E17.58931
G1 X43.977 Y122.728 E17.70208
G1 X41.812 Y121.439 E17.82121
G1 X40.041 Y120.273 E17.92145
G1 X38.466 Y119.13 E18.01346
G1 X37.213 Y118.145 E18.08881
G1 X36.886 Y117.973 E18.10627
G1 X36.507 Y117.747 E18.12714
G1 X36.243 Y117.571 E18.14214
G1 X35.78 Y117.214 E18.16978
G1 X35.37 Y116.798 E18.19739
G1 X35.02 Y116.329 E18.22506
G1 X34.738 Y115.817 E18.25269
G1 X34.528 Y115.272 E18.28031
G1 X34.395 Y114.703 E18.30793
G1 X34.34 Y114.121 E18.33557
M205 X5 Y5
G0 F7500 X34.791 Y113.9
M205 X8 Y8
G1 F1500 X34.847 Y113.35 E18.36171
G1 X34.982 Y112.814 E18.38784
G1 X35.193 Y112.303 E18.41398
G1 X35.475 Y111.828 E18.44009
G1 X35.823 Y111.398 E18.46624
G1 X36.416 Y110.884 E18.50335
G1 X36.688 Y110.693 E18.51906
G1 X37.162 Y110.409 E18.54518
G1 X37.522 Y110.25 E18.56379
G1 X37.763 Y110.158 E18.57598
G1 X38.386 Y109.978 E18.60664
G1 X38.7 Y109.916 E18.62177
G1 X39.323 Y109.846 E18.65141
G1 X39.679 Y109.835 E18.66825
G1 X40.372 Y109.876 E18.70107
G1 X40.76 Y109.935 E18.71963
G1 X41.51 Y110.129 E18.75625
G1 X41.854 Y110.256 E18.77359
G1 X42.357 Y110.484 E18.7997
G1 X42.895 Y110.839 E18.83017
G1 X44.093 Y111.783 E18.90228
G1 X45.391 Y112.72 E18.97796
G1 X46.641 Y113.542 E19.04869
G1 X48.015 Y114.358 E19.12424
G1 X49.332 Y115.17 E19.19739
G1 X50.809 Y116.219 E19.28304
G1 X52.367 Y117.267 E19.37181
G1 X54.021 Y118.235 E19.46241
G1 X55.819 Y119.099 E19.55672
G1 X57.635 Y119.774 E19.64832
G1 X59.484 Y120.26 E19.7387
G1 X61.176 Y120.512 E19.81958
G1 X62.735 Y120.553 E19.89331
G1 X63.969 Y120.41 E19.95204
G1 X64.921 Y120.135 E19.99889
G1 X65.549 Y119.808 E20.03236
G1 X65.904 Y119.502 E20.05452
G1 X66.09 Y119.235 E20.0699
G1 X66.206 Y118.93 E20.08533
G1 X66.251 Y118.626 E20.09986
G1 X66.235 Y118.159 E20.12195
G1 X65.41 Y117.993 E20.16174
G1 X60.158 Y116.837 E20.41598
G1 X59.535 Y116.643 E20.44683
G1 X59.209 Y116.51 E20.46347
G1 X58.493 Y116.124 E20.50193
G1 X58.236 Y115.948 E20.51666
G1 X57.692 Y115.497 E20.55006
G1 X57.475 Y115.28 E20.56457
G1 X57.084 Y114.822 E20.59304
G1 X56.904 Y114.574 E20.60753
G1 X56.611 Y114.1 E20.63388
G1 X56.475 Y113.84 E20.64775
G1 X56.27 Y113.376 E20.67173
G1 X56.136 Y113.008 E20.69025
G1 X55.985 Y112.476 E20.71639
G1 X55.9 Y111.737 E20.75156
G1 X55.93 Y111.115 E20.781
G1 X56.036 Y110.573 E20.80711
G1 X56.219 Y110.051 E20.83326
G1 X56.475 Y109.561 E20.8594
G1 X56.799 Y109.114 E20.8855
G1 X57.185 Y108.717 E20.91168
G1 X57.623 Y108.381 E20.93778
G1 X58.106 Y108.111 E20.96394
G1 X58.622 Y107.913 E20.99007
G1 X59.161 Y107.792 E21.01618
G1 X59.712 Y107.75 E21.04231
G1 X60.264 Y107.788 E21.06847
G1 X60.893 Y107.932 E21.09897
G1 X61.629 Y108.162 E21.13543
G1 X62.01 Y108.228 E21.15371
G1 X67.269 Y109.386 E21.4083
G1 X67.958 Y109.527 E21.44155
G1 X68.618 Y109.483 E21.47282
G1 X69.232 Y109.367 E21.50236
G1 X69.877 Y109.155 E21.53446
G1 X70.404 Y108.912 E21.56189
G1 X70.988 Y108.567 E21.59396
G1 X71.171 Y108.38 E21.60633
G1 X71.289 Y108.28 E21.61364
G1 X71.689 Y107.872 E21.64066
G1 X72.103 Y107.506 E21.66678
G1 X72.566 Y107.204 E21.69292
G1 X73.068 Y106.972 E21.71906
G1 X73.598 Y106.814 E21.74521
G1 X74.201 Y106.731 E21.77398
G1 X170.136 Y101.241 E26.31694
G1 X170.349 Y100.898 E26.33603
G1 X170.715 Y100.192 E26.37363
G1 X171.056 Y99.416 E26.4137
G1 X171.214 Y98.993 E26.43505
G1 X171.304 Y98.786 E26.44572
G1 X171.437 Y98.427 E26.46382
G1 X171.803 Y97.287 E26.52043
G1 X172.009 Y96.774 E26.54656
G1 X172.287 Y96.297 E26.57266
G1 X172.631 Y95.864 E26.59881
G1 X173.034 Y95.485 E26.62496
G1 X173.487 Y95.169 E26.65108
G1 X173.981 Y94.921 E26.67721
G1 X174.506 Y94.747 E26.70336
G1 X175.05 Y94.65 E26.72948
G1 X175.444 Y94.63 E26.74813
G1 X182.139 Y94.629 E27.06465
G1 X182.691 Y94.669 E27.09082
G1 X183.231 Y94.788 E27.11696
G1 X183.748 Y94.983 E27.14308
G1 X184.231 Y95.251 E27.1692
G1 X184.671 Y95.586 E27.19534
G1 X185.058 Y95.981 E27.22149
G1 X185.384 Y96.427 E27.2476
G1 X185.642 Y96.916 E27.27374
G1 X185.827 Y97.437 E27.29988
G1 X185.935 Y97.979 E27.32601
G1 X185.965 Y98.454 E27.34851
G1 X185.965 Y126.471 E28.67308
G1 X185.925 Y127.022 E28.69919
G1 X185.806 Y127.562 E28.72534
G1 X185.61 Y128.079 E28.75148
G1 X185.342 Y128.563 E28.77763
G1 X185.007 Y129.003 E28.80378
G1 X184.613 Y129.389 E28.82985
G1 X184.166 Y129.715 E28.85601
G1 X183.677 Y129.974 E28.88217
G1 X183.156 Y130.159 E28.90831
G1 X182.614 Y130.266 E28.93443
G1 X182.139 Y130.296 E28.95693
G1 X175.46 Y130.295 E29.27269
G1 X174.909 Y130.255 E29.29881
G1 X174.369 Y130.136 E29.32495
G1 X173.852 Y129.94 E29.35109
G1 X173.369 Y129.672 E29.37721
G1 X172.929 Y129.337 E29.40335
G1 X172.542 Y128.942 E29.4295
G1 X172.216 Y128.496 E29.45562
G1 X171.958 Y128.007 E29.48175
G1 X171.76 Y127.437 E29.51028
G1 X171.56 Y126.671 E29.54771
G1 X171.279 Y125.858 E29.58838
G1 X170.969 Y125.153 E29.62479
G1 X170.662 Y124.583 E29.6554
G1 X170.252 Y123.953 E29.69093
G1 X75.053 Y120.469 E34.19469
G1 X74.894 Y121.316 E34.23543
G1 X74.794 Y121.723 E34.25525
G1 X74.608 Y122.354 E34.28635
G1 X74.456 Y122.768 E34.3072
G1 X74.187 Y123.388 E34.33915
G1 X73.972 Y123.81 E34.36154
G1 X73.668 Y124.325 E34.38981
G1 X73.379 Y124.747 E34.41399
G1 X73.046 Y125.17 E34.43945
G1 X72.81 Y125.442 E34.45647
G1 X72.508 Y125.759 E34.47717
G1 X72.246 Y126.01 E34.49432
G1 X71.913 Y126.299 E34.51517
G1 X71.644 Y126.512 E34.53139
G1 X71.093 Y126.902 E34.56331
G1 X69.942 Y127.636 E34.62785
G1 X69.312 Y127.96 E34.66134
G1 X68.061 Y128.463 E34.72508
G1 X67.484 Y128.643 E34.75366
G1 X66.014 Y128.978 E34.82494
G1 X65.528 Y129.057 E34.84822
G1 X63.866 Y129.216 E34.92715
G1 X63.438 Y129.232 E34.9474
G1 X61.633 Y129.202 E35.03275
G1 X61.278 Y129.18 E35.04956
G1 X59.372 Y128.97 E35.14022
G1 X59.061 Y128.923 E35.15509
G1 X57.142 Y128.55 E35.24751
G1 X56.858 Y128.483 E35.26131
G1 X54.948 Y127.958 E35.35495
G1 X54.695 Y127.879 E35.36748
G1 X52.861 Y127.235 E35.45938
G1 X52.622 Y127.142 E35.47151
G1 X50.807 Y126.364 E35.56486
G1 X49.021 Y125.464 E35.65942
G1 X47.38 Y124.503 E35.74932
G1 X46.069 Y123.646 E35.82337
G1 X44.213 Y122.345 E35.93053
G1 X41.895 Y120.96 E36.05819
G1 X40.304 Y119.908 E36.14836
G1 X38.744 Y118.776 E36.23949
G1 X37.46 Y117.767 E36.31669
G1 X37.096 Y117.575 E36.33615
G1 X36.756 Y117.373 E36.35484
G1 X36.492 Y117.197 E36.36985
G1 X36.056 Y116.858 E36.39596
G1 X35.672 Y116.459 E36.42214
G1 X35.351 Y116.009 E36.44827
G1 X35.097 Y115.518 E36.4744
G1 X34.917 Y114.996 E36.50051
G1 X34.814 Y114.452 E36.52668
G1 X34.791 Y113.9 E36.5528
M205 X5 Y5
G0 F7500 X35.245 Y114.212
M205 X8 Y8
G1 F1500 X35.254 Y113.693 E36.57734
G1 X35.343 Y113.182 E36.60187
G1 X35.51 Y112.69 E36.62643
G1 X35.749 Y112.229 E36.65098
G1 X36.057 Y111.811 E36.67553
G1 X36.425 Y111.445 E36.70007
G1 X36.674 Y111.252 E36.71496
G1 X36.946 Y111.061 E36.73067
G1 X37.393 Y110.796 E36.75524
G1 X37.682 Y110.67 E36.77015
G1 X37.923 Y110.578 E36.78234
G1 X38.473 Y110.42 E36.8094
G1 X38.787 Y110.358 E36.82453
G1 X39.337 Y110.296 E36.85069
G1 X39.693 Y110.285 E36.86753
G1 X40.304 Y110.321 E36.89647
G1 X40.692 Y110.38 E36.91502
G1 X41.354 Y110.551 E36.94735
G1 X41.698 Y110.678 E36.96469
G1 X42.17 Y110.895 E36.98925
G1 X42.617 Y111.192 E37.01462
G1 X43.845 Y112.159 E37.08851
G1 X45.126 Y113.085 E37.16324
G1 X46.409 Y113.927 E37.23579
G1 X47.778 Y114.741 E37.31109
G1 X49.091 Y115.551 E37.38403
G1 X50.575 Y116.604 E37.47006
G1 X52.116 Y117.641 E37.55787
G1 X53.819 Y118.638 E37.65117
G1 X55.632 Y119.509 E37.74626
G1 X57.505 Y120.205 E37.84073
G1 X59.393 Y120.701 E37.93301
G1 X61.139 Y120.961 E38.01647
G1 X62.754 Y121.004 E38.09285
G1 X64.056 Y120.853 E38.15482
G1 X65.088 Y120.555 E38.2056
G1 X65.803 Y120.183 E38.24371
G1 X66.241 Y119.805 E38.27106
G1 X66.49 Y119.448 E38.29164
G1 X66.644 Y119.043 E38.31212
G1 X66.702 Y118.649 E38.33095
G1 X66.688 Y118.222 E38.35115
G1 X66.599 Y117.795 E38.37177
G1 X66.105 Y117.674 E38.39581
G1 X65.571 Y117.567 E38.42156
G1 X60.255 Y116.397 E38.6789
G1 X59.705 Y116.226 E38.70613
G1 X59.379 Y116.093 E38.72278
G1 X58.747 Y115.753 E38.75671
G1 X58.49 Y115.577 E38.77143
G1 X58.011 Y115.178 E38.80091
G1 X57.794 Y114.961 E38.81541
G1 X57.449 Y114.557 E38.84053
G1 X57.269 Y114.309 E38.85502
G1 X57.009 Y113.891 E38.87829
G1 X56.873 Y113.631 E38.89216
G1 X56.693 Y113.222 E38.91329
G1 X56.559 Y112.854 E38.93181
G1 X56.419 Y112.354 E38.95635
G1 X56.35 Y111.723 E38.98636
G1 X56.38 Y111.138 E39.01406
G1 X56.487 Y110.63 E39.0386
G1 X56.67 Y110.144 E39.06315
G1 X56.926 Y109.692 E39.08771
G1 X57.248 Y109.285 E39.11225
G1 X57.629 Y108.932 E39.1368
G1 X58.059 Y108.641 E39.16135
G1 X58.529 Y108.42 E39.1859
G1 X59.027 Y108.273 E39.21045
G1 X59.541 Y108.205 E39.23496
G1 X60.061 Y108.217 E39.25955
G1 X60.756 Y108.361 E39.29311
G1 X61.474 Y108.591 E39.32875
G1 X61.913 Y108.668 E39.34983
G1 X67.193 Y109.831 E39.60543
G1 X67.901 Y109.976 E39.6396
G1 X68.673 Y109.93 E39.67616
G1 X69.344 Y109.804 E39.70844
G1 X70.042 Y109.574 E39.74318
G1 X70.617 Y109.309 E39.77312
G1 X71.145 Y108.991 E39.80226
G1 X71.263 Y108.931 E39.80852
G1 X71.493 Y108.695 E39.8241
G1 X71.605 Y108.6 E39.83104
G1 X72.01 Y108.187 E39.85839
G1 X72.401 Y107.846 E39.88291
G1 X72.84 Y107.568 E39.90748
G1 X73.316 Y107.361 E39.93202
G1 X73.818 Y107.229 E39.95656
G1 X74.227 Y107.181 E39.97603
G1 X170.394 Y101.678 E44.52997
G1 X170.743 Y101.114 E44.56133
G1 X171.122 Y100.384 E44.60022
G1 X171.473 Y99.584 E44.64152
G1 X171.635 Y99.151 E44.66337
G1 X171.729 Y98.937 E44.67443
