;FLAVOR:Marlin
;TIME:913
;Filament used: 0.641774m
;Layer height: 0.2
;MINX:46.188
;MINY:97.4
;MINZ:0.28
;MAXX:173.811
;MAXY:122.602
;MAXZ:2.68
;Generated with Cura_SteamEngine main
M82 ;absolute extrusion mode
M201 X500.00 Y500.00 Z100.00 E5000.00 ;Setup machine max acceleration
M203 X500.00 Y500.00 Z10.00 E50.00 ;Setup machine max feedrate
M204 P500.00 R1000.00 T500.00 ;Setup Print/Retract/Travel acceleration
M205 X8.00 Y8.00 Z0.40 E5.00 ;Setup Jerk
M220 S100 ;Reset Feedrate
M221 S100 ;Reset Flowrate

;*** Start Dual Nozzle/Bed Preheating ***
M140 S50 ; start preheating the bed
M104 S210 ?T0 ; start preheating hotend
M190 S50 ; heat to Cura Bed setting and WAIT
M109 S210 ?T0 ; heat to Cura Hotend and WAIT
;*** End Preheating ***


;*** Single Print Start Tone
M300 S1000 P500 ; chirp to indicate starting to print
;*** End Single Start Tone

G28 ;Home

G92 E0 ;Reset Extruder
G1 Z2.0 F3000 ;Move Z Axis up
G1 X10.1 Y20 Z0.28 F5000.0 ;Move to start position
G1 X10.1 Y200.0 Z0.28 F1500.0 E15 ;Draw the first line
G1 X10.4 Y200.0 Z0.28 F5000.0 ;Move to side a little
G1 X10.4 Y20 Z0.28 F1500.0 E30 ;Draw the second line
G92 E0 ;Reset Extruder
G1 Z2.0 F3000 ;Move Z Axis up
G92 E0
G92 E0
G1 F2400 E-2
;LAYER_COUNT:13
;LAYER:0
M107
M204 S500
M205 X5 Y5
;MESH:Quest2_HiddenScrews_wall_mount_Template.stl
G0 F7500 X50.626 Y100.067 Z0.28
M205 X8 Y8
;TYPE:WALL-INNER
G1 F1200 E0
G1 F1500 X51.25 Y100.005 E0.03294
G1 X51.815 Y100.088 E0.06294
G1 X52.331 Y100.288 E0.09201
G1 X52.82 Y100.63 E0.12336
G1 X53.167 Y101.027 E0.15105
G1 X53.458 Y101.584 E0.18406
G1 X53.581 Y102.132 E0.21357
G1 X53.581 Y102.706 E0.24372
G1 X53.459 Y103.229 E0.27193
G1 X53.167 Y103.789 E0.30511
G1 X52.793 Y104.215 E0.33488
G1 X52.295 Y104.546 E0.3663
G1 X51.758 Y104.748 E0.39643
G1 X51.163 Y104.813 E0.42788
G1 X50.582 Y104.729 E0.45871
G1 X50.06 Y104.525 E0.48815
G1 X49.6 Y104.211 E0.51741
G1 X49.225 Y103.786 E0.54718
G1 X48.933 Y103.225 E0.58041
G1 X48.812 Y102.684 E0.60953
G1 X48.812 Y102.111 E0.63963
G1 X48.935 Y101.588 E0.66785
G1 X49.225 Y101.03 E0.70088
G1 X49.597 Y100.607 E0.73048
G1 X50.057 Y100.292 E0.75976
G1 X50.626 Y100.067 E0.7919
M205 X5 Y5
G1 F2400 E-1.2081
G0 F7500 X50.575 Y99.859
G0 X49.941 Y100.171
G0 X49.439 Y100.54
G0 X49.042 Y101.019
G0 X48.773 Y101.571
G0 X48.643 Y102.174
G0 X48.661 Y102.795
G0 X48.827 Y103.388
G0 X49.097 Y103.869
G0 X49.867 Y104.667
G1 F1200 E0.7919
G0 F7500 X50.265 Y104.092
M205 X8 Y8
;TYPE:WALL-OUTER
G1 F1500 X49.931 Y103.863 E0.81105
G1 X49.625 Y103.524 E0.83264
G1 X49.392 Y103.081 E0.8563
G1 X49.283 Y102.621 E0.87865
G1 X49.283 Y102.173 E0.89983
G1 X49.392 Y101.735 E0.92117
G1 X49.625 Y101.292 E0.94484
G1 X49.931 Y100.953 E0.96643
G1 X50.265 Y100.724 E0.98557
G1 X50.72 Y100.539 E1.00879
G1 X51.224 Y100.482 E1.03277
G1 X51.691 Y100.547 E1.05506
G1 X52.093 Y100.706 E1.0755
G1 X52.479 Y100.972 E1.09767
G1 X52.77 Y101.293 E1.11815
G1 X53.002 Y101.735 E1.14175
G1 X53.109 Y102.195 E1.16408
G1 X53.109 Y102.643 E1.18526
G1 X53.002 Y103.081 E1.20657
G1 X52.762 Y103.53 E1.23064
G1 X52.476 Y103.852 E1.251
G1 X52.08 Y104.122 E1.27366
G1 X51.665 Y104.278 E1.29462
G1 X51.168 Y104.334 E1.31827
G1 X50.705 Y104.272 E1.34035
G1 X50.265 Y104.092 E1.36283
M205 X5 Y5
G0 F7500 X50.1 Y103.979
G1 F2400 E-0.63717
G0 F7500 X49.744 Y104.494
G0 X50.013 Y104.672
G0 X51.046 Y105.03
G0 X53.025 Y116.012
G0 X52.645 Y116.823
G0 X52.516 Y117.425
G0 X52.53 Y117.927
G0 X52.682 Y118.554
G1 F1200 E1.36283
G0 F7500 X52.817 Y118.506
M205 X8 Y8
;TYPE:WALL-INNER
G1 F1500 X52.682 Y117.935 E1.39365
G1 X52.68 Y117.454 E1.41892
G1 X52.688 Y117.342 E1.42482
G1 X52.808 Y116.835 E1.45219
G1 X53.094 Y116.287 E1.48466
G1 X53.472 Y115.854 E1.51485
G1 X53.97 Y115.521 E1.54632
G1 X54.514 Y115.317 E1.57684
G1 X55.125 Y115.257 E1.60909
G1 X55.683 Y115.337 E1.6387
G1 X56.211 Y115.544 E1.66849
G1 X56.657 Y115.848 E1.69685
G1 X57.03 Y116.264 E1.7262
G1 X57.324 Y116.819 E1.75919
G1 X57.453 Y117.371 E1.78897
G1 X57.459 Y117.932 E1.81844
G1 X57.317 Y118.514 E1.84991
G1 X57.036 Y119.044 E1.88142
G1 X56.663 Y119.465 E1.91097
G1 X56.215 Y119.771 E1.93947
G1 X55.666 Y119.994 E1.97059
G1 X55.107 Y120.062 E2.00017
G1 X54.5 Y120.001 E2.03222
G1 X53.94 Y119.78 E2.06384
G1 X53.48 Y119.47 E2.09298
G1 X53.107 Y119.051 E2.12245
G1 X52.817 Y118.506 E2.15488
M205 X5 Y5
G1 F2400 E0.15488
G0 F7500 X52.613 Y118.582
G0 X52.516 Y117.893
G0 X52.534 Y117.273
G0 X52.699 Y116.679
G0 X52.999 Y116.144
G0 X53.864 Y115.328
G1 F1200 E2.15488
G0 F7500 X54.186 Y115.945
M205 X8 Y8
;TYPE:WALL-OUTER
G1 F1500 X54.6 Y115.789 E2.1758
G1 X55.097 Y115.733 E2.19944
G1 X55.562 Y115.796 E2.22163
G1 X55.996 Y115.972 E2.24377
G1 X56.352 Y116.219 E2.26425
G1 X56.646 Y116.554 E2.28533
G1 X56.879 Y117.001 E2.30916
G1 X56.982 Y117.442 E2.33057
G1 X56.982 Y117.895 E2.35198
G1 X56.877 Y118.323 E2.37282
G1 X56.644 Y118.771 E2.39669
G1 X56.347 Y119.105 E2.41782
G1 X56.01 Y119.336 E2.43714
G1 X55.545 Y119.53 E2.46096
G1 X55.095 Y119.585 E2.48239
G1 X54.592 Y119.529 E2.50632
G1 X54.146 Y119.348 E2.52908
G1 X53.782 Y119.096 E2.55001
G1 X53.491 Y118.764 E2.57088
G1 X53.258 Y118.317 E2.59471
G1 X53.155 Y117.861 E2.61681
G1 X53.155 Y117.454 E2.63605
G1 X53.157 Y117.418 E2.63776
G1 X53.264 Y116.984 E2.65889
G1 X53.501 Y116.54 E2.68269
G1 X53.808 Y116.2 E2.70434
G1 X54.186 Y115.945 E2.7259
M205 X5 Y5
G0 F7500 X54.373 Y115.875
G1 F2400 E0.7259
G0 F7500 X54.151 Y115.288
G0 X54.526 Y115.153
G0 X55.145 Y115.096
G0 X55.759 Y115.19
G0 X56.324 Y115.422
G0 X56.826 Y115.791
G0 X57.223 Y116.27
G0 X57.666 Y117.266
G0 X58.846 Y116.935
G0 X59.487 Y117.625
G1 F1200 E2.7259
G0 F7500 X59.52 Y117.474
M205 X8 Y8
;TYPE:WALL-INNER
G1 F1500 X59.358 Y117.347 E2.73671
G1 X59.149 Y117.054 E2.75562
G1 X58.764 Y115.901 E2.81947
G1 X58.236 Y115.067 E2.87133
G1 X57.524 Y114.386 E2.92308
G1 X56.42 Y113.74 E2.99027
G1 X56.146 Y113.404 E3.01305
G1 X54.209 Y105.704 E3.43013
G1 X54.198 Y105.505 E3.4406
G1 X54.268 Y105.186 E3.45776
G1 X54.378 Y104.978 E3.47012
G1 X54.77 Y104.467 E3.50395
G1 X55.181 Y103.474 E3.5604
G1 X55.323 Y102.406 E3.617
G1 X55.182 Y101.34 E3.67348
G1 X54.77 Y100.348 E3.72991
G1 X54.115 Y99.493 E3.78649
G1 X53.256 Y98.834 E3.84336
G1 X52.262 Y98.423 E3.89986
G1 X51.196 Y98.28 E3.95636
G1 X50.13 Y98.423 E4.01286
G1 X49.137 Y98.834 E4.06931
G1 X48.277 Y99.493 E4.12623
G1 X47.622 Y100.348 E4.18281
G1 X47.211 Y101.34 E4.23921
G1 X47.07 Y102.41 E4.2959
G1 X47.211 Y103.474 E4.35229
G1 X47.622 Y104.468 E4.40879
G1 X48.277 Y105.324 E4.46541
G1 X49.137 Y105.982 E4.52229
G1 X49.776 Y106.246 E4.55861
G1 X50.039 Y106.553 E4.57984
G1 X50.136 Y106.724 E4.59017
G1 X52.062 Y114.386 E5.00518
G1 X52.074 Y114.553 E5.01397
G1 X52.004 Y114.971 E5.03624
G1 X51.521 Y115.62 E5.07874
G1 X51.137 Y116.525 E5.13038
G1 X50.978 Y117.503 E5.18243
G1 X51.059 Y118.481 E5.23398
G1 X51.373 Y119.417 E5.28584
G1 X51.901 Y120.251 E5.33769
G1 X52.614 Y120.933 E5.38952
G1 X53.467 Y121.425 E5.44125
G1 X54.417 Y121.699 E5.49319
G1 X54.997 Y121.724 E5.52368
G1 X164.926 Y121.726 E11.29828
G1 X165.582 Y121.7 E11.33276
G1 X166.534 Y121.424 E11.38483
G1 X167.386 Y120.933 E11.43649
G1 X168.099 Y120.251 E11.48832
G1 X168.627 Y119.417 E11.54017
G1 X168.941 Y118.481 E11.59203
G1 X169.022 Y117.497 E11.64389
G1 X168.864 Y116.525 E11.69562
G1 X168.479 Y115.62 E11.74729
G1 X168.001 Y114.982 E11.78916
G1 X167.927 Y114.576 E11.81084
G1 X167.933 Y114.413 E11.81941
G1 X169.865 Y106.734 E12.23536
G1 X169.941 Y106.582 E12.24429
G1 X170.157 Y106.322 E12.26204
G1 X170.306 Y106.212 E12.27177
G1 X170.863 Y105.982 E12.30343
G1 X171.723 Y105.323 E12.36034
G1 X172.378 Y104.468 E12.41692
G1 X172.789 Y103.474 E12.47342
G1 X172.93 Y102.406 E12.53001
G1 X172.789 Y101.34 E12.5865
G1 X172.378 Y100.348 E12.6429
G1 X171.723 Y99.493 E12.69948
G1 X170.863 Y98.834 E12.7564
G1 X169.87 Y98.423 E12.81285
G1 X168.804 Y98.28 E12.86935
G1 X167.738 Y98.423 E12.92585
G1 X166.744 Y98.834 E12.98235
G1 X165.885 Y99.493 E13.03922
G1 X165.23 Y100.349 E13.09584
G1 X164.819 Y101.34 E13.1522
G1 X164.676 Y102.41 E13.20891
G1 X164.819 Y103.474 E13.2653
G1 X165.23 Y104.468 E13.3218
G1 X165.665 Y105.038 E13.35947
G1 X165.744 Y105.213 E13.36955
G1 X165.813 Y105.604 E13.39041
G1 X163.858 Y113.39 E13.81211
G1 X163.63 Y113.683 E13.83161
G1 X163.48 Y113.804 E13.84173
G1 X162.476 Y114.386 E13.90269
G1 X161.764 Y115.067 E13.95445
G1 X161.236 Y115.901 E14.0063
G1 X160.854 Y117.045 E14.06966
G1 X160.655 Y117.335 E14.08813
G1 X160.463 Y117.49 E14.1011
G1 X160.107 Y117.602 E14.1207
G1 X59.982 Y117.602 E19.38029
G1 X59.767 Y117.569 E19.39172
G1 X59.52 Y117.474 E19.40562
M205 X5 Y5
G0 F7500 X59.755 Y117.061
M205 X8 Y8
;TYPE:WALL-OUTER
G1 F1500 X59.59 Y116.865 E19.41773
G1 X59.197 Y115.696 E19.47604
G1 X58.606 Y114.764 E19.52821
G1 X57.811 Y114.003 E19.58024
G1 X56.744 Y113.383 E19.63858
G1 X56.58 Y113.171 E19.65125
G1 X54.669 Y105.59 E20.02087
G1 X54.725 Y105.307 E20.03451
G1 X55.185 Y104.707 E20.07026
G1 X55.644 Y103.599 E20.12696
G1 X55.802 Y102.406 E20.18385
G1 X55.644 Y101.215 E20.24065
G1 X55.185 Y100.109 E20.29726
G1 X54.454 Y99.154 E20.35412
G1 X53.496 Y98.419 E20.41121
G1 X52.387 Y97.96 E20.46795
G1 X51.196 Y97.801 E20.52476
G1 X50.005 Y97.96 E20.58157
G1 X48.897 Y98.419 E20.63827
G1 X47.938 Y99.154 E20.69539
G1 X47.207 Y100.109 E20.75225
G1 X46.748 Y101.215 E20.80886
G1 X46.591 Y102.41 E20.86584
G1 X46.748 Y103.599 E20.92254
G1 X47.207 Y104.707 E20.97924
G1 X47.938 Y105.662 E21.0361
G1 X48.898 Y106.398 E21.09329
G1 X49.483 Y106.639 E21.1232
G1 X49.677 Y106.857 E21.137
G1 X51.599 Y114.501 E21.50963
G1 X51.545 Y114.786 E21.52335
G1 X51.106 Y115.382 E21.55834
G1 X50.677 Y116.392 E21.61022
G1 X50.5 Y117.484 E21.66252
G1 X50.591 Y118.577 E21.71438
G1 X50.94 Y119.623 E21.76651
G1 X51.531 Y120.554 E21.81864
G1 X52.327 Y121.316 E21.87074
G1 X53.279 Y121.865 E21.92269
G1 X54.341 Y122.172 E21.97496
G1 X55.082 Y122.201 E22.01002
G1 X164.945 Y122.201 E27.20403
G1 X165.659 Y122.172 E27.23782
G1 X166.721 Y121.865 E27.29008
G1 X167.674 Y121.316 E27.34208
G1 X168.469 Y120.554 E27.39414
G1 X169.06 Y119.623 E27.44628
G1 X169.409 Y118.577 E27.49841
G1 X169.5 Y117.478 E27.55054
G1 X169.324 Y116.392 E27.60256
G1 X168.894 Y115.382 E27.65445
G1 X168.456 Y114.788 E27.68934
G1 X168.396 Y114.514 E27.70261
G1 X170.313 Y106.892 E28.07417
G1 X170.525 Y106.639 E28.08978
G1 X171.102 Y106.398 E28.11934
G1 X172.062 Y105.662 E28.17653
G1 X172.793 Y104.707 E28.23339
G1 X173.252 Y103.599 E28.29009
G1 X173.409 Y102.406 E28.34698
G1 X173.252 Y101.215 E28.40377
G1 X172.793 Y100.109 E28.46039
G1 X172.062 Y99.154 E28.51724
G1 X171.103 Y98.419 E28.57437
G1 X169.995 Y97.96 E28.63107
G1 X168.804 Y97.801 E28.68787
G1 X167.613 Y97.96 E28.74468
G1 X166.504 Y98.419 E28.80142
G1 X165.546 Y99.154 E28.85851
G1 X164.815 Y100.109 E28.91537
G1 X164.356 Y101.216 E28.97203
G1 X164.197 Y102.41 E29.02897
G1 X164.356 Y103.599 E29.08569
G1 X164.815 Y104.707 E29.14239
G1 X165.259 Y105.287 E29.17692
G1 X165.332 Y105.587 E29.19152
G1 X163.424 Y113.16 E29.56073
G1 X163.261 Y113.379 E29.57364
G1 X162.189 Y114.003 E29.63228
G1 X161.394 Y114.764 E29.68431
G1 X160.803 Y115.696 E29.73649
G1 X160.411 Y116.863 E29.79469
G1 X160.251 Y117.057 E29.80658
G1 X160.057 Y117.124 E29.81628
G1 X59.941 Y117.127 E34.54949
G1 X59.755 Y117.061 E34.55882
M205 X5 Y5
G0 F7500 X59.627 Y116.908
G1 F2400 E32.55882
G0 F7500 X59.121 Y117.288
G0 X59.911 Y117.366
G0 X66.216 Y117.326
G0 X160.018 Y117.852
G0 X162.337 Y117.232
G0 X162.545 Y116.762
G1 F1200 E34.55882
G0 F7500 X162.681 Y116.81
M205 X8 Y8
;TYPE:WALL-INNER
G1 F1500 X162.972 Y116.265 E34.59127
G1 X163.346 Y115.847 E34.62073
G1 X163.796 Y115.542 E34.64929
G1 X164.347 Y115.32 E34.6805
G1 X164.942 Y115.256 E34.71193
G1 X165.563 Y115.34 E34.74485
G1 X166.07 Y115.547 E34.77362
G1 X166.543 Y115.873 E34.80379
G1 X166.9 Y116.278 E34.83215
G1 X167.196 Y116.839 E34.86547
G1 X167.32 Y117.399 E34.8956
G1 X167.32 Y117.951 E34.9246
G1 X167.186 Y118.502 E34.95439
G1 X166.897 Y119.046 E34.98675
G1 X166.525 Y119.466 E35.01622
G1 X166.032 Y119.8 E35.0475
G1 X165.506 Y119.998 E35.07702
G1 X164.947 Y120.062 E35.10658
G1 X164.346 Y119.999 E35.13832
G1 X163.784 Y119.771 E35.17018
G1 X163.337 Y119.464 E35.19867
G1 X162.963 Y119.043 E35.22825
G1 X162.67 Y118.485 E35.26136
G1 X162.547 Y117.932 E35.29112
G1 X162.542 Y117.454 E35.31623
G1 X162.546 Y117.367 E35.3208
G1 X162.681 Y116.81 E35.35091
M205 X5 Y5
G1 F2400 E33.35091
G0 F7500 X162.478 Y116.733
G0 X162.862 Y116.144
G0 X163.289 Y115.69
G0 X164.294 Y115.114
G1 F1200 E35.35091
G0 F7500 X164.463 Y115.788
M205 X8 Y8
;TYPE:WALL-OUTER
G1 F1500 X164.96 Y115.733 E35.37455
G1 X165.422 Y115.797 E35.3966
G1 X165.847 Y115.967 E35.41824
G1 X166.227 Y116.232 E35.44014
G1 X166.499 Y116.54 E35.45957
G1 X166.736 Y116.984 E35.48336
G1 X166.843 Y117.439 E35.50546
G1 X166.845 Y117.883 E35.52645
G1 X166.742 Y118.317 E35.54754
G1 X166.509 Y118.764 E35.57137
G1 X166.218 Y119.096 E35.59224
G1 X165.825 Y119.368 E35.61484
G1 X165.408 Y119.528 E35.63596
G1 X164.964 Y119.583 E35.65711
G1 X164.46 Y119.533 E35.68105
G1 X163.99 Y119.336 E35.70515
G1 X163.653 Y119.105 E35.72446
G1 X163.358 Y118.773 E35.74546
G1 X163.13 Y118.339 E35.76864
G1 X163.018 Y117.871 E35.79139
G1 X163.017 Y117.454 E35.8111
G1 X163.019 Y117.42 E35.81271
G1 X163.121 Y117.001 E35.8331
G1 X163.354 Y116.554 E35.85693
G1 X163.648 Y116.22 E35.87797
G1 X163.99 Y115.982 E35.89767
G1 X164.463 Y115.788 E35.92184
M205 X5 Y5
G0 F7500 X164.661 Y115.766
G1 F2400 E33.92184
G0 F7500 X164.583 Y115.145
G0 X165.08 Y115.037
G0 X168.02 Y104.916
G0 X167.05 Y104.28
G0 X166.649 Y103.797
G0 X166.38 Y103.244
G0 X166.251 Y102.642
G0 X166.269 Y102.022
G0 X166.434 Y101.428
G0 X166.734 Y100.893
G0 X167.167 Y100.435
G0 X167.582 Y100.167
G0 X168.2 Y99.929
G1 F1200 E35.92184
G0 F7500 X168.238 Y100.067
M205 X8 Y8
;TYPE:WALL-INNER
G1 F1500 X168.858 Y100.005 E35.95457
G1 X169.423 Y100.088 E35.98457
G1 X169.941 Y100.289 E36.01375
G1 X170.408 Y100.608 E36.04346
G1 X170.774 Y101.026 E36.07265
G1 X171.065 Y101.585 E36.10575
G1 X171.188 Y102.133 E36.13525
G1 X171.195 Y102.681 E36.16404
G1 X171.064 Y103.232 E36.19379
G1 X170.773 Y103.79 E36.22685
G1 X170.395 Y104.216 E36.25677
G1 X169.944 Y104.523 E36.28543
G1 X169.391 Y104.746 E36.31675
G1 X168.767 Y104.814 E36.34972
G1 X168.17 Y104.727 E36.38142
G1 X167.668 Y104.521 E36.40992
G1 X167.206 Y104.213 E36.43909
G1 X166.832 Y103.786 E36.46891
G1 X166.542 Y103.23 E36.50185
G1 X166.42 Y102.684 E36.53124
G1 X166.415 Y102.203 E36.5565
G1 X166.42 Y102.11 E36.5614
G1 X166.542 Y101.587 E36.58961
G1 X166.832 Y101.03 E36.62259
G1 X167.204 Y100.607 E36.65218
G1 X167.699 Y100.269 E36.68367
G1 X168.238 Y100.067 E36.71391
M205 X5 Y5
G0 F7500 X167.9 Y100.705
M205 X8 Y8
;TYPE:WALL-OUTER
G1 F1500 X168.329 Y100.539 E36.73566
G1 X168.832 Y100.482 E36.75959
G1 X169.299 Y100.547 E36.78188
G1 X169.735 Y100.724 E36.80413
G1 X170.069 Y100.952 E36.82324
G1 X170.37 Y101.287 E36.84454
G1 X170.609 Y101.735 E36.86854
G1 X170.717 Y102.195 E36.89088
G1 X170.717 Y102.643 E36.91206
G1 X170.609 Y103.081 E36.93339
G1 X170.37 Y103.529 E36.95739
G1 X170.069 Y103.863 E36.97865
G1 X169.735 Y104.092 E36.9978
G1 X169.272 Y104.279 E37.0214
G1 X168.775 Y104.334 E37.04504
G1 X168.313 Y104.27 E37.0671
G1 X167.889 Y104.101 E37.08867
G1 X167.524 Y103.852 E37.10956
G1 X167.238 Y103.53 E37.12992
G1 X166.999 Y103.081 E37.15397
G1 X166.891 Y102.621 E37.17631
G1 X166.89 Y102.203 E37.19607
G1 X166.891 Y102.173 E37.19749
G1 X166.999 Y101.735 E37.21882
G1 X167.238 Y101.287 E37.24283
G1 X167.535 Y100.955 E37.26389
G1 X167.9 Y100.705 E37.2848
M205 X5 Y5
G0 F7500 X168.086 Y100.633
G0 X167.839 Y99.979
G0 X167.05 Y100.536
G0 X166.649 Y101.019
G0 X166.38 Y101.572
G0 X166.251 Y102.174
G0 X166.269 Y102.794
G0 X166.434 Y103.388
G0 X166.734 Y103.923
G0 X167.167 Y104.381
G0 X167.681 Y104.713
G0 X168.261 Y104.914
G0 X168.762 Y104.959
G0 X169.39 Y104.891
G0 X169.411 Y105.024
M205 X8 Y8
;TYPE:SKIN
G1 F1500 X168.71 Y105.082 E37.30549
G1 X168.099 Y104.992 E37.32366
G1 X167.543 Y104.765 E37.34133
G1 X167.024 Y104.417 E37.35971
G1 X166.605 Y103.943 E37.37832
G1 X166.282 Y103.318 E37.39901
G1 X166.143 Y102.691 E37.41791
G1 X166.142 Y102.123 E37.43462
