;FLAVOR:Marlin
;TIME:4640
;Filament used: 5.9347m
;Layer height: 0.2
;MINX:33.585
;MINY:89.437
;MINZ:0.28
;MAXX:185.687
;MAXY:131.422
;MAXZ:24.28
;Generated with Cura_SteamEngine main
M82 ;absolute extrusion mode
M201 X500.00 Y500.00 Z100.00 E5000.00 ;Setup machine max acceleration
M203 X500.00 Y500.00 Z10.00 E50.00 ;Setup machine max feedrate
M204 P500.00 R1000.00 T500.00 ;Setup Print/Retract/Travel acceleration
M205 X8.00 Y8.00 Z0.40 E5.00 ;Setup Jerk
M220 S100 ;Reset Feedrate
M221 S100 ;Reset Flowrate

;*** Start Dual Nozzle/Bed Preheating ***
M140 S50 ; start preheating the bed
M104 S210 ?T0 ; start preheating hotend
M190 S50 ; heat to Cura Bed setting and WAIT
M109 S210 ?T0 ; heat to Cura Hotend and WAIT
;*** End Preheating ***


;*** Single Print Start Tone
M300 S1000 P500 ; chirp to indicate starting to print
;*** End Single Start Tone

G28 ;Home

G92 E0 ;Reset Extruder
G1 Z2.0 F3000 ;Move Z Axis up
G1 X10.1 Y20 Z0.28 F5000.0 ;Move to start position
G1 X10.1 Y200.0 Z0.28 F1500.0 E15 ;Draw the first line
G1 X10.4 Y200.0 Z0.28 F5000.0 ;Move to side a little
G1 X10.4 Y20 Z0.28 F1500.0 E30 ;Draw the second line
G92 E0 ;Reset Extruder
G1 Z2.0 F3000 ;Move Z Axis up
G92 E0
G92 E0
G1 F2400 E-2
;LAYER_COUNT:121
;LAYER:0
M107
M204 S500
M205 X5 Y5
G0 F7500 X36.437 Y94.423 Z0.28
G0 X33.585 Y98.454
M205 X8 Y8
;TYPE:SKIRT
G1 F1200 E0
G1 F1500 X33.625 Y97.871 E0.02763
G1 X33.744 Y97.299 E0.05525
G1 X33.94 Y96.748 E0.0829
G1 X34.209 Y96.229 E0.11053
G1 X34.547 Y95.752 E0.13817
G1 X34.946 Y95.326 E0.16577
G1 X35.4 Y94.957 E0.19343
G1 X35.9 Y94.655 E0.22104
G1 X36.437 Y94.423 E0.2487
G1 X37 Y94.266 E0.27633
G1 X37.86 Y94.179 E0.3172
G1 X44.555 Y94.179 E0.63372
G1 X45.138 Y94.219 E0.66135
G1 X45.71 Y94.338 E0.68897
G1 X46.261 Y94.534 E0.71662
G1 X46.78 Y94.803 E0.74425
G1 X47.257 Y95.141 E0.77189
G1 X47.683 Y95.54 E0.79949
G1 X48.052 Y95.994 E0.82715
G1 X48.354 Y96.494 E0.85476
G1 X48.626 Y97.15 E0.88834
G1 X48.989 Y98.283 E0.94458
G1 X49.123 Y98.641 E0.96265
G1 X49.206 Y98.83 E0.97241
G1 X49.363 Y99.251 E0.99366
G1 X49.693 Y100 E1.03235
G1 X50.112 Y100.804 E1.07521
G1 X145.822 Y106.282 E5.60752
G1 X146.402 Y106.355 E5.63516
G1 X146.967 Y106.507 E5.66282
G1 X147.505 Y106.734 E5.69043
G1 X148.008 Y107.032 E5.71807
G1 X148.624 Y107.55 E5.75612
G1 X149.018 Y107.95 E5.78266
G1 X149.287 Y108.205 E5.80019
G1 X149.746 Y108.48 E5.82548
G1 X150.316 Y108.745 E5.8552
G1 X150.823 Y108.913 E5.88045
G1 X151.456 Y109.037 E5.91095
G1 X152.017 Y109.073 E5.93752
G1 X152.637 Y108.948 E5.96743
G1 X157.894 Y107.79 E6.22192
G1 X158.282 Y107.721 E6.24055
G1 X159.006 Y107.492 E6.27645
G1 X159.573 Y107.351 E6.30407
G1 X160.154 Y107.288 E6.3317
G1 X160.738 Y107.306 E6.35933
G1 X161.315 Y107.403 E6.38699
G1 X161.872 Y107.577 E6.41458
G1 X162.401 Y107.826 E6.44222
G1 X162.891 Y108.145 E6.46986
G1 X163.333 Y108.528 E6.49751
G1 X163.718 Y108.967 E6.52512
G1 X164.04 Y109.455 E6.55276
G1 X164.292 Y109.982 E6.58037
G1 X164.47 Y110.539 E6.60802
G1 X164.571 Y111.115 E6.63567
G1 X164.592 Y111.699 E6.66329
G1 X164.533 Y112.28 E6.6909
G1 X164.337 Y113.021 E6.72714
G1 X164.153 Y113.527 E6.7526
G1 X163.923 Y114.047 E6.77948
G1 X163.787 Y114.307 E6.79335
G1 X163.459 Y114.837 E6.82282
G1 X163.279 Y115.085 E6.8373
G1 X162.842 Y115.597 E6.86913
G1 X162.625 Y115.814 E6.88364
G1 X162.017 Y116.318 E6.92097
G1 X161.76 Y116.494 E6.9357
G1 X161.257 Y116.791 E6.96332
G1 X160.96 Y116.925 E6.97872
G1 X160.634 Y117.058 E6.99537
G1 X159.938 Y117.275 E7.02983
G1 X154.607 Y118.448 E7.2879
G1 X154.201 Y118.529 E7.30747
G1 X154.235 Y118.817 E7.32118
G1 X154.312 Y119.02 E7.33144
G1 X154.436 Y119.197 E7.34166
G1 X154.714 Y119.438 E7.35906
G1 X155.248 Y119.716 E7.38752
G1 X156.12 Y119.968 E7.43043
G1 X157.283 Y120.101 E7.48577
G1 X158.783 Y120.063 E7.55671
G1 X160.427 Y119.819 E7.63529
G1 X162.231 Y119.343 E7.72349
G1 X164.015 Y118.68 E7.81347
G1 X165.774 Y117.835 E7.90573
G1 X167.395 Y116.887 E7.99451
G1 X168.941 Y115.845 E8.08265
G1 X170.3 Y114.881 E8.16143
G1 X170.532 Y114.727 E8.17459
G1 X171.807 Y113.942 E8.24538
G1 X173.126 Y113.158 E8.31792
G1 X174.384 Y112.33 E8.38912
G1 X175.624 Y111.435 E8.46142
G1 X176.829 Y110.486 E8.53394
G1 X177.312 Y110.157 E8.56156
G1 X177.995 Y109.834 E8.59728
G1 X178.337 Y109.708 E8.61451
G1 X179.153 Y109.496 E8.65437
G1 X179.542 Y109.435 E8.67299
G1 X180.336 Y109.385 E8.7106
G1 X180.693 Y109.396 E8.72749
G1 X181.368 Y109.471 E8.7596
G1 X181.68 Y109.531 E8.77462
G1 X182.401 Y109.736 E8.81005
G1 X182.644 Y109.829 E8.82236
G1 X183.174 Y110.075 E8.84998
G1 X183.597 Y110.341 E8.8736
G1 X183.893 Y110.552 E8.89079
G1 X184.345 Y110.923 E8.91844
G1 X184.742 Y111.352 E8.94607
G1 X185.076 Y111.831 E8.97368
G1 X185.342 Y112.352 E9.00133
G1 X185.535 Y112.903 E9.02893
G1 X185.651 Y113.476 E9.05657
G1 X185.687 Y114.06 E9.08424
G1 X185.643 Y114.643 E9.11188
G1 X185.521 Y115.214 E9.13948
G1 X185.321 Y115.763 E9.16711
G1 X185.049 Y116.28 E9.19472
G1 X184.708 Y116.755 E9.22237
G1 X184.306 Y117.18 E9.25003
G1 X183.85 Y117.545 E9.27764
G1 X183.415 Y117.81 E9.30172
G1 X182.789 Y118.142 E9.33522
G1 X181.532 Y119.13 E9.41081
G1 X179.958 Y120.272 E9.50275
G1 X178.188 Y121.438 E9.60295
G1 X176.011 Y122.734 E9.72273
G1 X174.189 Y124.013 E9.82798
G1 X172.867 Y124.878 E9.90267
G1 X171.297 Y125.798 E9.9887
G1 X171.07 Y125.922 E10.00093
G1 X169.506 Y126.71 E10.08372
G1 X169.265 Y126.822 E10.09629
G1 X167.554 Y127.555 E10.18429
G1 X167.287 Y127.659 E10.19783
G1 X165.453 Y128.303 E10.28973
G1 X165.168 Y128.392 E10.30385
G1 X163.258 Y128.916 E10.39748
G1 X162.947 Y128.989 E10.41259
G1 X161.029 Y129.364 E10.50498
G1 X160.68 Y129.417 E10.52167
G1 X158.775 Y129.628 E10.61228
G1 X158.373 Y129.653 E10.63132
G1 X156.567 Y129.682 E10.71672
G1 X156.091 Y129.664 E10.73924
G1 X154.429 Y129.505 E10.81817
G1 X153.887 Y129.417 E10.84413
G1 X152.415 Y129.082 E10.9155
G1 X151.771 Y128.881 E10.9474
G1 X150.518 Y128.378 E11.01123
G1 X149.813 Y128.016 E11.0487
G1 X148.743 Y127.334 E11.10869
G1 X148.196 Y126.955 E11.14015
G1 X147.908 Y126.734 E11.15731
G1 X147.57 Y126.451 E11.17815
G1 X147.262 Y126.166 E11.19799
G1 X146.955 Y125.853 E11.21872
G1 X146.692 Y125.56 E11.23733
G1 X146.42 Y125.226 E11.2577
G1 X146.18 Y124.9 E11.27684
G1 X145.943 Y124.545 E11.29702
G1 X145.747 Y124.221 E11.31492
G1 X145.524 Y123.813 E11.3369
G1 X145.353 Y123.464 E11.35528
G1 X145.127 Y122.943 E11.38212
G1 X144.943 Y122.431 E11.40785
G1 X144.769 Y121.83 E11.43743
G1 X144.655 Y121.369 E11.45988
G1 X144.572 Y120.934 E11.48081
G1 X49.998 Y124.394 E15.955
G1 X49.715 Y124.83 E15.97957
G1 X49.435 Y125.351 E16.00754
G1 X49.134 Y126.038 E16.043
G1 X48.877 Y126.785 E16.08035
G1 X48.672 Y127.561 E16.11829
G1 X48.485 Y128.115 E16.14593
G1 X48.224 Y128.638 E16.17357
G1 X47.894 Y129.12 E16.20118
G1 X47.501 Y129.553 E16.22883
G1 X47.053 Y129.928 E16.25645
G1 X46.558 Y130.238 E16.28406
G1 X46.025 Y130.479 E16.31172
G1 X45.464 Y130.644 E16.33936
G1 X44.886 Y130.731 E16.367
G1 X44.54 Y130.745 E16.38337
G1 X37.861 Y130.746 E16.69913
G1 X37.278 Y130.706 E16.72676
G1 X36.705 Y130.587 E16.75443
G1 X36.155 Y130.391 E16.78203
G1 X35.636 Y130.122 E16.80967
G1 X35.159 Y129.784 E16.83731
G1 X34.732 Y129.385 E16.86494
G1 X34.364 Y128.931 E16.89257
G1 X34.061 Y128.431 E16.92021
G1 X33.829 Y127.895 E16.94782
G1 X33.673 Y127.332 E16.97544
G1 X33.585 Y126.471 E17.01636
G1 X33.585 Y98.454 E18.34092
M205 X5 Y5
G0 F7500 X34.035 Y98.454
M205 X8 Y8
G1 F1500 X34.075 Y97.903 E18.36704
G1 X34.194 Y97.363 E18.39318
G1 X34.39 Y96.846 E18.41932
G1 X34.658 Y96.362 E18.44548
G1 X34.993 Y95.922 E18.47163
G1 X35.387 Y95.536 E18.4977
G1 X35.834 Y95.21 E18.52386
G1 X36.323 Y94.951 E18.55002
G1 X36.844 Y94.766 E18.57616
G1 X37.386 Y94.659 E18.60228
G1 X37.86 Y94.629 E18.62473
G1 X44.555 Y94.629 E18.94125
G1 X45.106 Y94.669 E18.96737
G1 X45.646 Y94.788 E18.99351
G1 X46.163 Y94.984 E19.01965
G1 X46.647 Y95.252 E19.04581
G1 X47.087 Y95.587 E19.07195
G1 X47.473 Y95.981 E19.09803
G1 X47.799 Y96.428 E19.12419
G1 X48.058 Y96.917 E19.15035
G1 X48.198 Y97.288 E19.16909
G1 X48.569 Y98.448 E19.22667
G1 X48.696 Y98.785 E19.2437
G1 X48.784 Y98.987 E19.25412
G1 X48.947 Y99.423 E19.27612
G1 X49.282 Y100.182 E19.31534
G1 X49.667 Y100.922 E19.35478
G1 X49.865 Y101.241 E19.37253
G1 X145.797 Y106.731 E23.91535
G1 X146.345 Y106.803 E23.94148
G1 X146.877 Y106.952 E23.9676
G1 X147.382 Y107.177 E23.99374
G1 X147.849 Y107.472 E24.01985
G1 X148.303 Y107.866 E24.04827
G1 X148.691 Y108.26 E24.07441
G1 X148.811 Y108.363 E24.08189
G1 X149.016 Y108.57 E24.09566
G1 X149.099 Y108.613 E24.10008
G1 X149.529 Y108.875 E24.12389
G1 X150.151 Y109.164 E24.15631
G1 X150.715 Y109.35 E24.18439
G1 X151.394 Y109.484 E24.21711
G1 X152.053 Y109.527 E24.24833
G1 X152.712 Y109.391 E24.28015
G1 X157.991 Y108.229 E24.5357
G1 X158.376 Y108.162 E24.55417
G1 X159.144 Y107.92 E24.59224
G1 X159.681 Y107.789 E24.61837
G1 X160.231 Y107.736 E24.6445
G1 X160.783 Y107.763 E24.67062
G1 X161.326 Y107.87 E24.69679
G1 X161.847 Y108.054 E24.72291
G1 X162.337 Y108.31 E24.74905
G1 X162.784 Y108.635 E24.77518
G1 X163.18 Y109.021 E24.80132
G1 X163.516 Y109.46 E24.82746
G1 X163.785 Y109.943 E24.85359
G1 X163.982 Y110.459 E24.87971
G1 X164.103 Y110.999 E24.90587
G1 X164.144 Y111.55 E24.93199
G1 X164.105 Y112.102 E24.95815
G1 X163.914 Y112.867 E24.99543
G1 X163.73 Y113.373 E25.02089
G1 X163.524 Y113.839 E25.04497
G1 X163.388 Y114.099 E25.05885
G1 X163.095 Y114.573 E25.08519
G1 X162.915 Y114.821 E25.09968
G1 X162.524 Y115.279 E25.12815
G1 X162.307 Y115.496 E25.14266
G1 X161.763 Y115.947 E25.17607
G1 X161.506 Y116.123 E25.19079
G1 X160.79 Y116.509 E25.22925
G1 X160.464 Y116.642 E25.24589
G1 X159.841 Y116.836 E25.27674
G1 X154.589 Y117.992 E25.53099
G1 X153.763 Y118.157 E25.57081
G1 X153.748 Y118.594 E25.59148
G1 X153.798 Y118.934 E25.60773
G1 X153.91 Y119.229 E25.62265
G1 X154.101 Y119.502 E25.6384
G1 X154.458 Y119.812 E25.66075
G1 X155.077 Y120.135 E25.69376
G1 X156.034 Y120.411 E25.74085
G1 X157.264 Y120.552 E25.79938
G1 X158.82 Y120.512 E25.87297
G1 X160.525 Y120.259 E25.95446
G1 X162.363 Y119.774 E26.04433
G1 X164.184 Y119.098 E26.13616
G1 X165.985 Y118.232 E26.23064
G1 X167.646 Y117.261 E26.3216
G1 X169.175 Y116.231 E26.40876
G1 X170.666 Y115.173 E26.49519
G1 X172.037 Y114.329 E26.57131
G1 X173.359 Y113.543 E26.64402
G1 X174.624 Y112.711 E26.7156
G1 X175.915 Y111.779 E26.79088
G1 X177.107 Y110.84 E26.86262
G1 X177.565 Y110.53 E26.88877
G1 X178.151 Y110.256 E26.91935
G1 X178.493 Y110.13 E26.93658
G1 X179.222 Y109.94 E26.9722
G1 X179.611 Y109.879 E26.99081
G1 X180.322 Y109.835 E27.02449
G1 X180.679 Y109.846 E27.04138
G1 X181.283 Y109.913 E27.07011
G1 X181.595 Y109.973 E27.08513
G1 X182.24 Y110.157 E27.11684
G1 X182.483 Y110.25 E27.12914
G1 X182.984 Y110.484 E27.15528
G1 X183.336 Y110.707 E27.17498
G1 X183.632 Y110.918 E27.19217
G1 X184.058 Y111.271 E27.21832
G1 X184.429 Y111.681 E27.24446
G1 X184.736 Y112.141 E27.27061
G1 X184.974 Y112.639 E27.2967
G1 X185.138 Y113.168 E27.32289
G1 X185.224 Y113.714 E27.34902
G1 X185.23 Y114.266 E27.37512
G1 X185.156 Y114.814 E27.40126
G1 X185.005 Y115.346 E27.42741
G1 X184.778 Y115.85 E27.45354
G1 X184.481 Y116.316 E27.47967
G1 X184.12 Y116.735 E27.50581
G1 X183.702 Y117.097 E27.53196
G1 X183.204 Y117.412 E27.55981
G1 X182.544 Y117.762 E27.59513
G1 X181.131 Y118.869 E27.68
G1 X179.695 Y119.907 E27.76376
G1 X178.104 Y120.959 E27.85394
G1 X175.771 Y122.353 E27.98243
G1 X173.824 Y123.717 E28.09482
G1 X172.457 Y124.603 E28.17183
G1 X170.979 Y125.464 E28.2527
G1 X169.198 Y126.361 E28.34698
G1 X167.377 Y127.141 E28.44063
G1 X167.138 Y127.234 E28.45276
G1 X165.304 Y127.878 E28.54465
G1 X165.049 Y127.958 E28.55729
G1 X163.139 Y128.482 E28.65092
G1 X162.861 Y128.547 E28.66442
G1 X160.943 Y128.922 E28.75682
G1 X160.63 Y128.97 E28.77179
G1 X158.725 Y129.181 E28.8624
G1 X158.365 Y129.204 E28.87946
G1 X156.559 Y129.233 E28.96485
G1 X156.134 Y129.216 E28.98496
G1 X154.472 Y129.057 E29.06389
G1 X153.987 Y128.979 E29.08712
G1 X152.515 Y128.644 E29.15849
G1 X151.939 Y128.464 E29.18702
G1 X150.686 Y127.961 E29.25085
G1 X150.055 Y127.637 E29.28439
G1 X148.985 Y126.955 E29.34437
G1 X148.455 Y126.587 E29.37488
G1 X148.196 Y126.389 E29.39029
G1 X147.858 Y126.106 E29.41113
G1 X147.583 Y125.851 E29.42886
G1 X147.276 Y125.538 E29.44959
G1 X147.041 Y125.275 E29.46627
G1 X146.769 Y124.941 E29.48663
G1 X146.554 Y124.65 E29.50374
G1 X146.317 Y124.295 E29.52392
G1 X146.142 Y124.005 E29.53993
G1 X145.919 Y123.597 E29.56191
G1 X145.766 Y123.285 E29.57834
G1 X145.54 Y122.764 E29.60519
G1 X145.375 Y122.306 E29.6282
G1 X145.201 Y121.705 E29.65778
G1 X145.093 Y121.267 E29.67911
G1 X144.947 Y120.469 E29.71747
G1 X49.748 Y123.953 E34.22122
G1 X49.333 Y124.592 E34.25724
G1 X49.028 Y125.158 E34.28764
G1 X48.716 Y125.871 E34.32443
G1 X48.447 Y126.65 E34.3634
G1 X48.237 Y127.446 E34.40232
G1 X48.058 Y127.969 E34.42845
G1 X47.805 Y128.461 E34.45461
G1 X47.484 Y128.911 E34.48074
G1 X47.101 Y129.31 E34.50689
G1 X46.665 Y129.65 E34.53303
G1 X46.185 Y129.923 E34.55913
G1 X45.67 Y130.124 E34.58527
G1 X45.131 Y130.249 E34.61143
G1 X44.54 Y130.295 E34.63945
G1 X37.861 Y130.296 E34.95522
G1 X37.309 Y130.256 E34.98138
G1 X36.769 Y130.137 E35.00753
G1 X36.252 Y129.942 E35.03365
G1 X35.769 Y129.674 E35.05976
G1 X35.329 Y129.339 E35.08591
G1 X34.942 Y128.944 E35.11205
G1 X34.616 Y128.498 E35.13817
G1 X34.358 Y128.009 E35.16431
G1 X34.173 Y127.488 E35.19045
G1 X34.065 Y126.946 E35.21658
G1 X34.035 Y126.471 E35.23908
G1 X34.035 Y98.454 E36.56364
M205 X5 Y5
G0 F7500 X34.485 Y98.454
M205 X8 Y8
G1 F1500 X34.525 Y97.936 E36.58821
G1 X34.644 Y97.431 E36.61273
G1 X34.839 Y96.95 E36.63727
G1 X35.105 Y96.504 E36.66182
G1 X35.437 Y96.105 E36.68636
G1 X35.826 Y95.761 E36.71091
G1 X36.263 Y95.481 E36.73545
G1 X36.738 Y95.271 E36.76
G1 X37.24 Y95.136 E36.78458
G1 X37.86 Y95.079 E36.81402
G1 X44.555 Y95.079 E37.13054
G1 X45.073 Y95.119 E37.1551
G1 X45.578 Y95.238 E37.17963
G1 X46.059 Y95.433 E37.20417
G1 X46.505 Y95.699 E37.22872
G1 X46.904 Y96.031 E37.25326
G1 X47.248 Y96.42 E37.27781
G1 X47.528 Y96.857 E37.30234
G1 X47.769 Y97.425 E37.33152
G1 X48.14 Y98.583 E37.389
G1 X48.276 Y98.947 E37.40737
G1 X48.363 Y99.144 E37.41756
G1 X48.537 Y99.61 E37.44107
G1 X48.878 Y100.383 E37.48102
G1 X49.272 Y101.14 E37.52136
G1 X49.606 Y101.678 E37.5513
G1 X145.771 Y107.181 E42.10515
G1 X146.285 Y107.25 E42.12967
G1 X146.783 Y107.398 E42.15423
G1 X147.253 Y107.62 E42.1788
G1 X147.682 Y107.911 E42.20331
G1 X147.983 Y108.182 E42.22246
G1 X148.379 Y108.584 E42.24914
G1 X148.491 Y108.68 E42.25611
G1 X148.742 Y108.934 E42.273
G1 X148.865 Y108.997 E42.27953
G1 X149.319 Y109.274 E42.30467
G1 X149.989 Y109.585 E42.33959
G1 X150.591 Y109.784 E42.36957
G1 X151.339 Y109.931 E42.40561
G1 X152.085 Y109.98 E42.44095
G1 X152.831 Y109.826 E42.47697
G1 X158.087 Y108.669 E42.7314
G1 X158.522 Y108.593 E42.75228
G1 X159.282 Y108.348 E42.79003
G1 X159.787 Y108.227 E42.81458
G1 X160.305 Y108.185 E42.83915
G1 X160.823 Y108.223 E42.86371
G1 X161.328 Y108.34 E42.88822
G1 X161.811 Y108.532 E42.91279
G1 X162.257 Y108.797 E42.93732
G1 X162.658 Y109.127 E42.96187
G1 X163.004 Y109.515 E42.98645
G1 X163.286 Y109.951 E43.011
G1 X163.497 Y110.425 E43.03553
G1 X163.634 Y110.926 E43.06008
G1 X163.692 Y111.442 E43.08463
G1 X163.67 Y111.96 E43.10914
G1 X163.491 Y112.713 E43.14573
G1 X163.307 Y113.219 E43.17119
G1 X163.126 Y113.63 E43.19242
G1 X162.99 Y113.89 E43.20629
G1 X162.73 Y114.308 E43.22956
G1 X162.55 Y114.556 E43.24405
G1 X162.205 Y114.96 E43.26917
G1 X161.988 Y115.177 E43.28368
G1 X161.509 Y115.576 E43.31315
G1 X161.252 Y115.752 E43.32788
G1 X160.62 Y116.092 E43.3618
G1 X160.294 Y116.225 E43.37845
G1 X159.744 Y116.396 E43.40568
G1 X154.43 Y117.565 E43.66292
G1 X153.892 Y117.673 E43.68886
G1 X153.4 Y117.795 E43.71283
G1 X153.312 Y118.222 E43.73344
G1 X153.297 Y118.621 E43.75232
G1 X153.36 Y119.051 E43.77286
G1 X153.509 Y119.443 E43.79269
G1 X153.763 Y119.804 E43.81356
G1 X154.202 Y120.186 E43.84107
G1 X154.912 Y120.557 E43.87894
G1 X155.941 Y120.853 E43.92956
G1 X157.245 Y121.003 E43.99162
G1 X158.865 Y120.961 E44.06823
G1 X160.607 Y120.703 E44.15149
G1 X162.49 Y120.206 E44.24356
