;FLAVOR:Marlin
;TIME:744
;Filament used: 0.506486m
;Layer height: 0.16
;MINX:70.541
;MINY:91.355
;MINZ:0.24
;MAXX:149.459
;MAXY:128.645
;MAXZ:2.84
;Generated with Cura_SteamEngine 4.5.0
M140 S50
M105
M190 S50
M104 S215
M105
M109 S215
M82 ;absolute extrusion mode
M201 X500.00 Y500.00 Z100.00 E5000.00 ;Setup machine max acceleration
M203 X500.00 Y500.00 Z10.00 E50.00 ;Setup machine max feedrate
M204 P500.00 R1000.00 T500.00 ;Setup Print/Retract/Travel acceleration
M205 X8.00 Y8.00 Z0.40 E5.00 ;Setup Jerk
M220 S100 ;Reset Feedrate
M221 S100 ;Reset Flowrate

G28 ;Home

G92 E0 ;Reset Extruder
G1 Z2.0 F3000 ;Move Z Axis up
G1 X10.1 Y20 Z0.28 F5000.0 ;Move to start position
G1 X10.1 Y200.0 Z0.28 F1500.0 E15 ;Draw the first line
G1 X10.4 Y200.0 Z0.28 F5000.0 ;Move to side a little
G1 X10.4 Y20 Z0.28 F1500.0 E30 ;Draw the second line
G92 E0 ;Reset Extruder
G1 Z2.0 F3000 ;Move Z Axis up

G92 E0
G92 E0
G1 F1800 E-3
;LAYER_COUNT:15
;LAYER:0
M106 S63.8
M204 S500
M205 X6 Y6
G0 F9000 X74.418 Y93.778 Z0.24
;TYPE:SKIRT
G1 F1800 E0
G1 X75.154 Y93.225 E0.03674
G1 X75.935 Y92.737 E0.0735
G1 X76.755 Y92.32 E0.11022
G1 X77.608 Y91.974 E0.14696
G1 X78.489 Y91.705 E0.18372
G1 X79.389 Y91.512 E0.22046
G1 X80.303 Y91.399 E0.25722
G1 X80.827 Y91.37 E0.27816
G1 X81.478 Y91.355 E0.30415
G1 X86.996 Y91.355 E0.52439
G1 X88.625 Y91.377 E0.58941
G1 X89.787 Y91.409 E0.6358
G1 X92.312 Y91.411 E0.73658
G1 X94.464 Y91.36 E0.8225
G1 X100.158 Y91.355 E1.04976
G1 X102.33 Y91.385 E1.13646
G1 X106.639 Y91.364 E1.30844
G1 X112.335 Y91.355 E1.53578
G1 X113.185 Y91.366 E1.56971
G1 X113.808 Y91.393 E1.5946
G1 X115.311 Y91.503 E1.65474
G1 X117.866 Y91.648 E1.75688
G1 X120.438 Y91.721 E1.85958
G1 X121.743 Y91.73 E1.91167
G1 X124.417 Y91.73 E2.01839
G1 X125.267 Y91.741 E2.05232
G1 X126.448 Y91.824 E2.09957
G1 X127.708 Y91.984 E2.15027
G1 X130.286 Y92.277 E2.25382
G1 X132.819 Y92.493 E2.35529
G1 X135.326 Y92.635 E2.45551
G1 X137.953 Y92.709 E2.5604
G1 X139.01 Y92.725 E2.60259
G1 X139.929 Y92.779 E2.63933
G1 X140.84 Y92.912 E2.67608
G1 X141.736 Y93.124 E2.71283
G1 X142.61 Y93.413 E2.74957
G1 X143.456 Y93.777 E2.78632
G1 X144.267 Y94.213 E2.82307
G1 X145.037 Y94.717 E2.8598
G1 X145.761 Y95.286 E2.89656
G1 X146.432 Y95.916 E2.93329
G1 X147.046 Y96.602 E2.97004
G1 X147.598 Y97.339 E3.00679
G1 X148.085 Y98.12 E3.04352
G1 X148.502 Y98.941 E3.08028
G1 X148.845 Y99.795 E3.11701
G1 X149.114 Y100.676 E3.15377
G1 X149.305 Y101.577 E3.19053
G1 X149.417 Y102.49 E3.22725
G1 X149.446 Y103.024 E3.24859
G1 X149.459 Y103.643 E3.2733
G1 X149.458 Y117.095 E3.8102
G1 X149.447 Y117.964 E3.84489
G1 X149.394 Y118.883 E3.88163
G1 X149.262 Y119.794 E3.91837
G1 X149.051 Y120.69 E3.95511
G1 X148.763 Y121.565 E3.99187
G1 X148.401 Y122.411 E4.0286
G1 X147.966 Y123.222 E4.06533
G1 X147.463 Y123.993 E4.10207
G1 X146.894 Y124.717 E4.13882
G1 X146.265 Y125.39 E4.17559
G1 X145.58 Y126.005 E4.21233
G1 X144.844 Y126.558 E4.24908
G1 X144.063 Y127.045 E4.28581
G1 X143.243 Y127.463 E4.32255
G1 X142.389 Y127.808 E4.35931
G1 X141.509 Y128.078 E4.39605
G1 X140.609 Y128.27 E4.43277
G1 X139.695 Y128.383 E4.46953
G1 X139.172 Y128.412 E4.49044
G1 X138.521 Y128.427 E4.51643
G1 X133.66 Y128.427 E4.71044
G1 X132.811 Y128.416 E4.74433
G1 X131.927 Y128.366 E4.77967
G1 X131.288 Y128.303 E4.8053
G1 X128.67 Y128.081 E4.91016
G1 X126.205 Y127.942 E5.0087
G1 X122.25 Y127.859 E5.16659
G1 X119.764 Y127.859 E5.26581
G1 X117.995 Y127.835 E5.33642
G1 X115.382 Y127.835 E5.44071
G1 X113.938 Y127.866 E5.49836
G1 X113.003 Y127.893 E5.53569
G1 X109.942 Y127.898 E5.65786
G1 X107.317 Y127.935 E5.76264
G1 X104.821 Y128.041 E5.86235
G1 X101.241 Y128.295 E6.0056
G1 X100.528 Y128.313 E6.03406
G1 X95.813 Y128.313 E6.22225
G1 X93.188 Y128.35 E6.32703
G1 X90.689 Y128.456 E6.42686
G1 X89.036 Y128.574 E6.493
G1 X88.296 Y128.618 E6.52259
G1 X87.669 Y128.641 E6.54763
G1 X81.848 Y128.645 E6.77996
G1 X80.998 Y128.634 E6.81389
G1 X80.079 Y128.581 E6.85063
G1 X79.168 Y128.448 E6.88737
G1 X78.272 Y128.237 E6.92411
G1 X77.398 Y127.949 E6.96084
G1 X76.551 Y127.586 E6.99762
G1 X75.74 Y127.151 E7.03435
G1 X74.97 Y126.647 E7.07108
G1 X74.246 Y126.078 E7.10783
G1 X73.574 Y125.448 E7.1446
G1 X72.959 Y124.763 E7.18134
G1 X72.406 Y124.027 E7.21808
G1 X71.919 Y123.246 E7.25482
G1 X71.502 Y122.425 E7.29157
G1 X71.157 Y121.571 E7.32833
G1 X70.888 Y120.691 E7.36506
G1 X70.696 Y119.79 E7.40183
G1 X70.583 Y118.877 E7.43855
G1 X70.554 Y118.322 E7.46073
G1 X70.541 Y117.702 E7.48548
G1 X70.542 Y102.621 E8.08739
G1 X70.552 Y101.82 E8.11937
G1 X70.605 Y100.901 E8.15611
G1 X70.737 Y99.99 E8.19285
G1 X70.947 Y99.093 E8.22962
G1 X71.235 Y98.219 E8.26634
G1 X71.598 Y97.372 E8.30312
G1 X72.032 Y96.561 E8.33983
G1 X72.535 Y95.79 E8.37658
G1 X73.104 Y95.066 E8.41333
G1 X73.733 Y94.393 E8.4501
G1 X74.418 Y93.778 E8.48684
G0 F9000 X74.806 Y93.979
G1 F1800 X75.537 Y93.449 E8.52288
G1 X76.312 Y92.986 E8.55891
G1 X77.125 Y92.593 E8.59495
G1 X77.97 Y92.274 E8.631
G1 X78.84 Y92.03 E8.66706
G1 X79.728 Y91.865 E8.70311
G1 X80.839 Y91.77 E8.74761
G1 X81.478 Y91.755 E8.77312
G1 X86.996 Y91.755 E8.99336
G1 X88.619 Y91.777 E9.05814
G1 X89.775 Y91.809 E9.1043
G1 X92.32 Y91.811 E9.20587
G1 X93.794 Y91.779 E9.26472
G1 X94.475 Y91.759 E9.29191
G1 X100.158 Y91.755 E9.51873
G1 X102.324 Y91.785 E9.60519
G1 X106.654 Y91.764 E9.77801
G1 X112.335 Y91.755 E10.00475
G1 X113.179 Y91.766 E10.03844
G1 X113.779 Y91.792 E10.06241
G1 X115.262 Y91.901 E10.12176
G1 X117.866 Y92.048 E10.22586
G1 X120.425 Y92.121 E10.32803
G1 X121.74 Y92.13 E10.38052
G1 X124.417 Y92.13 E10.48737
G1 X125.261 Y92.141 E10.52105
G1 X126.398 Y92.221 E10.56655
G1 X127.691 Y92.385 E10.61857
G1 X130.243 Y92.676 E10.72108
G1 X132.763 Y92.89 E10.82202
G1 X135.327 Y93.035 E10.92452
G1 X137.934 Y93.109 E11.02861
G1 X139.004 Y93.125 E11.07132
G1 X139.905 Y93.179 E11.10735
G1 X140.799 Y93.312 E11.14342
G1 X141.677 Y93.523 E11.17946
G1 X142.532 Y93.812 E11.21549
G1 X143.359 Y94.175 E11.25153
G1 X144.151 Y94.61 E11.2876
G1 X144.901 Y95.113 E11.32364
G1 X145.604 Y95.68 E11.35969
G1 X146.253 Y96.307 E11.3957
G1 X146.845 Y96.99 E11.43178
G1 X147.374 Y97.722 E11.46783
G1 X147.836 Y98.498 E11.50387
G1 X148.228 Y99.311 E11.53989
G1 X148.546 Y100.157 E11.57597
G1 X148.788 Y101.027 E11.61201
G1 X148.952 Y101.915 E11.64805
G1 X149.046 Y103.035 E11.69291
G1 X149.059 Y103.643 E11.71718
G1 X149.058 Y117.095 E12.25408
G1 X149.047 Y117.958 E12.28853
G1 X148.995 Y118.86 E12.32459
G1 X148.863 Y119.753 E12.36062
G1 X148.652 Y120.631 E12.39666
G1 X148.365 Y121.487 E12.43269
G1 X148.003 Y122.315 E12.46876
G1 X147.569 Y123.107 E12.5048
G1 X147.067 Y123.858 E12.54086
G1 X146.5 Y124.561 E12.5769
G1 X145.874 Y125.211 E12.61292
G1 X145.192 Y125.804 E12.64899
G1 X144.461 Y126.334 E12.68503
G1 X143.686 Y126.797 E12.72106
G1 X142.872 Y127.19 E12.75714
G1 X142.028 Y127.509 E12.79315
G1 X141.158 Y127.752 E12.8292
G1 X140.27 Y127.917 E12.86525
G1 X139.16 Y128.012 E12.90972
G1 X138.521 Y128.027 E12.93523
G1 X133.66 Y128.027 E13.12924
G1 X132.817 Y128.016 E13.16289
G1 X131.966 Y127.968 E13.19691
G1 X131.359 Y127.908 E13.22125
G1 X128.691 Y127.682 E13.32812
G1 X126.208 Y127.542 E13.42738
G1 X122.259 Y127.459 E13.58503
G1 X119.764 Y127.459 E13.68461
G1 X118.001 Y127.435 E13.75498
G1 X115.373 Y127.435 E13.85987
G1 X113.977 Y127.465 E13.9156
G1 X112.991 Y127.494 E13.95497
G1 X109.936 Y127.498 E14.0769
G1 X107.33 Y127.535 E14.18092
G1 X104.777 Y127.643 E14.28291
G1 X101.228 Y127.895 E14.42491
G1 X100.528 Y127.913 E14.45286
G1 X95.807 Y127.913 E14.64129
G1 X93.201 Y127.95 E14.74531
G1 X90.645 Y128.058 E14.84742
G1 X89.008 Y128.175 E14.91292
G1 X88.273 Y128.219 E14.94231
G1 X87.657 Y128.241 E14.96691
G1 X81.848 Y128.245 E15.19876
G1 X81.004 Y128.234 E15.23245
G1 X80.102 Y128.181 E15.26851
G1 X79.209 Y128.049 E15.30454
G1 X78.331 Y127.838 E15.34058
G1 X77.475 Y127.55 E15.37663
G1 X76.648 Y127.188 E15.41266
G1 X75.856 Y126.753 E15.44872
G1 X75.105 Y126.251 E15.48478
G1 X74.402 Y125.684 E15.52082
G1 X73.752 Y125.057 E15.55687
G1 X73.16 Y124.375 E15.59291
G1 X72.63 Y123.644 E15.62895
G1 X72.168 Y122.868 E15.665
G1 X71.775 Y122.055 E15.70104
G1 X71.457 Y121.21 E15.73707
G1 X71.214 Y120.34 E15.77312
G1 X71.049 Y119.452 E15.80917
G1 X70.954 Y118.311 E15.85487
G1 X70.941 Y117.702 E15.87918
G1 X70.942 Y102.621 E16.4811
G1 X70.952 Y101.825 E16.51287
G1 X71.004 Y100.924 E16.54889
G1 X71.136 Y100.03 E16.58496
G1 X71.347 Y99.152 E16.621
G1 X71.634 Y98.296 E16.65703
G1 X71.996 Y97.468 E16.6931
G1 X72.429 Y96.676 E16.72913
G1 X72.931 Y95.925 E16.76518
G1 X73.498 Y95.222 E16.80123
G1 X74.124 Y94.572 E16.83725
G1 X74.806 Y93.979 E16.87332
G1 F1800 E13.87332
;MESH:Trapezoidal_Pin_5_sizes.stl
G0 F9000 X93.776 Y102.369
G0 X94.856 Y102.369
G0 X95.623 Y116.531
G0 X99.864 Y116.713
;TYPE:WALL-INNER
G1 F1800 E16.87332
G1 X95.64 Y116.713 E17.04191
G1 X95.441 Y116.713 E17.04985
G1 X95.441 Y116.514 E17.05499
G1 X95.442 Y102.955 E17.59616
G1 X99.666 Y102.955 E17.76474
G1 X99.865 Y102.955 E17.77269
G1 X99.865 Y103.154 E17.77783
G1 X99.864 Y116.713 E18.31899
G0 F9000 X100.264 Y117.113
G1 F1800 X95.24 Y117.113 E18.51951
G1 X95.041 Y117.113 E18.52746
G1 X95.041 Y116.914 E18.53259
G1 X95.042 Y102.555 E19.10569
G1 X100.066 Y102.555 E19.30621
G1 X100.265 Y102.555 E19.31415
G1 X100.265 Y102.754 E19.31929
G1 X100.264 Y117.113 E19.89239
G0 F9000 X100.664 Y117.513
;TYPE:WALL-OUTER
G1 F1800 X94.641 Y117.513 E20.13278
G1 X94.642 Y102.155 E20.74575
G1 X100.665 Y102.155 E20.98615
G1 X100.664 Y117.513 E21.59912
G0 F9000 X100.394 Y117.243
G0 X99.474 Y116.603
G0 X99.474 Y116.323
;TYPE:SKIN
G1 F1800 X95.831 Y116.323 E21.74452
G1 X95.832 Y103.345 E22.2625
G1 X99.475 Y103.345 E22.4079
G1 X99.474 Y116.323 E22.92588
G0 F9000 X99.474 Y116.603
G0 X96.363 Y116.603
G0 X96.363 Y116.162
G1 F1800 X95.991 Y115.79 E22.94687
G0 F9000 X95.991 Y115.224
G1 F1800 X96.928 Y116.162 E22.99979
G0 F9000 X97.494 Y116.162
G1 F1800 X95.991 Y114.658 E23.08465
G0 F9000 X95.991 Y114.093
G1 F1800 X98.06 Y116.162 E23.20144
G0 F9000 X98.625 Y116.162
G1 F1800 X95.991 Y113.527 E23.35014
G0 F9000 X95.991 Y112.961
G1 F1800 X99.191 Y116.162 E23.53079
G0 F9000 X99.314 Y115.719
G1 F1800 X95.991 Y112.396 E23.71835
G0 F9000 X95.991 Y111.83
G1 F1800 X99.314 Y115.153 E23.90592
G0 F9000 X99.314 Y114.588
G1 F1800 X95.991 Y111.264 E24.09351
G0 F9000 X95.991 Y110.698
G1 F1800 X99.314 Y114.022 E24.2811
G0 F9000 X99.314 Y113.456
G1 F1800 X95.991 Y110.133 E24.46867
G0 F9000 X95.991 Y109.567
G1 F1800 X99.314 Y112.891 E24.65626
G0 F9000 X99.314 Y112.325
G1 F1800 X95.991 Y109.001 E24.84385
G0 F9000 X95.991 Y108.436
G1 F1800 X99.314 Y111.759 E25.03142
G0 F9000 X99.314 Y111.193
G1 F1800 X95.991 Y107.87 E25.21898
G0 F9000 X95.991 Y107.304
G1 F1800 X99.314 Y110.628 E25.40658
G0 F9000 X99.314 Y110.062
G1 F1800 X95.991 Y106.739 E25.59414
G0 F9000 X95.991 Y106.173
G1 F1800 X99.315 Y109.497 E25.78176
G0 F9000 X99.315 Y108.931
G1 F1800 X95.991 Y105.607 E25.96938
G0 F9000 X95.991 Y105.042
G1 F1800 X99.315 Y108.366 E26.157
G0 F9000 X99.315 Y107.8
G1 F1800 X95.991 Y104.476 E26.34462
G0 F9000 X95.991 Y103.91
G1 F1800 X99.315 Y107.234 E26.53225
G0 F9000 X99.315 Y106.669
G1 F1800 X96.15 Y103.504 E26.71089
G0 F9000 X96.715 Y103.504
G1 F1800 X99.315 Y106.103 E26.85762
G0 F9000 X99.315 Y105.537
G1 F1800 X97.281 Y103.504 E26.9724
G0 F9000 X97.847 Y103.504
G1 F1800 X99.315 Y104.972 E27.05526
G0 F9000 X99.315 Y104.406
G1 F1800 X98.413 Y103.504 E27.10617
G0 F9000 X98.978 Y103.504
G1 F1800 X99.315 Y103.84 E27.12516
G0 F9000 X100.054 Y103.841
G1 F1800 E24.12516
G0 F9000 X100.445 Y116.296
G0 X101.53 Y116.296
G0 X106.126 Y116.298
G0 X107.211 Y116.298
G0 X112.041 Y116.298
;TYPE:WALL-INNER
G1 F1800 E27.12516
G1 X107.99 Y116.298 E27.28685
G1 X107.791 Y116.298 E27.29479
G1 X107.791 Y116.099 E27.29993
G1 X107.792 Y102.955 E27.82454
G1 X111.843 Y102.955 E27.98622
G1 X112.042 Y102.955 E27.99416
G1 X112.042 Y103.154 E27.9993
G1 X112.041 Y116.298 E28.52391
G0 F9000 X112.441 Y116.698
G1 F1800 X107.59 Y116.698 E28.71752
G1 X107.391 Y116.698 E28.72546
G1 X107.391 Y116.499 E28.7306
G1 X107.392 Y102.555 E29.28714
G1 X112.243 Y102.555 E29.48075
G1 X112.442 Y102.555 E29.48869
G1 X112.442 Y102.754 E29.49383
G1 X112.441 Y116.698 E30.05037
G0 F9000 X112.841 Y117.098
;TYPE:WALL-OUTER
G1 F1800 X106.991 Y117.098 E30.28385
G1 X106.992 Y102.155 E30.88026
G1 X112.842 Y102.155 E31.11375
G1 X112.841 Y117.098 E31.71015
G0 F9000 X112.571 Y116.828
G0 X111.651 Y116.188
G0 X111.651 Y115.908
;TYPE:SKIN
G1 F1800 X108.181 Y115.908 E31.84865
G1 X108.182 Y103.345 E32.35007
G1 X111.652 Y103.345 E32.48856
G1 X111.651 Y115.908 E32.98998
G0 F9000 X111.651 Y116.188
G0 X108.958 Y116.188
G0 X108.958 Y115.747
G1 F1800 X108.34 Y115.129 E33.02486
G0 F9000 X108.34 Y114.563
G1 F1800 X109.524 Y115.747 E33.09169
G0 F9000 X110.09 Y115.747
G1 F1800 X108.34 Y113.997 E33.19047
G0 F9000 X108.34 Y113.431
G1 F1800 X110.655 Y115.747 E33.32116
G0 F9000 X111.221 Y115.747
G1 F1800 X108.34 Y112.866 E33.48378
G0 F9000 X108.34 Y112.3
G1 F1800 X111.49 Y115.45 E33.66158
G0 F9000 X111.49 Y114.885
G1 F1800 X108.34 Y111.734 E33.83941
G0 F9000 X108.34 Y111.169
G1 F1800 X111.49 Y114.319 E34.01721
G0 F9000 X111.49 Y113.753
G1 F1800 X108.34 Y110.603 E34.19501
G0 F9000 X108.34 Y110.037
G1 F1800 X111.49 Y113.187 E34.37281
G0 F9000 X111.49 Y112.622
G1 F1800 X108.34 Y109.472 E34.55061
G0 F9000 X108.34 Y108.906
G1 F1800 X111.49 Y112.056 E34.72841
G0 F9000 X111.49 Y111.49
G1 F1800 X108.34 Y108.34 E34.90621
G0 F9000 X108.34 Y107.775
G1 F1800 X111.49 Y110.925 E35.08401
G0 F9000 X111.49 Y110.359
G1 F1800 X108.34 Y107.209 E35.26181
G0 F9000 X108.34 Y106.643
G1 F1800 X111.49 Y109.793 E35.4396
G0 F9000 X111.49 Y109.228
G1 F1800 X108.34 Y106.078 E35.6174
G0 F9000 X108.34 Y105.512
G1 F1800 X111.49 Y108.662 E35.7952
G0 F9000 X111.49 Y108.096
G1 F1800 X108.34 Y104.946 E35.973
G0 F9000 X108.34 Y104.38
G1 F1800 X111.49 Y107.531 E36.15083
G0 F9000 X111.49 Y106.965
G1 F1800 X108.34 Y103.815 E36.32863
G0 F9000 X108.596 Y103.504
G1 F1800 X111.49 Y106.399 E36.49201
G0 F9000 X111.49 Y105.834
G1 F1800 X109.161 Y103.504 E36.6235
G0 F9000 X109.727 Y103.504
G1 F1800 X111.49 Y105.268 E36.72304
G0 F9000 X111.49 Y104.702
G1 F1800 X110.293 Y103.504 E36.79063
G0 F9000 X110.858 Y103.504
G1 F1800 X111.49 Y104.137 E36.82633
G0 F9000 X111.49 Y103.571
G1 F1800 X111.424 Y103.504 E36.83008
G0 F9000 X111.424 Y102.765
G1 F1800 E33.83008
G0 F9000 X111.86 Y103.137
G0 X112.622 Y116.257
G0 X113.707 Y116.257
G0 X118.38 Y116.259
G0 X119.465 Y116.259
G0 X120.045 Y116.259
;TYPE:WALL-INNER
G1 F1800 E36.83008
G1 X120.045 Y116.06 E36.83803
G1 X120.046 Y103.33 E37.34611
G1 X123.925 Y103.33 E37.50093
G1 X124.124 Y103.33 E37.50887
G1 X124.124 Y103.529 E37.51401
G1 X124.123 Y116.259 E38.02209
G1 X120.244 Y116.259 E38.17691
G1 X120.045 Y116.259 E38.18205
G0 F9000 X119.844 Y116.659
G1 F1800 X119.645 Y116.659 E38.18999
G1 X119.645 Y116.46 E38.19513
G1 X119.646 Y102.93 E38.73514
G1 X124.325 Y102.93 E38.92189
G1 X124.524 Y102.93 E38.92983
G1 X124.524 Y103.129 E38.93497
G1 X124.523 Y116.659 E39.47498
G1 X119.844 Y116.659 E39.66173
G0 F9000 X119.245 Y117.059
;TYPE:WALL-OUTER
G1 F1800 X119.246 Y102.53 E40.24161
G1 X124.924 Y102.53 E40.46824
G1 X124.923 Y117.059 E41.04812
G1 X119.245 Y117.059 E41.27474
G0 F9000 X119.515 Y116.789
G0 X120.156 Y115.868
G0 X120.435 Y115.869
;TYPE:SKIN
G1 F1800 X120.436 Y103.72 E41.75963
G1 X123.734 Y103.72 E41.89126
G1 X123.733 Y115.869 E42.37616
G1 X120.435 Y115.869 E42.50779
G0 F9000 X120.8 Y115.708
G1 F1800 X120.594 Y115.503 E42.51939
G0 F9000 X120.594 Y114.937
G1 F1800 X121.365 Y115.708 E42.56291
G0 F9000 X121.931 Y115.708
G1 F1800 X120.594 Y114.371 E42.63837
G0 F9000 X120.594 Y113.806
G1 F1800 X122.497 Y115.708 E42.74576
G0 F9000 X123.062 Y115.708
G1 F1800 X120.594 Y113.24 E42.88506
G0 F9000 X120.594 Y112.674
G1 F1800 X123.572 Y115.652 E43.05315
G0 F9000 X123.572 Y115.087
G1 F1800 X120.594 Y112.108 E43.22127
G0 F9000 X120.594 Y111.543
G1 F1800 X123.572 Y114.521 E43.38936
G0 F9000 X123.572 Y113.955
G1 F1800 X120.594 Y110.977 E43.55745
G0 F9000 X120.594 Y110.411
G1 F1800 X123.572 Y113.39 E43.72557
G0 F9000 X123.572 Y112.824
G1 F1800 X120.594 Y109.846 E43.89366
