;FLAVOR:Marlin
;TIME:5260
;Filament used: 2.84596m
;Layer height: 0.2
;MINX:96.248
;MINY:93.912
;MINZ:0.24
;MAXX:123.85
;MAXY:127.649
;MAXZ:55.68
;Generated with Cura_SteamEngine 4.8.0
M140 S50
M105
M190 S50
M104 S215
M105
M109 S215
M82 ;absolute extrusion mode
M201 X500.00 Y500.00 Z100.00 E5000.00 ;Setup machine max acceleration
M203 X500.00 Y500.00 Z10.00 E50.00 ;Setup machine max feedrate
M204 P500.00 R1000.00 T500.00 ;Setup Print/Retract/Travel acceleration
M205 X8.00 Y8.00 Z0.40 E5.00 ;Setup Jerk
M220 S100 ;Reset Feedrate
M221 S100 ;Reset Flowrate

;*** Start Dual Nozzle/Bed Preheating ***
M140 S50 ; start preheating the bed
M104 S215 ﻿T0 ; start preheating hotend
M190 S50 ; heat to Cura Bed setting and WAIT
M109 S215 ﻿T0 ; heat to Cura Hotend and WAIT
;*** End Preheating ***

G28 ; home

G92 E0 ;Reset Extruder
G1 Z2.0 F3000 ;Move Z Axis up

;*** Single Print Start Tone
M300 S1000 P500 ; chirp to indicate starting to print
;*** End Single Start Tone

G1 X10.1 Y20 Z0.28 F5000.0 ;Move to start position
G1 X10.1 Y200.0 Z0.28 F1500.0 E15 ;Draw the first line
G1 X10.4 Y200.0 Z0.28 F5000.0 ;Move to side a little
G1 X10.4 Y20 Z0.28 F1500.0 E30 ;Draw the second line
G92 E0 ;Reset Extruder
G1 Z2.0 F3000 ;Move Z Axis up
G92 E0
G92 E0
G1 F2400 E-3
;LAYER_COUNT:335
;LAYER:0
M106 S63.8
M204 S500
M205 X6 Y6
G1 F300 Z0.44
G0 F9000 X100.856 Y108.329 Z0.44
;TYPE:SKIRT
G1 F300 Z0.24
G1 F2400 E0
G1 F1800 X101.104 Y108.106 E0.01331
G1 X101.398 Y107.947 E0.02665
G1 X101.911 Y107.85 E0.04749
G1 X118.09 Y107.85 E0.69323
G1 X118.422 Y107.89 E0.70657
G1 X118.734 Y108.007 E0.71987
G1 X119.011 Y108.195 E0.73324
G1 X119.234 Y108.443 E0.74655
G1 X119.393 Y108.737 E0.75989
G1 X119.49 Y109.25 E0.78073
G1 X119.491 Y125.999 E1.44921
G1 X119.451 Y126.331 E1.46256
G1 X119.23 Y126.813 E1.48372
G1 X118.865 Y127.255 E1.5066
G1 X118.588 Y127.442 E1.51994
G1 X118.112 Y127.601 E1.53997
G1 X117.752 Y127.648 E1.55446
G1 X103.107 Y127.647 E2.13898
G1 X102.437 Y127.649 E2.16572
G1 X101.882 Y127.589 E2.188
G1 X101.558 Y127.508 E2.20133
G1 X101.263 Y127.351 E2.21466
G1 X100.942 Y127.042 E2.23245
G1 X100.623 Y126.552 E2.25578
G1 X100.529 Y126.231 E2.26913
G1 X100.51 Y126 E2.27838
G1 X100.511 Y109.25 E2.94691
G1 X100.551 Y108.918 E2.96026
G1 X100.668 Y108.605 E2.9736
G1 X100.856 Y108.329 E2.98693
G0 F9000 X101.25 Y108.499
G1 F1800 X101.486 Y108.345 E2.99817
G1 X101.911 Y108.25 E3.01555
G1 X118.09 Y108.25 E3.66129
G1 X118.369 Y108.29 E3.67254
G1 X118.626 Y108.406 E3.6838
G1 X118.841 Y108.589 E3.69506
G1 X118.995 Y108.825 E3.70631
G1 X119.09 Y109.25 E3.72369
G1 X119.091 Y125.999 E4.39218
G1 X119.051 Y126.278 E4.40343
G1 X118.765 Y126.776 E4.42635
G1 X118.57 Y126.98 E4.43762
G1 X118.208 Y127.161 E4.45377
G1 X117.752 Y127.248 E4.4723
G1 X103.106 Y127.247 E5.05685
G1 X102.436 Y127.249 E5.08359
G1 X101.933 Y127.193 E5.10379
G1 X101.661 Y127.118 E5.11505
G1 X101.421 Y126.969 E5.12633
G1 X101.11 Y126.601 E5.14556
G1 X100.975 Y126.353 E5.15683
G1 X100.91 Y126 E5.17115
G1 X100.911 Y109.25 E5.83968
G1 X100.951 Y108.971 E5.85093
G1 X101.067 Y108.714 E5.86219
G1 X101.25 Y108.499 E5.87345
G0 F9000 X101.464 Y108.849
G1 F1800 X101.637 Y108.716 E5.88216
G1 X101.911 Y108.65 E5.89341
G1 X118.09 Y108.65 E6.53915
G1 X118.305 Y108.69 E6.54788
G1 X118.491 Y108.803 E6.55657
G1 X118.624 Y108.976 E6.56528
G1 X118.69 Y109.25 E6.57652
G1 X118.691 Y125.999 E7.24501
G1 X118.651 Y126.214 E7.25374
G1 X118.439 Y126.544 E7.2694
G1 X118.282 Y126.695 E7.27809
G1 X117.906 Y126.828 E7.29401
G1 X117.752 Y126.848 E7.30021
G1 X103.105 Y126.847 E7.8848
G1 X102.435 Y126.849 E7.91154
G1 X101.984 Y126.796 E7.92967
G1 X101.777 Y126.729 E7.93835
G1 X101.581 Y126.561 E7.94865
G1 X101.333 Y126.165 E7.9673
G1 X101.31 Y126 E7.97395
G1 X101.311 Y109.25 E8.64248
G1 X101.351 Y109.035 E8.65121
G1 X101.464 Y108.849 E8.65989
G0 F9000 X101.75 Y109.131
G1 F1800 X101.911 Y109.05 E8.66709
G1 X118.09 Y109.05 E9.31283
G1 X118.209 Y109.089 E9.31782
G1 X118.29 Y109.25 E9.32502
G1 X118.291 Y125.999 E9.99351
G1 X118.254 Y126.115 E9.99837
G1 X118.114 Y126.311 E10.00798
G1 X118.002 Y126.388 E10.0134
G1 X117.752 Y126.448 E10.02367
G1 X103.103 Y126.447 E10.60834
G1 X102.433 Y126.449 E10.63508
G1 X102.035 Y126.399 E10.65109
G1 X101.901 Y126.321 E10.65728
G1 X101.75 Y126.12 E10.66731
G1 X101.71 Y126 E10.67236
G1 X101.711 Y109.25 E11.34089
G1 X101.75 Y109.131 E11.34589
;MESH:CandyDreamBlaster_Slider_HersheyKiss.stl
G0 F9000 X102.111 Y109.45
;TYPE:WALL-OUTER
G1 F1800 X117.89 Y109.45 E11.97566
G1 X117.891 Y125.967 E12.63489
G1 X117.853 Y126.014 E12.6373
G1 X117.725 Y126.048 E12.64259
G1 X103.103 Y126.047 E13.22618
G1 X102.441 Y126.049 E13.25261
G1 X102.113 Y125.979 E13.26599
G1 X102.11 Y125.969 E13.26641
G1 X102.111 Y109.45 E13.92572
G0 F9000 X102.511 Y109.85
;TYPE:WALL-INNER
G1 F1800 X117.49 Y109.85 E14.52356
G1 X117.491 Y125.449 E15.14615
G1 X117.491 Y125.648 E15.1541
G1 X117.292 Y125.648 E15.15923
G1 X103.102 Y125.647 E15.72559
G1 X102.71 Y125.649 E15.74123
G1 X102.51 Y125.649 E15.74922
G1 X102.51 Y125.449 E15.75438
G1 X102.511 Y109.85 E16.37697
G0 F9000 X102.911 Y110.25
G1 F1800 X117.09 Y110.25 E16.94289
G1 X117.091 Y125.049 E17.53355
G1 X117.091 Y125.248 E17.54149
G1 X116.892 Y125.248 E17.54663
G1 X103.205 Y125.248 E18.09291
G1 X103.102 Y125.248 E18.09702
G1 X102.91 Y125.248 E18.10468
G1 X102.91 Y125.145 E18.10804
G1 X102.911 Y110.25 E18.70253
G0 F9000 X103.301 Y110.64
;TYPE:SKIN
G1 F1800 X116.7 Y110.64 E19.23732
G1 X116.701 Y124.858 E19.80479
G1 X103.3 Y124.858 E20.33965
G1 X103.301 Y110.64 E20.90712
G1 F2400 E17.90712
G1 F300 Z0.44
G0 F9000 X116.539 Y110.882 Z0.44
G1 F300 Z0.24
G1 F2400 E20.90712
G1 F1800 X116.456 Y110.8 E20.91178
G0 F9000 X115.891 Y110.8
G1 F1800 X116.539 Y111.448 E20.94835
G0 F9000 X116.539 Y112.014
G1 F1800 X115.325 Y110.8 E21.01688
G0 F9000 X114.759 Y110.8
G1 F1800 X116.539 Y112.579 E21.11732
G0 F9000 X116.539 Y113.145
G1 F1800 X114.194 Y110.8 E21.24968
G0 F9000 X113.628 Y110.8
G1 F1800 X116.539 Y113.711 E21.41399
G0 F9000 X116.539 Y114.276
G1 F1800 X113.062 Y110.8 E21.61022
G0 F9000 X112.497 Y110.8
G1 F1800 X116.539 Y114.842 E21.83837
G0 F9000 X116.539 Y115.408
G1 F1800 X111.931 Y110.8 E22.09846
G0 F9000 X111.365 Y110.8
G1 F1800 X116.54 Y115.974 E22.39054
G0 F9000 X116.54 Y116.54
G1 F1800 X110.8 Y110.8 E22.71453
G0 F9000 X110.234 Y110.8
G1 F1800 X116.54 Y117.106 E23.07046
G0 F9000 X116.54 Y117.671
G1 F1800 X109.668 Y110.8 E23.45832
G0 F9000 X109.103 Y110.8
G1 F1800 X116.54 Y118.237 E23.8781
G0 F9000 X116.54 Y118.803
G1 F1800 X108.537 Y110.8 E24.32982
G0 F9000 X107.971 Y110.8
G1 F1800 X116.54 Y119.368 E24.81346
G0 F9000 X116.54 Y119.934
G1 F1800 X107.405 Y110.8 E25.32906
G0 F9000 X106.84 Y110.8
G1 F1800 X116.541 Y120.5 E25.87659
G0 F9000 X116.541 Y121.066
G1 F1800 X106.274 Y110.8 E26.45608
G0 F9000 X105.708 Y110.8
G1 F1800 X116.541 Y121.632 E27.06751
G0 F9000 X116.541 Y122.197
G1 F1800 X105.143 Y110.8 E27.71084
G0 F9000 X104.577 Y110.8
G1 F1800 X116.541 Y122.763 E28.38611
G0 F9000 X116.541 Y123.329
G1 F1800 X104.011 Y110.8 E29.09333
G0 F9000 X103.46 Y110.814
G1 F1800 X116.541 Y123.895 E29.83167
G0 F9000 X116.541 Y124.46
G1 F1800 X103.46 Y111.379 E30.57002
G0 F9000 X103.46 Y111.945
G1 F1800 X116.211 Y124.696 E31.28974
G0 F9000 X115.645 Y124.696
G1 F1800 X103.46 Y112.511 E31.97752
G0 F9000 X103.46 Y113.076
G1 F1800 X115.08 Y124.696 E32.6334
G0 F9000 X114.514 Y124.696
G1 F1800 X103.46 Y113.642 E33.25734
G0 F9000 X103.46 Y114.208
G1 F1800 X113.948 Y124.696 E33.84933
G0 F9000 X113.383 Y124.696
G1 F1800 X103.46 Y114.774 E34.40939
G0 F9000 X103.46 Y115.339
G1 F1800 X112.817 Y124.696 E34.93754
G0 F9000 X112.251 Y124.696
G1 F1800 X103.46 Y115.905 E35.43375
G0 F9000 X103.46 Y116.471
G1 F1800 X111.686 Y124.696 E35.89803
G0 F9000 X111.12 Y124.696
G1 F1800 X103.46 Y117.036 E36.33039
G0 F9000 X103.46 Y117.602
G1 F1800 X110.554 Y124.696 E36.73081
G0 F9000 X109.989 Y124.696
G1 F1800 X103.46 Y118.168 E37.0993
G0 F9000 X103.46 Y118.733
G1 F1800 X109.423 Y124.696 E37.43588
G0 F9000 X108.857 Y124.696
G1 F1800 X103.46 Y119.299 E37.74051
G0 F9000 X103.46 Y119.865
G1 F1800 X108.291 Y124.696 E38.01319
G0 F9000 X107.726 Y124.696
G1 F1800 X103.46 Y120.43 E38.25399
G0 F9000 X103.46 Y120.996
G1 F1800 X107.16 Y124.696 E38.46283
G0 F9000 X106.594 Y124.696
G1 F1800 X103.46 Y121.562 E38.63973
G0 F9000 X103.46 Y122.127
G1 F1800 X106.029 Y124.696 E38.78473
G0 F9000 X105.463 Y124.696
G1 F1800 X103.46 Y122.693 E38.89779
G0 F9000 X103.46 Y123.259
G1 F1800 X104.897 Y124.696 E38.9789
G0 F9000 X104.332 Y124.696
G1 F1800 X103.46 Y123.825 E39.02809
G0 F9000 X103.46 Y124.39
G1 F1800 X103.766 Y124.696 E39.04536
G1 F2400 E36.04536
G1 F300 Z0.44
;MESH:NONMESH
G0 F9000 X101.951 Y109.45 Z0.44
;TIME_ELAPSED:44.170398
;LAYER:1
M140 S40
M106 S127.5
;MESH:CandyDreamBlaster_Slider_HersheyKiss.stl
G0 X101.951 Y109.45 Z0.6
;TYPE:WALL-OUTER
G1 F300 Z0.4
G1 F2400 E39.04536
G1 F2100 X118.05 Y109.45 E39.47373
G1 X118.051 Y125.967 E39.91321
G1 X118.017 Y126.012 E39.91471
G1 X117.872 Y126.05 E39.9187
G1 X102.124 Y126.05 E40.33773
G1 X101.95 Y125.969 E40.34283
G1 X101.951 Y109.45 E40.78237
G0 F9000 X102.351 Y109.85
;TYPE:WALL-INNER
G1 F2100 X117.65 Y109.85 E41.18945
G1 X117.651 Y125.451 E41.60456
G1 X117.651 Y125.65 E41.60986
G1 X117.452 Y125.65 E41.61329
G1 X102.549 Y125.65 E42.00983
G1 X102.35 Y125.65 E42.01512
G1 X102.35 Y125.451 E42.01855
G1 X102.351 Y109.85 E42.43366
G0 F9000 X102.751 Y110.25
G1 F2100 X117.25 Y110.25 E42.81945
G1 X117.251 Y125.051 E43.21328
G1 X117.251 Y125.25 E43.21857
G1 X117.052 Y125.25 E43.222
G1 X102.949 Y125.25 E43.59725
G1 X102.75 Y125.25 E43.60255
G1 X102.75 Y125.051 E43.60597
G1 X102.751 Y110.25 E43.9998
G0 F9000 X103.141 Y110.64
;TYPE:SKIN
G1 F2100 X116.86 Y110.64 E44.36484
G1 X116.861 Y124.86 E44.7432
G1 X103.14 Y124.86 E45.10829
G1 X103.141 Y110.64 E45.48666
G0 F9000 X103.301 Y111.093
G1 F2100 X103.595 Y110.799 E45.49772
G0 F9000 X104.161 Y110.799
G1 F2100 X103.301 Y111.659 E45.53009
G0 F9000 X103.301 Y112.224
G1 F2100 X104.726 Y110.799 E45.58371
G0 F9000 X105.292 Y110.799
G1 F2100 X103.301 Y112.79 E45.65863
G0 F9000 X103.301 Y113.356
G1 F2100 X105.858 Y110.799 E45.75485
G0 F9000 X106.423 Y110.799
G1 F2100 X103.301 Y113.921 E45.87233
G0 F9000 X103.301 Y114.487
G1 F2100 X106.989 Y110.799 E46.0111
G0 F9000 X107.555 Y110.799
G1 F2100 X103.301 Y115.053 E46.17118
G0 F9000 X103.301 Y115.619
G1 F2100 X108.12 Y110.799 E46.35254
G0 F9000 X108.686 Y110.799
G1 F2100 X103.301 Y116.184 E46.55517
G0 F9000 X103.301 Y116.75
G1 F2100 X109.252 Y110.799 E46.7791
G0 F9000 X109.817 Y110.799
G1 F2100 X103.301 Y117.316 E47.02432
G0 F9000 X103.3 Y117.882
G1 F2100 X110.383 Y110.799 E47.29085
G0 F9000 X110.949 Y110.799
G1 F2100 X103.3 Y118.448 E47.57868
G0 F9000 X103.3 Y119.013
G1 F2100 X111.514 Y110.799 E47.88776
G0 F9000 X112.08 Y110.799
G1 F2100 X103.3 Y119.579 E48.21815
G0 F9000 X103.3 Y120.145
G1 F2100 X112.646 Y110.799 E48.56984
G0 F9000 X113.212 Y110.799
G1 F2100 X103.3 Y120.71 E48.9428
G0 F9000 X103.3 Y121.276
G1 F2100 X113.777 Y110.799 E49.33705
G0 F9000 X114.343 Y110.799
G1 F2100 X103.3 Y121.842 E49.75259
G0 F9000 X103.3 Y122.407
G1 F2100 X114.909 Y110.799 E50.18941
G0 F9000 X115.474 Y110.799
G1 F2100 X103.3 Y122.973 E50.64752
G0 F9000 X103.3 Y123.539
G1 F2100 X116.04 Y110.799 E51.12692
G0 F9000 X116.606 Y110.799
G1 F2100 X103.3 Y124.105 E51.62761
G0 F9000 X103.3 Y124.67
G1 F2100 X116.698 Y111.272 E52.13178
G0 F9000 X116.698 Y111.838
G1 F2100 X103.837 Y124.699 E52.61573
G0 F9000 X104.402 Y124.699
G1 F2100 X116.698 Y112.403 E53.07842
G0 F9000 X116.698 Y112.969
G1 F2100 X104.968 Y124.699 E53.51982
G0 F9000 X105.534 Y124.699
G1 F2100 X116.698 Y113.535 E53.93991
G0 F9000 X116.698 Y114.1
G1 F2100 X106.099 Y124.699 E54.33875
G0 F9000 X106.665 Y124.699
G1 F2100 X116.698 Y114.666 E54.71629
G0 F9000 X116.698 Y115.232
G1 F2100 X107.231 Y124.699 E55.07252
G0 F9000 X107.797 Y124.699
G1 F2100 X116.699 Y115.797 E55.4075
G0 F9000 X116.699 Y116.362
G1 F2100 X108.362 Y124.699 E55.72122
G0 F9000 X108.928 Y124.699
G1 F2100 X116.699 Y116.928 E56.01364
G0 F9000 X116.699 Y117.494
G1 F2100 X109.494 Y124.699 E56.28476
G0 F9000 X110.059 Y124.699
G1 F2100 X116.699 Y118.059 E56.53462
G0 F9000 X116.699 Y118.625
G1 F2100 X110.625 Y124.699 E56.76318
G0 F9000 X111.191 Y124.699
G1 F2100 X116.699 Y119.191 E56.97045
G0 F9000 X116.699 Y119.757
G1 F2100 X111.756 Y124.699 E57.15643
G0 F9000 X112.322 Y124.699
G1 F2100 X116.7 Y120.321 E57.32117
G0 F9000 X116.7 Y120.887
G1 F2100 X112.888 Y124.699 E57.46462
G0 F9000 X113.453 Y124.699
G1 F2100 X116.7 Y121.453 E57.58678
G0 F9000 X116.7 Y122.019
G1 F2100 X114.019 Y124.699 E57.68765
G0 F9000 X114.585 Y124.699
G1 F2100 X116.7 Y122.584 E57.76723
G0 F9000 X116.7 Y123.15
G1 F2100 X115.15 Y124.699 E57.82554
G0 F9000 X115.716 Y124.699
G1 F2100 X116.7 Y123.716 E57.86255
G0 F9000 X116.7 Y124.281
G1 F2100 X116.282 Y124.699 E57.87828
G1 F2400 E54.87828
G1 F300 Z0.6
;MESH:NONMESH
G0 F9000 X101.791 Y109.45 Z0.6
;TIME_ELAPSED:71.376626
;LAYER:2
M106 S191.3
;MESH:CandyDreamBlaster_Slider_HersheyKiss.stl
G0 X101.791 Y109.45 Z0.76
;TYPE:WALL-OUTER
G1 F300 Z0.56
G1 F2400 E57.87828
G1 X118.21 Y109.45 E58.31516
G1 X118.211 Y125.964 E58.75456
G1 X118.036 Y126.05 E58.75975
G1 X101.957 Y126.049 E59.18758
G1 X101.79 Y125.97 E59.1925
G1 X101.791 Y109.45 E59.63206
G0 F9000 X102.191 Y109.85
;TYPE:WALL-INNER
G1 F2400 X117.81 Y109.85 E60.04766
G1 X117.811 Y125.451 E60.46277
G1 X117.811 Y125.65 E60.46806
G1 X117.612 Y125.65 E60.47149
G1 X102.19 Y125.649 E60.88184
G1 X102.191 Y109.85 E61.30222
G0 F9000 X102.591 Y110.25
G1 F2400 X117.41 Y110.25 E61.69653
G1 X117.411 Y125.051 E62.09035
G1 X117.411 Y125.25 E62.09565
G1 X117.212 Y125.25 E62.09907
G1 X102.59 Y125.249 E62.48814
G1 X102.591 Y110.25 E62.88723
G0 F9000 X102.981 Y110.64
;TYPE:SKIN
G1 F2400 X117.02 Y110.64 E63.26078
G1 X117.021 Y124.86 E63.63915
G1 X102.98 Y124.859 E64.01276
G1 X102.981 Y110.64 E64.3911
G1 F2400 E61.3911
G1 F300 Z0.76
G0 F9000 X116.86 Y111.203 Z0.76
G1 F300 Z0.56
G1 F2400 E64.3911
G1 X116.456 Y110.799 E64.4063
G0 F9000 X115.89 Y110.799
G1 F2400 X116.86 Y111.768 E64.44278
G0 F9000 X116.86 Y112.334
G1 F2400 X115.324 Y110.799 E64.50056
G0 F9000 X114.759 Y110.799
G1 F2400 X116.86 Y112.9 E64.57962
G0 F9000 X116.86 Y113.465
G1 F2400 X114.193 Y110.799 E64.67996
G0 F9000 X113.627 Y110.799
G1 F2400 X116.86 Y114.031 E64.8016
G0 F9000 X116.86 Y114.597
G1 F2400 X113.062 Y110.799 E64.94452
G0 F9000 X112.496 Y110.799
G1 F2400 X116.86 Y115.162 E65.10871
G0 F9000 X116.86 Y115.728
G1 F2400 X111.93 Y110.799 E65.29421
G0 F9000 X111.365 Y110.799
G1 F2400 X116.86 Y116.294 E65.50098
G0 F9000 X116.86 Y116.86
G1 F2400 X110.799 Y110.799 E65.72905
G0 F9000 X110.233 Y110.799
G1 F2400 X116.86 Y117.425 E65.97841
G0 F9000 X116.86 Y117.992
G1 F2400 X109.668 Y110.799 E66.24906
G0 F9000 X109.102 Y110.799
G1 F2400 X116.86 Y118.557 E66.54099
G0 F9000 X116.86 Y119.123
G1 F2400 X108.536 Y110.799 E66.85421
G0 F9000 X107.97 Y110.799
G1 F2400 X116.86 Y119.689 E67.18874
G0 F9000 X116.86 Y120.254
G1 F2400 X107.405 Y110.799 E67.54453
G0 F9000 X106.839 Y110.799
G1 F2400 X116.86 Y120.82 E67.92161
G0 F9000 X116.86 Y121.386
G1 F2400 X106.273 Y110.799 E68.32
G0 F9000 X105.708 Y110.799
G1 F2400 X116.86 Y121.951 E68.73964
G0 F9000 X116.86 Y122.517
G1 F2400 X105.142 Y110.799 E69.18059
G0 F9000 X104.576 Y110.799
G1 F2400 X116.86 Y123.083 E69.64283
G0 F9000 X116.86 Y123.648
G1 F2400 X104.011 Y110.799 E70.12633
G0 F9000 X103.445 Y110.799
G1 F2400 X116.86 Y124.214 E70.63113
G0 F9000 X116.779 Y124.698
G1 F2400 X103.14 Y111.06 E71.14434
G0 F9000 X103.14 Y111.625
G1 F2400 X116.213 Y124.698 E71.63627
G0 F9000 X115.648 Y124.698
G1 F2400 X103.14 Y112.191 E72.10692
G0 F9000 X103.14 Y112.757
G1 F2400 X115.082 Y124.698 E72.55628
G0 F9000 X114.516 Y124.698
G1 F2400 X103.14 Y113.323 E72.98433
G0 F9000 X103.14 Y113.888
G1 F2400 X113.95 Y124.698 E73.39111
G0 F9000 X113.385 Y124.698
G1 F2400 X103.14 Y114.454 E73.7766
G0 F9000 X103.14 Y115.02
G1 F2400 X112.819 Y124.698 E74.1408
G0 F9000 X112.253 Y124.698
G1 F2400 X103.14 Y115.585 E74.48372
G0 F9000 X103.14 Y116.151
G1 F2400 X111.688 Y124.698 E74.80536
G0 F9000 X111.122 Y124.698
