;FLAVOR:Marlin
;TIME:6942
;Filament used: 4.59108m
;Layer height: 0.2
;MINX:82
;MINY:93.95
;MINZ:0.24
;MAXX:138
;MAXY:127.648
;MAXZ:55.56
;Generated with Cura_SteamEngine 4.8.0
M140 S50
M105
M190 S50
M104 S215
M105
M109 S215
M82 ;absolute extrusion mode
M201 X500.00 Y500.00 Z100.00 E5000.00 ;Setup machine max acceleration
M203 X500.00 Y500.00 Z10.00 E50.00 ;Setup machine max feedrate
M204 P500.00 R1000.00 T500.00 ;Setup Print/Retract/Travel acceleration
M205 X8.00 Y8.00 Z0.40 E5.00 ;Setup Jerk
M220 S100 ;Reset Feedrate
M221 S100 ;Reset Flowrate

;*** Start Dual Nozzle/Bed Preheating ***
M140 S50 ; start preheating the bed
M104 S215 ﻿T0 ; start preheating hotend
M190 S50 ; heat to Cura Bed setting and WAIT
M109 S215 ﻿T0 ; heat to Cura Hotend and WAIT
;*** End Preheating ***

G28 ; home

G92 E0 ;Reset Extruder
G1 Z2.0 F3000 ;Move Z Axis up

;*** Single Print Start Tone
M300 S1000 P500 ; chirp to indicate starting to print
;*** End Single Start Tone

G1 X10.1 Y20 Z0.28 F5000.0 ;Move to start position
G1 X10.1 Y200.0 Z0.28 F1500.0 E15 ;Draw the first line
G1 X10.4 Y200.0 Z0.28 F5000.0 ;Move to side a little
G1 X10.4 Y20 Z0.28 F1500.0 E30 ;Draw the second line
G92 E0 ;Reset Extruder
G1 Z2.0 F3000 ;Move Z Axis up
G92 E0
G92 E0
G1 F2400 E-3
;LAYER_COUNT:327
;LAYER:0
M106 S63.8
M204 S500
M205 X6 Y6
G1 F300 Z0.44
G0 F9000 X86.953 Y108.106 Z0.44
;TYPE:SKIRT
G1 F300 Z0.24
G1 F2400 E0
G1 F1800 X87.247 Y107.947 E0.01334
G1 X87.76 Y107.85 E0.03418
G1 X132.24 Y107.85 E1.80947
G1 X132.572 Y107.89 E1.82282
G1 X132.884 Y108.007 E1.83612
G1 X133.161 Y108.195 E1.84948
G1 X133.384 Y108.443 E1.86279
G1 X133.543 Y108.737 E1.87613
G1 X133.64 Y109.25 E1.89697
G1 X133.641 Y126 E2.5655
G1 X133.601 Y126.332 E2.57884
G1 X133.381 Y126.813 E2.59995
G1 X133.017 Y127.255 E2.62281
G1 X132.74 Y127.441 E2.63612
G1 X132.261 Y127.601 E2.65628
G1 X131.902 Y127.648 E2.67073
G1 X88.1 Y127.647 E4.41896
G1 X87.768 Y127.607 E4.43231
G1 X87.165 Y127.345 E4.45855
G1 X86.885 Y127.161 E4.47192
G1 X86.658 Y126.917 E4.48522
G1 X86.428 Y126.434 E4.50658
G1 X86.359 Y126 E4.52412
G1 X86.36 Y109.25 E5.19264
G1 X86.4 Y108.918 E5.20599
G1 X86.517 Y108.605 E5.21933
G1 X86.705 Y108.329 E5.23266
G1 X86.953 Y108.106 E5.24597
G0 F9000 X87.099 Y108.499
G1 F1800 X87.335 Y108.345 E5.25721
G1 X87.76 Y108.25 E5.2746
G1 X132.24 Y108.25 E7.04989
G1 X132.519 Y108.29 E7.06114
G1 X132.776 Y108.406 E7.07239
G1 X132.991 Y108.589 E7.08366
G1 X133.145 Y108.825 E7.09491
G1 X133.24 Y109.25 E7.11229
G1 X133.241 Y126 E7.78082
G1 X133.201 Y126.279 E7.79207
G1 X132.916 Y126.775 E7.8149
G1 X132.722 Y126.98 E7.82616
G1 X132.358 Y127.162 E7.84241
G1 X131.902 Y127.248 E7.86093
G1 X88.1 Y127.247 E9.60916
G1 X87.654 Y127.142 E9.62745
G1 X87.111 Y126.827 E9.6525
G1 X86.932 Y126.608 E9.66379
G1 X86.808 Y126.31 E9.67667
G1 X86.759 Y126 E9.6892
G1 X86.76 Y109.25 E10.35773
G1 X86.8 Y108.971 E10.36898
G1 X86.916 Y108.714 E10.38023
G1 X87.099 Y108.499 E10.3915
G0 F9000 X87.486 Y108.716
G1 F1800 X87.76 Y108.65 E10.40275
G1 X132.24 Y108.65 E12.17804
G1 X132.455 Y108.69 E12.18677
G1 X132.641 Y108.803 E12.19546
G1 X132.774 Y108.976 E12.20417
G1 X132.84 Y109.25 E12.21542
G1 X132.841 Y126 E12.88394
G1 X132.801 Y126.215 E12.89267
G1 X132.591 Y126.543 E12.90822
G1 X132.434 Y126.695 E12.91694
G1 X132.056 Y126.828 E12.93293
G1 X131.902 Y126.848 E12.93913
G1 X88.1 Y126.847 E14.68736
G1 X87.832 Y126.784 E14.69835
G1 X87.347 Y126.498 E14.72082
G1 X87.189 Y126.186 E14.73478
G1 X87.159 Y126 E14.7423
G1 X87.16 Y109.25 E15.41083
G1 X87.2 Y109.035 E15.41956
G1 X87.313 Y108.849 E15.42824
G1 X87.486 Y108.716 E15.43695
G0 F9000 X87.599 Y109.131
G1 F1800 X87.76 Y109.05 E15.44415
G1 X132.24 Y109.05 E17.21944
G1 X132.359 Y109.089 E17.22444
G1 X132.44 Y109.25 E17.23163
G1 X132.441 Y126 E17.90016
G1 X132.265 Y126.311 E17.91442
G1 X132.153 Y126.388 E17.91985
G1 X131.902 Y126.448 E17.93015
G1 X88.1 Y126.447 E19.67838
G1 X87.7 Y126.271 E19.69582
G1 X87.569 Y126.062 E19.70567
G1 X87.559 Y126 E19.70817
G1 X87.56 Y109.25 E20.3767
G1 X87.599 Y109.131 E20.3817
;MESH:CandyDreamBlaster_Slider.stl
G0 F9000 X87.96 Y109.45
;TYPE:WALL-OUTER
G1 F1800 X132.04 Y109.45 E22.14103
G1 X132.041 Y125.967 E22.80026
G1 X132.004 Y126.014 E22.80265
G1 X131.875 Y126.048 E22.80797
G1 X88.123 Y126.047 E24.55421
G1 X87.962 Y125.979 E24.56118
G1 X87.959 Y125.969 E24.5616
G1 X87.96 Y109.45 E25.22091
G0 F9000 X88.36 Y109.85
;TYPE:WALL-INNER
G1 F1800 X131.64 Y109.85 E26.94831
G1 X131.641 Y125.449 E27.5709
G1 X131.641 Y125.648 E27.57884
G1 X131.442 Y125.648 E27.58398
G1 X88.558 Y125.647 E29.29557
G1 X88.359 Y125.647 E29.30351
G1 X88.359 Y125.448 E29.30865
G1 X88.36 Y109.85 E29.9312
G0 F9000 X88.76 Y110.25
G1 F1800 X131.24 Y110.25 E31.62667
G1 X131.241 Y125.049 E32.21733
G1 X131.241 Y125.248 E32.22527
G1 X131.042 Y125.248 E32.23041
G1 X88.958 Y125.247 E33.91008
G1 X88.759 Y125.247 E33.91802
G1 X88.759 Y125.048 E33.92316
G1 X88.76 Y110.25 E34.51378
G0 F9000 X89.15 Y110.64
;TYPE:SKIN
G1 F1800 X130.85 Y110.64 E36.17811
G1 X130.851 Y124.858 E36.74559
G1 X89.149 Y124.857 E38.41
G1 X89.15 Y110.64 E38.97743
G1 F2400 E35.97743
G1 F300 Z0.44
G0 F9000 X89.624 Y124.696 Z0.44
G1 F300 Z0.24
G1 F2400 E38.97743
G1 F1800 X89.309 Y124.381 E38.99521
G0 F9000 X89.309 Y123.815
G1 F1800 X90.19 Y124.696 E39.04494
G0 F9000 X90.755 Y124.696
G1 F1800 X89.309 Y123.25 E39.12656
G0 F9000 X89.309 Y122.684
G1 F1800 X91.321 Y124.696 E39.24013
G0 F9000 X91.887 Y124.696
G1 F1800 X89.309 Y122.118 E39.38564
G0 F9000 X89.309 Y121.553
G1 F1800 X92.452 Y124.696 E39.56304
G0 F9000 X93.018 Y124.696
G1 F1800 X89.309 Y120.987 E39.7724
G0 F9000 X89.309 Y120.421
G1 F1800 X93.584 Y124.696 E40.01369
G0 F9000 X94.149 Y124.696
G1 F1800 X89.309 Y119.856 E40.28689
G0 F9000 X89.309 Y119.29
G1 F1800 X94.715 Y124.696 E40.59202
G0 F9000 X95.281 Y124.696
G1 F1800 X89.309 Y118.724 E40.92911
G0 F9000 X89.309 Y118.158
G1 F1800 X95.846 Y124.696 E41.29811
G0 F9000 X96.412 Y124.696
G1 F1800 X89.309 Y117.593 E41.69904
G0 F9000 X89.309 Y117.028
G1 F1800 X96.978 Y124.696 E42.13188
G0 F9000 X97.543 Y124.696
G1 F1800 X89.309 Y116.462 E42.59664
G0 F9000 X89.309 Y115.896
G1 F1800 X98.109 Y124.696 E43.09335
G0 F9000 X98.675 Y124.696
G1 F1800 X89.309 Y115.331 E43.62198
G0 F9000 X89.309 Y114.765
G1 F1800 X99.241 Y124.696 E44.18256
G0 F9000 X99.806 Y124.696
G1 F1800 X89.309 Y114.199 E44.77506
G0 F9000 X89.309 Y113.634
G1 F1800 X100.372 Y124.696 E45.39947
G0 F9000 X100.938 Y124.696
G1 F1800 X89.309 Y113.068 E46.05583
G0 F9000 X89.309 Y112.502
G1 F1800 X101.503 Y124.696 E46.74412
G0 F9000 X102.069 Y124.696
G1 F1800 X89.309 Y111.937 E47.46432
G0 F9000 X89.309 Y111.371
G1 F1800 X102.635 Y124.696 E48.21647
G0 F9000 X103.2 Y124.696
G1 F1800 X89.309 Y110.805 E49.00053
G0 F9000 X89.869 Y110.8
G1 F1800 X103.766 Y124.696 E49.78491
G0 F9000 X104.332 Y124.696
G1 F1800 X90.435 Y110.8 E50.56929
G0 F9000 X91.001 Y110.8
G1 F1800 X104.897 Y124.696 E51.35364
G0 F9000 X105.463 Y124.696
G1 F1800 X91.566 Y110.8 E52.13802
G0 F9000 X92.132 Y110.8
G1 F1800 X106.029 Y124.696 E52.9224
G0 F9000 X106.594 Y124.696
G1 F1800 X92.698 Y110.8 E53.70675
G0 F9000 X93.263 Y110.8
G1 F1800 X107.16 Y124.696 E54.49113
G0 F9000 X107.726 Y124.696
G1 F1800 X93.829 Y110.8 E55.27551
G0 F9000 X94.395 Y110.8
G1 F1800 X108.291 Y124.696 E56.05986
G0 F9000 X108.857 Y124.696
G1 F1800 X94.96 Y110.8 E56.84423
G0 F9000 X95.526 Y110.8
G1 F1800 X109.423 Y124.696 E57.62861
G0 F9000 X109.989 Y124.696
G1 F1800 X96.092 Y110.8 E58.41299
G0 F9000 X96.657 Y110.8
G1 F1800 X110.555 Y124.697 E59.19743
G0 F9000 X111.121 Y124.697
G1 F1800 X97.223 Y110.8 E59.98186
G0 F9000 X97.789 Y110.8
G1 F1800 X111.686 Y124.697 E60.76627
G0 F9000 X112.252 Y124.697
G1 F1800 X98.355 Y110.8 E61.55067
G0 F9000 X98.92 Y110.8
G1 F1800 X112.818 Y124.697 E62.33511
G0 F9000 X113.383 Y124.697
G1 F1800 X99.486 Y110.8 E63.11952
G0 F9000 X100.052 Y110.8
G1 F1800 X113.949 Y124.697 E63.90392
G0 F9000 X114.515 Y124.697
G1 F1800 X100.617 Y110.8 E64.68836
G0 F9000 X101.183 Y110.8
G1 F1800 X115.08 Y124.697 E65.47276
G0 F9000 X115.646 Y124.697
G1 F1800 X101.749 Y110.8 E66.25717
G0 F9000 X102.314 Y110.8
G1 F1800 X116.212 Y124.697 E67.04161
G0 F9000 X116.777 Y124.697
G1 F1800 X102.88 Y110.8 E67.82601
G0 F9000 X103.446 Y110.8
G1 F1800 X117.343 Y124.697 E68.61042
G0 F9000 X117.909 Y124.697
G1 F1800 X104.011 Y110.8 E69.39485
G0 F9000 X104.577 Y110.8
G1 F1800 X118.475 Y124.697 E70.17929
G0 F9000 X119.04 Y124.697
G1 F1800 X105.143 Y110.8 E70.9637
G0 F9000 X105.708 Y110.8
G1 F1800 X119.606 Y124.697 E71.74813
G0 F9000 X120.172 Y124.697
G1 F1800 X106.274 Y110.8 E72.53257
G0 F9000 X106.84 Y110.8
G1 F1800 X120.737 Y124.697 E73.31697
G0 F9000 X121.303 Y124.697
G1 F1800 X107.405 Y110.8 E74.10141
G0 F9000 X107.971 Y110.8
G1 F1800 X121.869 Y124.697 E74.88584
G0 F9000 X122.434 Y124.697
G1 F1800 X108.537 Y110.8 E75.67025
G0 F9000 X109.103 Y110.8
G1 F1800 X123 Y124.697 E76.45466
G0 F9000 X123.566 Y124.697
G1 F1800 X109.668 Y110.8 E77.23909
G0 F9000 X110.234 Y110.8
G1 F1800 X124.131 Y124.697 E78.0235
G0 F9000 X124.697 Y124.697
G1 F1800 X110.8 Y110.8 E78.8079
G0 F9000 X111.365 Y110.8
G1 F1800 X125.263 Y124.697 E79.59234
G0 F9000 X125.828 Y124.697
G1 F1800 X111.931 Y110.8 E80.37675
G0 F9000 X112.497 Y110.8
G1 F1800 X126.394 Y124.697 E81.16115
G0 F9000 X126.96 Y124.697
G1 F1800 X113.062 Y110.8 E81.94559
G0 F9000 X113.628 Y110.8
G1 F1800 X127.526 Y124.697 E82.73002
G0 F9000 X128.091 Y124.697
G1 F1800 X114.194 Y110.8 E83.51443
G0 F9000 X114.759 Y110.8
G1 F1800 X128.657 Y124.697 E84.29886
G0 F9000 X129.223 Y124.697
G1 F1800 X115.325 Y110.8 E85.0833
G0 F9000 X115.891 Y110.8
G1 F1800 X129.788 Y124.697 E85.86771
G0 F9000 X130.354 Y124.697
G1 F1800 X116.456 Y110.8 E86.65214
G0 F9000 X117.022 Y110.8
G1 F1800 X130.69 Y124.467 E87.42359
G0 F9000 X130.69 Y123.902
G1 F1800 X117.588 Y110.8 E88.16313
G0 F9000 X118.154 Y110.8
G1 F1800 X130.69 Y123.336 E88.87071
G0 F9000 X130.69 Y122.77
G1 F1800 X118.719 Y110.8 E89.54638
G0 F9000 X119.285 Y110.8
G1 F1800 X130.69 Y122.205 E90.19013
G0 F9000 X130.69 Y121.639
G1 F1800 X119.851 Y110.8 E90.80193
G0 F9000 X120.416 Y110.8
G1 F1800 X130.69 Y121.073 E91.38181
G0 F9000 X130.69 Y120.507
G1 F1800 X120.982 Y110.8 E91.92974
G0 F9000 X121.548 Y110.8
G1 F1800 X130.69 Y119.942 E92.44576
G0 F9000 X130.69 Y119.376
G1 F1800 X122.113 Y110.8 E92.92985
G0 F9000 X122.679 Y110.8
G1 F1800 X130.69 Y118.81 E93.382
G0 F9000 X130.69 Y118.245
G1 F1800 X123.245 Y110.8 E93.80223
G0 F9000 X123.81 Y110.8
G1 F1800 X130.69 Y117.679 E94.19053
G0 F9000 X130.69 Y117.113
G1 F1800 X124.376 Y110.8 E94.5469
G0 F9000 X124.942 Y110.8
G1 F1800 X130.69 Y116.548 E94.87134
G0 F9000 X130.69 Y115.982
G1 F1800 X125.507 Y110.8 E95.16386
G0 F9000 X126.073 Y110.8
G1 F1800 X130.69 Y115.416 E95.42444
G0 F9000 X130.69 Y114.851
G1 F1800 X126.639 Y110.8 E95.65309
G0 F9000 X127.204 Y110.8
G1 F1800 X130.69 Y114.285 E95.84983
G0 F9000 X130.69 Y113.719
G1 F1800 X127.77 Y110.8 E96.01462
G0 F9000 X128.336 Y110.8
G1 F1800 X130.69 Y113.154 E96.14749
G0 F9000 X130.69 Y112.588
G1 F1800 X128.902 Y110.8 E96.24841
G0 F9000 X129.467 Y110.8
G1 F1800 X130.69 Y112.022 E96.31741
G0 F9000 X130.69 Y111.456
G1 F1800 X130.033 Y110.8 E96.35447
G0 F9000 X130.599 Y110.8
G1 F1800 X130.69 Y110.891 E96.3596
G1 F2400 E93.3596
G1 F300 Z0.44
;MESH:NONMESH
G0 F9000 X132.24 Y109.45 Z0.44
;TIME_ELAPSED:96.958455
;LAYER:1
M140 S40
M106 S127.5
;TYPE:WALL-OUTER
;MESH:CandyDreamBlaster_Slider.stl
G1 F300 Z0.44
G1 F2400 E96.3596
G1 F2100 X132.24 Y125.969 E96.90903
G1 X132.134 Y126.035 E96.91318
G1 X131.645 Y126.05 E96.92945
G1 X87.929 Y126.049 E98.38345
G1 X87.761 Y125.974 E98.38957
G1 X87.759 Y125.969 E98.38975
G1 X87.76 Y109.45 E98.93918
G1 X132.24 Y109.45 E100.41859
G0 F9000 X131.84 Y109.85
;TYPE:WALL-INNER
G1 F2100 X131.84 Y125.548 E100.9407
G1 X131.84 Y125.644 E100.9439
G1 X131.633 Y125.65 E100.95079
G1 X131.537 Y125.65 E100.95398
G1 X88.358 Y125.649 E102.39012
G1 X88.159 Y125.649 E102.39674
G1 X88.159 Y125.45 E102.40102
G1 X88.16 Y109.85 E102.91988
G1 X131.84 Y109.85 E104.37268
G0 F9000 X131.44 Y110.25
G1 F2100 X131.44 Y125.051 E104.86496
G1 X131.44 Y125.25 E104.87158
G1 X131.241 Y125.25 E104.87586
G1 X88.758 Y125.249 E106.28885
G1 X88.559 Y125.249 E106.29547
G1 X88.559 Y125.05 E106.29976
G1 X88.56 Y110.25 E106.79201
G1 X131.44 Y110.25 E108.2182
G0 F9000 X131.05 Y110.64
;TYPE:SKIN
G1 F2100 X131.05 Y124.86 E108.69116
G1 X88.949 Y124.859 E110.09144
G1 X88.95 Y110.64 E110.56437
G1 X131.05 Y110.64 E111.96462
G1 F2400 E108.96462
G1 F300 Z0.64
G0 F9000 X130.889 Y124.235 Z0.64
G1 F300 Z0.44
G1 F2400 E111.96462
G1 F2100 X130.423 Y124.7 E111.98652
G0 F9000 X129.858 Y124.7
G1 F2100 X130.889 Y123.669 E112.03501
G0 F9000 X130.889 Y123.103
G1 F2100 X129.292 Y124.7 E112.11013
G0 F9000 X128.726 Y124.7
G1 F2100 X130.889 Y122.538 E112.21185
G0 F9000 X130.889 Y121.972
G1 F2100 X128.16 Y124.7 E112.34019
G0 F9000 X127.595 Y124.7
G1 F2100 X130.889 Y121.406 E112.49513
G0 F9000 X130.889 Y120.841
G1 F2100 X127.029 Y124.7 E112.67667
G0 F9000 X126.463 Y124.7
G1 F2100 X130.889 Y120.275 E112.88483
G0 F9000 X130.889 Y119.709
G1 F2100 X125.898 Y124.7 E113.11959
G0 F9000 X125.332 Y124.7
G1 F2100 X130.889 Y119.143 E113.38097
G0 F9000 X130.889 Y118.578
G1 F2100 X124.766 Y124.7 E113.66896
G0 F9000 X124.201 Y124.7
G1 F2100 X130.889 Y118.012 E113.98354
G0 F9000 X130.889 Y117.446
G1 F2100 X123.635 Y124.7 E114.32475
G0 F9000 X123.069 Y124.7
G1 F2100 X130.889 Y116.881 E114.69255
G0 F9000 X130.889 Y116.315
G1 F2100 X122.504 Y124.7 E115.08696
G0 F9000 X121.938 Y124.7
G1 F2100 X130.889 Y115.749 E115.50798
G0 F9000 X130.889 Y115.184
G1 F2100 X121.372 Y124.7 E115.95561
G0 F9000 X120.807 Y124.7
G1 F2100 X130.889 Y114.618 E116.42984
G0 F9000 X130.889 Y114.052
G1 F2100 X120.241 Y124.7 E116.93069
G0 F9000 X119.675 Y124.7
G1 F2100 X130.889 Y113.487 E117.45814
G0 F9000 X130.889 Y112.921
G1 F2100 X119.11 Y124.7 E118.01218
G0 F9000 X118.544 Y124.7
G1 F2100 X130.889 Y112.355 E118.59285
G0 F9000 X130.889 Y111.79
G1 F2100 X117.978 Y124.7 E119.20013
G0 F9000 X117.412 Y124.7
G1 F2100 X130.889 Y111.224 E119.83402
G0 F9000 X130.748 Y110.799
G1 F2100 X116.847 Y124.699 E120.48786
G0 F9000 X116.282 Y124.699
G1 F2100 X130.182 Y110.799 E121.14167
G0 F9000 X129.616 Y110.799
G1 F2100 X115.716 Y124.699 E121.79548
G0 F9000 X115.15 Y124.699
G1 F2100 X129.051 Y110.799 E122.44932
G0 F9000 X128.485 Y110.799
G1 F2100 X114.585 Y124.699 E123.10313
G0 F9000 X114.019 Y124.699
G1 F2100 X127.919 Y110.799 E123.75695
G0 F9000 X127.354 Y110.799
G1 F2100 X113.453 Y124.699 E124.41078
G0 F9000 X112.888 Y124.699
G1 F2100 X126.788 Y110.799 E125.0646
G0 F9000 X126.222 Y110.799
G1 F2100 X112.322 Y124.699 E125.71841
G0 F9000 X111.756 Y124.699
G1 F2100 X125.657 Y110.799 E126.37225
G0 F9000 X125.091 Y110.799
G1 F2100 X111.191 Y124.699 E127.02606
G0 F9000 X110.625 Y124.699
G1 F2100 X124.525 Y110.799 E127.67987
G0 F9000 X123.96 Y110.799
G1 F2100 X110.059 Y124.699 E128.33371
G0 F9000 X109.494 Y124.699
G1 F2100 X123.394 Y110.799 E128.98752
G0 F9000 X122.828 Y110.799
G1 F2100 X108.928 Y124.699 E129.64134
G0 F9000 X108.362 Y124.699
G1 F2100 X122.263 Y110.799 E130.29517
G0 F9000 X121.697 Y110.799
G1 F2100 X107.797 Y124.699 E130.94899
G0 F9000 X107.231 Y124.699
G1 F2100 X121.131 Y110.799 E131.6028
G0 F9000 X120.565 Y110.799
G1 F2100 X106.665 Y124.699 E132.25661
G0 F9000 X106.099 Y124.699
G1 F2100 X120 Y110.799 E132.91045
G0 F9000 X119.434 Y110.799
G1 F2100 X105.534 Y124.699 E133.56426
G0 F9000 X104.968 Y124.699
G1 F2100 X118.868 Y110.799 E134.21808
G0 F9000 X118.303 Y110.799
G1 F2100 X104.402 Y124.699 E134.87191
G0 F9000 X103.837 Y124.699
G1 F2100 X117.737 Y110.799 E135.52573
G0 F9000 X117.171 Y110.799
G1 F2100 X103.271 Y124.699 E136.17954
G0 F9000 X102.706 Y124.698
G1 F2100 X116.606 Y110.799 E136.83333
G0 F9000 X116.04 Y110.799
G1 F2100 X102.14 Y124.698 E137.48712
G0 F9000 X101.575 Y124.698
G1 F2100 X115.474 Y110.799 E138.14089
G0 F9000 X114.909 Y110.799
G1 F2100 X101.009 Y124.698 E138.79468
G0 F9000 X100.443 Y124.698
G1 F2100 X114.343 Y110.799 E139.44847
G0 F9000 X113.777 Y110.799
G1 F2100 X99.878 Y124.698 E140.10223
G0 F9000 X99.312 Y124.698
G1 F2100 X113.212 Y110.799 E140.75602
