;FLAVOR:Marlin
;TIME:2970
;Filament used: 1.01574m
;Layer height: 0.16
;MINX:47.437
;MINY:59.633
;MINZ:0.24
;MAXX:172.563
;MAXY:160.371
;MAXZ:0.84
;Generated with Cura_SteamEngine 4.8.0
M140 S50
M105
M190 S50
M104 S215
M105
M109 S215
M82 ;absolute extrusion mode
M201 X500.00 Y500.00 Z100.00 E5000.00 ;Setup machine max acceleration
M203 X500.00 Y500.00 Z10.00 E50.00 ;Setup machine max feedrate
M204 P500.00 R1000.00 T500.00 ;Setup Print/Retract/Travel acceleration
M205 X8.00 Y8.00 Z0.40 E5.00 ;Setup Jerk
M220 S100 ;Reset Feedrate
M221 S100 ;Reset Flowrate

;*** Start Dual Nozzle/Bed Preheating ***
M140 S50 ; start preheating the bed
M104 S215 ﻿T0 ; start preheating hotend
M190 S50 ; heat to Cura Bed setting and WAIT
M109 S215 ﻿T0 ; heat to Cura Hotend and WAIT
;*** End Preheating ***

G28 ; home

G92 E0 ;Reset Extruder
G1 Z2.0 F3000 ;Move Z Axis up

;*** Single Print Start Tone
M300 S1000 P500 ; chirp to indicate starting to print
;*** End Single Start Tone

G1 X10.1 Y20 Z0.28 F5000.0 ;Move to start position
G1 X10.1 Y200.0 Z0.28 F1500.0 E15 ;Draw the first line
G1 X10.4 Y200.0 Z0.28 F5000.0 ;Move to side a little
G1 X10.4 Y20 Z0.28 F1500.0 E30 ;Draw the second line
G92 E0 ;Reset Extruder
G1 Z2.0 F3000 ;Move Z Axis up
G92 E0
G92 E0
G1 F2400 E-3
;LAYER_COUNT:4
;LAYER:0
M106 S63.8
M204 S500
M205 X6 Y6
G1 F300 Z0.44
G0 F9000 X52.056 Y70.812 Z0.44
;TYPE:SKIRT
G1 F300 Z0.24
G1 F2400 E0
G1 F1800 X52.838 Y70.325 E0.03677
G1 X53.659 Y69.908 E0.07352
G1 X54.803 Y69.465 E0.12248
G1 X55.528 Y69.243 E0.15275
G1 X87.142 Y60.225 E1.46486
G1 X87.971 Y60 E1.49915
G1 X88.87 Y59.798 E1.53592
G1 X89.782 Y59.676 E1.57265
G1 X90.702 Y59.633 E1.6094
G1 X91.622 Y59.67 E1.64615
G1 X92.535 Y59.787 E1.68289
G1 X93.435 Y59.983 E1.71965
G1 X94.314 Y60.255 E1.75638
G1 X95.166 Y60.604 E1.79313
G1 X95.985 Y61.024 E1.82986
G1 X96.764 Y61.515 E1.86661
G1 X97.539 Y62.105 E1.90549
G1 X98.145 Y62.613 E1.93705
G1 X100.149 Y64.245 E2.0402
G1 X102.177 Y65.804 E2.1423
G1 X104.204 Y67.273 E2.24221
G1 X106.292 Y68.699 E2.34313
G1 X108.398 Y70.05 E2.44299
G1 X111.741 Y72.033 E2.59812
G1 X112.057 Y72.213 E2.61264
G1 X112.836 Y72.702 E2.64935
G1 X113.571 Y73.257 E2.68611
G1 X113.981 Y73.615 E2.70783
G1 X115.21 Y74.743 E2.77441
G1 X117.125 Y76.435 E2.87641
G1 X119.051 Y78.046 E2.97662
G1 X121.041 Y79.615 E3.07777
G1 X123.073 Y81.127 E3.17886
G1 X125.166 Y82.592 E3.28082
G1 X127.246 Y83.964 E3.38027
G1 X129.393 Y85.295 E3.4811
G1 X131.598 Y86.576 E3.58287
G1 X133.822 Y87.786 E3.68393
G1 X136.064 Y88.923 E3.78426
G1 X138.346 Y90.002 E3.88501
G1 X140.676 Y91.023 E3.98654
G1 X143.058 Y91.99 E4.08914
G1 X145.375 Y92.851 E4.1878
G1 X147.776 Y93.669 E4.28904
G1 X150.176 Y94.411 E4.3893
G1 X152.632 Y95.095 E4.49106
G1 X155.105 Y95.71 E4.59276
G1 X157.56 Y96.248 E4.69307
G1 X160.032 Y96.714 E4.79347
G1 X162.572 Y97.12 E4.89614
G1 X163.351 Y97.228 E4.92753
G1 X163.541 Y97.257 E4.9352
G1 X164.445 Y97.436 E4.97198
G1 X165.329 Y97.692 E5.00871
G1 X166.188 Y98.023 E5.04545
G1 X167.014 Y98.428 E5.08217
G1 X167.803 Y98.904 E5.11895
G1 X168.547 Y99.446 E5.15569
G1 X169.242 Y100.05 E5.19244
G1 X169.881 Y100.712 E5.22916
G1 X170.461 Y101.428 E5.26594
G1 X170.976 Y102.191 E5.30268
G1 X171.423 Y102.996 E5.33943
G1 X171.799 Y103.836 E5.37616
G1 X172.1 Y104.706 E5.4129
G1 X172.324 Y105.599 E5.44965
G1 X172.471 Y106.508 E5.4864
G1 X172.54 Y107.515 E5.52669
G1 X172.561 Y108.523 E5.56693
G1 X172.563 Y108.744 E5.57575
G1 X172.562 Y149.187 E7.18991
G1 X172.552 Y149.904 E7.21853
G1 X172.499 Y150.823 E7.25527
G1 X172.367 Y151.734 E7.29201
G1 X172.156 Y152.63 E7.32875
G1 X171.868 Y153.505 E7.36552
G1 X171.505 Y154.351 E7.40226
G1 X171.071 Y155.162 E7.43897
G1 X170.567 Y155.933 E7.47574
G1 X169.999 Y156.657 E7.51247
G1 X169.369 Y157.329 E7.54923
G1 X168.684 Y157.944 E7.58597
G1 X167.948 Y158.498 E7.62274
G1 X167.167 Y158.985 E7.65947
G1 X166.347 Y159.403 E7.69621
G1 X165.493 Y159.747 E7.73296
G1 X164.613 Y160.017 E7.76969
G1 X163.712 Y160.209 E7.80646
G1 X162.799 Y160.322 E7.84318
G1 X162.206 Y160.353 E7.86688
G1 X161.495 Y160.37 E7.89527
G1 X160.838 Y160.371 E7.92149
G1 X159.896 Y160.357 E7.95909
G1 X157.641 Y160.305 E8.04912
G1 X156.759 Y160.272 E8.08434
G1 X155.702 Y160.215 E8.12659
G1 X154.946 Y160.162 E8.15684
G1 X153.429 Y160.04 E8.21758
G1 X152.046 Y159.923 E8.27298
G1 X150.889 Y159.813 E8.31936
G1 X150.666 Y159.79 E8.32831
G1 X150.168 Y159.732 E8.34832
G1 X149.963 Y159.706 E8.35657
G1 X148.873 Y159.556 E8.40048
G1 X146.57 Y159.207 E8.49345
G1 X145.576 Y159.06 E8.53356
G1 X144.17 Y158.828 E8.59043
G1 X143.834 Y158.766 E8.60407
G1 X143.101 Y158.62 E8.6339
G1 X140.119 Y157.99 E8.75554
G1 X139.103 Y157.763 E8.79709
G1 X138.265 Y157.561 E8.8315
G1 X138.043 Y157.505 E8.84064
G1 X137.178 Y157.276 E8.87635
G1 X135.093 Y156.7 E8.96268
G1 X134.396 Y156.502 E8.9916
G1 X133.568 Y156.258 E9.02606
G1 X132.888 Y156.047 E9.05447
G1 X132.657 Y155.972 E9.06417
G1 X131.302 Y155.516 E9.12123
G1 X128.93 Y154.697 E9.22138
G1 X127.826 Y154.301 E9.26819
G1 X127.608 Y154.22 E9.27748
G1 X126.721 Y153.878 E9.31542
G1 X126.099 Y153.628 E9.34217
G1 X125.622 Y153.432 E9.36276
G1 X124.232 Y152.854 E9.42284
G1 X123.348 Y152.477 E9.4612
G1 X122.649 Y152.171 E9.49165
G1 X121.309 Y151.563 E9.55038
G1 X120.454 Y151.156 E9.58818
G1 X118.378 Y150.137 E9.68048
G1 X117.457 Y149.67 E9.72169
G1 X117.021 Y149.444 E9.74129
G1 X116.406 Y149.116 E9.76911
G1 X115.658 Y148.705 E9.80318
G1 X115.16 Y148.424 E9.826
G1 X113.594 Y147.532 E9.89793
G1 X112.786 Y147.063 E9.93522
G1 X112.419 Y146.845 E9.95225
G1 X111.766 Y146.451 E9.98269
G1 X110.904 Y145.912 E10.02327
G1 X109.816 Y145.211 E10.07493
G1 X108.308 Y144.222 E10.1469
G1 X107.845 Y143.914 E10.1691
G1 X107.192 Y143.469 E10.20064
G1 X106.661 Y143.098 E10.22649
G1 X105.971 Y142.601 E10.26043
G1 X105.4 Y142.181 E10.28872
G1 X103.253 Y140.646 E10.39406
G1 X101.156 Y139.235 E10.49494
G1 X99.016 Y137.881 E10.59601
G1 X96.86 Y136.601 E10.69609
G1 X94.65 Y135.372 E10.79701
G1 X92.38 Y134.193 E10.8991
G1 X90.138 Y133.106 E10.99855
G1 X87.803 Y132.057 E11.10072
G1 X85.442 Y131.073 E11.20281
G1 X83.149 Y130.196 E11.30079
G1 X80.725 Y129.345 E11.40333
G1 X78.303 Y128.57 E11.50482
G1 X75.902 Y127.876 E11.60457
G1 X73.464 Y127.247 E11.70507
G1 X70.941 Y126.668 E11.80838
G1 X68.519 Y126.189 E11.90692
G1 X66.027 Y125.766 E12.00781
G1 X63.509 Y125.411 E12.1093
G1 X61.027 Y125.134 E12.20898
G1 X57.522 Y124.863 E12.34929
G1 X57.147 Y124.831 E12.36431
G1 X56.234 Y124.713 E12.40105
G1 X55.334 Y124.516 E12.43782
G1 X54.455 Y124.242 E12.47457
G1 X53.604 Y123.892 E12.51129
G1 X52.785 Y123.47 E12.54807
G1 X52.007 Y122.979 E12.58479
G1 X51.274 Y122.422 E12.62153
G1 X50.592 Y121.803 E12.65829
G1 X49.966 Y121.128 E12.69503
G1 X49.402 Y120.401 E12.73176
G1 X48.902 Y119.627 E12.76853
G1 X48.472 Y118.814 E12.80524
G1 X48.113 Y117.966 E12.84199
G1 X47.83 Y117.09 E12.87874
G1 X47.624 Y116.192 E12.91551
G1 X47.496 Y115.28 E12.95227
G1 X47.449 Y114.422 E12.98656
G1 X47.437 Y113.505 E13.02316
G1 X47.438 Y80.093 E14.35671
G1 X47.448 Y79.403 E14.38425
G1 X47.501 Y78.484 E14.42099
G1 X47.634 Y77.573 E14.45774
G1 X47.846 Y76.677 E14.49449
G1 X48.134 Y75.803 E14.53121
G1 X48.497 Y74.957 E14.56796
G1 X48.932 Y74.146 E14.60469
G1 X49.436 Y73.375 E14.64145
G1 X50.005 Y72.651 E14.6782
G1 X50.635 Y71.979 E14.71497
G1 X51.32 Y71.365 E14.75168
G1 X52.056 Y70.812 E14.78843
G0 F9000 X52.44 Y71.037
G1 F1800 X53.215 Y70.574 E14.82446
G1 X54.029 Y70.182 E14.86052
G1 X54.926 Y69.846 E14.89875
G1 X55.642 Y69.626 E14.92864
G1 X87.252 Y60.609 E16.24059
G1 X88.076 Y60.386 E16.27467
G1 X88.957 Y60.189 E16.3107
G1 X89.852 Y60.071 E16.34673
G1 X90.755 Y60.033 E16.3828
G1 X91.657 Y60.075 E16.41884
G1 X92.552 Y60.196 E16.45489
G1 X93.432 Y60.396 E16.4909
G1 X94.292 Y60.673 E16.52696
G1 X95.124 Y61.025 E16.56302
G1 X95.921 Y61.45 E16.59907
G1 X96.677 Y61.943 E16.63509
G1 X97.283 Y62.412 E16.66568
G1 X97.914 Y62.941 E16.69854
G1 X99.897 Y64.556 E16.80062
G1 X101.944 Y66.13 E16.90368
G1 X103.949 Y67.583 E17.0025
G1 X106.097 Y69.049 E17.1063
G1 X108.18 Y70.385 E17.20507
G1 X111.521 Y72.368 E17.36013
G1 X111.859 Y72.56 E17.37565
G1 X112.623 Y73.041 E17.41168
G1 X113.342 Y73.587 E17.44771
G1 X113.711 Y73.91 E17.46729
G1 X114.933 Y75.032 E17.5335
G1 X116.849 Y76.725 E17.63555
G1 X118.809 Y78.365 E17.73755
G1 X120.8 Y79.934 E17.83872
G1 X122.834 Y81.448 E17.93992
G1 X124.939 Y82.921 E18.04247
G1 X127.021 Y84.295 E18.14203
G1 X129.202 Y85.647 E18.24444
G1 X131.427 Y86.939 E18.34713
G1 X133.614 Y88.129 E18.44651
G1 X135.891 Y89.284 E18.54841
G1 X138.193 Y90.372 E18.65003
G1 X140.5 Y91.384 E18.75058
G1 X142.906 Y92.36 E18.85421
G1 X145.255 Y93.233 E18.95423
G1 X147.634 Y94.043 E19.05453
G1 X150.088 Y94.803 E19.15707
G1 X152.509 Y95.477 E19.25737
G1 X154.986 Y96.093 E19.35924
G1 X157.505 Y96.645 E19.46217
G1 X159.967 Y97.109 E19.56216
G1 X162.499 Y97.514 E19.6645
G1 X163.136 Y97.601 E19.69016
G1 X163.481 Y97.653 E19.70409
G1 X164.367 Y97.828 E19.74013
G1 X165.234 Y98.082 E19.77619
G1 X166.075 Y98.411 E19.81223
G1 X166.883 Y98.813 E19.84825
G1 X167.653 Y99.285 E19.8843
G1 X168.378 Y99.823 E19.92033
G1 X169.053 Y100.424 E19.95641
G1 X169.672 Y101.081 E19.99243
G1 X170.23 Y101.791 E20.02848
G1 X170.724 Y102.548 E20.06455
G1 X171.148 Y103.345 E20.10058
G1 X171.501 Y104.176 E20.13662
G1 X171.778 Y105.036 E20.17268
G1 X171.978 Y105.916 E20.2087
G1 X172.1 Y106.811 E20.24475
G1 X172.14 Y107.524 E20.27325
G1 X172.161 Y108.532 E20.31349
G1 X172.163 Y108.744 E20.32196
G1 X172.162 Y149.181 E21.93588
G1 X172.152 Y149.898 E21.9645
G1 X172.099 Y150.8 E22.00057
G1 X171.967 Y151.693 E22.03659
G1 X171.757 Y152.571 E22.07263
G1 X171.469 Y153.428 E22.10871
G1 X171.107 Y154.255 E22.14474
G1 X170.673 Y155.047 E22.18079
G1 X170.171 Y155.798 E22.21684
G1 X169.605 Y156.501 E22.25286
G1 X168.978 Y157.151 E22.28891
G1 X168.296 Y157.744 E22.32498
G1 X167.565 Y158.273 E22.36099
G1 X166.79 Y158.736 E22.39702
G1 X165.976 Y159.129 E22.4331
G1 X165.131 Y159.448 E22.46915
G1 X164.262 Y159.691 E22.50516
G1 X163.374 Y159.857 E22.54122
G1 X162.197 Y159.953 E22.58835
G1 X161.486 Y159.97 E22.61674
G1 X160.84 Y159.971 E22.64252
G1 X159.905 Y159.957 E22.67984
G1 X157.656 Y159.905 E22.76963
G1 X156.774 Y159.872 E22.80486
G1 X155.724 Y159.815 E22.84683
G1 X155.071 Y159.77 E22.87295
G1 X153.462 Y159.641 E22.93738
G1 X152.084 Y159.525 E22.99257
G1 X150.712 Y159.393 E23.04758
G1 X150.214 Y159.335 E23.06759
G1 X150.017 Y159.31 E23.07552
G1 X148.933 Y159.161 E23.11919
G1 X146.578 Y158.804 E23.21426
G1 X145.641 Y158.665 E23.25206
G1 X144.235 Y158.433 E23.30894
G1 X143.912 Y158.374 E23.32204
G1 X143.184 Y158.229 E23.35167
G1 X140.206 Y157.6 E23.47315
G1 X139.377 Y157.416 E23.50704
G1 X138.359 Y157.172 E23.54883
G1 X138.145 Y157.118 E23.55763
G1 X137.285 Y156.89 E23.59315
G1 X135.202 Y156.315 E23.67939
G1 X134.509 Y156.118 E23.70815
G1 X133.686 Y155.876 E23.74238
G1 X133.006 Y155.665 E23.7708
G1 X132.784 Y155.593 E23.78012
G1 X131.435 Y155.139 E23.83693
G1 X131.221 Y155.063 E23.84599
G1 X129.065 Y154.32 E23.93701
G1 X127.961 Y153.924 E23.98382
G1 X127.751 Y153.846 E23.99276
G1 X126.87 Y153.507 E24.03044
G1 X126.251 Y153.258 E24.05706
G1 X125.776 Y153.063 E24.07756
G1 X124.389 Y152.486 E24.13752
G1 X123.508 Y152.111 E24.17573
G1 X122.814 Y151.807 E24.20597
G1 X121.474 Y151.199 E24.2647
G1 X120.626 Y150.795 E24.30219
G1 X118.559 Y149.78 E24.3941
G1 X117.64 Y149.315 E24.43521
G1 X117.209 Y149.091 E24.45459
G1 X116.598 Y148.765 E24.48223
G1 X115.854 Y148.356 E24.51612
G1 X115.358 Y148.076 E24.53885
G1 X113.795 Y147.186 E24.61064
G1 X112.99 Y146.718 E24.6478
G1 X112.626 Y146.502 E24.6647
G1 X111.823 Y146.017 E24.70214
G1 X111.121 Y145.575 E24.73525
G1 X110.035 Y144.877 E24.78677
G1 X108.529 Y143.889 E24.85866
G1 X108.07 Y143.583 E24.88068
G1 X107.421 Y143.141 E24.91202
G1 X106.893 Y142.772 E24.93773
G1 X106.206 Y142.278 E24.9715
G1 X105.584 Y141.82 E25.00233
G1 X103.503 Y140.333 E25.10441
G1 X101.372 Y138.898 E25.20695
G1 X99.239 Y137.548 E25.3077
G1 X97.042 Y136.244 E25.40967
G1 X94.849 Y135.025 E25.50981
G1 X92.546 Y133.828 E25.61341
G1 X90.311 Y132.746 E25.71251
G1 X87.985 Y131.7 E25.8143
G1 X85.59 Y130.702 E25.91786
G1 X83.256 Y129.809 E26.0176
G1 X80.864 Y128.969 E26.11879
G1 X78.431 Y128.191 E26.22074
G1 X76.008 Y127.491 E26.3214
G1 X73.547 Y126.855 E26.42285
G1 X71.035 Y126.279 E26.52571
G1 X68.593 Y125.796 E26.62506
G1 X66.045 Y125.363 E26.72822
G1 X63.577 Y125.016 E26.82769
G1 X61.071 Y124.736 E26.92833
G1 X57.556 Y124.464 E27.06904
G1 X57.181 Y124.432 E27.08407
G1 X56.285 Y124.316 E27.12013
G1 X55.403 Y124.12 E27.15619
G1 X54.542 Y123.848 E27.19222
G1 X53.709 Y123.5 E27.22826
G1 X52.909 Y123.08 E27.26432
G1 X52.15 Y122.591 E27.30036
G1 X51.437 Y122.037 E27.33639
G1 X50.776 Y121.422 E27.37243
G1 X50.172 Y120.75 E27.40849
G1 X49.629 Y120.028 E27.44455
G1 X49.153 Y119.261 E27.48058
G1 X48.746 Y118.455 E27.51661
G1 X48.413 Y117.615 E27.55268
G1 X48.154 Y116.75 E27.58872
G1 X47.974 Y115.865 E27.62476
G1 X47.872 Y114.968 E27.66079
G1 X47.849 Y114.416 E27.68284
G1 X47.837 Y113.505 E27.71921
G1 X47.838 Y80.099 E29.05251
G1 X47.848 Y79.409 E29.08006
G1 X47.901 Y78.508 E29.11608
G1 X48.034 Y77.614 E29.15215
G1 X48.245 Y76.736 E29.18819
G1 X48.533 Y75.88 E29.22424
G1 X48.895 Y75.053 E29.26027
G1 X49.329 Y74.261 E29.29632
G1 X49.832 Y73.511 E29.33236
G1 X50.399 Y72.808 E29.36841
G1 X51.026 Y72.158 E29.40445
G1 X51.708 Y71.566 E29.4405
G1 X52.44 Y71.037 E29.47654
G1 F2400 E26.47654
G1 F300 Z0.44
;MESH:LeftGrip.stl
G0 F9000 X161.763 Y108.022 Z0.44
;TYPE:WALL-OUTER
G1 F300 Z0.24
G1 F2400 E29.47654
G1 F1800 X161.763 Y149.576 E31.13505
G1 X160.521 Y149.568 E31.18463
G1 X158.163 Y149.516 E31.27876
G1 X157.619 Y149.5 E31.30048
G1 X156.673 Y149.457 E31.33828
G1 X156.153 Y149.424 E31.35907
G1 X154.509 Y149.293 E31.4249
G1 X152.436 Y149.119 E31.50793
G1 X151.616 Y149.031 E31.54084
G1 X151.082 Y148.965 E31.56232
G1 X150.563 Y148.889 E31.58325
G1 X148.508 Y148.576 E31.66622
G1 X146.452 Y148.275 E31.74915
G1 X145.903 Y148.174 E31.77143
G1 X142.035 Y147.357 E31.92922
G1 X141.186 Y147.16 E31.964
G1 X140.594 Y147.01 E31.98838
G1 X139.895 Y146.823 E32.01726
G1 X137.886 Y146.267 E32.10046
G1 X137.095 Y146.041 E32.13329
G1 X136.304 Y145.804 E32.16625
G1 X135.534 Y145.558 E32.19851
G1 X135.474 Y145.529 E32.20117
G1 X132.012 Y144.336 E32.34732
G1 X131.097 Y143.995 E32.38629
G1 X130.518 Y143.767 E32.41113
G1 X129.973 Y143.544 E32.43463
G1 X128.048 Y142.745 E32.51782
G1 X126.455 Y142.05 E32.58719
G1 X125.44 Y141.572 E32.63196
G1 X123.393 Y140.57 E32.72293
G1 X123.047 Y140.398 E32.73835
G1 X122.191 Y139.961 E32.77671
G1 X121.897 Y139.807 E32.78995
G1 X121.275 Y139.471 E32.81817
G1 X120.729 Y139.167 E32.84311
G1 X118.648 Y137.981 E32.93871
G1 X117.577 Y137.349 E32.98835
G1 X117.136 Y137.077 E33.00903
G1 X115.97 Y136.332 E33.06425
G1 X114.078 Y135.091 E33.15456
G1 X113.783 Y134.893 E33.16874
G1 X113.122 Y134.44 E33.20072
G1 X112.829 Y134.233 E33.21504
G1 X112.003 Y133.635 E33.25574
G1 X110.062 Y132.183 E33.35249
G1 X109.516 Y131.768 E33.37986
G1 X108.88 Y131.268 E33.41215
G1 X108.559 Y131.007 E33.42866
G1 X107.576 Y130.19 E33.47968
G1 X105.859 Y128.73 E33.56963
G1 X105.267 Y128.211 E33.60106
G1 X104.867 Y127.854 E33.62245
G1 X104.47 Y127.483 E33.64414
G1 X103.223 Y126.292 E33.71296
G1 X101.721 Y124.847 E33.79615
G1 X101.368 Y124.493 E33.8161
G1 X100.936 Y124.093 E33.8396
G1 X100.688 Y123.89 E33.85239
G1 X98.596 Y122.208 E33.95953
G1 X97.966 Y121.732 E33.99105
G1 X97.686 Y121.532 E34.00478
G1 X96.417 Y120.669 E34.06603
G1 X95.346 Y119.95 E34.11752
G1 X94.973 Y119.712 E34.13517
G1 X94.197 Y119.248 E34.17126
G1 X92.37 Y118.214 E34.25505
G1 X91.642 Y117.827 E34.28796
G1 X91.266 Y117.642 E34.30468
G1 X88.832 Y116.511 E34.4118
G1 X88.197 Y116.226 E34.43958
G1 X87.918 Y116.112 E34.45161
G1 X86.477 Y115.58 E34.51292
G1 X85.001 Y115.032 E34.57576
G1 X84.476 Y114.855 E34.59787
G1 X83.344 Y114.518 E34.64501
G1 X81.591 Y114.03 E34.71764
G1 X81.04 Y113.89 E34.74033
G1 X80.545 Y113.775 E34.76061
G1 X77.512 Y113.185 E34.88393
G1 X76.89 Y113.083 E34.90909
G1 X76.368 Y113.013 E34.93011
G1 X75.834 Y112.949 E34.95158
