;FLAVOR:Marlin
;TIME:19804
;Filament used: 21.8039m
;Layer height: 0.2
;MINX:0.551
;MINY:0.902
;MINZ:0.24
;MAXX:217.205
;MAXY:217.555
;MAXZ:16.36
;Generated with Cura_SteamEngine 4.8.0
M140 S50
M105
M190 S50
M104 S215
M105
M109 S215
M82 ;absolute extrusion mode
M201 X500.00 Y500.00 Z100.00 E5000.00 ;Setup machine max acceleration
M203 X500.00 Y500.00 Z10.00 E50.00 ;Setup machine max feedrate
M204 P500.00 R1000.00 T500.00 ;Setup Print/Retract/Travel acceleration
M205 X8.00 Y8.00 Z0.40 E5.00 ;Setup Jerk
M220 S100 ;Reset Feedrate
M221 S100 ;Reset Flowrate

;*** Start Dual Nozzle/Bed Preheating ***
M140 S50 ; start preheating the bed
M104 S215 ﻿T0 ; start preheating hotend
M190 S50 ; heat to Cura Bed setting and WAIT
M109 S215 ﻿T0 ; heat to Cura Hotend and WAIT
;*** End Preheating ***

G28 ; home

G92 E0 ;Reset Extruder
G1 Z2.0 F3000 ;Move Z Axis up

;*** Single Print Start Tone
M300 S1000 P500 ; chirp to indicate starting to print
;*** End Single Start Tone

G1 X10.1 Y20 Z0.28 F5000.0 ;Move to start position
G1 X10.1 Y200.0 Z0.28 F1500.0 E15 ;Draw the first line
G1 X10.4 Y200.0 Z0.28 F5000.0 ;Move to side a little
G1 X10.4 Y20 Z0.28 F1500.0 E30 ;Draw the second line
G92 E0 ;Reset Extruder
G1 Z2.0 F3000 ;Move Z Axis up
G92 E0
G92 E0
G1 F2400 E-3
;LAYER_COUNT:93
;LAYER:0
M106 S63.8
M204 S500
M205 X6 Y6
G1 F300 Z0.44
G0 F9000 X14.594 Y5.796 Z0.44
;TYPE:SKIRT
G1 F300 Z0.24
G1 F2400 E0
G1 F1800 X15.071 Y5.332 E0.02656
G1 X15.522 Y4.917 E0.05102
G1 X16.115 Y4.417 E0.08198
G1 X16.627 Y4.011 E0.10806
G1 X17.372 Y3.471 E0.14478
G1 X18.087 Y3.039 E0.17813
G1 X18.82 Y2.64 E0.21143
G1 X19.235 Y2.428 E0.23003
G1 X20.072 Y2.046 E0.26676
G1 X20.877 Y1.756 E0.30091
G1 X21.652 Y1.518 E0.33326
G1 X22.147 Y1.379 E0.35378
G1 X23.319 Y1.12 E0.40169
G1 X23.98 Y1.025 E0.42834
G1 X24.408 Y0.976 E0.44554
G1 X25.329 Y0.911 E0.48239
G1 X25.626 Y0.903 E0.49425
G1 X26.167 Y0.902 E0.51584
G1 X26.457 Y0.909 E0.52742
G1 X27.375 Y0.971 E0.56414
G1 X28.057 Y1.07 E0.59164
G1 X29.003 Y1.239 E0.63
G1 X61.708 Y7.607 E1.95984
G1 X62.494 Y7.77 E1.99188
G1 X63.102 Y7.911 E2.01679
G1 X63.392 Y7.985 E2.02873
G1 X64.628 Y8.322 E2.07987
G1 X65.251 Y8.501 E2.10574
G1 X66.419 Y8.912 E2.15516
G1 X67.373 Y9.313 E2.19646
G1 X68.01 Y9.594 E2.22425
G1 X68.61 Y9.867 E2.25056
G1 X69.715 Y10.451 E2.30044
G1 X70.646 Y11.017 E2.34393
G1 X71.201 Y11.368 E2.37014
G1 X71.738 Y11.716 E2.39568
G1 X72.745 Y12.456 E2.44555
G1 X73.447 Y13.039 E2.48197
G1 X74.004 Y13.516 E2.51124
G1 X74.612 Y14.055 E2.54367
G1 X75.034 Y14.444 E2.56658
G1 X75.285 Y14.688 E2.58055
G1 X159.279 Y98.682 E7.32153
G1 X160.124 Y99.547 E7.3698
G1 X160.596 Y100.041 E7.39707
G1 X160.752 Y100.208 E7.40619
G1 X161.681 Y101.223 E7.46111
G1 X163.462 Y103.114 E7.56478
G1 X165.265 Y104.923 E7.66672
G1 X167.078 Y106.642 E7.76644
G1 X168.968 Y108.334 E7.86769
G1 X170.915 Y109.982 E7.96949
G1 X172.856 Y111.533 E8.06866
G1 X174.904 Y113.076 E8.171
G1 X176.939 Y114.521 E8.27062
G1 X179.073 Y115.947 E8.37305
G1 X181.197 Y117.28 E8.47314
G1 X183.39 Y118.572 E8.57473
G1 X185.571 Y119.777 E8.67418
G1 X187.88 Y120.966 E8.77784
G1 X190.117 Y122.041 E8.87689
G1 X192.43 Y123.072 E8.97797
G1 X194.764 Y124.035 E9.07874
G1 X197.155 Y124.944 E9.18083
G1 X199.511 Y125.76 E9.28035
G1 X201.91 Y126.52 E9.38079
G1 X204.379 Y127.224 E9.48326
G1 X206.076 Y127.665 E9.55324
G1 X206.421 Y127.752 E9.56744
G1 X207.303 Y128.015 E9.60417
G1 X207.828 Y128.212 E9.62655
G1 X208.566 Y128.523 E9.65852
G1 X209.25 Y128.836 E9.68854
G1 X210.069 Y129.255 E9.72526
G1 X210.631 Y129.597 E9.75151
G1 X211.146 Y129.933 E9.77606
G1 X211.895 Y130.469 E9.81282
G1 X212.423 Y130.913 E9.84035
G1 X212.804 Y131.254 E9.86076
G1 X213.049 Y131.479 E9.87404
G1 X213.692 Y132.137 E9.91076
G1 X214.155 Y132.69 E9.93954
G1 X214.468 Y133.091 E9.95984
G1 X214.746 Y133.463 E9.97838
G1 X215.257 Y134.229 E10.01513
G1 X215.681 Y135.001 E10.05028
G1 X215.974 Y135.601 E10.07693
G1 X216.089 Y135.851 E10.08792
G1 X216.437 Y136.704 E10.12469
G1 X216.7 Y137.546 E10.15989
G1 X216.858 Y138.18 E10.18597
G1 X216.953 Y138.615 E10.20374
G1 X217.11 Y139.522 E10.24048
G1 X217.188 Y140.433 E10.27697
G1 X217.205 Y141.12 E10.3044
G1 X217.203 Y141.525 E10.32057
G1 X217.183 Y142.123 E10.34445
G1 X217.089 Y143.653 E10.40563
G1 X216.933 Y146.411 E10.51588
G1 X216.886 Y147.291 E10.55106
G1 X216.797 Y148.207 E10.58779
G1 X216.629 Y149.112 E10.62452
G1 X216.384 Y149.999 E10.66125
G1 X216.062 Y150.862 E10.69802
G1 X215.666 Y151.693 E10.73476
G1 X215.2 Y152.487 E10.7715
G1 X214.426 Y153.535 E10.8235
G1 X213.911 Y154.149 E10.85549
G1 X207.533 Y161.523 E11.24461
G1 X207.078 Y162.044 E11.27222
G1 X200.589 Y169.368 E11.66277
G1 X199.902 Y170.129 E11.70368
G1 X193.298 Y177.306 E12.09295
G1 X192.604 Y178.046 E12.13344
G1 X189.32 Y181.483 E12.32317
G1 X188.798 Y182.022 E12.35312
G1 X185.239 Y185.635 E12.55553
G1 X184.892 Y185.979 E12.57504
G1 X181.681 Y189.138 E12.75482
G1 X181.071 Y189.728 E12.78869
G1 X177.713 Y192.939 E12.97413
G1 X176.983 Y193.623 E13.01405
G1 X169.586 Y200.43 E13.41527
G1 X169.064 Y200.899 E13.44328
G1 X161.488 Y207.607 E13.84714
G1 X161.025 Y208.012 E13.8717
G1 X153.752 Y214.3 E14.25542
G1 X153.198 Y214.766 E14.28432
G1 X152.469 Y215.327 E14.32103
G1 X151.693 Y215.823 E14.35779
G1 X150.877 Y216.25 E14.39455
G1 X150.028 Y216.605 E14.43128
G1 X149.151 Y216.884 E14.46801
G1 X148.252 Y217.086 E14.50478
G1 X147.255 Y217.217 E14.54492
G1 X146.398 Y217.27 E14.57919
G1 X146.123 Y217.282 E14.59017
G1 X142.583 Y217.487 E14.7317
G1 X141.841 Y217.534 E14.76137
G1 X141.227 Y217.555 E14.78589
G1 X140.52 Y217.553 E14.81411
G1 X140.248 Y217.546 E14.82497
G1 X139.33 Y217.483 E14.8617
G1 X138.464 Y217.348 E14.89668
G1 X137.81 Y217.208 E14.92337
G1 X137.394 Y217.106 E14.94047
G1 X136.51 Y216.848 E14.97722
G1 X135.673 Y216.524 E15.01304
G1 X135.522 Y216.458 E15.01962
G1 X135.056 Y216.241 E15.04014
G1 X134.671 Y216.05 E15.05729
G1 X133.865 Y215.605 E15.09404
G1 X133.138 Y215.12 E15.12892
G1 X132.614 Y214.732 E15.15494
G1 X132.442 Y214.599 E15.16362
G1 X131.739 Y214.005 E15.20035
G1 X131.281 Y213.556 E15.22595
G1 X130.918 Y213.178 E15.24687
G1 X130.629 Y212.866 E15.26384
G1 X129.879 Y211.924 E15.3119
G1 X129.561 Y211.475 E15.33386
G1 X129.331 Y211.137 E15.35018
G1 X128.858 Y210.347 E15.38693
G1 X128.583 Y209.798 E15.41144
G1 X128.226 Y209.034 E15.44509
G1 X127.928 Y208.352 E15.4748
G1 X127.604 Y207.49 E15.51155
G1 X127.437 Y206.93 E15.53488
G1 X127.146 Y205.839 E15.57994
G1 X126.77 Y204.39 E15.63969
G1 X126.081 Y202.004 E15.73881
G1 X125.3 Y199.564 E15.84107
G1 X124.462 Y197.178 E15.942
G1 X123.568 Y194.849 E16.04157
G1 X122.585 Y192.49 E16.14357
G1 X121.549 Y190.184 E16.24447
G1 X120.45 Y187.915 E16.34509
G1 X119.29 Y185.686 E16.44538
G1 X118.047 Y183.451 E16.54745
G1 X116.759 Y181.282 E16.64813
G1 X115.407 Y179.145 E16.74906
G1 X114.004 Y177.061 E16.84933
G1 X112.526 Y174.994 E16.95075
G1 X111 Y172.984 E17.05148
G1 X109.413 Y171.008 E17.15263
G1 X107.754 Y169.063 E17.25466
G1 X106.1 Y167.229 E17.35323
G1 X104.32 Y165.364 E17.45613
G1 X102.528 Y163.591 E17.55674
G1 X100.88 Y162.044 E17.64696
G1 X99.833 Y161.085 E17.70363
G1 X99.667 Y160.93 E17.71269
G1 X99.154 Y160.438 E17.74106
G1 X98.223 Y159.528 E17.79302
G1 X14.5 Y75.804 E22.51874
G1 X14.024 Y75.313 E22.54603
G1 X13.433 Y74.669 E22.58092
G1 X12.596 Y73.698 E22.63208
G1 X12.196 Y73.22 E22.65696
G1 X11.458 Y72.225 E22.7064
G1 X10.913 Y71.393 E22.7461
G1 X10.498 Y70.736 E22.77712
G1 X10.153 Y70.171 E22.80354
G1 X9.568 Y69.072 E22.85323
G1 X9.125 Y68.105 E22.89568
G1 X8.853 Y67.481 E22.92285
G1 X8.597 Y66.875 E22.9491
G1 X8.18 Y65.702 E22.99879
G1 X7.926 Y64.826 E23.0352
G1 X7.705 Y64.017 E23.06867
G1 X7.526 Y63.317 E23.09751
G1 X7.409 Y62.82 E23.11788
G1 X7.297 Y62.283 E23.13978
G1 X0.863 Y29.239 E24.4834
G1 X0.724 Y28.475 E24.5144
G1 X0.599 Y27.563 E24.55114
G1 X0.553 Y26.623 E24.5887
G1 X0.551 Y26.13 E24.60838
G1 X0.562 Y25.598 E24.62961
G1 X0.571 Y25.403 E24.6374
G1 X0.627 Y24.704 E24.66539
G1 X0.731 Y23.896 E24.69791
G1 X1.005 Y22.57 E24.75195
G1 X1.213 Y21.836 E24.7824
G1 X1.385 Y21.282 E24.80555
G1 X1.696 Y20.415 E24.84231
G1 X2.071 Y19.598 E24.87819
G1 X2.315 Y19.121 E24.89958
G1 X2.662 Y18.479 E24.9287
G1 X3.139 Y17.691 E24.96547
G1 X3.665 Y16.971 E25.00106
G1 X3.981 Y16.574 E25.02131
G1 X4.467 Y15.989 E25.05166
G1 X4.862 Y15.546 E25.07535
G1 X5.294 Y15.095 E25.10028
G1 X14.594 Y5.796 E25.62518
G0 F9000 X14.873 Y6.083
G1 F1800 X15.35 Y5.619 E25.65174
G1 X15.784 Y5.22 E25.67527
G1 X16.363 Y4.731 E25.70552
G1 X16.875 Y4.325 E25.7316
G1 X17.607 Y3.796 E25.76765
G1 X18.281 Y3.389 E25.79907
G1 X19.002 Y2.997 E25.83183
G1 X19.417 Y2.785 E25.85043
G1 X20.238 Y2.41 E25.88645
G1 X20.997 Y2.138 E25.91863
G1 X21.76 Y1.903 E25.95049
G1 X22.255 Y1.764 E25.97101
G1 X23.383 Y1.515 E26.01712
G1 X24.026 Y1.422 E26.04305
G1 X24.454 Y1.373 E26.06024
G1 X25.339 Y1.311 E26.09565
G1 X25.636 Y1.303 E26.10751
G1 X26.157 Y1.302 E26.12831
G1 X26.447 Y1.309 E26.13988
G1 X27.348 Y1.371 E26.17593
G1 X27.987 Y1.464 E26.2017
G1 X28.926 Y1.632 E26.23977
G1 X61.752 Y8.024 E27.57454
G1 X62.413 Y8.161 E27.60148
G1 X63.008 Y8.299 E27.62586
G1 X63.287 Y8.371 E27.63736
G1 X64.518 Y8.707 E27.68829
G1 X65.141 Y8.886 E27.71416
G1 X66.264 Y9.281 E27.76167
G1 X67.212 Y9.679 E27.80271
G1 X67.844 Y9.958 E27.83028
G1 X68.444 Y10.231 E27.85659
G1 X69.508 Y10.793 E27.90462
G1 X70.433 Y11.355 E27.94782
G1 X70.983 Y11.703 E27.97379
G1 X71.52 Y12.051 E27.99933
G1 X72.49 Y12.764 E28.04738
G1 X73.192 Y13.347 E28.0838
G1 X73.744 Y13.82 E28.11282
G1 X74.347 Y14.354 E28.14496
G1 X74.761 Y14.736 E28.16745
G1 X75.002 Y14.97 E28.18085
G1 X158.993 Y98.961 E32.92167
G1 X159.835 Y99.824 E32.96979
G1 X160.307 Y100.318 E32.99706
G1 X160.457 Y100.478 E33.00581
G1 X161.378 Y101.485 E33.06028
G1 X163.187 Y103.406 E33.1656
G1 X164.972 Y105.195 E33.26646
G1 X166.819 Y106.947 E33.36807
G1 X168.688 Y108.621 E33.46821
G1 X170.653 Y110.284 E33.57096
G1 X172.629 Y111.862 E33.67189
G1 X174.661 Y113.393 E33.77343
G1 X176.747 Y114.875 E33.87556
G1 X178.843 Y116.275 E33.97616
G1 X180.987 Y117.621 E34.0772
G1 X183.173 Y118.908 E34.17844
G1 X185.415 Y120.147 E34.28068
G1 X187.659 Y121.304 E34.38145
G1 X189.96 Y122.408 E34.48331
G1 X192.251 Y123.43 E34.58343
G1 X194.63 Y124.411 E34.68614
G1 X197.037 Y125.326 E34.78892
G1 X199.364 Y126.132 E34.88721
G1 X201.827 Y126.912 E34.99032
G1 X204.255 Y127.605 E35.0911
G1 X205.975 Y128.052 E35.16203
G1 X206.323 Y128.14 E35.17635
G1 X207.188 Y128.399 E35.21239
G1 X207.677 Y128.583 E35.23325
G1 X208.399 Y128.887 E35.26451
G1 X209.083 Y129.2 E35.29453
G1 X209.887 Y129.612 E35.33059
G1 X210.412 Y129.932 E35.35513
G1 X210.927 Y130.268 E35.37967
G1 X211.661 Y130.795 E35.41574
G1 X212.156 Y131.211 E35.44155
G1 X212.537 Y131.552 E35.46195
G1 X212.775 Y131.771 E35.47486
G1 X213.406 Y132.417 E35.5109
G1 X213.84 Y132.936 E35.53791
G1 X214.153 Y133.337 E35.55821
G1 X214.423 Y133.699 E35.57623
G1 X214.923 Y134.451 E35.61228
G1 X215.323 Y135.179 E35.64543
G1 X215.611 Y135.768 E35.6716
G1 X215.726 Y136.018 E35.68258
G1 X216.066 Y136.855 E35.71864
G1 X216.314 Y137.649 E35.75184
G1 X216.467 Y138.266 E35.77721
G1 X216.562 Y138.701 E35.79498
G1 X216.716 Y139.591 E35.83103
G1 X216.788 Y140.45 E35.86544
G1 X216.805 Y141.118 E35.89211
G1 X216.803 Y141.523 E35.90827
G1 X216.784 Y142.098 E35.93123
G1 X216.69 Y143.628 E35.99241
G1 X216.536 Y146.347 E36.10111
G1 X216.487 Y147.269 E36.13796
G1 X216.399 Y148.168 E36.17401
G1 X216.232 Y149.056 E36.21007
G1 X215.987 Y149.925 E36.24611
G1 X215.666 Y150.769 E36.28215
G1 X215.272 Y151.582 E36.31821
G1 X214.808 Y152.356 E36.35423
G1 X214.12 Y153.278 E36.40014
G1 X213.608 Y153.887 E36.4319
G1 X207.232 Y161.26 E36.82094
G1 X206.778 Y161.778 E36.84843
G1 X200.292 Y169.1 E37.23884
G1 X199.607 Y169.858 E37.27962
G1 X193.006 Y177.032 E37.66871
G1 X192.314 Y177.77 E37.70909
G1 X189.033 Y181.205 E37.89868
G1 X188.513 Y181.742 E37.92852
G1 X184.958 Y185.351 E38.1307
G1 X181.403 Y188.85 E38.32979
G1 X180.795 Y189.439 E38.36358
G1 X177.439 Y192.648 E38.5489
G1 X176.712 Y193.329 E38.58866
G1 X169.319 Y200.132 E38.98965
G1 X168.799 Y200.599 E39.01754
G1 X161.225 Y207.306 E39.42132
G1 X160.764 Y207.709 E39.44576
G1 X153.495 Y213.994 E39.82929
G1 X152.941 Y214.46 E39.85819
G1 X152.225 Y215.01 E39.89422
G1 X151.463 Y215.495 E39.93027
G1 X150.661 Y215.91 E39.96631
G1 X149.825 Y216.253 E40.00238
G1 X148.963 Y216.52 E40.0384
G1 X148.08 Y216.711 E40.07445
G1 X147.222 Y216.819 E40.10897
G1 X146.378 Y216.871 E40.14272
G1 X146.132 Y216.881 E40.15255
G1 X142.558 Y217.088 E40.29543
G1 X141.816 Y217.135 E40.3251
G1 X141.225 Y217.155 E40.34871
G1 X140.531 Y217.154 E40.37641
G1 X140.259 Y217.147 E40.38726
G1 X139.358 Y217.083 E40.42332
G1 X138.541 Y216.956 E40.45632
G1 X137.905 Y216.82 E40.48227
G1 X137.489 Y216.718 E40.49937
G1 X136.622 Y216.464 E40.53543
G1 X135.833 Y216.157 E40.56922
G1 X135.234 Y215.882 E40.59552
G1 X134.849 Y215.691 E40.61268
G1 X134.058 Y215.255 E40.64873
G1 X133.374 Y214.797 E40.68158
G1 X132.859 Y214.416 E40.70715
G1 X132.687 Y214.283 E40.71583
G1 X131.997 Y213.7 E40.75188
G1 X131.569 Y213.279 E40.77584
G1 X131.206 Y212.901 E40.79676
G1 X130.928 Y212.599 E40.81314
G1 X130.205 Y211.693 E40.85941
G1 X129.887 Y211.244 E40.88137
G1 X129.665 Y210.917 E40.89714
G1 X129.202 Y210.141 E40.93321
G1 X128.945 Y209.629 E40.95607
G1 X128.588 Y208.865 E40.98973
G1 X128.296 Y208.195 E41.0189
G1 X127.979 Y207.349 E41.05496
G1 X127.824 Y206.827 E41.07669
G1 X127.533 Y205.739 E41.12164
G1 X127.156 Y204.284 E41.18163
G1 X126.46 Y201.876 E41.28167
G1 X125.683 Y199.446 E41.3835
G1 X124.841 Y197.05 E41.48486
G1 X123.934 Y194.688 E41.58584
G1 X122.948 Y192.321 E41.68819
G1 X121.916 Y190.025 E41.78865
G1 X120.807 Y187.736 E41.89017
G1 X119.629 Y185.471 E41.99207
G1 X118.398 Y183.258 E42.09314
G1 X117.108 Y181.085 E42.194
G1 X115.744 Y178.93 E42.29579
G1 X114.329 Y176.827 E42.39696
G1 X112.843 Y174.749 E42.49892
G1 X111.315 Y172.736 E42.59979
G1 X109.715 Y170.745 E42.70173
G1 X108.072 Y168.819 E42.80277
G1 X106.386 Y166.949 E42.90327
G1 X104.625 Y165.104 E43.00506
G1 X102.799 Y163.297 E43.10759
G1 X101.149 Y161.748 E43.19792
G1 X100.103 Y160.79 E43.25453
G1 X99.943 Y160.641 E43.26326
G1 X99.433 Y160.152 E43.29146
G1 X98.593 Y159.332 E43.33831
G1 X14.788 Y75.526 E48.06866
G1 X14.312 Y75.035 E48.09595
G1 X13.736 Y74.408 E48.12993
G1 X12.903 Y73.441 E48.18087
G1 X12.503 Y72.963 E48.20575
G1 X11.793 Y72.006 E48.25331
G1 X11.15 Y71.022 E48.30023
G1 X10.84 Y70.528 E48.3235
G1 X10.495 Y69.963 E48.34992
G1 X9.931 Y68.905 E48.39778
G1 X9.563 Y68.104 E48.43296
G1 X9.221 Y67.325 E48.46692
G1 X8.965 Y66.719 E48.49317
G1 X8.565 Y65.591 E48.54094
G1 X8.268 Y64.563 E48.58365
G1 X8.093 Y63.918 E48.61032
G1 X7.914 Y63.218 E48.63916
G1 X7.8 Y62.731 E48.65912
G1 X7.69 Y62.206 E48.68053
G1 X1.232 Y29.036 E50.02927
G1 X1.117 Y28.403 E50.05495
G1 X0.995 Y27.508 E50.091
G1 X0.953 Y26.621 E50.12645
G1 X0.951 Y26.128 E50.14612
G1 X0.962 Y25.617 E50.16652
G1 X0.971 Y25.422 E50.17431
G1 X1.024 Y24.749 E50.20126
G1 X1.127 Y23.952 E50.23333
G1 X1.391 Y22.675 E50.28538
G1 X1.595 Y21.955 E50.31525
G1 X1.767 Y21.401 E50.3384
G1 X2.072 Y20.551 E50.37444
G1 X2.427 Y19.78 E50.40832
G1 X2.671 Y19.303 E50.4297
G1 X3.013 Y18.671 E50.45838
G1 X3.481 Y17.899 E50.49442
G1 X3.977 Y17.22 E50.52798
G1 X4.293 Y16.823 E50.54823
G1 X4.773 Y16.247 E50.57815
G1 X5.153 Y15.82 E50.60097
G1 X5.577 Y15.378 E50.62541
G1 X14.873 Y6.083 E51.15009
G1 F2400 E48.15009
G1 F300 Z0.44
;MESH:MainSlide.stl
G0 F9000 X206.114 Y146.654 Z0.44
;TYPE:WALL-OUTER
G1 F300 Z0.24
G1 F2400 E51.15009
G1 F1800 X199.197 Y154.652 E51.57213
G1 X192.26 Y162.483 E51.98968
G1 X185.112 Y170.253 E52.41106
G1 X181.334 Y174.209 E52.62939
G1 X177.761 Y177.839 E52.83268
G1 X177.499 Y178.102 E52.8475
G1 X173.868 Y181.674 E53.05079
G1 X170.006 Y185.366 E53.26403
G1 X162.418 Y192.35 E53.67564
G1 X162.141 Y192.602 E53.69058
G1 X154.162 Y199.669 E54.11599
G1 X146.301 Y206.467 E54.53079
G1 X143.746 Y206.566 E54.63284
G1 X141.138 Y206.767 E54.73724
G1 X140.547 Y206.761 E54.76083
G1 X139.985 Y206.632 E54.78384
G1 X139.475 Y206.389 E54.80639
G1 X139.02 Y206.046 E54.82913
