;FLAVOR:Marlin
;TIME:2971
;Filament used: 1.01593m
;Layer height: 0.16
;MINX:47.437
;MINY:59.634
;MINZ:0.24
;MAXX:172.563
;MAXY:160.374
;MAXZ:0.84
;Generated with Cura_SteamEngine 4.8.0
M140 S50
M105
M190 S50
M104 S215
M105
M109 S215
M82 ;absolute extrusion mode
M201 X500.00 Y500.00 Z100.00 E5000.00 ;Setup machine max acceleration
M203 X500.00 Y500.00 Z10.00 E50.00 ;Setup machine max feedrate
M204 P500.00 R1000.00 T500.00 ;Setup Print/Retract/Travel acceleration
M205 X8.00 Y8.00 Z0.40 E5.00 ;Setup Jerk
M220 S100 ;Reset Feedrate
M221 S100 ;Reset Flowrate

;*** Start Dual Nozzle/Bed Preheating ***
M140 S50 ; start preheating the bed
M104 S215 ﻿T0 ; start preheating hotend
M190 S50 ; heat to Cura Bed setting and WAIT
M109 S215 ﻿T0 ; heat to Cura Hotend and WAIT
;*** End Preheating ***

G28 ; home

G92 E0 ;Reset Extruder
G1 Z2.0 F3000 ;Move Z Axis up

;*** Single Print Start Tone
M300 S1000 P500 ; chirp to indicate starting to print
;*** End Single Start Tone

G1 X10.1 Y20 Z0.28 F5000.0 ;Move to start position
G1 X10.1 Y200.0 Z0.28 F1500.0 E15 ;Draw the first line
G1 X10.4 Y200.0 Z0.28 F5000.0 ;Move to side a little
G1 X10.4 Y20 Z0.28 F1500.0 E30 ;Draw the second line
G92 E0 ;Reset Extruder
G1 Z2.0 F3000 ;Move Z Axis up
G92 E0
G92 E0
G1 F2400 E-3
;LAYER_COUNT:4
;LAYER:0
M106 S63.8
M204 S500
M205 X6 Y6
G1 F300 Z0.44
G0 F9000 X52.838 Y98.509 Z0.44
;TYPE:SKIRT
G1 F300 Z0.24
G1 F2400 E0
G1 F1800 X53.659 Y98.092 E0.03675
G1 X54.513 Y97.748 E0.0735
G1 X55.393 Y97.479 E0.11023
G1 X56.527 Y97.25 E0.1564
G1 X57.22 Y97.15 E0.18435
G1 X59.764 Y96.749 E0.28714
G1 X62.249 Y96.285 E0.38803
G1 X64.716 Y95.752 E0.48877
G1 X67.153 Y95.155 E0.58891
G1 X69.629 Y94.47 E0.69144
G1 X72.012 Y93.739 E0.79093
G1 X74.41 Y92.929 E0.89195
G1 X76.803 Y92.044 E0.99378
G1 X79.142 Y91.103 E1.09441
G1 X81.467 Y90.089 E1.19565
G1 X83.735 Y89.024 E1.29565
G1 X86.009 Y87.877 E1.3973
G1 X88.259 Y86.661 E1.49938
G1 X90.395 Y85.427 E1.59784
G1 X92.575 Y84.084 E1.70003
G1 X94.685 Y82.7 E1.80075
G1 X96.757 Y81.255 E1.90157
G1 X98.79 Y79.751 E2.0025
G1 X100.796 Y78.177 E2.10427
G1 X102.727 Y76.571 E2.20451
G1 X104.605 Y74.918 E2.30436
G1 X105.571 Y74.02 E2.35701
G1 X106.081 Y73.559 E2.38444
G1 X106.79 Y72.972 E2.42118
G1 X107.647 Y72.387 E2.4626
G1 X107.974 Y72.191 E2.47781
G1 X110.106 Y70.963 E2.57601
G1 X112.246 Y69.647 E2.67628
G1 X114.359 Y68.267 E2.77701
G1 X116.427 Y66.827 E2.87758
G1 X118.469 Y65.32 E2.97888
G1 X120.44 Y63.778 E3.07876
G1 X121.798 Y62.645 E3.14935
G1 X122.561 Y62.022 E3.18866
G1 X123.299 Y61.472 E3.2254
G1 X124.081 Y60.987 E3.26212
G1 X124.903 Y60.572 E3.29887
G1 X125.758 Y60.23 E3.33563
G1 X126.639 Y59.963 E3.37237
G1 X127.54 Y59.774 E3.40911
G1 X128.454 Y59.664 E3.44586
G1 X129.374 Y59.634 E3.4826
G1 X130.294 Y59.683 E3.51937
G1 X131.205 Y59.812 E3.55609
G1 X131.903 Y59.966 E3.58462
G1 X132.535 Y60.133 E3.61071
G1 X164.317 Y69.199 E4.9298
G1 X164.977 Y69.396 E4.95729
G1 X165.847 Y69.697 E4.99403
G1 X166.687 Y70.073 E5.03076
G1 X167.492 Y70.52 E5.06751
G1 X168.255 Y71.036 E5.10427
G1 X168.97 Y71.615 E5.141
G1 X169.632 Y72.255 E5.17775
G1 X170.237 Y72.949 E5.21449
G1 X170.778 Y73.694 E5.25124
G1 X171.253 Y74.482 E5.28796
G1 X171.658 Y75.309 E5.32472
G1 X171.99 Y76.168 E5.36147
G1 X172.246 Y77.052 E5.3982
G1 X172.424 Y77.956 E5.43498
G1 X172.511 Y78.705 E5.46507
G1 X172.526 Y78.892 E5.47256
G1 X172.559 Y79.616 E5.50149
G1 X172.563 Y79.996 E5.51665
G1 X172.562 Y113.674 E6.86082
G1 X172.553 Y114.401 E6.88983
G1 X172.502 Y115.32 E6.92657
G1 X172.371 Y116.232 E6.96334
G1 X172.161 Y117.128 E7.00007
G1 X171.875 Y118.003 E7.03681
G1 X171.514 Y118.85 E7.07356
G1 X171.08 Y119.662 E7.11031
G1 X170.578 Y120.434 E7.14706
G1 X170.01 Y121.159 E7.18382
G1 X169.382 Y121.832 E7.22056
G1 X168.698 Y122.448 E7.2573
G1 X167.963 Y123.002 E7.29404
G1 X167.183 Y123.491 E7.33078
G1 X166.363 Y123.91 E7.36753
G1 X165.51 Y124.256 E7.40427
G1 X164.63 Y124.527 E7.44102
G1 X163.73 Y124.72 E7.47776
G1 X162.714 Y124.843 E7.51861
G1 X159.974 Y125.04 E7.62825
G1 X157.488 Y125.291 E7.72797
G1 X155 Y125.613 E7.8281
G1 X152.479 Y126.012 E7.92998
G1 X149.973 Y126.481 E8.03173
G1 X147.567 Y127.003 E8.12999
G1 X145.048 Y127.623 E8.23353
G1 X142.653 Y128.287 E8.33273
G1 X140.193 Y129.042 E8.43543
G1 X137.842 Y129.84 E8.53452
G1 X135.43 Y130.733 E8.63718
G1 X133.089 Y131.676 E8.73791
G1 X130.791 Y132.679 E8.83798
G1 X128.492 Y133.761 E8.9394
G1 X126.256 Y134.892 E9.03941
G1 X124.017 Y136.103 E9.141
G1 X121.826 Y137.372 E9.24206
G1 X119.671 Y138.702 E9.34313
G1 X117.588 Y140.07 E9.44259
G1 X114.643 Y142.15 E9.5865
G1 X113.973 Y142.642 E9.61967
G1 X113.434 Y143.03 E9.64618
G1 X112.592 Y143.616 E9.68712
G1 X112.438 Y143.721 E9.69456
G1 X111.598 Y144.282 E9.73488
G1 X110.198 Y145.202 E9.80174
G1 X109.573 Y145.607 E9.83147
G1 X109.024 Y145.958 E9.85747
G1 X108.386 Y146.359 E9.88755
G1 X108.205 Y146.47 E9.89602
G1 X107.508 Y146.888 E9.92846
G1 X107.154 Y147.097 E9.94487
G1 X106.304 Y147.589 E9.98407
G1 X104.649 Y148.531 E10.06007
G1 X103.901 Y148.949 E10.09427
G1 X103.477 Y149.179 E10.11352
G1 X102.894 Y149.488 E10.13986
G1 X102.461 Y149.713 E10.15934
G1 X101.487 Y150.204 E10.20287
G1 X99.546 Y151.155 E10.28914
G1 X98.861 Y151.484 E10.31947
G1 X98.479 Y151.664 E10.33632
G1 X97.76 Y151.994 E10.3679
G1 X97.082 Y152.293 E10.39747
G1 X95.693 Y152.885 E10.45774
G1 X93.722 Y153.701 E10.54288
G1 X92.778 Y154.074 E10.58339
G1 X92.598 Y154.143 E10.59108
G1 X91.897 Y154.404 E10.62094
G1 X91.185 Y154.657 E10.6511
G1 X88.631 Y155.536 E10.7589
G1 X88.375 Y155.62 E10.76965
G1 X87.273 Y155.993 E10.81609
G1 X87.037 Y156.07 E10.826
G1 X86.48 Y156.244 E10.84929
G1 X86.273 Y156.306 E10.85791
G1 X85.184 Y156.621 E10.90316
G1 X83.074 Y157.207 E10.99056
G1 X82.437 Y157.379 E11.01689
G1 X81.808 Y157.541 E11.04282
G1 X80.9 Y157.761 E11.08011
G1 X80.694 Y157.809 E11.08855
G1 X79.668 Y158.035 E11.13048
G1 X76.612 Y158.679 E11.25513
G1 X76.399 Y158.722 E11.2638
G1 X75.871 Y158.822 E11.28525
G1 X75.607 Y158.868 E11.29595
G1 X74.382 Y159.067 E11.34548
G1 X72.846 Y159.293 E11.40745
G1 X70.869 Y159.594 E11.48726
G1 X70.028 Y159.708 E11.52113
G1 X69.81 Y159.735 E11.5299
G1 X69.082 Y159.817 E11.55914
G1 X67.909 Y159.927 E11.60616
G1 X66.35 Y160.057 E11.6686
G1 X64.949 Y160.169 E11.7247
G1 X64.29 Y160.215 E11.75106
G1 X63.282 Y160.27 E11.79136
G1 X63.08 Y160.279 E11.79943
G1 X62.236 Y160.308 E11.83313
G1 X59.962 Y160.359 E11.92391
G1 X59.19 Y160.37 E11.95473
G1 X58.583 Y160.374 E11.97896
G1 X57.853 Y160.363 E12.0081
G1 X56.934 Y160.304 E12.04485
G1 X56.024 Y160.166 E12.08159
G1 X55.129 Y159.95 E12.11833
G1 X54.256 Y159.657 E12.15509
G1 X53.412 Y159.289 E12.19184
G1 X52.603 Y158.849 E12.22859
G1 X51.836 Y158.341 E12.26531
G1 X51.115 Y157.768 E12.30207
G1 X50.447 Y157.134 E12.33882
G1 X49.836 Y156.445 E12.37558
G1 X49.287 Y155.706 E12.41232
G1 X48.805 Y154.922 E12.44905
G1 X48.575 Y154.485 E12.46876
G1 X48.199 Y153.645 E12.5055
G1 X47.898 Y152.775 E12.54224
G1 X47.674 Y151.882 E12.57898
G1 X47.527 Y150.973 E12.61574
G1 X47.458 Y149.954 E12.6565
G1 X47.439 Y148.989 E12.69502
G1 X47.437 Y148.78 E12.70336
G1 X47.438 Y108.275 E14.32001
G1 X47.448 Y107.587 E14.34747
G1 X47.501 Y106.668 E14.38421
G1 X47.634 Y105.757 E14.42096
G1 X47.846 Y104.861 E14.4577
G1 X48.134 Y103.986 E14.49447
G1 X48.497 Y103.14 E14.53121
G1 X48.933 Y102.329 E14.56796
G1 X49.437 Y101.559 E14.60469
G1 X50.005 Y100.835 E14.64142
G1 X50.635 Y100.163 E14.67819
G1 X51.321 Y99.549 E14.71493
G1 X52.057 Y98.996 E14.75167
G1 X52.838 Y98.509 E14.78841
G0 F9000 X53.216 Y98.758
G1 F1800 X54.029 Y98.366 E14.82443
G1 X54.874 Y98.047 E14.86048
G1 X55.744 Y97.804 E14.89653
G1 X56.585 Y97.646 E14.93069
G1 X57.249 Y97.55 E14.95746
G1 X59.835 Y97.143 E15.06195
G1 X62.336 Y96.676 E15.16349
G1 X64.816 Y96.14 E15.26476
G1 X67.258 Y95.541 E15.36512
G1 X69.706 Y94.865 E15.46648
G1 X72.152 Y94.114 E15.5686
G1 X74.571 Y93.297 E15.67051
G1 X76.943 Y92.419 E15.77145
G1 X79.277 Y91.48 E15.87187
G1 X81.631 Y90.454 E15.97436
G1 X83.906 Y89.385 E16.07468
G1 X86.2 Y88.228 E16.17723
G1 X88.443 Y87.016 E16.27898
G1 X90.599 Y85.771 E16.37835
G1 X92.808 Y84.409 E16.48193
G1 X94.903 Y83.036 E16.5819
G1 X97.001 Y81.573 E16.68398
G1 X99.029 Y80.072 E16.78468
G1 X101.014 Y78.515 E16.88537
G1 X103.001 Y76.862 E16.98853
G1 X104.896 Y75.194 E17.08929
G1 X105.839 Y74.317 E17.14069
G1 X106.349 Y73.856 E17.16813
G1 X107.045 Y73.281 E17.20416
G1 X107.856 Y72.728 E17.24334
G1 X108.174 Y72.538 E17.25813
G1 X110.294 Y71.317 E17.35577
G1 X112.443 Y69.996 E17.45645
G1 X114.584 Y68.597 E17.55853
G1 X116.67 Y67.144 E17.65999
G1 X118.707 Y65.641 E17.76103
G1 X120.709 Y64.075 E17.86247
G1 X122.051 Y62.955 E17.93224
G1 X122.814 Y62.332 E17.97155
G1 X123.538 Y61.793 E18.00758
G1 X124.307 Y61.319 E18.04363
G1 X125.115 Y60.915 E18.07969
G1 X125.955 Y60.585 E18.11571
G1 X126.822 Y60.33 E18.15178
G1 X127.707 Y60.153 E18.1878
G1 X128.605 Y60.054 E18.22386
G1 X129.508 Y60.036 E18.25991
G1 X130.409 Y60.097 E18.29595
G1 X131.301 Y60.238 E18.33199
G1 X131.803 Y60.354 E18.35256
G1 X132.425 Y60.517 E18.37822
G1 X164.202 Y69.582 E19.69711
G1 X164.862 Y69.779 E19.7246
G1 X165.715 Y70.075 E19.76063
G1 X166.539 Y70.446 E19.7967
G1 X167.327 Y70.888 E19.83276
G1 X168.072 Y71.398 E19.8688
G1 X168.769 Y71.972 E19.90483
G1 X169.413 Y72.605 E19.94087
G1 X169.998 Y73.293 E19.97692
G1 X170.52 Y74.03 E20.01296
G1 X170.975 Y74.81 E20.04901
G1 X171.359 Y75.628 E20.08507
G1 X171.67 Y76.476 E20.12112
G1 X171.904 Y77.348 E20.15716
G1 X172.06 Y78.237 E20.19318
G1 X172.112 Y78.737 E20.21324
G1 X172.127 Y78.924 E20.22073
G1 X172.159 Y79.62 E20.24854
G1 X172.163 Y79.996 E20.26355
G1 X172.162 Y113.669 E21.60751
G1 X172.153 Y114.396 E21.63653
G1 X172.102 Y115.298 E21.67259
G1 X171.971 Y116.192 E21.70865
G1 X171.762 Y117.07 E21.74467
G1 X171.476 Y117.927 E21.78073
G1 X171.115 Y118.755 E21.81678
G1 X170.683 Y119.547 E21.85279
G1 X170.182 Y120.299 E21.88885
G1 X169.616 Y121.003 E21.92491
G1 X168.991 Y121.654 E21.96093
G1 X168.31 Y122.248 E21.99699
G1 X167.579 Y122.779 E22.03305
G1 X166.805 Y123.243 E22.06907
G1 X165.992 Y123.637 E22.10513
G1 X165.148 Y123.957 E22.14116
G1 X164.278 Y124.202 E22.17723
G1 X163.391 Y124.368 E22.21325
G1 X162.685 Y124.444 E22.24159
G1 X159.941 Y124.641 E22.35139
G1 X157.468 Y124.891 E22.45059
G1 X154.924 Y125.22 E22.55298
G1 X152.408 Y125.618 E22.65464
G1 X149.886 Y126.091 E22.75706
G1 X147.466 Y126.615 E22.85588
G1 X144.975 Y127.229 E22.95828
G1 X142.5 Y127.914 E23.06078
G1 X140.084 Y128.657 E23.16166
G1 X137.722 Y129.458 E23.26121
G1 X135.278 Y130.363 E23.36522
G1 X132.958 Y131.298 E23.46506
G1 X130.597 Y132.328 E23.56787
G1 X128.334 Y133.393 E23.66769
G1 X126.049 Y134.549 E23.7699
G1 X123.832 Y135.748 E23.87049
G1 X121.637 Y137.019 E23.97173
G1 X119.446 Y138.371 E24.07448
G1 X117.352 Y139.746 E24.17447
G1 X114.433 Y141.808 E24.31711
G1 X113.739 Y142.317 E24.35146
G1 X113.057 Y142.806 E24.38495
G1 X112.216 Y143.388 E24.42577
G1 X111.378 Y143.948 E24.466
G1 X109.98 Y144.866 E24.53275
G1 X109.357 Y145.27 E24.56239
G1 X108.811 Y145.619 E24.58825
G1 X108.173 Y146.02 E24.61833
G1 X107.999 Y146.127 E24.62648
G1 X107.305 Y146.544 E24.65879
G1 X106.953 Y146.75 E24.67507
G1 X106.106 Y147.241 E24.71415
G1 X104.454 Y148.182 E24.79003
G1 X103.71 Y148.598 E24.82405
G1 X103.289 Y148.826 E24.84316
G1 X102.709 Y149.134 E24.86937
G1 X102.28 Y149.356 E24.88865
G1 X101.311 Y149.845 E24.93197
G1 X99.373 Y150.795 E25.01811
G1 X98.69 Y151.122 E25.04833
G1 X98.312 Y151.3 E25.06501
G1 X97.441 Y151.699 E25.10325
G1 X96.816 Y151.972 E25.13047
G1 X95.54 Y152.515 E25.18582
G1 X93.569 Y153.331 E25.27096
G1 X92.632 Y153.701 E25.31117
G1 X92.458 Y153.768 E25.31861
G1 X91.602 Y154.085 E25.35504
G1 X91.055 Y154.279 E25.3782
G1 X88.506 Y155.156 E25.48579
G1 X88.25 Y155.24 E25.49655
G1 X87.145 Y155.614 E25.54311
G1 X86.917 Y155.688 E25.55268
G1 X86.36 Y155.862 E25.57597
G1 X86.161 Y155.922 E25.58426
G1 X85.076 Y156.236 E25.62934
G1 X82.97 Y156.821 E25.71658
G1 X82.336 Y156.992 E25.74279
G1 X81.714 Y157.152 E25.76842
G1 X80.806 Y157.372 E25.80571
G1 X80.608 Y157.418 E25.81383
G1 X79.585 Y157.644 E25.85564
G1 X76.529 Y158.288 E25.98029
G1 X76.324 Y158.329 E25.98863
G1 X75.796 Y158.429 E26.01008
G1 X75.542 Y158.474 E26.02038
G1 X74.483 Y158.647 E26.06321
G1 X72.844 Y158.889 E26.12933
G1 X70.815 Y159.198 E26.21125
G1 X69.974 Y159.312 E26.24512
G1 X69.24 Y159.398 E26.27461
G1 X67.876 Y159.529 E26.32931
G1 X66.318 Y159.659 E26.3917
G1 X64.92 Y159.77 E26.44768
G1 X64.268 Y159.816 E26.47377
G1 X63.065 Y159.88 E26.52185
G1 X62.36 Y159.905 E26.55
G1 X59.956 Y159.959 E26.64598
G1 X59.187 Y159.97 E26.67667
G1 X58.58 Y159.974 E26.7009
G1 X57.861 Y159.963 E26.7296
G1 X56.959 Y159.905 E26.76567
G1 X56.067 Y159.767 E26.8017
G1 X55.19 Y159.551 E26.83775
G1 X54.336 Y159.258 E26.87378
G1 X53.511 Y158.891 E26.90982
G1 X52.721 Y158.453 E26.94587
G1 X51.974 Y157.946 E26.98191
G1 X51.274 Y157.375 E27.01796
G1 X50.627 Y156.744 E27.05403
G1 X50.039 Y156.059 E27.09006
G1 X49.514 Y155.324 E27.12611
G1 X48.933 Y154.307 E27.17286
G1 X48.565 Y153.482 E27.20892
G1 X48.272 Y152.628 E27.24495
G1 X48.055 Y151.751 E27.28101
G1 X47.917 Y150.858 E27.31708
G1 X47.858 Y149.946 E27.35355
G1 X47.839 Y148.981 E27.39207
G1 X47.837 Y148.78 E27.4001
G1 X47.838 Y108.281 E29.0165
G1 X47.848 Y107.593 E29.04396
G1 X47.901 Y106.691 E29.08002
G1 X48.034 Y105.798 E29.11606
G1 X48.245 Y104.92 E29.1521
G1 X48.533 Y104.064 E29.18815
G1 X48.895 Y103.237 E29.22418
G1 X49.33 Y102.445 E29.26024
G1 X49.832 Y101.695 E29.29626
G1 X50.399 Y100.992 E29.33231
G1 X51.026 Y100.342 E29.36836
G1 X51.708 Y99.75 E29.4044
G1 X52.44 Y99.22 E29.44047
G1 X53.216 Y98.758 E29.47652
G1 F2400 E26.47652
G1 F300 Z0.44
;MESH:RightGrip.stl
G0 F9000 X58.237 Y108.02 Z0.44
;TYPE:WALL-OUTER
G1 F300 Z0.24
G1 F2400 E29.47652
G1 F1800 X58.98 Y108.292 E29.50809
G1 X60.423 Y108.784 E29.56894
G1 X61.505 Y109.13 E29.61428
G1 X62.015 Y109.271 E29.6354
G1 X64.948 Y109.983 E29.75586
G1 X65.502 Y110.094 E29.77841
G1 X66.061 Y110.18 E29.80099
G1 X68.699 Y110.569 E29.90741
G1 X69.228 Y110.629 E29.92866
G1 X70.422 Y110.715 E29.97644
G1 X71.945 Y110.8 E30.03732
G1 X72.495 Y110.821 E30.05929
G1 X72.837 Y110.827 E30.07294
G1 X73.362 Y110.825 E30.0939
G1 X76.028 Y110.731 E30.20037
G1 X76.554 Y110.706 E30.22139
G1 X77.077 Y110.659 E30.24234
G1 X77.71 Y110.594 E30.26774
G1 X79.498 Y110.367 E30.33968
G1 X80.142 Y110.27 E30.36567
G1 X80.672 Y110.183 E30.38711
G1 X81.197 Y110.074 E30.40851
G1 X83.801 Y109.499 E30.51494
G1 X84.323 Y109.366 E30.53644
G1 X84.951 Y109.186 E30.56252
G1 X85.226 Y109.102 E30.57399
G1 X86.68 Y108.639 E30.6349
G1 X87.79 Y108.261 E30.6817
G1 X88.291 Y108.07 E30.7031
G1 X91.067 Y106.898 E30.82336
G1 X92.021 Y106.437 E30.86565
G1 X93.366 Y105.718 E30.92652
G1 X94.295 Y105.218 E30.96863
G1 X95.207 Y104.679 E31.01091
G1 X95.474 Y104.495 E31.02385
G1 X97.702 Y103.029 E31.1303
G1 X98.167 Y102.694 E31.15318
G1 X99.243 Y101.854 E31.20766
G1 X100.436 Y100.904 E31.26853
G1 X100.834 Y100.567 E31.28934
G1 X101.508 Y99.95 E31.32581
G1 X102.617 Y98.871 E31.38757
G1 X103.72 Y97.815 E31.44851
G1 X104.278 Y97.21 E31.48136
G1 X104.548 Y96.903 E31.49768
G1 X105.548 Y95.753 E31.5585
G1 X105.885 Y95.355 E31.57932
G1 X106.398 Y94.716 E31.61203
G1 X106.89 Y94.06 E31.64475
G1 X107.782 Y92.823 E31.70562
G1 X108.253 Y92.151 E31.73837
G1 X108.688 Y91.476 E31.77043
G1 X109.209 Y90.623 E31.81032
G1 X109.983 Y89.31 E31.87115
G1 X110.283 Y88.777 E31.89556
G1 X110.568 Y88.238 E31.9199
G1 X110.841 Y87.693 E31.94423
G1 X111.493 Y86.314 E32.00511
G1 X111.974 Y85.257 E32.05146
G1 X112.178 Y84.771 E32.07249
G1 X112.479 Y83.986 E32.10605
G1 X113.003 Y82.555 E32.16687
G1 X113.254 Y81.84 E32.19712
G1 X113.307 Y81.676 E32.20399
G1 X113.572 Y81.772 E32.21524
G1 X114.298 Y81.997 E32.24558
G1 X115.136 Y82.208 E32.28007
G1 X116.454 Y82.384 E32.33314
G1 X116.996 Y82.426 E32.35484
G1 X118.324 Y82.381 E32.40787
G1 X118.861 Y82.338 E32.42937
G1 X119.277 Y82.269 E32.4462
G1 X120.019 Y82.116 E32.47644
G1 X120.579 Y81.979 E32.49945
G1 X121.073 Y81.796 E32.52048
G1 X122.311 Y81.316 E32.57347
G1 X122.764 Y81.064 E32.59416
G1 X123.903 Y80.384 E32.64711
