;FLAVOR:Marlin
;TIME:1561
;Filament used: 0.864281m
;Layer height: 0.2
;MINX:85.877
;MINY:75.4
;MINZ:0.24
;MAXX:134.796
;MAXY:149.52
;MAXZ:17.96
;Generated with Cura_SteamEngine 4.8.0
M140 S50
M105
M190 S50
M104 S215
M105
M109 S215
M82 ;absolute extrusion mode
M201 X500.00 Y500.00 Z100.00 E5000.00 ;Setup machine max acceleration
M203 X500.00 Y500.00 Z10.00 E50.00 ;Setup machine max feedrate
M204 P500.00 R1000.00 T500.00 ;Setup Print/Retract/Travel acceleration
M205 X8.00 Y8.00 Z0.40 E5.00 ;Setup Jerk
M220 S100 ;Reset Feedrate
M221 S100 ;Reset Flowrate

;*** Start Dual Nozzle/Bed Preheating ***
M140 S50 ; start preheating the bed
M104 S215 ﻿T0 ; start preheating hotend
M190 S50 ; heat to Cura Bed setting and WAIT
M109 S215 ﻿T0 ; heat to Cura Hotend and WAIT
;*** End Preheating ***

G28 ; home

G92 E0 ;Reset Extruder
G1 Z2.0 F3000 ;Move Z Axis up

;*** Single Print Start Tone
M300 S1000 P500 ; chirp to indicate starting to print
;*** End Single Start Tone

G1 X10.1 Y20 Z0.28 F5000.0 ;Move to start position
G1 X10.1 Y200.0 Z0.28 F1500.0 E15 ;Draw the first line
G1 X10.4 Y200.0 Z0.28 F5000.0 ;Move to side a little
G1 X10.4 Y20 Z0.28 F1500.0 E30 ;Draw the second line
G92 E0 ;Reset Extruder
G1 Z2.0 F3000 ;Move Z Axis up
G92 E0
G92 E0
G1 F2400 E-3
;LAYER_COUNT:97
;LAYER:0
M106 S63.8
M204 S500
M205 X6 Y6
G1 F300 Z0.44
G0 F9000 X98.763 Y79.35 Z0.44
;TYPE:SKIRT
G1 F300 Z0.24
G1 F2400 E0
G1 F1800 X99.372 Y78.659 E0.03676
G1 X100.038 Y78.024 E0.07349
G1 X100.757 Y77.45 E0.11021
G1 X101.524 Y76.939 E0.14699
G1 X102.331 Y76.497 E0.18372
G1 X103.174 Y76.127 E0.22046
G1 X104.046 Y75.832 E0.2572
G1 X104.941 Y75.613 E0.29398
G1 X105.85 Y75.473 E0.33069
G1 X106.712 Y75.413 E0.36517
G1 X107.33 Y75.4 E0.38984
G1 X112.293 Y75.4 E0.58793
G1 X113.143 Y75.411 E0.62186
G1 X114.062 Y75.464 E0.6586
G1 X114.973 Y75.597 E0.69534
G1 X115.869 Y75.808 E0.73208
G1 X116.743 Y76.096 E0.76881
G1 X117.59 Y76.459 E0.80559
G1 X118.401 Y76.894 E0.84232
G1 X119.171 Y77.398 E0.87905
G1 X119.895 Y77.967 E0.9158
G1 X120.567 Y78.597 E0.95257
G1 X121.182 Y79.282 E0.98931
G1 X121.735 Y80.018 E1.02605
G1 X122.222 Y80.799 E1.06279
G1 X122.639 Y81.62 E1.09954
G1 X122.984 Y82.474 E1.1363
G1 X123.253 Y83.354 E1.17303
G1 X123.445 Y84.255 E1.2098
G1 X123.573 Y85.388 E1.25531
G1 X123.593 Y85.72 E1.26858
G1 X123.776 Y88.254 E1.36998
G1 X124.033 Y90.812 E1.47259
G1 X124.352 Y93.274 E1.57168
G1 X124.751 Y95.796 E1.67359
G1 X125.227 Y98.343 E1.777
G1 X125.382 Y99.116 E1.80847
G1 X125.48 Y99.684 E1.83147
G1 X125.554 Y100.204 E1.85244
G1 X125.795 Y102.079 E1.92789
G1 X126.186 Y104.569 E2.02849
G1 X126.649 Y107.048 E2.12914
G1 X127.179 Y109.503 E2.22938
G1 X127.793 Y112.003 E2.33213
G1 X128.462 Y114.427 E2.43249
G1 X129.202 Y116.842 E2.5333
G1 X130.007 Y119.225 E2.63369
G1 X130.893 Y121.623 E2.73573
G1 X131.827 Y123.946 E2.83566
G1 X132.855 Y126.305 E2.93836
G1 X133.187 Y127.02 E2.96982
G1 X133.57 Y127.881 E3.00744
G1 X133.974 Y128.945 E3.05286
G1 X134.173 Y129.587 E3.07969
G1 X134.28 Y129.966 E3.0954
G1 X134.437 Y130.592 E3.12116
G1 X134.549 Y131.174 E3.14482
G1 X134.631 Y131.695 E3.16587
G1 X134.683 Y132.068 E3.1809
G1 X134.748 Y132.645 E3.20407
G1 X134.784 Y133.221 E3.22711
G1 X134.796 Y133.914 E3.25477
G1 X134.791 Y134.341 E3.27182
G1 X134.748 Y135.177 E3.30523
G1 X134.729 Y135.386 E3.3136
G1 X134.669 Y135.91 E3.33465
G1 X134.6 Y136.398 E3.35432
G1 X134.378 Y137.523 E3.40009
G1 X134.21 Y138.163 E3.4265
G1 X134.106 Y138.524 E3.44149
G1 X133.706 Y139.665 E3.48975
G1 X133.466 Y140.229 E3.51422
G1 X133.315 Y140.566 E3.52895
G1 X132.799 Y141.571 E3.57404
G1 X132.467 Y142.129 E3.59996
G1 X132.261 Y142.457 E3.61542
G1 X131.571 Y143.43 E3.66303
G1 X131.151 Y143.949 E3.68967
G1 X130.929 Y144.211 E3.70338
G1 X130.274 Y144.916 E3.74179
G1 X130.095 Y145.092 E3.75181
G1 X129.728 Y145.437 E3.77191
G1 X129.398 Y145.732 E3.78958
G1 X128.527 Y146.431 E3.83415
G1 X127.958 Y146.833 E3.86196
G1 X127.65 Y147.039 E3.87675
G1 X126.642 Y147.635 E3.92348
G1 X125.98 Y147.972 E3.95313
G1 X125.682 Y148.114 E3.96631
G1 X124.744 Y148.507 E4.0069
G1 X124.126 Y148.724 E4.03304
G1 X123.725 Y148.853 E4.04985
G1 X122.643 Y149.139 E4.09452
G1 X121.897 Y149.287 E4.12488
G1 X121.56 Y149.344 E4.13852
G1 X120.453 Y149.471 E4.18299
G1 X119.744 Y149.51 E4.21133
G1 X119.395 Y149.52 E4.22527
G1 X118.617 Y149.513 E4.25632
G1 X118.17 Y149.487 E4.27419
G1 X117.509 Y149.434 E4.30066
G1 X114.935 Y149.264 E4.40361
G1 X112.451 Y149.17 E4.50283
G1 X109.876 Y149.146 E4.6056
G1 X107.365 Y149.194 E4.70584
G1 X104.824 Y149.315 E4.80737
G1 X103.011 Y149.45 E4.87994
G1 X102.3 Y149.492 E4.90836
G1 X101.656 Y149.515 E4.93408
G1 X100.933 Y149.512 E4.96294
G1 X100.411 Y149.482 E4.98381
G1 X99.519 Y149.395 E5.01958
G1 X98.47 Y149.23 E5.06196
G1 X97.75 Y149.069 E5.09141
G1 X97.327 Y148.961 E5.10883
G1 X96.219 Y148.612 E5.1552
G1 X95.634 Y148.386 E5.18023
G1 X95.263 Y148.233 E5.19624
G1 X94.228 Y147.74 E5.242
G1 X93.726 Y147.462 E5.2649
G1 X93.38 Y147.261 E5.28087
G1 X92.452 Y146.654 E5.32513
G1 X91.927 Y146.262 E5.35128
G1 X91.588 Y145.995 E5.3685
G1 X90.697 Y145.209 E5.41593
G1 X90.244 Y144.755 E5.44152
G1 X90.016 Y144.517 E5.45468
G1 X89.238 Y143.608 E5.50243
G1 X88.873 Y143.123 E5.52666
G1 X88.664 Y142.834 E5.54089
G1 X88.057 Y141.894 E5.58555
G1 X87.764 Y141.371 E5.60948
G1 X87.561 Y140.989 E5.62675
G1 X87.052 Y139.884 E5.6753
G1 X86.81 Y139.251 E5.70235
G1 X86.69 Y138.915 E5.71659
G1 X86.376 Y137.871 E5.7601
G1 X86.223 Y137.219 E5.78683
G1 X86.149 Y136.864 E5.80131
G1 X86.015 Y136.072 E5.83337
G1 X85.943 Y135.408 E5.86002
G1 X85.89 Y134.686 E5.88892
G1 X85.877 Y133.502 E5.93618
G1 X85.91 Y132.861 E5.96179
G1 X85.935 Y132.522 E5.97536
G1 X86.041 Y131.618 E6.01169
G1 X86.137 Y131.069 E6.03393
G1 X86.278 Y130.394 E6.06145
G1 X86.466 Y129.654 E6.09193
G1 X86.688 Y128.957 E6.12112
G1 X86.92 Y128.311 E6.14852
G1 X87.144 Y127.75 E6.17263
G1 X87.551 Y126.808 E6.21358
G1 X88.567 Y124.359 E6.31941
G1 X89.474 Y121.988 E6.42073
G1 X90.283 Y119.669 E6.51875
G1 X91.07 Y117.197 E6.6223
G1 X91.758 Y114.807 E6.72156
G1 X92.386 Y112.361 E6.82235
G1 X92.955 Y109.859 E6.92476
G1 X93.438 Y107.412 E7.02431
G1 X93.865 Y104.883 E7.12668
G1 X94.21 Y102.406 E7.22649
G1 X94.479 Y100.026 E7.32209
G1 X94.6 Y99.212 E7.35493
G1 X94.743 Y98.458 E7.38556
G1 X95.001 Y97.182 E7.43752
G1 X95.441 Y94.65 E7.5401
G1 X95.799 Y92.169 E7.64014
G1 X96.089 Y89.675 E7.74035
G1 X96.309 Y87.153 E7.8414
G1 X96.345 Y86.548 E7.86559
G1 X96.437 Y85.256 E7.91728
G1 X96.542 Y84.341 E7.95404
G1 X96.726 Y83.439 E7.99078
G1 X96.988 Y82.557 E8.02751
G1 X97.325 Y81.7 E8.06426
G1 X97.736 Y80.876 E8.10101
G1 X98.216 Y80.091 E8.13774
G1 X98.763 Y79.35 E8.1745
G0 F9000 X99.15 Y79.508
G1 F1800 X99.756 Y78.838 E8.21055
G1 X100.419 Y78.225 E8.24659
G1 X101.133 Y77.672 E8.28264
G1 X101.894 Y77.185 E8.3187
G1 X102.694 Y76.767 E8.35472
G1 X103.529 Y76.422 E8.39078
G1 X104.39 Y76.151 E8.42681
G1 X105.272 Y75.958 E8.46284
G1 X106.168 Y75.844 E8.49889
G1 X106.723 Y75.813 E8.52108
G1 X107.33 Y75.8 E8.54531
G1 X112.293 Y75.8 E8.7434
G1 X113.137 Y75.811 E8.77708
G1 X114.039 Y75.864 E8.81315
G1 X114.932 Y75.996 E8.84918
G1 X115.81 Y76.207 E8.88522
G1 X116.666 Y76.495 E8.92126
G1 X117.493 Y76.857 E8.95729
G1 X118.285 Y77.292 E8.99336
G1 X119.036 Y77.794 E9.02941
G1 X119.739 Y78.361 E9.06546
G1 X120.389 Y78.988 E9.10151
G1 X120.981 Y79.67 E9.13755
G1 X121.511 Y80.401 E9.17359
G1 X121.973 Y81.177 E9.20963
G1 X122.366 Y81.99 E9.24567
G1 X122.684 Y82.835 E9.28171
G1 X122.927 Y83.705 E9.31776
G1 X123.092 Y84.593 E9.35381
G1 X123.173 Y85.411 E9.38662
G1 X123.19 Y85.701 E9.39821
G1 X123.377 Y88.287 E9.50169
G1 X123.633 Y90.832 E9.60378
G1 X123.959 Y93.35 E9.70512
G1 X124.357 Y95.866 E9.80679
G1 X124.834 Y98.417 E9.91037
G1 X124.99 Y99.195 E9.94204
G1 X125.085 Y99.741 E9.96416
G1 X125.158 Y100.255 E9.98488
G1 X125.402 Y102.155 E10.06134
G1 X125.792 Y104.632 E10.16142
G1 X126.26 Y107.142 E10.26332
G1 X126.792 Y109.604 E10.36385
G1 X127.406 Y112.108 E10.46675
G1 X128.067 Y114.503 E10.56592
G1 X128.827 Y116.982 E10.66941
G1 X129.639 Y119.387 E10.77072
G1 X130.506 Y121.732 E10.8705
G1 X131.466 Y124.118 E10.97315
G1 X132.49 Y126.472 E11.07561
G1 X132.903 Y127.361 E11.11473
G1 X133.205 Y128.043 E11.1445
G1 X133.593 Y129.067 E11.18821
G1 X133.788 Y129.696 E11.21449
G1 X133.895 Y130.075 E11.23021
G1 X134.046 Y130.678 E11.25502
G1 X134.154 Y131.238 E11.27778
G1 X134.235 Y131.751 E11.29851
G1 X134.287 Y132.124 E11.31354
G1 X134.35 Y132.681 E11.33592
G1 X134.384 Y133.235 E11.35807
G1 X134.396 Y133.909 E11.38497
G1 X134.391 Y134.336 E11.40202
G1 X134.35 Y135.14 E11.43415
G1 X134.331 Y135.349 E11.44253
G1 X134.273 Y135.854 E11.46281
G1 X134.204 Y136.342 E11.48248
G1 X133.99 Y137.425 E11.52654
G1 X133.825 Y138.053 E11.55246
G1 X133.721 Y138.414 E11.56745
G1 X133.336 Y139.511 E11.61386
G1 X133.101 Y140.066 E11.63791
G1 X132.95 Y140.403 E11.65265
G1 X132.454 Y141.369 E11.69599
G1 X132.129 Y141.916 E11.72139
G1 X131.923 Y142.244 E11.73684
G1 X131.258 Y143.18 E11.78267
G1 X130.846 Y143.69 E11.80884
G1 X130.624 Y143.952 E11.82254
G1 X129.993 Y144.631 E11.85954
G1 X129.461 Y145.138 E11.88887
G1 X129.131 Y145.433 E11.90654
G1 X128.294 Y146.106 E11.9494
G1 X127.736 Y146.5 E11.97667
G1 X127.428 Y146.706 E11.99146
G1 X126.458 Y147.28 E12.03644
G1 X125.808 Y147.611 E12.06555
G1 X125.51 Y147.753 E12.07873
G1 X124.608 Y148.131 E12.11776
G1 X124.004 Y148.343 E12.14331
G1 X123.603 Y148.472 E12.16013
G1 X122.562 Y148.747 E12.2031
G1 X121.83 Y148.892 E12.23288
G1 X121.493 Y148.949 E12.24652
G1 X120.428 Y149.072 E12.28931
G1 X119.732 Y149.11 E12.31713
G1 X119.383 Y149.12 E12.33107
G1 X118.635 Y149.114 E12.36092
G1 X118.202 Y149.088 E12.37824
G1 X117.567 Y149.037 E12.40366
G1 X114.976 Y148.866 E12.5073
G1 X112.435 Y148.77 E12.60879
G1 X109.872 Y148.746 E12.71109
G1 X107.373 Y148.794 E12.81085
G1 X104.814 Y148.915 E12.9131
G1 X103.148 Y149.04 E12.97978
G1 X102.276 Y149.092 E13.01464
G1 X101.644 Y149.115 E13.03988
G1 X100.948 Y149.112 E13.06766
G1 X100.444 Y149.083 E13.08781
G1 X99.562 Y148.997 E13.12318
G1 X98.552 Y148.838 E13.16399
G1 X97.849 Y148.681 E13.19274
G1 X97.426 Y148.573 E13.21016
G1 X96.36 Y148.238 E13.25476
G1 X95.786 Y148.017 E13.27931
G1 X95.415 Y147.864 E13.29533
G1 X94.42 Y147.389 E13.33933
G1 X93.927 Y147.116 E13.36182
G1 X93.581 Y146.915 E13.3778
G1 X92.688 Y146.331 E13.42038
G1 X92.175 Y145.948 E13.44593
G1 X91.836 Y145.681 E13.46316
G1 X90.978 Y144.924 E13.50882
G1 X90.532 Y144.478 E13.534
G1 X90.304 Y144.24 E13.54715
G1 X89.557 Y143.366 E13.59304
G1 X89.197 Y142.888 E13.61693
G1 X88.988 Y142.599 E13.63116
G1 X88.404 Y141.695 E13.67411
G1 X88.117 Y141.184 E13.69751
G1 X87.914 Y140.802 E13.71477
G1 X87.425 Y139.738 E13.76151
G1 X87.186 Y139.117 E13.78807
G1 X87.066 Y138.781 E13.80231
G1 X86.765 Y137.776 E13.84418
G1 X86.615 Y137.137 E13.87038
G1 X86.541 Y136.782 E13.88485
G1 X86.412 Y136.02 E13.9157
G1 X86.341 Y135.37 E13.94179
G1 X86.289 Y134.659 E13.97025
G1 X86.276 Y133.52 E14.01571
G1 X86.309 Y132.891 E14.04085
G1 X86.334 Y132.552 E14.05441
G1 X86.436 Y131.681 E14.08942
G1 X86.531 Y131.142 E14.11126
G1 X86.669 Y130.478 E14.13833
G1 X86.85 Y129.766 E14.16765
G1 X87.067 Y129.083 E14.19625
G1 X87.296 Y128.448 E14.22319
G1 X87.511 Y127.909 E14.24635
G1 X87.941 Y126.913 E14.28965
G1 X88.922 Y124.55 E14.39177
G1 X89.845 Y122.136 E14.49492
G1 X90.673 Y119.763 E14.59523
G1 X91.449 Y117.324 E14.69739
G1 X92.141 Y114.921 E14.79719
G1 X92.779 Y112.435 E14.89963
G1 X93.344 Y109.954 E15.00119
G1 X93.837 Y107.456 E15.10281
G1 X94.256 Y104.968 E15.20351
G1 X94.611 Y102.428 E15.30587
G1 X94.877 Y100.07 E15.40058
G1 X94.993 Y99.286 E15.43222
G1 X95.135 Y98.538 E15.4626
G1 X95.394 Y97.259 E15.51469
G1 X95.837 Y94.71 E15.61795
G1 X96.194 Y92.236 E15.71771
G1 X96.49 Y89.685 E15.82021
G1 X96.709 Y87.178 E15.92065
G1 X96.744 Y86.577 E15.94468
G1 X96.836 Y85.285 E15.99638
G1 X96.94 Y84.387 E16.03246
G1 X97.123 Y83.503 E16.06849
G1 X97.383 Y82.638 E16.10454
G1 X97.719 Y81.8 E16.14057
G1 X98.128 Y80.995 E16.17661
G1 X98.606 Y80.229 E16.21265
G1 X99.15 Y79.508 E16.2487
G1 F2400 E13.2487
G1 F300 Z0.44
G0 F9000 X100.085 Y136.36 Z0.44
G1 F300 Z0.24
G1 F2400 E16.2487
G1 F1800 X102.831 Y136.36 E16.3583
G1 X102.532 Y136.51 E16.37165
G1 X102.162 Y136.635 E16.38724
G1 X101.782 Y136.707 E16.40267
G1 X101.384 Y136.725 E16.41857
G1 X101.002 Y136.689 E16.43389
G1 X100.623 Y136.6 E16.44943
G1 X100.085 Y136.36 E16.47294
G0 F9000 X99.701 Y136.603
G1 F1800 X99.345 Y136.332 E16.49079
G1 X98.991 Y135.96 E16.51129
G1 X103.913 Y135.96 E16.70774
G1 X103.449 Y136.427 E16.73401
G1 X103.082 Y136.681 E16.75183
G1 X102.686 Y136.879 E16.7695
G1 X102.26 Y137.024 E16.78746
G1 X101.825 Y137.106 E16.80513
G1 X101.38 Y137.126 E16.8229
G1 X100.937 Y137.085 E16.84066
G1 X100.504 Y136.983 E16.85842
G1 X100.084 Y136.819 E16.87641
G1 X99.701 Y136.603 E16.89396
G0 F9000 X99.475 Y136.935
G1 F1800 X99.081 Y136.634 E16.91375
G1 X98.729 Y136.278 E16.93373
G1 X98.429 Y135.874 E16.95382
G1 X98.187 Y135.432 E16.97393
G1 X98.165 Y135.376 E16.97633
G1 X98.327 Y135.463 E16.98367
G1 X98.84 Y135.56 E17.00451
G1 X104.16 Y135.56 E17.21684
G1 X104.492 Y135.52 E17.23019
G1 X104.711 Y135.438 E17.23952
G1 X104.389 Y136.01 E17.26572
G1 X104.066 Y136.403 E17.28602
G1 X103.701 Y136.739 E17.30582
G1 X103.287 Y137.026 E17.32593
G1 X102.842 Y137.249 E17.34579
G1 X102.363 Y137.411 E17.36598
G1 X101.875 Y137.503 E17.3858
G1 X101.368 Y137.527 E17.40605
G1 X100.872 Y137.48 E17.42594
G1 X100.382 Y137.365 E17.44603
G1 X99.918 Y137.183 E17.46592
G1 X99.475 Y136.935 E17.48618
G0 F9000 X99.255 Y137.27
G1 F1800 X98.816 Y136.936 E17.5082
G1 X98.424 Y136.539 E17.53047
G1 X98.092 Y136.091 E17.55272
G1 X97.823 Y135.602 E17.575
G1 X97.627 Y135.08 E17.59725
G1 X97.504 Y134.535 E17.61955
G1 X97.458 Y133.975 E17.64198
G1 X97.491 Y133.422 E17.66409
G1 X97.6 Y132.879 E17.68619
G1 X97.784 Y132.352 E17.70847
G1 X98.041 Y131.857 E17.73073
G1 X98.364 Y131.401 E17.75304
G1 X98.747 Y130.995 E17.77531
G1 X99.183 Y130.645 E17.79763
G1 X99.236 Y130.614 E17.80008
G1 X99.082 Y131.223 E17.82515
G1 X99.065 Y131.312 E17.82877
G1 X98.992 Y131.84 E17.85004
G1 X98.561 Y131.88 E17.86732
G1 X98.304 Y131.996 E17.87857
G1 X98.089 Y132.179 E17.88984
G1 X97.935 Y132.415 E17.90109
G1 X97.84 Y132.84 E17.91847
G1 X97.84 Y134.16 E17.97115
G1 X97.88 Y134.439 E17.9824
G1 X97.996 Y134.696 E17.99366
G1 X98.179 Y134.911 E18.00492
G1 X98.415 Y135.065 E18.01617
G1 X98.84 Y135.16 E18.03355
G1 X104.16 Y135.16 E18.24589
G1 X104.439 Y135.12 E18.25713
G1 X104.696 Y135.004 E18.26839
G1 X104.911 Y134.821 E18.27966
G1 X105.065 Y134.585 E18.2909
G1 X105.16 Y134.16 E18.30829
G1 X105.16 Y132.84 E18.36097
G1 X105.12 Y132.561 E18.37222
G1 X105.004 Y132.304 E18.38347
G1 X104.821 Y132.089 E18.39474
G1 X104.585 Y131.935 E18.40599
G1 X104.16 Y131.84 E18.42337
G1 X103.894 Y131.84 E18.43399
G1 X104.086 Y131.237 E18.45924
G1 X104.177 Y131.02 E18.46864
G1 X104.299 Y131.127 E18.47511
G1 X104.661 Y131.549 E18.4973
G1 X104.96 Y132.014 E18.51937
G1 X105.19 Y132.518 E18.54148
G1 X105.353 Y133.058 E18.56399
G1 X105.442 Y133.645 E18.58769
G1 X105.444 Y134.16 E18.60824
G1 X105.372 Y134.721 E18.63082
G1 X105.225 Y135.253 E18.65285
G1 X105.003 Y135.771 E18.67534
G1 X104.714 Y136.245 E18.6975
G1 X104.363 Y136.673 E18.71959
G1 X103.952 Y137.051 E18.74188
G1 X103.49 Y137.371 E18.76431
G1 X102.993 Y137.62 E18.78649
G1 X102.468 Y137.799 E18.80863
G1 X101.918 Y137.902 E18.83097
G1 X101.363 Y137.928 E18.85314
G1 X100.801 Y137.875 E18.87567
G1 X100.263 Y137.748 E18.89773
G1 X99.748 Y137.547 E18.9198
G1 X99.255 Y137.27 E18.94237
G0 F9000 X99.039 Y137.608
G1 F1800 X98.552 Y137.237 E18.9668
G1 X98.12 Y136.799 E18.99136
G1 X97.75 Y136.302 E19.01609
G1 X97.458 Y135.769 E19.04034
G1 X97.242 Y135.195 E19.06482
G1 X97.108 Y134.598 E19.08924
G1 X97.057 Y133.984 E19.11383
G1 X97.094 Y133.37 E19.13838
G1 X97.214 Y132.77 E19.1628
G1 X97.415 Y132.196 E19.18708
G1 X97.7 Y131.645 E19.21184
G1 X98.053 Y131.146 E19.23623
G1 X98.474 Y130.7 E19.26071
G1 X98.952 Y130.317 E19.28516
G1 X99.478 Y130.006 E19.30955
G1 X99.91 Y129.825 E19.32824
G1 X99.58 Y130.852 E19.3713
G1 X99.462 Y131.366 E19.39234
