;FLAVOR:Marlin
;TIME:1220
;Filament used: 0.782292m
;Layer height: 0.2
;MINX:76.283
;MINY:68.609
;MINZ:0.24
;MAXX:142.196
;MAXY:149.871
;MAXZ:5.28
;Generated with Cura_SteamEngine 4.8.0
M140 S50
M105
M190 S50
M104 S215
M105
M109 S215
M82 ;absolute extrusion mode
M201 X500.00 Y500.00 Z100.00 E5000.00 ;Setup machine max acceleration
M203 X500.00 Y500.00 Z10.00 E50.00 ;Setup machine max feedrate
M204 P500.00 R1000.00 T500.00 ;Setup Print/Retract/Travel acceleration
M205 X8.00 Y8.00 Z0.40 E5.00 ;Setup Jerk
M220 S100 ;Reset Feedrate
M221 S100 ;Reset Flowrate

;*** Start Dual Nozzle/Bed Preheating ***
M140 S50 ; start preheating the bed
M104 S215 ﻿T0 ; start preheating hotend
M190 S50 ; heat to Cura Bed setting and WAIT
M109 S215 ﻿T0 ; heat to Cura Hotend and WAIT
;*** End Preheating ***

G28 ; home

G92 E0 ;Reset Extruder
G1 Z2.0 F3000 ;Move Z Axis up

;*** Single Print Start Tone
M300 S1000 P500 ; chirp to indicate starting to print
;*** End Single Start Tone

G1 X10.1 Y20 Z0.28 F5000.0 ;Move to start position
G1 X10.1 Y200.0 Z0.28 F1500.0 E15 ;Draw the first line
G1 X10.4 Y200.0 Z0.28 F5000.0 ;Move to side a little
G1 X10.4 Y20 Z0.28 F1500.0 E30 ;Draw the second line
G92 E0 ;Reset Extruder
G1 Z2.0 F3000 ;Move Z Axis up
G92 E0
G92 E0
G1 F2400 E-3
;LAYER_COUNT:23
;LAYER:0
M106 S63.8
M204 S500
M205 X6 Y6
G1 F300 Z0.44
G0 F9000 X87.223 Y78.48 Z0.44
;TYPE:SKIRT
G1 F300 Z0.24
G1 F2400 E0
G1 F1800 X87.666 Y78.006 E0.02589
G1 X87.933 Y77.733 E0.04114
G1 X88.746 Y76.985 E0.08523
G1 X89.26 Y76.566 E0.1117
G1 X89.56 Y76.334 E0.12683
G1 X90.476 Y75.7 E0.17129
G1 X91.035 Y75.361 E0.19739
G1 X91.375 Y75.166 E0.21303
G1 X92.409 Y74.646 E0.25923
G1 X92.977 Y74.403 E0.28388
G1 X93.302 Y74.272 E0.29787
G1 X93.913 Y74.047 E0.32386
G1 X94.486 Y73.871 E0.34778
G1 X95.023 Y73.726 E0.36998
G1 X95.406 Y73.631 E0.38573
G1 X96.27 Y73.454 E0.42093
G1 X96.919 Y73.364 E0.44708
G1 X97.553 Y73.295 E0.47253
G1 X98.17 Y73.248 E0.49723
G1 X99.547 Y73.186 E0.55225
G1 X99.767 Y73.179 E0.56103
G1 X102.295 Y73.026 E0.66211
G1 X104.819 Y72.802 E0.76325
G1 X107.328 Y72.507 E0.86408
G1 X109.84 Y72.14 E0.9654
G1 X112.31 Y71.708 E1.06548
G1 X114.804 Y71.199 E1.16707
G1 X117.238 Y70.629 E1.26685
G1 X119.743 Y69.966 E1.37027
G1 X122.215 Y69.242 E1.47308
G1 X122.772 Y69.092 E1.4961
G1 X123.154 Y68.998 E1.5118
G1 X123.972 Y68.831 E1.54512
G1 X124.6 Y68.74 E1.57045
G1 X125.317 Y68.663 E1.59923
G1 X126.42 Y68.609 E1.64331
G1 X127.09 Y68.618 E1.67005
G1 X127.482 Y68.633 E1.68571
G1 X128.62 Y68.738 E1.73132
G1 X129.27 Y68.84 E1.75758
G1 X129.661 Y68.911 E1.77344
G1 X130.763 Y69.172 E1.81864
G1 X131.394 Y69.363 E1.84496
G1 X131.735 Y69.475 E1.85928
G1 X132.526 Y69.771 E1.89299
G1 X133.126 Y70.037 E1.91919
G1 X133.725 Y70.327 E1.94575
G1 X134.763 Y70.911 E1.99328
G1 X135.305 Y71.263 E2.01908
G1 X135.619 Y71.477 E2.03424
G1 X136.303 Y71.985 E2.06825
G1 X136.755 Y72.362 E2.09174
G1 X137.232 Y72.787 E2.11724
G1 X138.1 Y73.663 E2.16646
G1 X138.548 Y74.177 E2.19367
G1 X138.733 Y74.398 E2.20518
G1 X139.385 Y75.263 E2.24841
G1 X139.747 Y75.809 E2.27456
G1 X139.966 Y76.158 E2.291
G1 X140.565 Y77.251 E2.34075
G1 X140.836 Y77.831 E2.3663
G1 X140.971 Y78.136 E2.37961
G1 X141.296 Y78.963 E2.41507
G1 X141.48 Y79.525 E2.43868
G1 X141.681 Y80.219 E2.46751
G1 X141.931 Y81.332 E2.51304
G1 X142.039 Y82.001 E2.54009
G1 X142.094 Y82.408 E2.55648
G1 X142.182 Y83.436 E2.59766
G1 X142.19 Y83.652 E2.60629
G1 X142.196 Y84.166 E2.6268
G1 X142.191 Y84.599 E2.64409
G1 X142.145 Y85.473 E2.67902
G1 X142.123 Y85.706 E2.68836
G1 X142.063 Y86.215 E2.70882
G1 X141.997 Y86.675 E2.72736
G1 X141.77 Y87.811 E2.7736
G1 X141.612 Y88.407 E2.79821
G1 X141.504 Y88.783 E2.81382
G1 X141.092 Y89.953 E2.86333
G1 X140.87 Y90.477 E2.88604
G1 X140.714 Y90.825 E2.90127
G1 X140.163 Y91.887 E2.94902
G1 X139.864 Y92.387 E2.97227
G1 X139.69 Y92.665 E2.98536
G1 X138.345 Y94.872 E3.08851
G1 X137.082 Y97.086 E3.19025
G1 X135.897 Y99.304 E3.29061
G1 X135.224 Y100.636 E3.35018
G1 X133.782 Y103.474 E3.47723
G1 X132.7 Y105.76 E3.57817
G1 X131.675 Y108.094 E3.67992
G1 X130.732 Y110.416 E3.77994
G1 X129.843 Y112.806 E3.88172
G1 X129.036 Y115.172 E3.98149
G1 X128.279 Y117.614 E4.08353
G1 X127.607 Y120.02 E4.18324
G1 X126.989 Y122.503 E4.28536
G1 X126.448 Y124.966 E4.38601
G1 X125.98 Y127.443 E4.48662
G1 X125.58 Y129.939 E4.58751
G1 X125.252 Y132.435 E4.68799
G1 X124.99 Y134.973 E4.78983
G1 X124.9 Y136.071 E4.8338
G1 X124.752 Y137.168 E4.87798
G1 X124.616 Y137.855 E4.90593
G1 X124.581 Y138.011 E4.91231
G1 X124.341 Y138.899 E4.94902
G1 X124.162 Y139.414 E4.97079
G1 X123.971 Y139.923 E4.99248
G1 X123.766 Y140.435 E5.0145
G1 X123.376 Y141.269 E5.05124
G1 X123.089 Y141.784 E5.07477
G1 X122.763 Y142.324 E5.09995
G1 X122.669 Y142.472 E5.10695
G1 X122.142 Y143.227 E5.1437
G1 X121.755 Y143.703 E5.16818
G1 X121.397 Y144.119 E5.19009
G1 X120.998 Y144.56 E5.21382
G1 X120.342 Y145.206 E5.25057
G1 X119.766 Y145.694 E5.2807
G1 X119.377 Y146.003 E5.30053
G1 X118.627 Y146.536 E5.33725
G1 X118.045 Y146.887 E5.36438
G1 X117.558 Y147.16 E5.38666
G1 X117.107 Y147.4 E5.40705
G1 X116.273 Y147.789 E5.44378
G1 X115.732 Y147.996 E5.4669
G1 X115.161 Y148.19 E5.49097
G1 X114.961 Y148.253 E5.49934
G1 X114.071 Y148.491 E5.53611
G1 X113.5 Y148.602 E5.55932
G1 X112.863 Y148.707 E5.58509
G1 X112.354 Y148.779 E5.60561
G1 X111.487 Y148.852 E5.64033
G1 X110.48 Y148.896 E5.68056
G1 X107.925 Y149.043 E5.78271
G1 X105.422 Y149.259 E5.88298
G1 X102.399 Y149.626 E6.00452
G1 X102.228 Y149.639 E6.01136
G1 X101.086 Y149.786 E6.05732
G1 X100.169 Y149.863 E6.09405
G1 X99.614 Y149.871 E6.1162
G1 X99.037 Y149.86 E6.13924
G1 X98.818 Y149.851 E6.14798
G1 X97.9 Y149.773 E6.18476
G1 X97.298 Y149.678 E6.20908
G1 X96.749 Y149.575 E6.23137
G1 X96.227 Y149.465 E6.25267
G1 X95.339 Y149.225 E6.28938
G1 X94.807 Y149.04 E6.31186
G1 X94.142 Y148.783 E6.34031
G1 X93.993 Y148.721 E6.34676
G1 X93.159 Y148.33 E6.38352
G1 X92.655 Y148.049 E6.40655
G1 X91.979 Y147.642 E6.43804
G1 X91.776 Y147.513 E6.44764
G1 X91.021 Y146.986 E6.48439
G1 X90.552 Y146.606 E6.50848
G1 X90.082 Y146.197 E6.53335
G1 X89.974 Y146.099 E6.53917
G1 X89.32 Y145.451 E6.57592
G1 X88.881 Y144.946 E6.60262
G1 X88.524 Y144.508 E6.62518
G1 X88.223 Y144.123 E6.64468
G1 X87.694 Y143.369 E6.68144
G1 X87.362 Y142.811 E6.70736
G1 X87.062 Y142.261 E6.73236
G1 X86.985 Y142.112 E6.73906
G1 X86.598 Y141.277 E6.77579
G1 X86.408 Y140.78 E6.79702
G1 X86.228 Y140.271 E6.81857
G1 X86.044 Y139.702 E6.84244
G1 X85.81 Y138.812 E6.87917
G1 X85.714 Y138.306 E6.89973
G1 X85.598 Y137.566 E6.92962
G1 X85.547 Y137.149 E6.94639
G1 X85.444 Y136.145 E6.98667
G1 X85.366 Y135.263 E7.02201
G1 X85.067 Y132.725 E7.12401
G1 X84.698 Y130.199 E7.2259
G1 X84.268 Y127.75 E7.32514
G1 X83.761 Y125.263 E7.42644
G1 X83.187 Y122.815 E7.5268
G1 X82.531 Y120.336 E7.62914
G1 X81.824 Y117.939 E7.72889
G1 X81.036 Y115.52 E7.83043
G1 X80.178 Y113.119 E7.93219
G1 X79.279 Y110.812 E8.03101
G1 X78.264 Y108.411 E8.13505
G1 X77.652 Y107.048 E8.19469
G1 X77.449 Y106.564 E8.21563
G1 X77.216 Y105.955 E8.24166
G1 X77.095 Y105.616 E8.25602
G1 X76.784 Y104.583 E8.29908
G1 X76.619 Y103.875 E8.3281
G1 X76.541 Y103.492 E8.3437
G1 X76.381 Y102.432 E8.38648
G1 X76.324 Y101.805 E8.41161
G1 X76.296 Y101.387 E8.42833
G1 X76.283 Y100.205 E8.47551
G1 X76.316 Y99.564 E8.50113
G1 X76.341 Y99.225 E8.5147
G1 X76.447 Y98.321 E8.55102
G1 X76.543 Y97.772 E8.57327
G1 X76.679 Y97.119 E8.59989
G1 X76.888 Y96.3 E8.63363
G1 X77.103 Y95.635 E8.66152
G1 X77.313 Y95.049 E8.68636
G1 X77.813 Y93.891 E8.73671
G1 X78.087 Y93.354 E8.76077
G1 X78.25 Y93.049 E8.77457
G1 X78.703 Y92.281 E8.81016
G1 X78.871 Y92.024 E8.82241
G1 X80.321 Y89.857 E8.92648
G1 X81.662 Y87.723 E9.02707
G1 X82.961 Y85.521 E9.12911
G1 X84.17 Y83.334 E9.22885
G1 X84.867 Y81.989 E9.28931
G1 X85.28 Y81.219 E9.32419
G1 X85.852 Y80.274 E9.36827
G1 X86.21 Y79.756 E9.39341
G1 X86.455 Y79.419 E9.41003
G1 X87.223 Y78.48 E9.45845
G0 F9000 X87.518 Y78.751
G1 F1800 X87.952 Y78.286 E9.48384
G1 X88.219 Y78.013 E9.49908
G1 X89.001 Y77.293 E9.5415
G1 X89.505 Y76.882 E9.56746
G1 X89.805 Y76.65 E9.5826
G1 X90.686 Y76.04 E9.62537
G1 X91.234 Y75.708 E9.65094
G1 X91.574 Y75.513 E9.66658
G1 X92.569 Y75.013 E9.71103
G1 X93.127 Y74.774 E9.73525
G1 X93.452 Y74.643 E9.74924
G1 X94.039 Y74.426 E9.77422
G1 X94.593 Y74.256 E9.79735
G1 X95.119 Y74.114 E9.81909
G1 X95.502 Y74.019 E9.83484
G1 X96.334 Y73.849 E9.86874
G1 X96.97 Y73.76 E9.89437
G1 X97.594 Y73.692 E9.91942
G1 X98.188 Y73.648 E9.94319
G1 X99.559 Y73.586 E9.99797
G1 X99.804 Y73.578 E10.00775
G1 X102.318 Y73.426 E10.10827
G1 X104.869 Y73.2 E10.21049
G1 X107.361 Y72.907 E10.31063
G1 X109.902 Y72.536 E10.41313
G1 X112.381 Y72.101 E10.51358
G1 X114.87 Y71.594 E10.61496
G1 X117.359 Y71.011 E10.71699
G1 X119.806 Y70.363 E10.81802
G1 X122.323 Y69.627 E10.92269
G1 X122.868 Y69.48 E10.94522
G1 X123.25 Y69.386 E10.96092
G1 X124.037 Y69.225 E10.99298
G1 X124.653 Y69.137 E11.01782
G1 X125.357 Y69.061 E11.04608
G1 X126.419 Y69.009 E11.08852
G1 X127.075 Y69.017 E11.1147
G1 X127.467 Y69.032 E11.13036
G1 X128.562 Y69.134 E11.17425
G1 X129.198 Y69.233 E11.19994
G1 X129.589 Y69.304 E11.2158
G1 X130.65 Y69.556 E11.25933
G1 X131.269 Y69.743 E11.28513
G1 X131.61 Y69.855 E11.29946
G1 X132.372 Y70.14 E11.33193
G1 X132.96 Y70.401 E11.35761
G1 X133.548 Y70.686 E11.38369
G1 X134.548 Y71.248 E11.42947
G1 X135.079 Y71.593 E11.45474
G1 X135.393 Y71.807 E11.46991
G1 X136.052 Y72.296 E11.50266
G1 X136.495 Y72.666 E11.5257
G1 X136.965 Y73.084 E11.5508
G1 X137.799 Y73.927 E11.59813
G1 X138.241 Y74.434 E11.62498
G1 X138.426 Y74.655 E11.63648
G1 X139.054 Y75.488 E11.67812
G1 X139.408 Y76.021 E11.70366
G1 X139.627 Y76.37 E11.7201
G1 X140.203 Y77.422 E11.76797
G1 X140.47 Y77.993 E11.79313
G1 X140.605 Y78.298 E11.80644
G1 X140.918 Y79.094 E11.84058
G1 X141.099 Y79.645 E11.86373
G1 X141.296 Y80.327 E11.89206
G1 X141.537 Y81.398 E11.93587
G1 X141.642 Y82.055 E11.96243
G1 X141.697 Y82.462 E11.97882
G1 X141.782 Y83.45 E12.0184
G1 X141.796 Y84.162 E12.04682
G1 X141.791 Y84.595 E12.06411
G1 X141.747 Y85.436 E12.09772
G1 X141.667 Y86.159 E12.12675
G1 X141.601 Y86.619 E12.1453
G1 X141.382 Y87.711 E12.18975
G1 X141.228 Y88.297 E12.21393
G1 X141.12 Y88.673 E12.22955
G1 X140.724 Y89.799 E12.27719
G1 X140.505 Y90.313 E12.29948
G1 X140.349 Y90.661 E12.31471
G1 X139.819 Y91.684 E12.36069
G1 X139.525 Y92.174 E12.3835
G1 X139.352 Y92.449 E12.39646
G1 X137.999 Y94.672 E12.50033
G1 X136.755 Y96.851 E12.60047
G1 X135.518 Y99.166 E12.70523
G1 X134.663 Y100.859 E12.78093
G1 X134.615 Y100.95 E12.78504
G1 X133.421 Y103.301 E12.89028
G1 X132.343 Y105.578 E12.99083
G1 X131.315 Y107.919 E13.09288
G1 X130.347 Y110.303 E13.19557
G1 X129.465 Y112.674 E13.29654
G1 X128.658 Y115.04 E13.39631
G1 X127.901 Y117.484 E13.49843
G1 X127.22 Y119.921 E13.59942
G1 X126.604 Y122.393 E13.7011
G1 X126.051 Y124.911 E13.804
G1 X125.586 Y127.378 E13.90419
G1 X125.188 Y129.86 E14.00452
G1 X124.852 Y132.413 E14.1073
G1 X124.591 Y134.944 E14.20885
G1 X124.501 Y136.039 E14.2527
G1 X124.359 Y137.094 E14.29519
G1 X124.226 Y137.767 E14.32257
G1 X124.191 Y137.923 E14.32895
G1 X123.954 Y138.795 E14.36502
G1 X123.788 Y139.274 E14.38525
G1 X123.597 Y139.783 E14.40695
G1 X123.396 Y140.281 E14.42838
G1 X123.013 Y141.099 E14.46443
G1 X122.745 Y141.58 E14.48641
G1 X122.425 Y142.11 E14.51112
G1 X122.331 Y142.258 E14.51812
G1 X121.814 Y142.998 E14.55414
G1 X121.452 Y143.442 E14.57701
G1 X121.094 Y143.858 E14.59891
G1 X120.705 Y144.288 E14.62206
G1 X119.728 Y145.208 E14.67562
G1 X119.294 Y145.56 E14.69792
G1 X119.131 Y145.687 E14.70617
G1 X118.395 Y146.21 E14.74221
G1 X117.85 Y146.538 E14.76759
G1 X117.363 Y146.811 E14.78988
G1 X116.923 Y147.046 E14.80979
G1 X116.104 Y147.426 E14.84582
G1 X115.599 Y147.618 E14.86738
G1 X115.041 Y147.809 E14.89092
G1 X114.841 Y147.872 E14.89929
G1 X113.968 Y148.105 E14.93536
G1 X113.435 Y148.207 E14.95701
G1 X112.798 Y148.312 E14.98278
G1 X112.304 Y148.382 E15.0027
G1 X111.47 Y148.452 E15.0361
G1 X110.508 Y148.494 E15.07453
G1 X107.865 Y148.646 E15.18019
G1 X105.396 Y148.859 E15.2791
G1 X102.35 Y149.229 E15.40157
G1 X102.176 Y149.242 E15.40853
G1 X101.035 Y149.389 E15.45445
G1 X100.135 Y149.464 E15.49049
G1 X99.619 Y149.471 E15.51109
G1 X99.053 Y149.46 E15.53369
G1 X98.834 Y149.451 E15.54243
G1 X97.934 Y149.374 E15.57849
G1 X97.372 Y149.285 E15.6012
G1 X96.823 Y149.182 E15.62349
G1 X96.315 Y149.075 E15.64421
G1 X95.443 Y148.838 E15.68028
G1 X94.948 Y148.665 E15.7012
G1 X94.295 Y148.413 E15.72914
G1 X94.146 Y148.351 E15.73558
G1 X93.329 Y147.968 E15.7716
G1 X92.859 Y147.705 E15.79309
G1 X92.193 Y147.305 E15.8241
G1 X91.99 Y147.176 E15.8337
G1 X91.25 Y146.658 E15.86975
G1 X90.813 Y146.303 E15.89222
G1 X90.351 Y145.901 E15.91666
G1 X90.243 Y145.803 E15.92249
G1 X89.601 Y145.167 E15.95855
G1 X89.191 Y144.693 E15.98357
G1 X88.834 Y144.255 E16.00612
G1 X88.54 Y143.88 E16.02514
G1 X88.022 Y143.14 E16.06119
G1 X87.712 Y142.617 E16.08546
G1 X87.417 Y142.078 E16.10998
G1 X87.34 Y141.929 E16.11667
G1 X86.962 Y141.109 E16.15271
G1 X86.786 Y140.647 E16.17244
G1 X86.606 Y140.138 E16.19399
G1 X86.426 Y139.584 E16.21724
G1 X86.198 Y138.71 E16.25329
G1 X86.046 Y137.866 E16.28752
G1 X85.975 Y137.368 E16.3076
G1 X85.945 Y137.107 E16.31808
G1 X85.842 Y136.11 E16.35809
G1 X85.759 Y135.179 E16.39539
G1 X85.467 Y132.692 E16.49534
G1 X85.095 Y130.143 E16.59815
G1 X84.661 Y127.672 E16.69828
G1 X84.155 Y125.197 E16.79911
G1 X83.569 Y122.694 E16.90171
G1 X82.925 Y120.259 E17.00224
G1 X82.192 Y117.775 E17.10561
G1 X81.418 Y115.398 E17.20538
G1 X80.567 Y113.018 E17.30626
G1 X79.632 Y110.617 E17.4091
G1 X78.64 Y108.271 E17.51076
G1 X78.017 Y106.884 E17.57145
G1 X77.821 Y106.419 E17.59159
G1 X77.593 Y105.821 E17.61713
G1 X77.472 Y105.482 E17.6315
G1 X77.173 Y104.487 E17.67296
G1 X77.011 Y103.796 E17.70129
G1 X76.933 Y103.413 E17.71689
G1 X76.779 Y102.392 E17.7581
G1 X76.723 Y101.779 E17.78267
G1 X76.695 Y101.361 E17.79939
G1 X76.682 Y100.223 E17.84481
G1 X76.715 Y99.594 E17.86995
G1 X76.74 Y99.255 E17.88352
G1 X76.842 Y98.384 E17.91852
G1 X76.937 Y97.845 E17.94036
G1 X77.07 Y97.202 E17.96657
G1 X77.271 Y96.414 E17.99903
G1 X77.482 Y95.763 E18.02634
G1 X77.689 Y95.186 E18.05081
G1 X78.17 Y94.071 E18.09928
G1 X78.44 Y93.542 E18.12298
G1 X78.603 Y93.237 E18.13678
G1 X79.039 Y92.498 E18.17103
G1 X79.203 Y92.247 E18.183
G1 X80.665 Y90.063 E18.28789
G1 X82.003 Y87.934 E18.38825
G1 X83.297 Y85.738 E18.48998
G1 X84.525 Y83.517 E18.59128
G1 X85.219 Y82.178 E18.65147
G1 X85.632 Y81.408 E18.68634
G1 X86.183 Y80.498 E18.7288
G1 X86.534 Y79.991 E18.75342
G1 X86.779 Y79.654 E18.77004
G1 X87.518 Y78.751 E18.81662
G1 F2400 E15.81662
G1 F300 Z0.44
G0 F9000 X124.72 Y82.137 Z0.44
G1 F300 Z0.24
G1 F2400 E18.81662
G1 F1800 X125.019 Y81.898 E18.83189
G1 X125.361 Y81.695 E18.84777
G1 X125.719 Y81.546 E18.86324
G1 X126.096 Y81.447 E18.8788
G1 X126.485 Y81.402 E18.89443
G1 X126.868 Y81.41 E18.90972
G1 X127.254 Y81.474 E18.92534
G1 X127.627 Y81.59 E18.94093
G1 X127.983 Y81.759 E18.95666
G1 X128.303 Y81.969 E18.97193
G1 X128.668 Y82.308 E18.99181
G1 X128.17 Y82.036 E19.01446
G1 X127.377 Y81.778 E19.04774
G1 X126.53 Y81.693 E19.08172
G1 X125.704 Y81.788 E19.1149
G1 X124.907 Y82.06 E19.14852
G1 X124.72 Y82.137 E19.15659
G0 F9000 X124.449 Y81.842
G1 F1800 X124.797 Y81.564 E19.17436
G1 X125.175 Y81.34 E19.1919
G1 X125.591 Y81.166 E19.2099
G1 X126.02 Y81.053 E19.22761
G1 X126.462 Y81.002 E19.24536
G1 X126.914 Y81.012 E19.26341
G1 X127.348 Y81.083 E19.28096
G1 X127.773 Y81.216 E19.29873
G1 X128.177 Y81.408 E19.31659
G1 X128.549 Y81.652 E19.33434
G1 X128.884 Y81.946 E19.35213
G1 X129.173 Y82.283 E19.36985
G1 X129.417 Y82.662 E19.38784
G1 X129.601 Y83.064 E19.40549
G1 X129.727 Y83.486 E19.42307
G1 X129.8 Y83.966 E19.44244
G1 X129.801 Y84.235 E19.45318
G1 X129.458 Y83.608 E19.4817
G1 X128.972 Y83.045 E19.51139
G1 X128.372 Y82.592 E19.5414
G1 X127.68 Y82.273 E19.57181
G1 X126.945 Y82.113 E19.60183
G1 X126.184 Y82.113 E19.6322
G1 X125.453 Y82.272 E19.66206
G1 X124.765 Y82.586 E19.69225
G1 X124.162 Y83.036 E19.72228
G1 X123.664 Y83.612 E19.75267
G1 X123.432 Y84.006 E19.77092
G1 X123.533 Y83.342 E19.79772
