;FLAVOR:Marlin
;TIME:3744
;Filament used: 2.4188m
;Layer height: 0.2
;MINX:87.295
;MINY:87.28
;MINZ:0.2
;MAXX:132.705
;MAXY:132.722
;MAXZ:25.4
;Generated with Cura_SteamEngine 4.4.1
M140 S80
M105
M190 S80
M104 S240
M105
M109 S240
M82 ;absolute extrusion mode
M201 X500.00 Y500.00 Z100.00 E5000.00 ;Setup machine max acceleration
M203 X500.00 Y500.00 Z10.00 E50.00 ;Setup machine max feedrate
M204 P500.00 R1000.00 T500.00 ;Setup Print/Retract/Travel acceleration
M205 X8.00 Y8.00 Z0.40 E5.00 ;Setup Jerk
M220 S100 ;Reset Feedrate
M221 S100 ;Reset Flowrate

G28 ;Home

G92 E0 ;Reset Extruder
G1 Z2.0 F3000 ;Move Z Axis up
G1 X10.1 Y20 Z0.28 F5000.0 ;Move to start position
G1 X10.1 Y200.0 Z0.28 F1500.0 E15 ;Draw the first line
G1 X10.4 Y200.0 Z0.28 F5000.0 ;Move to side a little
G1 X10.4 Y20 Z0.28 F1500.0 E30 ;Draw the second line
G92 E0 ;Reset Extruder
G1 Z2.0 F3000 ;Move Z Axis up

G92 E0
G92 E0
G1 F1500 E-6
;LAYER_COUNT:127
;LAYER:0
M107
G0 F6000 X90.501 Y90.552 Z0.2
;TYPE:SKIRT
G1 F1500 E0
G1 F1200 X91.19 Y89.915 E0.03121
G1 X91.93 Y89.339 E0.0624
G1 X92.717 Y88.829 E0.09359
G1 X93.545 Y88.387 E0.12481
G1 X94.407 Y88.018 E0.15599
G1 X95.297 Y87.723 E0.18718
G1 X96.209 Y87.505 E0.21837
G1 X97.137 Y87.366 E0.24958
G1 X97.885 Y87.312 E0.27452
G1 X98.304 Y87.296 E0.28847
G1 X98.616 Y87.289 E0.29885
G1 X99.331 Y87.282 E0.32263
G1 X99.429 Y87.281 E0.32589
G1 X100.586 Y87.28 E0.36437
G1 X100.597 Y87.28 E0.36474
G1 X120.505 Y87.281 E1.02688
G1 X120.613 Y87.282 E1.03047
G1 X121.317 Y87.289 E1.05389
G1 X121.568 Y87.294 E1.06224
G1 X122.056 Y87.31 E1.07848
G1 X122.992 Y87.381 E1.1097
G1 X123.917 Y87.531 E1.14087
G1 X124.827 Y87.759 E1.17207
G1 X125.714 Y88.064 E1.20327
G1 X126.572 Y88.444 E1.23448
G1 X127.394 Y88.895 E1.26566
G1 X128.175 Y89.414 E1.29685
G1 X128.908 Y89.998 E1.32802
G1 X129.59 Y90.643 E1.35924
G1 X130.214 Y91.343 E1.39043
G1 X130.776 Y92.094 E1.42163
G1 X131.271 Y92.89 E1.45281
G1 X131.698 Y93.725 E1.484
G1 X132.052 Y94.594 E1.51521
G1 X132.33 Y95.49 E1.54641
G1 X132.531 Y96.406 E1.5776
G1 X132.653 Y97.336 E1.6088
G1 X132.694 Y98.107 E1.63448
G1 X132.703 Y98.609 E1.65118
G1 X132.705 Y98.806 E1.65773
G1 X132.705 Y120.966 E2.39478
G1 X132.704 Y121.102 E2.3993
G1 X132.695 Y121.832 E2.42358
G1 X132.644 Y122.768 E2.45476
G1 X132.513 Y123.697 E2.48596
G1 X132.303 Y124.611 E2.51715
G1 X132.016 Y125.504 E2.54835
G1 X131.654 Y126.369 E2.57954
G1 X131.22 Y127.2 E2.61072
G1 X130.716 Y127.992 E2.64194
G1 X130.147 Y128.737 E2.67312
G1 X129.517 Y129.431 E2.7043
G1 X128.829 Y130.069 E2.73551
G1 X128.09 Y130.647 E2.76671
G1 X127.305 Y131.159 E2.79788
G1 X126.478 Y131.602 E2.82909
G1 X125.617 Y131.974 E2.86028
G1 X124.727 Y132.27 E2.89148
G1 X123.815 Y132.49 E2.92268
G1 X122.888 Y132.631 E2.95387
G1 X122.163 Y132.686 E2.97805
G1 X121.81 Y132.701 E2.9898
G1 X121.468 Y132.71 E3.00118
G1 X120.586 Y132.72 E3.03052
G1 X120.471 Y132.721 E3.03434
G1 X119.368 Y132.722 E3.07103
G1 X119.356 Y132.722 E3.07143
G1 X99.422 Y132.719 E3.73444
G1 X99.3 Y132.718 E3.73849
G1 X98.593 Y132.71 E3.76201
G1 X98.308 Y132.703 E3.77149
G1 X97.905 Y132.688 E3.78491
G1 X96.97 Y132.614 E3.8161
G1 X96.045 Y132.459 E3.8473
G1 X95.136 Y132.227 E3.8785
G1 X94.251 Y131.918 E3.90968
G1 X93.395 Y131.535 E3.94087
G1 X92.575 Y131.08 E3.97206
G1 X91.796 Y130.557 E4.00326
G1 X91.065 Y129.97 E4.03445
G1 X90.387 Y129.322 E4.06564
G1 X89.766 Y128.619 E4.09684
G1 X89.207 Y127.866 E4.12803
G1 X88.715 Y127.067 E4.15924
G1 X88.292 Y126.23 E4.19043
G1 X87.942 Y125.36 E4.22162
G1 X87.668 Y124.463 E4.25282
G1 X87.471 Y123.546 E4.28401
G1 X87.348 Y122.556 E4.31719
G1 X87.332 Y122.352 E4.324
G1 X87.298 Y121.585 E4.34953
G1 X87.295 Y121.232 E4.36127
G1 X87.295 Y98.993 E5.10095
G1 X87.296 Y98.833 E5.10627
G1 X87.306 Y98.144 E5.12919
G1 X87.36 Y97.208 E5.16037
G1 X87.493 Y96.28 E5.19155
G1 X87.705 Y95.366 E5.22276
G1 X87.993 Y94.474 E5.25393
G1 X88.357 Y93.609 E5.28515
G1 X88.793 Y92.779 E5.31633
G1 X89.298 Y91.989 E5.34752
G1 X89.869 Y91.245 E5.37871
G1 X90.501 Y90.552 E5.4099
G0 F6000 X90.893 Y90.726
G1 F1200 X91.578 Y90.112 E5.4405
G1 X92.315 Y89.559 E5.47115
G1 X93.096 Y89.072 E5.50176
G1 X93.917 Y88.655 E5.53239
G1 X94.771 Y88.311 E5.56301
G1 X95.651 Y88.042 E5.59361
G1 X96.552 Y87.85 E5.62425
G1 X97.901 Y87.712 E5.66936
G1 X98.32 Y87.696 E5.6833
G1 X98.62 Y87.689 E5.69328
G1 X99.335 Y87.682 E5.71706
G1 X99.43 Y87.681 E5.72022
G1 X100.587 Y87.68 E5.75871
G1 X100.597 Y87.68 E5.75904
G1 X120.505 Y87.681 E6.42118
G1 X120.609 Y87.682 E6.42464
G1 X121.313 Y87.689 E6.44806
G1 X121.555 Y87.694 E6.45611
G1 X122.043 Y87.71 E6.47235
G1 X122.961 Y87.78 E6.50297
G1 X123.87 Y87.929 E6.53361
G1 X124.762 Y88.157 E6.56423
G1 X125.631 Y88.461 E6.59485
G1 X126.47 Y88.84 E6.62547
G1 X127.273 Y89.29 E6.65608
G1 X128.034 Y89.808 E6.6867
G1 X128.748 Y90.39 E6.71734
G1 X129.408 Y91.032 E6.74796
G1 X130.01 Y91.728 E6.77857
G1 X130.549 Y92.474 E6.80918
G1 X131.021 Y93.265 E6.83982
G1 X131.424 Y94.093 E6.87045
G1 X131.752 Y94.953 E6.90106
G1 X132.005 Y95.838 E6.93167
G1 X132.18 Y96.742 E6.9623
G1 X132.294 Y98.114 E7.00809
G1 X132.303 Y98.616 E7.02479
G1 X132.305 Y98.806 E7.03111
G1 X132.305 Y120.966 E7.76815
G1 X132.304 Y121.097 E7.77251
G1 X132.295 Y121.827 E7.79679
G1 X132.244 Y122.746 E7.82741
G1 X132.113 Y123.657 E7.85802
G1 X131.904 Y124.554 E7.88865
G1 X131.617 Y125.429 E7.91928
G1 X131.256 Y126.275 E7.94987
G1 X130.822 Y127.088 E7.98052
G1 X130.32 Y127.859 E8.01112
G1 X129.753 Y128.584 E8.04174
G1 X129.125 Y129.257 E8.07235
G1 X128.44 Y129.874 E8.10302
G1 X127.705 Y130.428 E8.13363
G1 X126.925 Y130.916 E8.16423
G1 X126.105 Y131.335 E8.19486
G1 X125.252 Y131.682 E8.22549
G1 X124.372 Y131.953 E8.25611
G1 X123.472 Y132.146 E8.28673
G1 X122.146 Y132.286 E8.33107
G1 X121.793 Y132.301 E8.34283
G1 X121.463 Y132.31 E8.35381
G1 X120.581 Y132.32 E8.38314
G1 X120.471 Y132.321 E8.3868
G1 X119.368 Y132.322 E8.42349
G1 X119.356 Y132.322 E8.42389
G1 X99.422 Y132.319 E9.08689
G1 X99.304 Y132.318 E9.09082
G1 X98.597 Y132.31 E9.11434
G1 X98.323 Y132.304 E9.12345
G1 X97.92 Y132.289 E9.13686
G1 X97.002 Y132.215 E9.1675
G1 X96.094 Y132.061 E9.19813
G1 X95.203 Y131.829 E9.22875
G1 X94.336 Y131.521 E9.25935
G1 X93.498 Y131.139 E9.28998
G1 X92.697 Y130.685 E9.32061
G1 X91.938 Y130.164 E9.35123
G1 X91.227 Y129.579 E9.38185
G1 X90.57 Y128.934 E9.41247
G1 X89.971 Y128.235 E9.44309
G1 X89.435 Y127.486 E9.47372
G1 X88.966 Y126.694 E9.50434
G1 X88.568 Y125.864 E9.53495
G1 X88.243 Y125.003 E9.56556
G1 X87.994 Y124.116 E9.5962
G1 X87.823 Y123.212 E9.6268
G1 X87.746 Y122.525 E9.6498
G1 X87.73 Y122.321 E9.6566
G1 X87.698 Y121.582 E9.68121
G1 X87.695 Y121.229 E9.69295
G1 X87.695 Y98.993 E10.43252
G1 X87.696 Y98.839 E10.43764
G1 X87.706 Y98.15 E10.46056
G1 X87.759 Y97.231 E10.49118
G1 X87.892 Y96.32 E10.5218
G1 X88.104 Y95.424 E10.55242
G1 X88.392 Y94.55 E10.58303
G1 X88.755 Y93.704 E10.61365
G1 X89.19 Y92.892 E10.64429
G1 X89.694 Y92.122 E10.6749
G1 X90.263 Y91.398 E10.70552
G1 X90.893 Y90.726 E10.73616
G0 F6000 X91.284 Y90.905
G1 F1200 X91.966 Y90.313 E10.7662
G1 X92.698 Y89.783 E10.79625
G1 X93.474 Y89.321 E10.82629
G1 X94.287 Y88.929 E10.85631
G1 X95.132 Y88.61 E10.88635
G1 X96.002 Y88.367 E10.9164
G1 X96.89 Y88.203 E10.94643
G1 X97.916 Y88.111 E10.98069
G1 X98.335 Y88.095 E10.99464
G1 X98.624 Y88.088 E11.00425
G1 X99.339 Y88.081 E11.02804
G1 X99.43 Y88.081 E11.03106
G1 X100.587 Y88.08 E11.06954
G1 X100.597 Y88.08 E11.06988
G1 X120.505 Y88.081 E11.73202
G1 X120.605 Y88.082 E11.73535
G1 X121.309 Y88.089 E11.75876
G1 X121.542 Y88.093 E11.76651
G1 X122.03 Y88.109 E11.78275
G1 X122.931 Y88.179 E11.81281
G1 X123.821 Y88.328 E11.84282
G1 X124.696 Y88.555 E11.87289
G1 X125.546 Y88.859 E11.90292
G1 X126.366 Y89.236 E11.93293
G1 X127.15 Y89.685 E11.96298
G1 X127.891 Y90.201 E11.99301
G1 X128.584 Y90.781 E12.02307
G1 X129.222 Y91.419 E12.05308
G1 X129.802 Y92.112 E12.08314
G1 X130.318 Y92.853 E12.11317
G1 X130.766 Y93.637 E12.1432
G1 X131.143 Y94.458 E12.17325
G1 X131.446 Y95.309 E12.2033
G1 X131.673 Y96.183 E12.23333
G1 X131.822 Y97.074 E12.26338
G1 X131.894 Y98.121 E12.29828
G1 X131.903 Y98.623 E12.31498
G1 X131.905 Y98.806 E12.32107
G1 X131.905 Y120.966 E13.05811
G1 X131.904 Y121.092 E13.0623
G1 X131.895 Y121.822 E13.08659
G1 X131.844 Y122.723 E13.1166
G1 X131.713 Y123.617 E13.14665
G1 X131.504 Y124.496 E13.1767
G1 X131.218 Y125.352 E13.20672
G1 X130.857 Y126.18 E13.23676
G1 X130.425 Y126.973 E13.2668
G1 X129.924 Y127.724 E13.29683
G1 X129.359 Y128.428 E13.32685
G1 X128.733 Y129.08 E13.35691
G1 X128.052 Y129.673 E13.38695
G1 X127.322 Y130.204 E13.41697
G1 X126.547 Y130.669 E13.44703
G1 X125.734 Y131.062 E13.47706
G1 X124.89 Y131.383 E13.5071
G1 X124.021 Y131.628 E13.53713
G1 X123.133 Y131.794 E13.56717
G1 X122.129 Y131.887 E13.60071
G1 X121.776 Y131.902 E13.61246
G1 X121.459 Y131.91 E13.62301
G1 X120.577 Y131.92 E13.65235
G1 X120.47 Y131.921 E13.6559
G1 X119.367 Y131.922 E13.69259
G1 X119.356 Y131.922 E13.69296
G1 X99.422 Y131.919 E14.35596
G1 X99.309 Y131.918 E14.35972
G1 X98.602 Y131.91 E14.38324
G1 X98.338 Y131.904 E14.39202
G1 X97.935 Y131.889 E14.40544
G1 X97.035 Y131.815 E14.43547
G1 X96.144 Y131.663 E14.46553
G1 X95.271 Y131.432 E14.49557
G1 X94.422 Y131.124 E14.52561
G1 X93.603 Y130.743 E14.55565
G1 X92.822 Y130.291 E14.58566
G1 X92.083 Y129.771 E14.61572
G1 X91.393 Y129.189 E14.64574
G1 X90.757 Y128.547 E14.6758
G1 X90.181 Y127.852 E14.70582
G1 X89.668 Y127.108 E14.73588
G1 X89.224 Y126.322 E14.7659
G1 X88.85 Y125.5 E14.79594
G1 X88.551 Y124.648 E14.82597
G1 X88.328 Y123.773 E14.85601
G1 X88.145 Y122.494 E14.89898
G1 X88.129 Y122.29 E14.90578
G1 X88.098 Y121.579 E14.92945
G1 X88.095 Y121.226 E14.9412
G1 X88.095 Y98.993 E15.68067
G1 X88.096 Y98.845 E15.68559
G1 X88.106 Y98.156 E15.70851
G1 X88.159 Y97.254 E15.73856
G1 X88.292 Y96.361 E15.76859
G1 X88.503 Y95.483 E15.79862
G1 X88.791 Y94.627 E15.82866
G1 X89.153 Y93.8 E15.85869
G1 X89.588 Y93.008 E15.88874
G1 X90.09 Y92.258 E15.91876
G1 X90.657 Y91.555 E15.9488
G1 X91.284 Y90.905 E15.97884
G1 F1500 E9.97884
;MESH:Dice.stl
G0 F6000 X98.595 Y97.624
G0 X98.615 Y98.609
G0 X100.967 Y103.62
G0 X101.437 Y104.301
G0 X102.052 Y104.846
G0 X108.453 Y108.684
G0 X106.371 Y114.035
G0 X108.165 Y120.132
G0 X111.848 Y120.133
G0 X113.628 Y113.999
G0 X117.217 Y114.802
G0 X117.948 Y115.187
G0 X118.563 Y115.732
G0 X119.033 Y116.413
G0 X119.268 Y117.036
G0 X119.818 Y120.321
;TYPE:WALL-INNER
G1 F1500 E15.97884
G1 F1200 X119.98 Y120.084 E15.98839
G1 X120.305 Y119.227 E16.01887
G1 X120.305 Y120.084 E16.03018
G1 X120.305 Y120.32 E16.03803
G1 X119.981 Y120.32 E16.04642
G1 X119.818 Y120.321 E16.04714
G0 F6000 X119.818 Y120.72
G1 F1200 X119.36 Y120.72 E16.06237
G1 X119.257 Y120.72 E16.0658
G1 X119.061 Y120.72 E16.07231
G1 X119.048 Y120.721 E16.07275
G1 X119.06 Y120.711
G1 X119.257 Y120.43 E16.07914
G1 X119.315 Y120.346 E16.08212
G1 X119.623 Y119.897 E16.10023
G1 X119.97 Y118.981 E16.13281
G1 X120.014 Y118.64 E16.14424
G1 X120.089 Y117.998 E16.16574
G1 X119.971 Y117.025 E16.19834
G1 X119.624 Y116.106 E16.23101
G1 X119.431 Y115.821 E16.24246
G1 X119.061 Y115.289 E16.26402
G1 X118.329 Y114.642 E16.29651
G1 X118.026 Y114.479 E16.30795
G1 X117.484 Y114.196 E16.32829
G1 X117.451 Y114.179 E16.32952
G1 X117.371 Y114.16 E16.33226
G1 X116.719 Y114 E16.35459
G1 X117.368 Y113.841 E16.36382
G1 X117.453 Y113.82 E16.36632
G1 X117.486 Y113.803 E16.36755
G1 X118.325 Y113.363 E16.39906
G1 X119.058 Y112.711 E16.43169
G1 X119.256 Y112.431 E16.4431
G1 X119.623 Y111.897 E16.46465
G1 X119.97 Y110.981 E16.49723
G1 X120.014 Y110.64 E16.50866
G1 X120.089 Y109.998 E16.53016
G1 X119.971 Y109.025 E16.56276
G1 X119.624 Y108.106 E16.59543
G1 X119.431 Y107.821 E16.60688
G1 X119.061 Y107.289 E16.62843
G1 X118.329 Y106.642 E16.66093
G1 X118.026 Y106.479 E16.67237
G1 X117.484 Y106.196 E16.69271
G1 X117.451 Y106.179 E16.69394
G1 X117.371 Y106.16 E16.69668
G1 X116.719 Y106 E16.71901
G1 X117.368 Y105.841 E16.72824
G1 X117.453 Y105.82 E16.73074
G1 X117.486 Y105.803 E16.73197
G1 X118.325 Y105.363 E16.76348
G1 X119.058 Y104.711 E16.79611
G1 X119.256 Y104.431 E16.80752
G1 X119.623 Y103.897 E16.82907
G1 X119.97 Y102.981 E16.86165
G1 X120.014 Y102.64 E16.87308
G1 X120.089 Y101.998 E16.89458
G1 X119.971 Y101.025 E16.92718
G1 X119.624 Y100.106 E16.95985
G1 X119.431 Y99.821 E16.9713
G1 X119.275 Y99.598 E16.98035
G1 X119.086 Y99.329 E16.99129
G1 X119.053 Y99.282 E16.9932
G1 X119.382 Y99.282 E16.99998
G1 X120.705 Y99.283 E17.04399
G1 X120.705 Y120.72 E17.75698
G1 X119.818 Y120.72 E17.78649
G0 F6000 X119.266 Y119.71
G1 F1200 X119.579 Y118.883 E17.8159
G1 X119.617 Y118.591 E17.82569
G1 X119.686 Y117.999 E17.84551
G1 X119.58 Y117.121 E17.87493
G1 X119.266 Y116.291 E17.90444
G1 X119.101 Y116.047 E17.91424
G1 X118.76 Y115.557 E17.9341
G1 X118.098 Y114.972 E17.96348
G1 X117.839 Y114.832 E17.97327
G1 X117.309 Y114.556 E17.99315
G1 X116.447 Y114.345 E18.02266
G1 X115.563 Y114.345 E18.05207
G1 X114.7 Y114.557 E18.08162
G1 X113.914 Y114.969 E18.11114
G1 X113.252 Y115.557 E18.14059
G1 X113.082 Y115.798 E18.1504
G1 X112.744 Y116.29 E18.17025
G1 X112.431 Y117.117 E18.19966
G1 X112.393 Y117.409 E18.20945
G1 X112.324 Y118.001 E18.22928
G1 X112.43 Y118.879 E18.25869
G1 X112.745 Y119.711 E18.28828
G1 X113.249 Y120.442 E18.31781
G1 X113.609 Y120.761 E18.33381
G1 X113.905 Y121.023 E18.34696
G1 X114.077 Y121.121 E18.35354
G1 X113.905 Y121.121 E18.35406
G1 X113.509 Y121.121 E18.36259
G1 X106.536 Y121.121 E18.59451
G1 X106.086 Y121.121 E18.60948
G1 X105.979 Y121.12 E18.61304
G1 X106.086 Y121.064 E18.61364
G1 X106.422 Y120.766 E18.62259
G1 X106.748 Y120.476 E18.6371
G1 X106.918 Y120.235 E18.64691
G1 X107.256 Y119.743 E18.66676
G1 X107.569 Y118.916 E18.69617
G1 X107.607 Y118.624 E18.70597
G1 X107.676 Y118.032 E18.72579
G1 X107.57 Y117.153 E18.75524
G1 X107.256 Y116.324 E18.78472
G1 X107.09 Y116.08 E18.79454
G1 X106.749 Y115.59 E18.81439
G1 X106.089 Y115.006 E18.8437
G1 X105.83 Y114.867 E18.85348
G1 X105.299 Y114.59 E18.8734
G1 X104.437 Y114.378 E18.90293
G1 X103.553 Y114.378 E18.93233
G1 X103.375 Y114.421 E18.93842
G1 X103.374 Y114.421 E18.93845
G1 X102.69 Y114.59 E18.96189
G1 X101.906 Y115.003 E18.99136
G1 X101.684 Y115.196 E19.00114
G1 X101.241 Y115.59 E19.02086
G1 X101.072 Y115.831 E19.03065
G1 X100.734 Y116.323 E19.0505
G1 X100.421 Y117.15 E19.07991
G1 X100.383 Y117.442 E19.08971
G1 X100.314 Y118.034 E19.10953
G1 X100.42 Y118.912 E19.13895
G1 X100.734 Y119.742 E19.16846
G1 X100.899 Y119.986 E19.17826
G1 X101.24 Y120.476 E19.19811
G1 X101.565 Y120.763 E19.21253
G1 X101.902 Y121.061 E19.2275
G1 X102.01 Y121.119 E19.23157
G1 X101.902 Y121.119 E19.23173
G1 X101.452 Y121.119 E19.24072
G1 X98.895 Y121.118 E19.32576
G1 X98.895 Y98.883 E20.0653
G1 X98.992 Y98.881 E20.06853
G1 X100.987 Y98.881 E20.13488
G1 X101.574 Y98.881 E20.15441
G1 X101.684 Y98.881 E20.15807
G1 X101.905 Y98.881 E20.16542
G1 X102.139 Y98.88 E20.1732
G1 X101.906 Y99.003 E20.17515
G1 X101.684 Y99.196 E20.18129
G1 X101.602 Y99.269 E20.18459
G1 X101.241 Y99.59 E20.20065
G1 X101.072 Y99.831 E20.21044
G1 X100.734 Y100.323 E20.2303
G1 X100.421 Y101.15 E20.25971
G1 X100.383 Y101.442 E20.2695
G1 X100.314 Y102.034 E20.28932
G1 X100.42 Y102.912 E20.31874
G1 X100.734 Y103.742 E20.34825
G1 X100.899 Y103.986 E20.35805
G1 X101.24 Y104.476 E20.37791
G1 X101.902 Y105.061 E20.40729
G1 X102.161 Y105.201 E20.41708
G1 X102.69 Y105.476 E20.43691
G1 X103.551 Y105.689 E20.46641
G1 X104.439 Y105.689 E20.49595
G1 X105.3 Y105.476 E20.52545
G1 X106.086 Y105.064 E20.55496
G1 X106.748 Y104.476 E20.58441
G1 X106.918 Y104.235 E20.59422
G1 X107.256 Y103.743 E20.61408
G1 X107.569 Y102.916 E20.64349
G1 X107.607 Y102.624 E20.65328
G1 X107.676 Y102.032 E20.6731
G1 X107.57 Y101.153 E20.70255
G1 X107.256 Y100.324 E20.73203
G1 X107.09 Y100.08 E20.74185
G1 X106.749 Y99.59 E20.76171
G1 X106.358 Y99.244 E20.77907
G1 X106.089 Y99.006 E20.79102
G1 X105.855 Y98.88 E20.79986
G1 X106.089 Y98.88 E20.80086
G1 X106.449 Y98.88 E20.80901
G1 X113.907 Y98.88 E21.05707
G1 X114.076 Y98.881 E21.06269
G1 X113.907 Y98.975 E21.06398
G1 X113.251 Y99.557 E21.09315
G1 X113.082 Y99.798 E21.10294
G1 X112.744 Y100.29 E21.12279
G1 X112.431 Y101.117 E21.1522
