;FLAVOR:Marlin
;TIME:208
;Filament used: 0.0585891m
;Layer height: 0.16
;MINX:106.217
;MINY:104.711
;MINZ:0.24
;MAXX:113.783
;MAXY:115.374
;MAXZ:3.84
;Generated with Cura_SteamEngine 4.5.0
M140 S50
M105
M190 S50
M104 S215
M105
M109 S215
M82 ;absolute extrusion mode
M201 X500.00 Y500.00 Z100.00 E5000.00 ;Setup machine max acceleration
M203 X500.00 Y500.00 Z10.00 E50.00 ;Setup machine max feedrate
M204 P500.00 R1000.00 T500.00 ;Setup Print/Retract/Travel acceleration
M205 X8.00 Y8.00 Z0.40 E5.00 ;Setup Jerk
M220 S100 ;Reset Feedrate
M221 S100 ;Reset Flowrate

G28 ;Home

G92 E0 ;Reset Extruder
G1 Z2.0 F3000 ;Move Z Axis up
G1 X10.1 Y20 Z0.28 F5000.0 ;Move to start position
G1 X10.1 Y200.0 Z0.28 F1500.0 E15 ;Draw the first line
G1 X10.4 Y200.0 Z0.28 F5000.0 ;Move to side a little
G1 X10.4 Y20 Z0.28 F1500.0 E30 ;Draw the second line
G92 E0 ;Reset Extruder
G1 Z2.0 F3000 ;Move Z Axis up

G92 E0
G92 E0
G1 F1800 E-3
;LAYER_COUNT:20
;LAYER:0
M106 S63.8
M204 S500
M205 X6 Y6
;MESH:Object 1
G0 F9000 X113.441 Y109.988 Z0.24
;TYPE:WALL-OUTER
G1 F1800 E0
G1 F664.8 X113.783 Y111.262 E0.05265
G1 X113.675 Y112.506 E0.10249
G1 X113.641 Y112.633 E0.10773
G1 X113.11 Y113.77 E0.15782
G1 X112.179 Y114.701 E0.21037
G1 X110.982 Y115.259 E0.26308
G1 X109.669 Y115.374 E0.31568
G1 X108.463 Y115.051 E0.36551
G1 X108.343 Y114.994 E0.37082
G1 X107.316 Y114.275 E0.42085
G1 X106.559 Y113.194 E0.47353
G1 X106.217 Y111.92 E0.52617
G1 X106.332 Y110.609 E0.5787
G1 X106.858 Y109.48 E0.62841
G1 X107.293 Y108.93 E0.6564
G1 X107.482 Y108.72 E0.66768
G1 X107.916 Y107.967 E0.70236
G1 X108.097 Y107.051 E0.73963
G1 X107.955 Y106.126 E0.77698
G1 X107.574 Y105.435 E0.80847
G1 X108.414 Y104.73 E0.85224
G1 X108.972 Y105.697 E0.8968
G1 X109.201 Y106.995 E0.94941
G1 X108.972 Y108.294 E1.00206
G1 X108.348 Y109.376 E1.05191
G1 X107.782 Y110.049 E1.087
G1 X107.413 Y110.842 E1.12191
G1 X107.312 Y111.769 E1.15913
G1 X107.534 Y112.679 E1.19652
G1 X108.054 Y113.456 E1.23383
G1 X108.809 Y114.008 E1.27116
G1 X109.709 Y114.269 E1.30856
G1 X110.642 Y114.208 E1.34588
G1 X111.499 Y113.831 E1.38325
G1 X112.174 Y113.183 E1.42059
G1 X112.611 Y112.293 E1.46017
G1 X112.692 Y111.355 E1.49774
G1 X112.465 Y110.501 E1.53301
G1 X111.964 Y109.754 E1.56891
G1 X111.155 Y108.598 E1.62523
G1 X110.813 Y107.322 E1.67795
G1 X110.928 Y106.013 E1.7304
G1 X111.457 Y104.88 E1.7803
G1 X111.571 Y104.718 E1.78821
G1 X112.406 Y105.418 E1.8317
G1 X112.376 Y105.457 E1.83366
G1 X112.009 Y106.246 E1.86839
G1 X111.903 Y107.229 E1.90785
G1 X112.131 Y108.084 E1.94317
G1 X112.632 Y108.832 E1.9791
G1 X113.441 Y109.988 E2.03542
G0 F9000 X113.043 Y110.174
G0 X112.845 Y112.358
G0 X111.946 Y114.368
;TYPE:WALL-INNER
G1 F664.8 X111.841 Y114.417 E2.04004
G1 X110.874 Y114.867 E2.08261
G1 X110.763 Y114.876 E2.08706
G1 X109.704 Y114.97 E2.12949
G1 X109.594 Y114.941 E2.13403
G1 X108.604 Y114.675 E2.17494
G1 X108.546 Y114.648 E2.1775
G1 X108.474 Y114.598 E2.181
G1 X107.603 Y113.988 E2.22344
G1 X107.538 Y113.894 E2.228
G1 X106.927 Y113.022 E2.2705
G1 X106.898 Y112.914 E2.27496
G1 X106.621 Y111.884 E2.31753
G1 X106.63 Y111.772 E2.32201
G1 X106.724 Y110.717 E2.36429
G1 X106.771 Y110.616 E2.36873
G1 X107.19 Y109.715 E2.40839
G1 X107.202 Y109.69 E2.4095
G1 X107.225 Y109.661 E2.41098
G1 X107.6 Y109.187 E2.4351
G1 X107.808 Y108.956 E2.44751
G1 X108.296 Y108.109 E2.48652
G1 X108.298 Y108.097 E2.48701
G1 X108.503 Y107.06 E2.5292
G1 X108.5 Y107.041 E2.52997
G1 X108.34 Y105.995 E2.5722
G1 X108.331 Y105.979 E2.57293
G1 X108.083 Y105.53 E2.5934
G1 X108.306 Y105.342 E2.60505
G1 X108.331 Y105.386
G1 X108.59 Y105.835 E2.62016
G1 X108.609 Y105.947 E2.62394
G1 X108.795 Y106.995 E2.65437
G1 X108.776 Y107.107 E2.65817
G1 X108.591 Y108.154 E2.68878
G1 X108.537 Y108.247 E2.69241
G1 X108.049 Y109.094 E2.71949
G1 X108.016 Y109.15 E2.7217
G1 X107.826 Y109.376 E2.73015
G1 X107.442 Y109.832 E2.7471
G1 X107.023 Y110.733 E2.77462
G1 X107.022 Y110.749
G1 X106.907 Y111.796 E2.80498
G1 X106.911 Y111.813
G1 X107.162 Y112.843 E2.83523
G1 X107.171 Y112.857
G1 X107.761 Y113.737 E2.86518
G1 X107.777 Y113.749 E2.86521
G1 X108.63 Y114.373 E2.89519
G1 X108.686 Y114.389 E2.89668
G1 X109.665 Y114.673 E2.92591
G1 X109.684 Y114.672 E2.92593
G1 X110.738 Y114.603 E2.95611
G1 X110.754 Y114.596
G1 X111.725 Y114.169 E2.98626
G1 X111.74 Y114.155 E2.98629
G1 X112.502 Y113.423 E3.02846
G1 X112.511 Y113.404 E3.0293
G1 X113.003 Y112.402 E3.07385
G1 X113.097 Y111.32 E3.1172
G1 X112.834 Y110.334 E3.15793
G1 X112.828 Y110.325 E3.15836
G1 X112.294 Y109.528 E3.19665
G1 X112.076 Y109.217 E3.21181
G1 X111.523 Y108.426 E3.25033
G1 X111.496 Y108.323 E3.25458
G1 X111.23 Y107.332 E3.29553
G1 X111.217 Y107.286 E3.29744
G1 X111.221 Y107.236 E3.29944
G1 X111.32 Y106.118 E3.34424
G1 X111.366 Y106.02 E3.34856
G1 X111.653 Y105.404 E3.37568
G1 X111.685 Y105.336 E3.37868
G1 X111.905 Y105.521 E3.38604
G1 X111.618 Y106.137 E3.40487
G1 X111.617 Y106.149
G1 X111.497 Y107.26 E3.43698
G1 X111.762 Y108.251 E3.46525
G1 X111.768 Y108.261
G1 X112.302 Y109.058 E3.49261
G1 X112.52 Y109.369 E3.50308
G1 X113.073 Y110.16 E3.53068
G1 X113.1 Y110.262 E3.53423
G1 X113.365 Y111.247 E3.56241
G1 X113.378 Y111.295 E3.56409
G1 X113.374 Y111.343 E3.56602
G1 X113.28 Y112.426 E3.5962
G1 X113.278 Y112.442 E3.59675
G1 X113.271 Y112.471 E3.59776
G1 X113.264 Y112.496 E3.59863
G1 X113.254 Y112.518 E3.59945
G1 X112.779 Y113.535 E3.63171
G1 X112.697 Y113.617 E3.63557
G1 X111.946 Y114.368 E3.66594
G0 F9000 X111.925 Y114.253
;MESH:NONMESH
G0 F300 X111.925 Y114.253 Z0.44
G0 F9000 X110.699 Y114.443
G0 X109.683 Y114.51
G0 X108.702 Y114.225
G0 X107.879 Y113.624
G0 X107.312 Y112.777
G0 X107.07 Y111.784
G0 X107.18 Y110.778
G0 X107.503 Y110.084
G0 X108.688 Y108.191
G0 X108.972 Y108.294
;TIME_ELAPSED:14.177605
;LAYER:1
M140 S40
M106 S127.5
;TYPE:WALL-OUTER
;MESH:Object 1
G1 F600 X108.38 Y109.319 E3.70531
G1 X108.076 Y109.698 E3.72147
G1 X107.782 Y110.049 E3.73669
G1 X107.389 Y110.892 E3.76763
G1 X107.308 Y111.826 E3.79881
G1 X107.551 Y112.735 E3.83011
G1 X108.089 Y113.503 E3.86129
G1 X108.857 Y114.041 E3.89248
G1 X109.763 Y114.283 E3.92367
G1 X110.7 Y114.202 E3.95495
G1 X111.55 Y113.805 E3.98616
G1 X112.133 Y113.223 E4.01355
G1 X112.262 Y113.038 E4.02106
G1 X112.611 Y112.291 E4.04848
G1 X112.692 Y111.355 E4.07973
G1 X112.449 Y110.447 E4.11099
G1 X111.155 Y108.598 E4.18605
G1 X110.813 Y107.324 E4.22993
G1 X110.928 Y106.012 E4.27373
G1 X111.428 Y104.939 E4.3131
G1 X111.574 Y104.72 E4.32186
G1 X112.406 Y105.418 E4.35798
G1 X112.376 Y105.457 E4.35962
G1 X112.033 Y106.191 E4.38656
G1 X111.975 Y106.408 E4.39403
G1 X111.904 Y107.231 E4.42151
G1 X112.147 Y108.138 E4.45274
G1 X113.441 Y109.988 E4.52783
G1 X113.783 Y111.261 E4.57167
G1 X113.668 Y112.572 E4.61544
G1 X113.11 Y113.77 E4.6594
G1 X112.179 Y114.701 E4.70319
G1 X110.982 Y115.259 E4.74711
G1 X109.669 Y115.374 E4.79095
G1 X108.397 Y115.032 E4.83476
G1 X107.316 Y114.275 E4.87865
G1 X106.559 Y113.194 E4.92255
G1 X106.217 Y111.921 E4.96639
G1 X106.332 Y110.608 E5.01023
G1 X106.893 Y109.405 E5.05438
G1 X107.275 Y108.952 E5.07408
G1 X107.482 Y108.72 E5.08443
G1 X107.944 Y107.92 E5.11515
G1 X108.082 Y107.127 E5.14192
G1 X108.107 Y106.996 E5.14636
G1 X107.965 Y106.183 E5.17381
G1 X107.887 Y105.972 E5.18129
G1 X107.576 Y105.434 E5.20196
G1 X108.414 Y104.73 E5.23836
G1 X108.972 Y105.696 E5.27547
G1 X109.201 Y106.996 E5.31937
G1 X108.972 Y108.294 E5.36321
G0 F9000 X108.559 Y108.144
G0 X107.579 Y109.92
G0 X107.155 Y110.83
G0 X107.067 Y111.847
G0 X107.304 Y112.738
G0 X108.569 Y114.664
;TYPE:WALL-INNER
G1 F600 X108.528 Y114.635 E5.36488
G1 X107.644 Y114.017 E5.40075
G1 X107.603 Y113.988 E5.40242
G1 X107.576 Y113.949 E5.404
G1 X106.958 Y113.066 E5.43985
G1 X106.927 Y113.022 E5.44164
G1 X106.916 Y112.979 E5.44312
G1 X106.635 Y111.934 E5.47911
G1 X106.621 Y111.885 E5.4808
G1 X106.625 Y111.837 E5.4824
G1 X106.719 Y110.763 E5.51826
G1 X106.724 Y110.716 E5.51983
G1 X106.745 Y110.67 E5.52152
G1 X107.19 Y109.715 E5.55656
G1 X107.234 Y109.622 E5.55998
G1 X107.545 Y109.253 E5.57603
G1 X107.581 Y109.21 E5.5779
G1 X107.808 Y108.956 E5.58923
G1 X108.326 Y108.059 E5.62368
G1 X108.514 Y106.999 E5.65948
G1 X108.353 Y106.078 E5.69058
G1 X108.303 Y105.942 E5.6954
G1 X108.25 Y105.801 E5.70041
G1 X108.09 Y105.524 E5.71105
G1 X108.306 Y105.342 E5.72044
G1 X108.33 Y105.385
G1 X108.49 Y105.662 E5.72782
G1 X108.59 Y105.834 E5.73287
G1 X108.624 Y106.03 E5.73793
G1 X108.787 Y106.95 E5.75942
G1 X108.795 Y106.996 E5.76074
G1 X108.787 Y107.046 E5.76217
G1 X108.599 Y108.107 E5.78707
G1 X108.59 Y108.156 E5.78847
G1 X108.567 Y108.197 E5.7898
G1 X108.05 Y109.092 E5.81367
G1 X108.022 Y109.127 E5.81516
G1 X107.808 Y109.392 E5.82323
G1 X107.769 Y109.441 E5.82478
G1 X107.46 Y109.81 E5.83651
G1 X107.442 Y109.832 E5.83683
G1 X106.997 Y110.787 E5.86115
G1 X106.903 Y111.861 E5.88624
G1 X107.183 Y112.907 E5.91119
G1 X107.802 Y113.79 E5.93597
G1 X108.685 Y114.409 E5.96074
G1 X109.728 Y114.688 E5.99665
G1 X110.805 Y114.594 E6.03261
G1 X111.783 Y114.138 E6.0685
G1 X112.441 Y113.481 E6.09942
G1 X112.524 Y113.361 E6.10428
G1 X112.61 Y113.239 E6.10924
G1 X113.003 Y112.396 E6.14018
G1 X113.097 Y111.319 E6.17613
G1 X112.817 Y110.275 E6.21209
G1 X111.553 Y108.469 E6.2854
G1 X111.523 Y108.426 E6.28715
G1 X111.512 Y108.383 E6.28862
G1 X111.231 Y107.34 E6.32455
G1 X111.217 Y107.288 E6.32634
G1 X111.22 Y107.243 E6.32784
G1 X111.302 Y106.315 E6.35883
G1 X111.32 Y106.12 E6.36534
G1 X111.404 Y105.938 E6.37201
G1 X111.653 Y105.404 E6.3916
G1 X111.685 Y105.335 E6.39413
G1 X111.905 Y105.52 E6.40026
G1 X111.656 Y106.054 E6.41387
G1 X111.617 Y106.2 E6.41734
G1 X111.579 Y106.339 E6.42063
G1 X111.499 Y107.267 E6.44229
G1 X111.779 Y108.31 E6.46718
G1 X113.042 Y110.116 E6.51779
G1 X113.073 Y110.16 E6.51931
G1 X113.084 Y110.203 E6.52078
G1 X113.365 Y111.246 E6.54568
G1 X113.379 Y111.297 E6.54744
G1 X113.375 Y111.343 E6.54897
G1 X113.28 Y112.42 E6.57408
G1 X113.276 Y112.464 E6.57533
G1 X113.254 Y112.512 E6.57682
G1 X112.862 Y113.355 E6.59825
G1 X112.777 Y113.537 E6.60338
G1 X112.637 Y113.677 E6.60844
G1 X111.98 Y114.334 E6.6299
G1 X111.946 Y114.368 E6.63126
G1 X111.9 Y114.389 E6.63294
G1 X110.922 Y114.844 E6.65775
G1 X110.874 Y114.867 E6.65952
G1 X110.83 Y114.87 E6.66099
G1 X109.753 Y114.965 E6.68601
G1 X109.705 Y114.97 E6.68761
G1 X109.656 Y114.957 E6.68905
G1 X108.614 Y114.676 E6.71397
G1 X108.569 Y114.664 E6.71528
G0 F9000 X108.603 Y114.587
;MESH:NONMESH
G0 F300 X108.603 Y114.587 Z0.64
G0 F9000 X107.331 Y112.837
G0 X107.067 Y111.847
G0 X107.155 Y110.83
G0 X107.579 Y109.92
G0 X108.375 Y108.881
G0 X108.362 Y107.815
G0 X108.268 Y106.175
G0 X107.972 Y106.226
;TIME_ELAPSED:25.014843
;LAYER:2
M106 S191.3
;TYPE:WALL-OUTER
;MESH:Object 1
G1 F600 X107.866 Y105.935 E6.72558
G1 X107.576 Y105.434 E6.74483
G1 X108.414 Y104.73 E6.78124
G1 X108.972 Y105.696 E6.81834
G1 X109.201 Y106.996 E6.86224
G1 X108.972 Y108.294 E6.90608
G1 X108.412 Y109.265 E6.94336
G1 X108.27 Y109.486 E6.9521
G1 X107.783 Y110.047 E6.97681
G1 X107.389 Y110.891 E7.00779
G1 X107.308 Y111.826 E7.039
G1 X107.55 Y112.734 E7.07026
G1 X108.088 Y113.503 E7.10147
G1 X108.857 Y114.041 E7.13269
G1 X109.764 Y114.283 E7.16391
G1 X110.7 Y114.202 E7.19516
G1 X111.551 Y113.805 E7.22639
G1 X112.103 Y113.253 E7.25236
G1 X112.281 Y112.999 E7.26267
G1 X112.611 Y112.29 E7.28868
G1 X112.692 Y111.355 E7.3199
G1 X112.45 Y110.448 E7.35112
G1 X111.155 Y108.598 E7.42623
G1 X110.813 Y107.324 E7.4701
G1 X110.928 Y106.013 E7.51387
G1 X111.402 Y104.996 E7.55119
G1 X111.524 Y104.764 E7.55991
G1 X111.564 Y104.712 E7.56209
G1 X112.367 Y105.386 E7.59696
G1 X112.406 Y105.418 E7.59864
G1 X112.376 Y105.457 E7.60028
G1 X112.052 Y106.152 E7.62578
G1 X111.971 Y106.451 E7.63608
G1 X111.904 Y107.231 E7.66212
G1 X112.146 Y108.137 E7.69331
G1 X113.441 Y109.988 E7.76845
G1 X113.783 Y111.261 E7.81229
G1 X113.668 Y112.573 E7.85609
G1 X113.11 Y113.77 E7.90002
G1 X112.179 Y114.701 E7.94381
G1 X110.982 Y115.259 E7.98774
G1 X109.669 Y115.374 E8.03158
G1 X108.397 Y115.032 E8.07538
G1 X107.316 Y114.275 E8.11928
G1 X106.559 Y113.194 E8.16317
G1 X106.217 Y111.921 E8.20701
G1 X106.332 Y110.608 E8.25085
G1 X106.892 Y109.407 E8.29493
G1 X107.252 Y108.978 E8.31355
G1 X107.482 Y108.72 E8.32505
G1 X107.944 Y107.919 E8.3558
G1 X108.107 Y106.996 E8.38698
G1 X107.972 Y106.226 E8.41298
G0 F9000 X108.397 Y106.113
G0 X108.59 Y105.834
;TYPE:WALL-INNER
G1 F600 X108.632 Y106.074 E8.42108
G1 X108.786 Y106.947 E8.45057
G1 X108.795 Y106.996 E8.45222
G1 X108.787 Y107.044 E8.45384
G1 X108.6 Y108.106 E8.48971
G1 X108.591 Y108.154 E8.49133
G1 X108.567 Y108.196 E8.49294
G1 X108.067 Y109.061 E8.52617
G1 X108.04 Y109.103 E8.52783
G1 X107.947 Y109.248 E8.53356
G1 X107.779 Y109.441 E8.54207
G1 X107.456 Y109.813 E8.55846
G1 X107.444 Y109.827 E8.55907
G1 X106.997 Y110.786 E8.59426
G1 X106.903 Y111.861 E8.63015
G1 X107.182 Y112.905 E8.6661
G1 X107.801 Y113.79 E8.70202
G1 X108.686 Y114.409 E8.73794
G1 X109.729 Y114.688 E8.77385
G1 X110.805 Y114.594 E8.80977
G1 X111.784 Y114.138 E8.84569
G1 X112.411 Y113.511 E8.87518
G1 X112.519 Y113.357 E8.88144
G1 X112.629 Y113.2 E8.88782
G1 X113.003 Y112.395 E8.91734
G1 X113.097 Y111.32 E8.95323
G1 X112.818 Y110.277 E8.98914
G1 X111.552 Y108.467 E9.06261
G1 X111.523 Y108.426 E9.06428
G1 X111.511 Y108.38 E9.06586
G1 X111.231 Y107.34 E9.10168
G1 X111.217 Y107.288 E9.10347
G1 X111.221 Y107.243 E9.10497
G1 X111.299 Y106.357 E9.13456
G1 X111.32 Y106.121 E9.14244
G1 X111.423 Y105.898 E9.15061
G1 X111.653 Y105.404 E9.16873
G1 X111.685 Y105.336 E9.17123
G1 X111.905 Y105.52 E9.17735
G1 X111.675 Y106.014 E9.18993
G1 X111.625 Y106.203 E9.19455
G1 X111.576 Y106.381 E9.19889
G1 X111.499 Y107.267 E9.21954
G1 X111.778 Y108.308 E9.24438
G1 X113.044 Y110.118 E9.2952
G1 X113.073 Y110.16 E9.29664
G1 X113.085 Y110.205 E9.29819
G1 X113.365 Y111.247 E9.32305
G1 X113.379 Y111.297 E9.32477
G1 X113.375 Y111.344 E9.32611
G1 X113.281 Y112.419 E9.35122
G1 X113.276 Y112.465 E9.35253
G1 X113.255 Y112.511 E9.35396
G1 X112.88 Y113.316 E9.37444
G1 X112.777 Y113.537 E9.38067
G1 X112.607 Y113.707 E9.38682
G1 X111.98 Y114.334 E9.40729
G1 X111.946 Y114.368 E9.40865
G1 X111.901 Y114.389 E9.41005
G1 X110.922 Y114.844 E9.43488
G1 X110.874 Y114.867 E9.43665
G1 X110.83 Y114.87 E9.43812
G1 X109.754 Y114.965 E9.46312
G1 X109.705 Y114.97 E9.46476
G1 X109.657 Y114.958 E9.46616
G1 X108.615 Y114.677 E9.49117
G1 X108.569 Y114.664 E9.49252
G1 X108.528 Y114.636 E9.49392
G1 X107.643 Y114.016 E9.51874
G1 X107.603 Y113.988 E9.52012
G1 X107.576 Y113.949 E9.52169
G1 X106.956 Y113.064 E9.54651
G1 X106.927 Y113.022 E9.54795
G1 X106.915 Y112.977 E9.5495
G1 X106.635 Y111.934 E9.57439
G1 X106.621 Y111.885 E9.57608
G1 X106.625 Y111.837 E9.57745
G1 X106.719 Y110.762 E9.60255
G1 X106.724 Y110.716 E9.60386
G1 X106.745 Y110.67 E9.60529
G1 X107.192 Y109.71 E9.62975
G1 X107.234 Y109.621 E9.63247
G1 X107.551 Y109.244 E9.64466
G1 X107.723 Y109.05 E9.65114
G1 X107.808 Y108.955 E9.65398
G1 X107.826 Y108.923 E9.65434
G1 X108.326 Y108.058 E9.67742
G1 X108.513 Y106.996 E9.70241
G1 X108.36 Y106.122 E9.72287
G1 X108.295 Y105.942 E9.72735
G1 X108.23 Y105.765 E9.73299
G1 X108.09 Y105.524 E9.74226
G1 X108.306 Y105.342 E9.75165
G1 X108.33 Y105.384
G1 X108.47 Y105.626 E9.75775
G1 X108.59 Y105.834 E9.76389
G0 F9000 X108.47 Y105.839
;MESH:NONMESH
G0 F300 X108.47 Y105.839 Z0.84
G0 F9000 X108.35 Y106.996
G0 X108.172 Y108.001
G0 X107.892 Y108.488
G0 X107.146 Y109.569
G0 X106.892 Y109.407
;TIME_ELAPSED:35.357884
;LAYER:3
M106 S255
;TYPE:WALL-OUTER
;MESH:Object 1
G1 F600 X107.227 Y109.008 E9.78122
G1 X107.482 Y108.719 E9.79404
G1 X107.944 Y107.919 E9.82476
G1 X108.107 Y106.996 E9.85594
G1 X107.944 Y106.071 E9.88718
G1 X107.576 Y105.434 E9.91164
G1 X108.414 Y104.73 E9.94805
G1 X108.972 Y105.696 E9.98515
G1 X109.201 Y106.995 E10.02902
G1 X108.972 Y108.294 E10.07289
G1 X108.447 Y109.204 E10.10784
G1 X108.258 Y109.499 E10.11949
G1 X107.783 Y110.047 E10.14361
G1 X107.389 Y110.892 E10.17462
G1 X107.308 Y111.826 E10.2058
G1 X107.55 Y112.734 E10.23706
G1 X108.089 Y113.503 E10.26829
G1 X108.857 Y114.041 E10.29948
G1 X109.764 Y114.283 E10.3307
G1 X110.7 Y114.202 E10.36195
G1 X111.55 Y113.805 E10.39315
G1 X112.214 Y113.141 E10.42438
