;FLAVOR:Marlin
;TIME:207
;Filament used: 0.0676083m
;Layer height: 0.16
;MINX:105.719
;MINY:103.948
;MINZ:0.24
;MAXX:114.281
;MAXY:116.138
;MAXZ:3.84
;Generated with Cura_SteamEngine 4.5.0
M140 S50
M105
M190 S50
M104 S215
M105
M109 S215
M82 ;absolute extrusion mode
M201 X500.00 Y500.00 Z100.00 E5000.00 ;Setup machine max acceleration
M203 X500.00 Y500.00 Z10.00 E50.00 ;Setup machine max feedrate
M204 P500.00 R1000.00 T500.00 ;Setup Print/Retract/Travel acceleration
M205 X8.00 Y8.00 Z0.40 E5.00 ;Setup Jerk
M220 S100 ;Reset Feedrate
M221 S100 ;Reset Flowrate

G28 ;Home

G92 E0 ;Reset Extruder
G1 Z2.0 F3000 ;Move Z Axis up
G1 X10.1 Y20 Z0.28 F5000.0 ;Move to start position
G1 X10.1 Y200.0 Z0.28 F1500.0 E15 ;Draw the first line
G1 X10.4 Y200.0 Z0.28 F5000.0 ;Move to side a little
G1 X10.4 Y20 Z0.28 F1500.0 E30 ;Draw the second line
G92 E0 ;Reset Extruder
G1 Z2.0 F3000 ;Move Z Axis up

G92 E0
G92 E0
G1 F1800 E-3
;LAYER_COUNT:20
;LAYER:0
M106 S63.8
M204 S500
M205 X6 Y6
;MESH:Faceshield_Clip.stl
G0 F9000 X113.554 Y114.25 Z0.24
;TYPE:WALL-OUTER
G1 F1800 E0
G1 F767.8 X113.463 Y114.379 E0.0063
G1 X112.465 Y115.377 E0.06263
G1 X111.185 Y115.972 E0.11897
G1 X111.035 Y116.014 E0.12519
G1 X109.626 Y116.138 E0.18164
G1 X108.185 Y115.752 E0.24118
G1 X106.962 Y114.895 E0.30079
G1 X106.106 Y113.672 E0.36037
G1 X105.719 Y112.23 E0.41996
G1 X105.841 Y110.824 E0.47628
G1 X105.882 Y110.675 E0.48245
G1 X106.485 Y109.383 E0.53936
G1 X106.935 Y108.845 E0.56735
G1 X107.157 Y108.601 E0.58052
G1 X107.674 Y107.706 E0.62177
G1 X107.9 Y106.556 E0.66855
G1 X107.719 Y105.523 E0.71041
G1 X107.25 Y104.67 E0.74926
G1 X108.09 Y103.967 E0.79298
G1 X108.734 Y105.085 E0.84447
G1 X108.98 Y106.48 E0.90101
G1 X108.981 Y106.629 E0.90695
G1 X108.734 Y108.024 E0.9635
G1 X107.981 Y109.329 E1.02363
G1 X107.395 Y110 E1.05919
G1 X106.906 Y111.028 E1.10462
G1 X106.815 Y112.07 E1.14637
G1 X107.078 Y113.146 E1.19058
G1 X107.734 Y114.12 E1.23745
G1 X108.593 Y114.722 E1.27931
G1 X109.719 Y115.047 E1.32609
G1 X110.763 Y114.957 E1.36791
G1 X111.776 Y114.51 E1.41211
G1 X112.576 Y113.743 E1.45634
G1 X113.094 Y112.688 E1.50325
G1 X113.185 Y111.644 E1.54507
G1 X112.922 Y110.568 E1.58928
G1 X112.323 Y109.675 E1.6322
G1 X111.409 Y108.368 E1.69586
G1 X111.022 Y106.928 E1.75537
G1 X111.153 Y105.44 E1.81499
G1 X111.748 Y104.163 E1.87122
G1 X111.895 Y103.954 E1.88142
G1 X112.737 Y104.659 E1.92525
G1 X112.646 Y104.789 E1.93158
G1 X112.21 Y105.724 E1.97276
G1 X112.113 Y106.833 E2.01719
G1 X112.4 Y107.908 E2.0616
G1 X113.894 Y110.042 E2.16557
G1 X114.281 Y111.484 E2.22516
G1 X114.151 Y112.969 E2.28465
G1 X113.554 Y114.25 E2.34106
G0 F9000 X113.174 Y114.03
G0 X113.486 Y112.797
;TYPE:WALL-INNER
G1 F767.8 X113.589 Y111.613 E2.38849
G1 X113.584 Y111.592 E2.38936
G1 X113.294 Y110.404 E2.43816
G1 X113.279 Y110.381 E2.43926
G1 X112.653 Y109.449 E2.48407
G1 X111.806 Y108.238 E2.54305
G1 X111.777 Y108.196 E2.54509
G1 X111.765 Y108.151 E2.54695
G1 X111.44 Y106.941 E2.59695
G1 X111.426 Y106.892 E2.59899
G1 X111.43 Y106.844 E2.60091
G1 X111.54 Y105.595 E2.65095
G1 X111.545 Y105.548 E2.65284
G1 X111.566 Y105.502 E2.65486
G1 X111.97 Y104.633 E2.69311
G1 X112.002 Y104.566 E2.69607
G1 X112.222 Y104.75 E2.70343
G1 X111.818 Y105.619 E2.72998
G1 X111.708 Y106.868 E2.76496
G1 X112.032 Y108.079 E2.79964
G1 X112.879 Y109.29 E2.84044
G1 X113.526 Y110.214 E2.87286
G1 X113.557 Y110.333 E2.87691
G1 X113.877 Y111.52 E2.91218
G1 X113.867 Y111.637 E2.91611
G1 X113.763 Y112.821 E2.94922
G1 X113.759 Y112.861 E2.95082
G1 X113.735 Y112.912 E2.95307
G1 X113.206 Y114.049 E3.00312
G1 X113.155 Y114.121 E3.00665
G1 X113.099 Y114.177 E3.00981
G1 X112.232 Y115.044 E3.05874
G1 X112.118 Y115.097 E3.06376
G1 X111.043 Y115.597 E3.11108
G1 X110.961 Y115.619 E3.11447
G1 X110.889 Y115.625 E3.11735
G1 X109.704 Y115.73 E3.16483
G1 X109.661 Y115.734 E3.16656
G1 X109.608 Y115.72 E3.16875
G1 X108.36 Y115.385 E3.22032
G1 X108.26 Y115.315 E3.22519
G1 X107.286 Y114.632 E3.27267
G1 X107.248 Y114.606 E3.27451
G1 X107.219 Y114.564 E3.27655
G1 X106.474 Y113.5 E3.32839
G1 X106.443 Y113.381 E3.3333
G1 X106.124 Y112.197 E3.38224
G1 X106.134 Y112.078 E3.387
G1 X106.237 Y110.894 E3.43444
G1 X106.249 Y110.85 E3.43626
G1 X106.26 Y110.809 E3.43795
G1 X106.798 Y109.658 E3.48866
G1 X106.824 Y109.602 E3.49113
G1 X106.833 Y109.591 E3.49169
G1 X107.242 Y109.102 E3.51714
G1 X107.432 Y108.893 E3.52841
G1 X107.482 Y108.838 E3.53138
G1 X108.054 Y107.848 E3.57701
G1 X108.057 Y107.829 E3.57778
G1 X108.307 Y106.56 E3.6294
G1 X108.102 Y105.389 E3.67685
G1 X108.091 Y105.369 E3.67776
G1 X107.76 Y104.766 E3.70521
G1 X107.981 Y104.58 E3.71674
G1 X108.006 Y104.623
G1 X108.353 Y105.225 E3.737
G1 X108.373 Y105.341 E3.74091
G1 X108.58 Y106.516 E3.77382
G1 X108.58 Y106.556 E3.77542
G1 X108.581 Y106.594 E3.77694
G1 X108.579 Y106.608 E3.77742
G1 X108.352 Y107.886 E3.81484
G1 X108.295 Y107.986 E3.8187
G1 X107.724 Y108.976 E3.85042
G1 X107.655 Y109.095 E3.85475
G1 X107.473 Y109.303 E3.8631
G1 X107.057 Y109.778 E3.88192
G1 X106.514 Y110.921 E3.91751
G1 X106.411 Y112.101 E3.95036
G1 X106.416 Y112.125 E3.95053
G1 X106.706 Y113.31 E3.98539
G1 X106.721 Y113.333 E3.98562
G1 X107.444 Y114.405 E4.02265
G1 X108.418 Y115.088 E4.05549
G1 X108.443 Y115.095 E4.05569
G1 X109.679 Y115.452 E4.09285
G1 X110.864 Y115.35 E4.12587
G1 X110.922 Y115.325 E4.1276
G1 X112.002 Y114.848 E4.16128
G1 X112.023 Y114.827 E4.16159
G1 X112.904 Y113.983 E4.19671
G1 X112.936 Y113.917 E4.19878
G1 X113.486 Y112.797 E4.23456
G0 F9000 X113.569 Y112.8
;MESH:NONMESH
G0 F300 X113.569 Y112.8 Z0.44
G0 F9000 X113.265 Y114.141
G0 X113.519 Y114.323
;TIME_ELAPSED:13.744143
;LAYER:1
M140 S40
M106 S127.5
;TYPE:WALL-OUTER
;MESH:Faceshield_Clip.stl
G1 F686.3 X112.465 Y115.377 E4.28414
G1 X111.113 Y116.007 E4.33375
G1 X109.626 Y116.138 E4.3834
G1 X108.185 Y115.751 E4.43302
G1 X106.962 Y114.895 E4.48267
G1 X106.106 Y113.672 E4.53232
G1 X105.719 Y112.229 E4.58201
G1 X105.849 Y110.745 E4.63156
G1 X106.485 Y109.383 E4.68156
G1 X106.91 Y108.874 E4.70361
G1 X107.158 Y108.6 E4.7159
G1 X107.64 Y107.765 E4.74797
G1 X107.73 Y107.519 E4.75668
G1 X107.9 Y106.554 E4.78927
G1 X107.706 Y105.457 E4.82633
G1 X107.252 Y104.669 E4.85657
G1 X108.09 Y103.967 E4.89293
G1 X108.734 Y105.084 E4.93582
G1 X108.994 Y106.555 E4.9855
G1 X108.734 Y108.024 E5.03512
G1 X107.983 Y109.326 E5.08511
G1 X107.413 Y109.98 E5.11397
G1 X106.906 Y111.027 E5.15266
G1 X106.808 Y112.135 E5.18965
G1 X107.061 Y113.082 E5.22226
G1 X107.173 Y113.32 E5.231
G1 X107.735 Y114.122 E5.26358
G1 X108.536 Y114.683 E5.2961
G1 X108.774 Y114.795 E5.30485
G1 X109.721 Y115.047 E5.33744
G1 X110.829 Y114.951 E5.37443
G1 X111.838 Y114.479 E5.41148
G1 X112.529 Y113.789 E5.44396
G1 X112.68 Y113.575 E5.45267
G1 X113.094 Y112.685 E5.48532
G1 X113.192 Y111.579 E5.52225
G1 X112.903 Y110.502 E5.55934
G1 X111.409 Y108.368 E5.64598
G1 X111.022 Y106.928 E5.69558
G1 X111.153 Y105.44 E5.74526
G1 X111.72 Y104.223 E5.78991
G1 X111.811 Y104.049 E5.79645
G1 X111.888 Y103.948 E5.80067
G1 X112.74 Y104.662 E5.83764
G1 X112.623 Y104.838 E5.84467
G1 X112.21 Y105.724 E5.87718
G1 X112.113 Y106.833 E5.91421
G1 X112.4 Y107.908 E5.95122
G1 X113.894 Y110.042 E6.03786
G1 X114.281 Y111.485 E6.08755
G1 X114.151 Y112.969 E6.1371
G1 X113.519 Y114.323 E6.1868
G0 F9000 X113.159 Y114.071
G0 X113.486 Y112.79
;TYPE:WALL-INNER
G1 F686.3 X113.597 Y111.544 E6.2284
G1 X113.271 Y110.33 E6.27021
G1 X111.806 Y108.238 E6.35516
G1 X111.777 Y108.196 E6.35685
G1 X111.765 Y108.151 E6.3584
G1 X111.44 Y106.941 E6.40007
G1 X111.426 Y106.892 E6.40177
G1 X111.43 Y106.844 E6.40337
G1 X111.54 Y105.595 E6.44507
G1 X111.545 Y105.548 E6.44665
G1 X111.566 Y105.502 E6.44833
G1 X111.97 Y104.634 E6.48017
G1 X112.002 Y104.566 E6.48267
G1 X112.222 Y104.751 E6.48881
G1 X111.818 Y105.619 E6.51091
G1 X111.708 Y106.868 E6.54006
G1 X112.032 Y108.079 E6.56896
G1 X113.496 Y110.172 E6.62752
G1 X113.526 Y110.214 E6.62924
G1 X113.537 Y110.258 E6.63074
G1 X113.863 Y111.472 E6.65957
G1 X113.877 Y111.521 E6.66126
G1 X113.873 Y111.568 E6.6626
G1 X113.764 Y112.814 E6.69157
G1 X113.759 Y112.864 E6.69324
G1 X113.739 Y112.907 E6.69482
G1 X113.279 Y113.893 E6.73101
G1 X113.188 Y114.088 E6.73816
G1 X113.032 Y114.244 E6.7455
G1 X112.268 Y115.008 E6.78144
G1 X112.232 Y115.044 E6.78313
G1 X112.189 Y115.064 E6.78471
G1 X111.051 Y115.593 E6.82645
G1 X111.005 Y115.615 E6.82814
G1 X110.959 Y115.619 E6.82968
G1 X109.711 Y115.729 E6.87135
G1 X109.662 Y115.734 E6.87299
G1 X109.614 Y115.722 E6.87463
G1 X108.565 Y115.439 E6.91077
G1 X108.357 Y115.383 E6.91794
G1 X108.177 Y115.257 E6.92524
G1 X107.29 Y114.637 E6.96124
G1 X107.249 Y114.608 E6.96291
G1 X107.221 Y114.568 E6.96453
G1 X106.6 Y113.68 E7.00057
G1 X106.474 Y113.5 E7.00788
G1 X106.419 Y113.292 E7.01504
G1 X106.137 Y112.242 E7.0512
G1 X106.123 Y112.193 E7.05289
G1 X106.127 Y112.146 E7.05446
G1 X106.237 Y110.895 E7.09623
G1 X106.241 Y110.85 E7.09773
G1 X106.263 Y110.802 E7.09949
G1 X106.809 Y109.634 E7.14237
G1 X106.825 Y109.6 E7.14362
G1 X106.85 Y109.57 E7.14492
G1 X107.207 Y109.142 E7.16346
G1 X107.436 Y108.889 E7.17481
G1 X107.483 Y108.837 E7.17714
G1 X108.004 Y107.935 E7.21178
G1 X108.06 Y107.781 E7.21723
G1 X108.118 Y107.623 E7.22283
G1 X108.306 Y106.554 E7.25893
G1 X108.088 Y105.318 E7.30068
G1 X107.767 Y104.76 E7.32209
G1 X107.981 Y104.58 E7.33139
G1 X108.005 Y104.622
G1 X108.326 Y105.18 E7.34615
G1 X108.352 Y105.224 E7.34785
G1 X108.36 Y105.269 E7.34937
G1 X108.579 Y106.505 E7.37831
G1 X108.588 Y106.555 E7.38
G1 X108.58 Y106.602 E7.38135
G1 X108.391 Y107.671 E7.40646
G1 X108.352 Y107.887 E7.41206
G1 X108.245 Y108.073 E7.41753
G1 X107.724 Y108.975 E7.44159
G1 X107.658 Y109.089 E7.44503
G1 X107.438 Y109.342 E7.45343
G1 X107.076 Y109.758 E7.46715
G1 X106.514 Y110.919 E7.49781
G1 X106.403 Y112.17 E7.52685
G1 X106.684 Y113.22 E7.55172
G1 X106.753 Y113.367 E7.55543
G1 X106.826 Y113.521 E7.55937
G1 X107.448 Y114.409 E7.58437
G1 X108.335 Y115.03 E7.60933
G1 X108.489 Y115.102 E7.61327
G1 X108.636 Y115.172 E7.61702
G1 X109.686 Y115.452 E7.64215
G1 X110.934 Y115.343 E7.67112
G1 X112.071 Y114.812 E7.70009
G1 X112.836 Y114.048 E7.72506
G1 X112.934 Y113.909 E7.72901
G1 X113.028 Y113.776 E7.73275
G1 X113.486 Y112.79 E7.75785
G0 F9000 X113.572 Y112.792
;MESH:NONMESH
G0 F300 X113.572 Y112.792 Z0.64
G0 F9000 X113.433 Y111.558
G0 X113.154 Y110.516
G0 X111.323 Y106.902
G0 X111.022 Y106.928
;TIME_ELAPSED:24.291850
;LAYER:2
M106 S191.3
;TYPE:WALL-OUTER
;MESH:Faceshield_Clip.stl
G1 F695 X111.153 Y105.44 E7.80753
G1 X111.687 Y104.293 E7.84962
G1 X111.823 Y104.033 E7.85938
G1 X111.888 Y103.948 E7.86293
G1 X112.742 Y104.664 E7.9
G1 X112.6 Y104.887 E7.90879
G1 X112.21 Y105.724 E7.93951
G1 X112.113 Y106.833 E7.97653
G1 X112.4 Y107.908 E8.01354
G1 X113.894 Y110.042 E8.10018
G1 X114.281 Y111.484 E8.14984
G1 X114.151 Y112.969 E8.19942
G1 X113.519 Y114.323 E8.24912
G1 X112.465 Y115.377 E8.2987
G1 X111.113 Y116.007 E8.34831
G1 X109.626 Y116.138 E8.39795
G1 X108.185 Y115.752 E8.44757
G1 X106.962 Y114.895 E8.49724
G1 X106.106 Y113.672 E8.54689
G1 X105.719 Y112.23 E8.59655
G1 X105.849 Y110.745 E8.64613
G1 X106.485 Y109.383 E8.69613
G1 X106.885 Y108.904 E8.71688
G1 X107.158 Y108.6 E8.73047
G1 X107.707 Y107.649 E8.767
G1 X107.9 Y106.554 E8.80398
G1 X107.707 Y105.457 E8.84102
G1 X107.252 Y104.669 E8.87129
G1 X108.087 Y103.969 E8.90753
G1 X108.09 Y103.967 E8.90765
G1 X108.734 Y105.084 E8.95053
G1 X108.994 Y106.555 E9.00022
G1 X108.734 Y108.024 E9.04984
G1 X107.983 Y109.326 E9.09983
G1 X107.43 Y109.959 E9.12778
G1 X106.906 Y111.026 E9.16732
G1 X106.808 Y112.135 E9.20435
G1 X107.097 Y113.211 E9.24141
G1 X107.735 Y114.122 E9.2784
G1 X108.646 Y114.76 E9.31539
G1 X109.721 Y115.047 E9.3524
G1 X110.828 Y114.951 E9.38935
G1 X111.838 Y114.479 E9.42643
G1 X112.623 Y113.695 E9.46333
G1 X113.094 Y112.685 E9.5004
G1 X113.192 Y111.579 E9.53733
G1 X112.903 Y110.503 E9.57439
G1 X111.409 Y108.368 E9.66106
G1 X111.022 Y106.928 E9.71065
G0 F9000 X111.46 Y106.89
G0 X113.123 Y110.401
G0 X113.433 Y111.558
G0 X113.328 Y112.748
G0 X112.821 Y113.834
G0 X111.976 Y114.677
G0 X110.891 Y115.185
G0 X109.7 Y115.288
G0 X108.544 Y114.98
G0 X106.474 Y113.5
;TYPE:WALL-INNER
G1 F695 X106.462 Y113.455 E9.7122
G1 X106.136 Y112.242 E9.75397
G1 X106.123 Y112.194 E9.75563
G1 X106.127 Y112.146 E9.75723
G1 X106.237 Y110.893 E9.79907
G1 X106.241 Y110.85 E9.8005
G1 X106.264 Y110.801 E9.8023
G1 X106.825 Y109.6 E9.84639
G1 X106.869 Y109.548 E9.84866
G1 X107.183 Y109.171 E9.86498
G1 X107.434 Y108.892 E9.87746
G1 X107.484 Y108.836 E9.87995
G1 X108.089 Y107.788 E9.9202
G1 X108.306 Y106.554 E9.96188
G1 X108.089 Y105.318 E10.00361
G1 X107.766 Y104.76 E10.02506
G1 X107.981 Y104.58 E10.03438
G1 X108.005 Y104.622
G1 X108.327 Y105.18 E10.04915
G1 X108.352 Y105.224 E10.05058
G1 X108.36 Y105.269 E10.0521
G1 X108.579 Y106.505 E10.08099
G1 X108.588 Y106.555 E10.08268
G1 X108.58 Y106.602 E10.08403
G1 X108.362 Y107.836 E10.11302
G1 X108.352 Y107.887 E10.11449
G1 X108.33 Y107.926 E10.11575
G1 X107.725 Y108.974 E10.14371
G1 X107.657 Y109.092 E10.14726
G1 X107.413 Y109.371 E10.15656
G1 X107.094 Y109.735 E10.16855
G1 X106.514 Y110.917 E10.20006
G1 X106.403 Y112.17 E10.22915
G1 X106.729 Y113.383 E10.25806
G1 X107.448 Y114.409 E10.29973
G1 X108.474 Y115.128 E10.3414
G1 X109.686 Y115.452 E10.38312
G1 X110.933 Y115.343 E10.42476
G1 X112.071 Y114.812 E10.46653
G1 X112.956 Y113.928 E10.50813
G1 X113.486 Y112.79 E10.54988
G1 X113.597 Y111.544 E10.59149
G1 X113.271 Y110.331 E10.63327
G1 X111.806 Y108.238 E10.71824
G1 X111.777 Y108.196 E10.71994
G1 X111.765 Y108.151 E10.72149
G1 X111.44 Y106.941 E10.76316
G1 X111.426 Y106.892 E10.76485
G1 X111.43 Y106.844 E10.76645
G1 X111.54 Y105.595 E10.80816
G1 X111.545 Y105.548 E10.80973
G1 X111.566 Y105.502 E10.81141
G1 X111.97 Y104.634 E10.84325
G1 X112.002 Y104.566 E10.84575
G1 X112.222 Y104.751 E10.85189
G1 X111.818 Y105.619 E10.874
G1 X111.708 Y106.868 E10.90315
G1 X112.032 Y108.079 E10.93204
G1 X113.497 Y110.172 E10.99082
G1 X113.526 Y110.214 E10.99226
G1 X113.538 Y110.259 E10.99381
G1 X113.864 Y111.472 E11.02272
G1 X113.877 Y111.52 E11.02437
G1 X113.873 Y111.568 E11.02573
G1 X113.764 Y112.814 E11.05471
G1 X113.759 Y112.864 E11.05613
G1 X113.739 Y112.907 E11.05771
G1 X113.208 Y114.045 E11.08676
G1 X113.188 Y114.088 E11.0881
G1 X113.152 Y114.124 E11.08954
G1 X112.268 Y115.008 E11.1184
G1 X112.232 Y115.044 E11.11984
G1 X112.189 Y115.064 E11.12142
G1 X111.05 Y115.594 E11.15043
G1 X111.005 Y115.615 E11.15208
G1 X110.958 Y115.619 E11.15365
G1 X109.711 Y115.729 E11.1826
G1 X109.661 Y115.734 E11.18427
G1 X109.614 Y115.722 E11.18565
G1 X108.403 Y115.397 E11.21475
G1 X108.36 Y115.385 E11.21601
G1 X108.316 Y115.355 E11.21751
G1 X107.29 Y114.636 E11.24634
G1 X107.248 Y114.606 E11.24779
G1 X107.222 Y114.568 E11.24933
G1 X106.503 Y113.542 E11.27814
G1 X106.474 Y113.5 E11.27958
G0 F9000 X106.551 Y113.466
;MESH:NONMESH
G0 F300 X106.551 Y113.466 Z0.84
G0 F9000 X107.563 Y114.294
G0 X108.544 Y114.98
G0 X109.7 Y115.288
G0 X110.891 Y115.185
G0 X111.976 Y114.677
G0 X112.821 Y113.834
G0 X113.328 Y112.748
G0 X113.433 Y111.558
G0 X113.154 Y110.517
G0 X111.323 Y106.902
G0 X111.022 Y106.928
;TIME_ELAPSED:35.572386
;LAYER:3
M106 S255
;TYPE:WALL-OUTER
;MESH:Faceshield_Clip.stl
G1 F695.6 X111.153 Y105.44 E11.32926
G1 X111.654 Y104.364 E11.36874
G1 X111.835 Y104.017 E11.38176
G1 X111.888 Y103.948 E11.38465
G1 X112.73 Y104.654 E11.4212
G1 X112.674 Y104.728 E11.42428
G1 X112.21 Y105.724 E11.46083
G1 X112.113 Y106.833 E11.49786
G1 X112.4 Y107.908 E11.53486
G1 X113.894 Y110.042 E11.62151
G1 X114.281 Y111.483 E11.67113
G1 X114.151 Y112.97 E11.72078
G1 X113.52 Y114.322 E11.7704
G1 X112.465 Y115.377 E11.82003
G1 X111.113 Y116.007 E11.86964
G1 X109.626 Y116.138 E11.91929
G1 X108.185 Y115.752 E11.9689
G1 X106.962 Y114.895 E12.01857
G1 X106.106 Y113.672 E12.06822
G1 X105.719 Y112.231 E12.11785
G1 X105.849 Y110.745 E12.16746
G1 X106.485 Y109.383 E12.21746
G1 X106.86 Y108.934 E12.23692
G1 X107.158 Y108.6 E12.2518
G1 X107.707 Y107.649 E12.28833
G1 X107.9 Y106.554 E12.32531
G1 X107.707 Y105.458 E12.36232
G1 X107.252 Y104.669 E12.39262
G1 X108.09 Y103.967 E12.42897
G1 X108.734 Y105.084 E12.47186
