;FLAVOR:Marlin
;TIME:2560
;Filament used: 2.83555m
;Layer height: 0.2
;MINX:69.471
;MINY:59.721
;MINZ:0.28
;MAXX:174.963
;MAXY:155.047
;MAXZ:8.92
;Generated with Cura_SteamEngine 4.5.0
M140 S110
M105
M190 S110
M104 S240
M105
M109 S240
M82 ;absolute extrusion mode
M201 X500.00 Y500.00 Z100.00 E5000.00 ;Setup machine max acceleration
M203 X500.00 Y500.00 Z10.00 E50.00 ;Setup machine max feedrate
M204 P500.00 R1000.00 T500.00 ;Setup Print/Retract/Travel acceleration
M205 X8.00 Y8.00 Z0.40 E5.00 ;Setup Jerk
M220 S100 ;Reset Feedrate
M221 S100 ;Reset Flowrate

G28 ;Home

G92 E0 ;Reset Extruder
G1 Z2.0 F3000 ;Move Z Axis up
G1 X10.1 Y20 Z0.28 F5000.0 ;Move to start position
G1 X10.1 Y200.0 Z0.28 F1500.0 E15 ;Draw the first line
G1 X10.4 Y200.0 Z0.28 F5000.0 ;Move to side a little
G1 X10.4 Y20 Z0.28 F1500.0 E30 ;Draw the second line
G92 E0 ;Reset Extruder
G1 Z2.0 F3000 ;Move Z Axis up

G92 E0
G92 E0
G1 F1800 E-3
;LAYER_COUNT:38
;LAYER:0
M107
M205 X6 Y6
G0 F9000 X150.882 Y67.216 Z0.28
;TYPE:SKIRT
G1 F1800 E0
G1 F2400 X151.172 Y66.58 E0.03255
G1 X151.512 Y65.929 E0.06675
G1 X151.88 Y65.314 E0.10012
G1 X152.302 Y64.697 E0.13493
G1 X152.774 Y64.092 E0.17066
G1 X153.294 Y63.506 E0.20714
G1 X153.872 Y62.936 E0.24494
G1 X154.441 Y62.443 E0.27999
G1 X155.064 Y61.969 E0.31645
G1 X155.712 Y61.536 E0.35274
G1 X156.398 Y61.14 E0.38962
G1 X157.093 Y60.8 E0.42565
G1 X157.804 Y60.508 E0.46144
G1 X158.533 Y60.263 E0.49725
G1 X159.29 Y60.062 E0.53372
G1 X160.038 Y59.917 E0.5692
G1 X160.751 Y59.822 E0.60269
G1 X161.469 Y59.758 E0.63626
G1 X162.072 Y59.721 E0.66439
G1 X163.058 Y59.747 E0.71031
G1 X163.691 Y59.796 E0.73988
G1 X164.37 Y59.878 E0.77172
G1 X165.074 Y60.001 E0.805
G1 X165.813 Y60.179 E0.8404
G1 X166.531 Y60.402 E0.87541
G1 X167.281 Y60.697 E0.91293
G1 X167.949 Y61.011 E0.9473
G1 X168.629 Y61.39 E0.98355
G1 X169.259 Y61.797 E1.01848
G1 X169.85 Y62.231 E1.05262
G1 X170.413 Y62.698 E1.08668
G1 X170.941 Y63.188 E1.12022
G1 X171.45 Y63.721 E1.15454
G1 X171.918 Y64.269 E1.1881
G1 X172.383 Y64.887 E1.22411
G1 X172.789 Y65.503 E1.25846
G1 X173.16 Y66.15 E1.29319
G1 X173.494 Y66.828 E1.32838
G1 X173.785 Y67.518 E1.36325
G1 X174.027 Y68.192 E1.3966
G1 X174.239 Y68.877 E1.42999
G1 X174.41 Y69.51 E1.46052
G1 X174.564 Y70.171 E1.49212
G1 X174.697 Y70.875 E1.52549
G1 X174.796 Y71.541 E1.55684
G1 X174.869 Y72.22 E1.58864
G1 X174.916 Y72.914 E1.62103
G1 X174.943 Y73.601 E1.65304
G1 X174.962 Y74.295 E1.68537
G1 X174.963 Y134.429 E4.48546
G1 X174.944 Y135.201 E4.52142
G1 X174.922 Y135.752 E4.5471
G1 X174.887 Y136.342 E4.57462
G1 X174.829 Y136.995 E4.60514
G1 X174.738 Y137.708 E4.63861
G1 X174.621 Y138.407 E4.67161
G1 X174.476 Y139.096 E4.7044
G1 X174.316 Y139.728 E4.73476
G1 X174.131 Y140.356 E4.76524
G1 X173.912 Y141.002 E4.797
G1 X173.646 Y141.675 E4.8307
G1 X173.336 Y142.346 E4.86512
G1 X172.977 Y143.012 E4.90035
G1 X172.589 Y143.639 E4.93468
G1 X172.148 Y144.26 E4.97015
G1 X171.691 Y144.832 E5.00424
G1 X171.2 Y145.377 E5.0384
G1 X170.672 Y145.9 E5.073
G1 X170.095 Y146.402 E5.10861
G1 X169.485 Y146.863 E5.14422
G1 X168.847 Y147.284 E5.17981
G1 X168.19 Y147.659 E5.21504
G1 X167.52 Y147.987 E5.24977
G1 X166.844 Y148.27 E5.2839
G1 X166.1 Y148.528 E5.32056
G1 X165.342 Y148.734 E5.35714
G1 X164.552 Y148.886 E5.3946
G1 X163.828 Y148.978 E5.42858
G1 X163.071 Y149.034 E5.46393
G1 X162.242 Y149.056 E5.50254
G1 X161.433 Y149.025 E5.54024
G1 X160.771 Y148.971 E5.57117
G1 X160.021 Y148.872 E5.6064
G1 X159.21 Y148.707 E5.64493
G1 X158.469 Y148.502 E5.68073
G1 X157.758 Y148.255 E5.71578
G1 X157.085 Y147.974 E5.74974
G1 X156.434 Y147.658 E5.78344
G1 X155.766 Y147.283 E5.81911
G1 X155.106 Y146.852 E5.85581
G1 X154.481 Y146.381 E5.89225
G1 X153.897 Y145.88 E5.92808
G1 X153.355 Y145.351 E5.96335
G1 X152.832 Y144.769 E5.99978
G1 X152.373 Y144.19 E6.03419
G1 X151.959 Y143.603 E6.06764
G1 X151.569 Y142.973 E6.10214
G1 X151.223 Y142.332 E6.13606
G1 X150.912 Y141.663 E6.17041
G1 X150.646 Y141.002 E6.20359
G1 X150.411 Y140.32 E6.23718
G1 X150.218 Y139.665 E6.26897
G1 X150.053 Y138.992 E6.30124
G1 X149.922 Y138.347 E6.33189
G1 X149.817 Y137.702 E6.36231
G1 X149.736 Y137.045 E6.39314
G1 X149.679 Y136.399 E6.42334
G1 X149.642 Y135.777 E6.45235
G1 X149.615 Y135.116 E6.48315
G1 X149.599 Y134.538 E6.51008
G1 X149.597 Y74.391 E9.31078
G1 X149.614 Y73.698 E9.34305
G1 X149.636 Y73.114 E9.37027
G1 X149.673 Y72.48 E9.39984
G1 X149.726 Y71.866 E9.42854
G1 X149.808 Y71.183 E9.46057
G1 X149.918 Y70.492 E9.49315
G1 X150.055 Y69.817 E9.52522
G1 X150.218 Y69.157 E9.55688
G1 X150.403 Y68.523 E9.58763
G1 X150.624 Y67.871 E9.61969
G1 X150.882 Y67.216 E9.65247
G0 F9000 X151.253 Y67.365
G1 F2400 X151.535 Y66.748 E9.68405
G1 X151.865 Y66.117 E9.71721
G1 X152.221 Y65.522 E9.7495
G1 X152.629 Y64.927 E9.78309
G1 X153.087 Y64.341 E9.81772
G1 X153.59 Y63.774 E9.85302
G1 X154.149 Y63.224 E9.88953
G1 X154.7 Y62.748 E9.92344
G1 X155.303 Y62.289 E9.95873
G1 X155.931 Y61.871 E9.99385
G1 X156.594 Y61.489 E10.02948
G1 X157.265 Y61.161 E10.06426
G1 X157.952 Y60.879 E10.09884
G1 X158.656 Y60.643 E10.13341
G1 X159.388 Y60.45 E10.16866
G1 X160.11 Y60.311 E10.2029
G1 X160.801 Y60.219 E10.23536
G1 X161.503 Y60.156 E10.26818
G1 X162.096 Y60.121 E10.29584
G1 X163.039 Y60.147 E10.33977
G1 X163.659 Y60.195 E10.36872
G1 X164.32 Y60.275 E10.39973
G1 X165.002 Y60.394 E10.43196
G1 X165.716 Y60.566 E10.46616
G1 X166.408 Y60.783 E10.49993
G1 X167.13 Y61.067 E10.53606
G1 X167.775 Y61.372 E10.56928
G1 X168.43 Y61.737 E10.6042
G1 X169.039 Y62.131 E10.63797
G1 X169.61 Y62.551 E10.67098
G1 X170.155 Y63.004 E10.70398
G1 X170.666 Y63.479 E10.73646
G1 X171.158 Y63.995 E10.76966
G1 X171.611 Y64.526 E10.80216
G1 X172.061 Y65.125 E10.83705
G1 X172.453 Y65.72 E10.87023
G1 X172.812 Y66.346 E10.90383
G1 X173.133 Y67 E10.93775
G1 X173.415 Y67.671 E10.97164
G1 X173.649 Y68.324 E11.00394
G1 X173.857 Y68.993 E11.03657
G1 X174.024 Y69.613 E11.06646
G1 X174.175 Y70.26 E11.0974
G1 X174.304 Y70.947 E11.12995
G1 X174.4 Y71.598 E11.16059
G1 X174.471 Y72.261 E11.19164
G1 X174.517 Y72.94 E11.22333
G1 X174.544 Y73.616 E11.25483
G1 X174.562 Y74.305 E11.28692
G1 X174.563 Y134.429 E14.08655
G1 X174.544 Y135.19 E14.122
G1 X174.522 Y135.736 E14.14744
G1 X174.488 Y136.318 E14.17459
G1 X174.431 Y136.958 E14.20451
G1 X174.342 Y137.655 E14.23723
G1 X174.227 Y138.339 E14.26952
G1 X174.085 Y139.012 E14.30155
G1 X173.928 Y139.629 E14.3312
G1 X173.748 Y140.242 E14.36094
G1 X173.534 Y140.872 E14.39193
G1 X173.275 Y141.525 E14.42464
G1 X172.974 Y142.175 E14.45799
G1 X172.627 Y142.819 E14.49206
G1 X172.251 Y143.426 E14.5253
G1 X171.824 Y144.025 E14.55956
G1 X171.38 Y144.579 E14.59262
G1 X170.905 Y145.107 E14.62569
G1 X170.393 Y145.613 E14.65921
G1 X169.836 Y146.097 E14.69357
G1 X169.248 Y146.541 E14.72787
G1 X168.63 Y146.948 E14.76233
G1 X167.996 Y147.309 E14.7963
G1 X167.348 Y147.626 E14.82989
G1 X166.693 Y147.9 E14.86295
G1 X165.973 Y148.148 E14.89841
G1 X165.241 Y148.347 E14.93373
G1 X164.482 Y148.492 E14.96972
G1 X163.781 Y148.581 E15.00262
G1 X163.044 Y148.635 E15.03703
G1 X162.234 Y148.656 E15.07476
G1 X161.453 Y148.626 E15.11115
G1 X160.804 Y148.573 E15.14147
G1 X160.077 Y148.476 E15.17563
G1 X159.295 Y148.316 E15.21279
G1 X158.58 Y148.118 E15.24734
G1 X157.894 Y147.878 E15.28118
G1 X157.242 Y147.606 E15.31408
G1 X156.612 Y147.3 E15.34669
G1 X155.965 Y146.936 E15.38126
G1 X155.329 Y146.52 E15.41664
G1 X154.725 Y146.064 E15.45188
G1 X154.16 Y145.579 E15.48656
G1 X153.637 Y145.067 E15.52064
G1 X153.132 Y144.505 E15.55582
G1 X152.689 Y143.945 E15.58907
G1 X152.287 Y143.375 E15.62155
G1 X151.911 Y142.766 E15.65487
G1 X151.576 Y142.145 E15.68773
G1 X151.276 Y141.498 E15.72094
G1 X151.019 Y140.855 E15.75318
G1 X150.79 Y140.191 E15.78589
G1 X150.602 Y139.554 E15.81681
G1 X150.442 Y138.899 E15.84821
G1 X150.315 Y138.269 E15.87813
G1 X150.212 Y137.64 E15.90781
G1 X150.133 Y136.997 E15.93798
G1 X150.077 Y136.365 E15.96752
G1 X150.041 Y135.755 E15.99598
G1 X150.015 Y135.1 E16.0265
G1 X149.998 Y134.527 E16.05319
G1 X149.997 Y74.391 E18.85338
G1 X150.014 Y73.709 E18.88514
G1 X150.035 Y73.128 E18.91222
G1 X150.072 Y72.504 E18.94132
G1 X150.124 Y71.901 E18.9695
G1 X150.205 Y71.232 E19.00088
G1 X150.313 Y70.557 E19.03271
G1 X150.447 Y69.898 E19.06403
G1 X150.606 Y69.255 E19.09487
G1 X150.786 Y68.637 E19.12484
G1 X151.002 Y68.002 E19.15608
G1 X151.253 Y67.365 E19.18796
G0 F9000 X151.624 Y67.515
G1 F2400 X151.898 Y66.917 E19.21859
G1 X152.218 Y66.306 E19.2507
G1 X152.563 Y65.73 E19.28197
G1 X152.957 Y65.156 E19.31438
G1 X153.4 Y64.59 E19.34785
G1 X153.887 Y64.043 E19.38196
G1 X154.427 Y63.512 E19.41722
G1 X154.958 Y63.053 E19.4499
G1 X155.542 Y62.61 E19.48403
G1 X156.15 Y62.205 E19.51805
G1 X156.79 Y61.838 E19.5524
G1 X157.438 Y61.522 E19.58598
G1 X158.1 Y61.251 E19.61928
G1 X158.78 Y61.024 E19.65266
G1 X159.486 Y60.838 E19.68666
G1 X160.181 Y60.704 E19.71962
G1 X160.851 Y60.616 E19.75108
G1 X161.537 Y60.555 E19.78315
G1 X162.119 Y60.52 E19.8103
G1 X163.02 Y60.546 E19.85228
G1 X163.627 Y60.594 E19.88063
G1 X164.269 Y60.672 E19.91074
G1 X164.93 Y60.788 E19.94199
G1 X165.618 Y60.954 E19.97495
G1 X166.285 Y61.163 E20.00749
G1 X166.978 Y61.437 E20.04219
G1 X167.602 Y61.732 E20.07433
G1 X168.231 Y62.084 E20.1079
G1 X168.819 Y62.465 E20.14052
G1 X169.37 Y62.871 E20.17239
G1 X169.897 Y63.309 E20.2043
G1 X170.392 Y63.77 E20.2358
G1 X170.867 Y64.268 E20.26784
G1 X171.305 Y64.783 E20.29932
G1 X171.738 Y65.362 E20.33299
G1 X172.117 Y65.937 E20.36506
G1 X172.463 Y66.542 E20.39751
G1 X172.772 Y67.173 E20.43022
G1 X173.045 Y67.823 E20.46305
G1 X173.272 Y68.456 E20.49437
G1 X173.474 Y69.11 E20.52624
G1 X173.637 Y69.716 E20.55546
G1 X173.785 Y70.35 E20.58577
G1 X173.911 Y71.019 E20.61747
G1 X174.004 Y71.655 E20.6474
G1 X174.073 Y72.301 E20.67766
G1 X174.118 Y72.966 E20.70869
G1 X174.144 Y73.631 E20.73968
G1 X174.162 Y74.316 E20.77159
G1 X174.163 Y134.429 E23.5707
G1 X174.144 Y135.18 E23.60568
G1 X174.123 Y135.72 E23.63085
G1 X174.088 Y136.294 E23.65762
G1 X174.033 Y136.922 E23.68698
G1 X173.945 Y137.603 E23.71895
G1 X173.833 Y138.271 E23.75049
G1 X173.694 Y138.928 E23.78176
G1 X173.541 Y139.529 E23.81064
G1 X173.365 Y140.127 E23.83966
G1 X173.156 Y140.742 E23.86991
G1 X172.904 Y141.375 E23.90163
G1 X172.612 Y142.005 E23.93397
G1 X172.277 Y142.626 E23.96682
G1 X171.912 Y143.212 E23.99897
G1 X171.501 Y143.79 E24.03199
G1 X171.07 Y144.326 E24.06402
G1 X170.61 Y144.837 E24.09604
G1 X170.114 Y145.327 E24.1285
G1 X169.577 Y145.792 E24.16158
G1 X169.01 Y146.22 E24.19466
G1 X168.413 Y146.611 E24.22789
G1 X167.801 Y146.96 E24.26069
G1 X167.176 Y147.265 E24.29308
G1 X166.541 Y147.53 E24.32512
G1 X165.846 Y147.769 E24.35934
G1 X165.14 Y147.96 E24.39339
G1 X164.412 Y148.098 E24.4279
G1 X163.734 Y148.184 E24.45972
G1 X163.017 Y148.236 E24.49319
G1 X162.225 Y148.256 E24.53008
G1 X161.473 Y148.226 E24.56513
G1 X160.838 Y148.174 E24.5948
G1 X160.133 Y148.08 E24.62791
G1 X159.379 Y147.925 E24.66376
G1 X158.691 Y147.733 E24.69702
G1 X158.029 Y147.502 E24.72967
G1 X157.4 Y147.238 E24.76143
G1 X156.789 Y146.941 E24.79306
G1 X156.164 Y146.589 E24.82647
G1 X155.552 Y146.188 E24.86053
G1 X154.968 Y145.747 E24.89461
G1 X154.424 Y145.278 E24.92806
G1 X153.92 Y144.784 E24.96092
G1 X153.433 Y144.241 E24.99488
G1 X153.005 Y143.699 E25.02704
G1 X152.616 Y143.147 E25.05848
G1 X152.253 Y142.559 E25.09066
G1 X151.93 Y141.959 E25.12239
G1 X151.64 Y141.333 E25.15452
G1 X151.391 Y140.709 E25.1858
G1 X151.168 Y140.063 E25.21762
G1 X150.986 Y139.443 E25.24771
G1 X150.832 Y138.807 E25.27818
G1 X150.707 Y138.191 E25.30745
G1 X150.607 Y137.577 E25.33642
G1 X150.53 Y136.95 E25.36583
G1 X150.476 Y136.331 E25.39476
G1 X150.441 Y135.732 E25.4227
G1 X150.414 Y135.084 E25.4529
G1 X150.398 Y134.515 E25.47941
G1 X150.397 Y74.391 E28.27903
G1 X150.414 Y73.72 E28.31029
G1 X150.435 Y73.143 E28.33717
G1 X150.472 Y72.528 E28.36586
G1 X150.523 Y71.936 E28.39353
G1 X150.602 Y71.281 E28.42425
G1 X150.708 Y70.622 E28.45533
G1 X150.838 Y69.979 E28.48588
G1 X150.994 Y69.353 E28.51592
G1 X151.17 Y68.751 E28.54512
G1 X151.38 Y68.132 E28.57556
G1 X151.624 Y67.515 E28.60646
G0 F9000 X151.995 Y67.664
G1 F2400 X152.26 Y67.085 E28.63611
G1 X152.571 Y66.494 E28.6672
G1 X152.905 Y65.938 E28.6974
G1 X153.285 Y65.385 E28.72865
G1 X153.713 Y64.84 E28.76092
G1 X154.184 Y64.311 E28.7939
G1 X154.705 Y63.8 E28.82788
G1 X155.217 Y63.358 E28.85937
G1 X155.782 Y62.93 E28.89238
G1 X156.369 Y62.54 E28.92519
G1 X156.986 Y62.186 E28.95832
G1 X157.61 Y61.883 E28.99062
G1 X158.248 Y61.623 E29.0227
G1 X158.903 Y61.404 E29.05486
G1 X159.584 Y61.226 E29.08763
G1 X160.253 Y61.098 E29.11935
G1 X160.901 Y61.012 E29.14979
G1 X161.571 Y60.953 E29.18111
G1 X162.142 Y60.919 E29.20774
G1 X163.001 Y60.946 E29.24776
G1 X163.595 Y60.992 E29.2755
G1 X164.219 Y61.069 E29.30478
G1 X164.858 Y61.181 E29.33499
G1 X165.52 Y61.342 E29.36671
G1 X166.162 Y61.544 E29.39805
G1 X166.827 Y61.808 E29.43137
G1 X167.428 Y62.092 E29.46232
G1 X168.031 Y62.431 E29.49453
G1 X168.599 Y62.799 E29.52604
G1 X169.13 Y63.191 E29.55678
G1 X169.639 Y63.615 E29.58762
G1 X170.117 Y64.061 E29.61807
G1 X170.575 Y64.542 E29.64899
G1 X170.999 Y65.041 E29.67948
G1 X171.416 Y65.599 E29.71192
G1 X171.781 Y66.154 E29.74285
G1 X172.114 Y66.738 E29.77415
G1 X172.412 Y67.346 E29.80568
G1 X172.676 Y67.976 E29.83749
G1 X172.894 Y68.588 E29.86774
G1 X173.092 Y69.227 E29.89889
G1 X173.251 Y69.819 E29.92743
G1 X173.395 Y70.439 E29.95707
G1 X173.517 Y71.091 E29.98796
G1 X173.608 Y71.712 E30.01718
G1 X173.675 Y72.341 E30.04664
G1 X173.719 Y72.992 E30.07702
G1 X173.744 Y73.646 E30.1075
G1 X173.762 Y74.326 E30.13917
G1 X173.763 Y134.429 E32.93782
G1 X173.744 Y135.169 E32.97229
G1 X173.723 Y135.705 E32.99727
G1 X173.689 Y136.269 E33.02358
G1 X173.634 Y136.886 E33.05242
G1 X173.549 Y137.551 E33.08364
G1 X173.438 Y138.203 E33.11443
G1 X173.303 Y138.843 E33.14489
G1 X173.154 Y139.429 E33.17304
G1 X172.981 Y140.013 E33.20141
G1 X172.778 Y140.612 E33.23086
G1 X172.534 Y141.225 E33.26158
G1 X172.251 Y141.834 E33.29285
G1 X171.926 Y142.432 E33.32454
G1 X171.574 Y142.999 E33.35562
G1 X171.177 Y143.555 E33.38743
G1 X170.76 Y144.074 E33.41843
G1 X170.315 Y144.567 E33.44935
G1 X169.835 Y145.04 E33.48073
G1 X169.317 Y145.488 E33.51262
G1 X168.772 Y145.898 E33.54438
G1 X168.197 Y146.275 E33.5764
G1 X167.606 Y146.61 E33.60803
G1 X167.003 Y146.904 E33.63927
G1 X166.39 Y147.159 E33.67018
G1 X165.719 Y147.39 E33.70323
G1 X165.04 Y147.572 E33.73596
G1 X164.342 Y147.704 E33.76904
G1 X163.686 Y147.787 E33.79983
G1 X162.99 Y147.837 E33.83232
G1 X162.217 Y147.856 E33.86832
G1 X161.493 Y147.827 E33.90206
G1 X160.872 Y147.776 E33.93108
G1 X160.188 Y147.684 E33.96321
G1 X159.464 Y147.534 E33.99764
G1 X158.802 Y147.349 E34.02965
G1 X158.165 Y147.125 E34.06109
G1 X157.557 Y146.87 E34.09179
G1 X156.966 Y146.583 E34.12238
G1 X156.363 Y146.242 E34.15464
G1 X155.774 Y145.855 E34.18746
G1 X155.212 Y145.43 E34.22027
G1 X154.687 Y144.977 E34.25256
G1 X154.202 Y144.501 E34.2842
G1 X153.733 Y143.976 E34.31698
G1 X153.32 Y143.454 E34.34797
G1 X152.944 Y142.919 E34.37842
G1 X152.595 Y142.352 E34.40942
G1 X152.284 Y141.772 E34.44007
G1 X152.004 Y141.167 E34.47111
G1 X151.763 Y140.563 E34.50139
G1 X151.547 Y139.935 E34.53232
G1 X151.371 Y139.332 E34.56157
G1 X151.221 Y138.714 E34.59118
G1 X151.099 Y138.113 E34.61973
G1 X151.002 Y137.514 E34.64799
G1 X150.927 Y136.903 E34.67665
G1 X150.874 Y136.297 E34.70498
G1 X150.84 Y135.709 E34.7324
G1 X150.814 Y135.068 E34.76228
G1 X150.798 Y134.504 E34.78855
G1 X150.797 Y74.391 E37.58766
G1 X150.814 Y73.731 E37.6184
G1 X150.835 Y73.157 E37.64515
G1 X150.871 Y72.553 E37.67333
G1 X150.921 Y71.971 E37.70053
G1 X150.999 Y71.33 E37.73059
G1 X151.102 Y70.687 E37.76092
G1 X151.23 Y70.06 E37.79071
G1 X151.381 Y69.451 E37.81993
G1 X151.553 Y68.864 E37.84841
G1 X151.758 Y68.262 E37.87802
G1 X151.995 Y67.664 E37.90798
G0 F9000 X152.366 Y67.814
G1 F2400 X152.623 Y67.253 E37.93671
G1 X152.924 Y66.682 E37.96677
G1 X153.247 Y66.146 E37.99591
G1 X153.612 Y65.615 E38.02591
G1 X154.026 Y65.089 E38.05708
G1 X154.481 Y64.579 E38.0889
G1 X154.983 Y64.088 E38.1216
G1 X155.476 Y63.663 E38.15191
G1 X156.021 Y63.251 E38.18372
