;FLAVOR:Marlin
;TIME:3128
;Filament used: 3.1026m
;Layer height: 0.2
;MINX:35.382
;MINY:54.575
;MINZ:0.28
;MAXX:168.701
;MAXY:160.354
;MAXZ:8.92
;Generated with Cura_SteamEngine 4.5.0
M140 S110
M105
M190 S110
M104 S240
M105
M109 S240
M82 ;absolute extrusion mode
M201 X500.00 Y500.00 Z100.00 E5000.00 ;Setup machine max acceleration
M203 X500.00 Y500.00 Z10.00 E50.00 ;Setup machine max feedrate
M204 P500.00 R1000.00 T500.00 ;Setup Print/Retract/Travel acceleration
M205 X8.00 Y8.00 Z0.40 E5.00 ;Setup Jerk
M220 S100 ;Reset Feedrate
M221 S100 ;Reset Flowrate

G28 ;Home

G92 E0 ;Reset Extruder
G1 Z2.0 F3000 ;Move Z Axis up
G1 X10.1 Y20 Z0.28 F5000.0 ;Move to start position
G1 X10.1 Y200.0 Z0.28 F1500.0 E15 ;Draw the first line
G1 X10.4 Y200.0 Z0.28 F5000.0 ;Move to side a little
G1 X10.4 Y20 Z0.28 F1500.0 E30 ;Draw the second line
G92 E0 ;Reset Extruder
G1 Z2.0 F3000 ;Move Z Axis up

G92 E0
G92 E0
G1 F1800 E-6
;LAYER_COUNT:38
;LAYER:0
M107
G0 F7500 X65.314 Y62.58 Z0.28
;TYPE:SKIRT
G1 F1800 E0
G1 F1500 X65.976 Y61.944 E0.04275
G1 X66.724 Y61.276 E0.08944
G1 X67.414 Y60.71 E0.131
G1 X68.027 Y60.249 E0.16671
G1 X69.04 Y59.542 E0.22424
G1 X69.655 Y59.15 E0.2582
G1 X70.235 Y58.808 E0.28955
G1 X70.727 Y58.536 E0.31573
G1 X71.171 Y58.305 E0.33903
G1 X72.064 Y57.879 E0.3851
G1 X72.983 Y57.492 E0.43153
G1 X73.914 Y57.148 E0.47775
G1 X74.39 Y56.991 E0.50109
G1 X74.881 Y56.841 E0.525
G1 X75.385 Y56.7 E0.54936
G1 X76.21 Y56.505 E0.58884
G1 X77.22 Y56.302 E0.63681
G1 X77.957 Y56.181 E0.67159
G1 X78.626 Y56.095 E0.70299
G1 X79.174 Y56.038 E0.72865
G1 X79.687 Y55.999 E0.75261
G1 X80.709 Y55.947 E0.80026
G1 X81.558 Y55.927 E0.8398
G1 X82.663 Y55.946 E0.89126
G1 X83.828 Y56.006 E0.94558
G1 X84.889 Y56.081 E0.99511
G1 X87.411 Y56.196 E1.11266
G1 X89.922 Y56.238 E1.2296
G1 X92.433 Y56.21 E1.34653
G1 X94.975 Y56.109 E1.46499
G1 X97.516 Y55.936 E1.58359
G1 X100.025 Y55.694 E1.70096
G1 X102.529 Y55.381 E1.81846
G1 X105.299 Y54.947 E1.94902
G1 X106.205 Y54.812 E1.99167
G1 X106.72 Y54.748 E2.01584
G1 X107.328 Y54.688 E2.04429
G1 X108.481 Y54.613 E2.09809
G1 X110.262 Y54.576 E2.18104
G1 X146.696 Y54.575 E3.87756
G1 X147.951 Y54.591 E3.936
G1 X148.551 Y54.61 E3.96395
G1 X149.994 Y54.701 E4.03128
G1 X150.69 Y54.767 E4.06383
G1 X152.056 Y54.956 E4.12804
G1 X152.918 Y55.116 E4.16887
G1 X153.779 Y55.313 E4.20999
G1 X154.371 Y55.464 E4.23844
G1 X155.283 Y55.737 E4.28277
G1 X156.271 Y56.082 E4.3315
G1 X156.741 Y56.264 E4.35497
G1 X157.419 Y56.553 E4.38929
G1 X158.197 Y56.925 E4.42944
G1 X159.182 Y57.459 E4.48162
G1 X160.209 Y58.103 E4.53806
G1 X160.674 Y58.427 E4.56445
G1 X161.273 Y58.877 E4.59934
G1 X161.761 Y59.271 E4.62854
G1 X162.449 Y59.877 E4.67123
G1 X162.838 Y60.251 E4.69636
G1 X163.27 Y60.692 E4.72511
G1 X163.915 Y61.424 E4.77054
G1 X164.291 Y61.89 E4.79842
G1 X164.714 Y62.451 E4.83113
G1 X165.071 Y62.959 E4.86005
G1 X165.441 Y63.523 E4.89146
G1 X165.937 Y64.366 E4.937
G1 X166.414 Y65.285 E4.98521
G1 X166.775 Y66.069 E5.0254
G1 X167.11 Y66.889 E5.06665
G1 X167.314 Y67.443 E5.09414
G1 X167.499 Y67.991 E5.12107
G1 X167.766 Y68.913 E5.16577
G1 X167.986 Y69.799 E5.20828
G1 X168.133 Y70.463 E5.23994
G1 X168.323 Y71.529 E5.29036
G1 X168.453 Y72.457 E5.334
G1 X168.523 Y73.088 E5.36356
G1 X168.61 Y74.169 E5.41406
G1 X168.647 Y74.795 E5.44326
G1 X168.694 Y76.941 E5.54321
G1 X168.701 Y135.739 E8.28109
G1 X168.678 Y137.284 E8.35304
G1 X168.656 Y137.872 E8.38044
G1 X168.589 Y138.9 E8.42841
G1 X168.521 Y139.647 E8.46333
G1 X168.39 Y140.676 E8.51164
G1 X168.241 Y141.584 E8.55448
G1 X168.035 Y142.598 E8.60266
G1 X167.835 Y143.397 E8.64102
G1 X167.529 Y144.443 E8.69176
G1 X167.29 Y145.164 E8.72713
G1 X167.05 Y145.809 E8.75918
G1 X166.803 Y146.413 E8.78956
G1 X166.423 Y147.244 E8.83211
G1 X166.031 Y148.015 E8.87239
G1 X165.714 Y148.58 E8.90255
G1 X165.266 Y149.315 E8.94263
G1 X164.93 Y149.819 E8.97084
G1 X164.44 Y150.496 E9.00975
G1 X164.096 Y150.939 E9.03587
G1 X163.629 Y151.5 E9.06986
G1 X163.252 Y151.922 E9.09621
G1 X162.783 Y152.415 E9.12789
G1 X162.402 Y152.79 E9.15279
G1 X161.899 Y153.253 E9.18462
G1 X161.125 Y153.904 E9.23171
G1 X160.24 Y154.568 E9.28323
G1 X159.743 Y154.907 E9.31125
G1 X159.137 Y155.291 E9.34465
G1 X158.701 Y155.547 E9.3682
G1 X158.084 Y155.882 E9.40089
G1 X157.069 Y156.368 E9.45329
G1 X156.507 Y156.607 E9.48173
G1 X155.843 Y156.863 E9.51486
G1 X154.778 Y157.21 E9.56702
G1 X154.272 Y157.35 E9.59147
G1 X153.586 Y157.515 E9.62432
G1 X152.98 Y157.64 E9.65313
G1 X151.992 Y157.796 E9.69971
G1 X150.868 Y157.919 E9.75236
G1 X150.323 Y157.965 E9.77783
G1 X148.95 Y158.002 E9.84178
G1 X148.275 Y157.981 E9.87323
G1 X146.96 Y157.891 E9.9346
G1 X145.723 Y157.759 E9.99253
G1 X144.684 Y157.629 E10.04129
G1 X142.193 Y157.387 E10.15782
G1 X139.644 Y157.21 E10.2768
G1 X137.125 Y157.107 E10.3942
G1 X134.622 Y157.076 E10.51075
G1 X132.074 Y157.117 E10.62942
G1 X129.522 Y157.23 E10.74836
G1 X127.024 Y157.41 E10.86498
G1 X124.527 Y157.662 E10.98184
G1 X122 Y157.99 E11.1005
G1 X119.503 Y158.386 E11.21822
G1 X117.053 Y158.846 E11.3343
G1 X113.67 Y159.596 E11.49565
G1 X112.881 Y159.786 E11.53344
G1 X112.113 Y159.953 E11.57004
G1 X111.402 Y160.078 E11.60365
G1 X110.87 Y160.153 E11.62867
G1 X110.269 Y160.225 E11.65685
G1 X109.1 Y160.316 E11.71145
G1 X108.507 Y160.343 E11.73909
G1 X107.916 Y160.349 E11.76661
G1 X107.319 Y160.334 E11.79442
G1 X106.652 Y160.302 E11.82552
G1 X106.029 Y160.253 E11.85461
G1 X104.855 Y160.127 E11.90959
G1 X104.118 Y160.022 E11.94426
G1 X103.13 Y159.829 E11.99113
G1 X102.562 Y159.695 E12.01831
G1 X99.967 Y159.105 E12.14223
G1 X97.506 Y158.617 E12.25905
G1 X95.022 Y158.2 E12.37634
G1 X92.511 Y157.848 E12.4944
G1 X89.985 Y157.569 E12.61274
G1 X87.487 Y157.362 E12.72945
G1 X84.957 Y157.226 E12.84743
G1 X82.409 Y157.161 E12.96612
G1 X79.899 Y157.168 E13.08299
G1 X77.381 Y157.246 E13.2003
G1 X74.808 Y157.398 E13.32032
G1 X72.342 Y157.614 E13.43558
G1 X69.806 Y157.909 E13.55447
G1 X67.318 Y158.27 E13.67153
G1 X64.809 Y158.707 E13.79012
G1 X62.34 Y159.209 E13.90744
G1 X60.867 Y159.543 E13.97777
G1 X59.593 Y159.843 E14.03871
G1 X58.951 Y159.979 E14.06927
G1 X58.392 Y160.077 E14.0957
G1 X57.877 Y160.154 E14.11995
G1 X57.251 Y160.232 E14.14932
G1 X56.646 Y160.283 E14.17759
G1 X55.686 Y160.336 E14.22236
G1 X55.075 Y160.354 E14.25082
G1 X54.336 Y160.342 E14.28524
G1 X53.463 Y160.297 E14.32594
G1 X52.77 Y160.238 E14.35833
G1 X52.26 Y160.178 E14.38224
G1 X51.594 Y160.078 E14.4136
G1 X51.096 Y159.987 E14.43717
G1 X50.447 Y159.848 E14.46808
G1 X49.879 Y159.707 E14.49533
G1 X49.325 Y159.555 E14.52208
G1 X48.606 Y159.327 E14.5572
G1 X47.872 Y159.061 E14.59356
G1 X47.354 Y158.852 E14.61957
G1 X46.865 Y158.64 E14.64438
G1 X46.259 Y158.355 E14.67557
G1 X45.797 Y158.119 E14.69972
G1 X45.327 Y157.864 E14.72462
G1 X44.599 Y157.434 E14.76399
G1 X43.892 Y156.974 E14.80327
G1 X43.035 Y156.356 E14.85247
G1 X42.632 Y156.041 E14.87628
G1 X42.183 Y155.67 E14.90341
G1 X41.793 Y155.329 E14.92753
G1 X41.374 Y154.945 E14.95399
G1 X40.953 Y154.529 E14.98155
G1 X40.518 Y154.074 E15.01086
G1 X40.103 Y153.614 E15.03971
G1 X39.375 Y152.718 E15.09347
G1 X38.977 Y152.178 E15.1247
G1 X38.559 Y151.573 E15.15895
G1 X38.069 Y150.788 E15.20204
G1 X37.589 Y149.939 E15.24745
G1 X37.348 Y149.474 E15.27184
G1 X37.084 Y148.923 E15.30029
G1 X36.686 Y147.985 E15.34773
G1 X36.403 Y147.229 E15.38532
G1 X36.078 Y146.209 E15.43517
G1 X35.8 Y145.066 E15.48994
G1 X35.633 Y144.15 E15.5333
G1 X35.547 Y143.527 E15.56258
G1 X35.46 Y142.772 E15.59797
G1 X35.392 Y141.746 E15.64585
G1 X35.382 Y141.179 E15.67226
G1 X35.389 Y140.561 E15.70104
G1 X35.411 Y140.02 E15.72625
G1 X35.45 Y139.392 E15.75555
G1 X35.554 Y138.406 E15.80171
G1 X35.692 Y137.486 E15.84503
G1 X35.794 Y136.945 E15.87067
G1 X35.984 Y136.068 E15.91245
G1 X36.118 Y135.503 E15.93949
G1 X36.31 Y134.77 E15.97477
G1 X36.477 Y134.182 E16.00324
G1 X36.775 Y133.217 E16.05026
G1 X36.973 Y132.617 E16.07969
G1 X37.232 Y131.874 E16.11632
G1 X38.305 Y128.867 E16.26499
G1 X56.823 Y79.016 E18.74124
G1 X57.144 Y78.137 E18.78482
G1 X58.486 Y74.412 E18.96918
G1 X58.863 Y73.402 E19.01938
G1 X59.202 Y72.526 E19.06312
G1 X59.414 Y72.004 E19.08935
G1 X59.749 Y71.209 E19.12952
G1 X59.985 Y70.673 E19.15679
G1 X60.333 Y69.925 E19.19521
G1 X60.629 Y69.316 E19.22674
G1 X61.038 Y68.522 E19.26833
G1 X61.377 Y67.902 E19.30123
G1 X61.802 Y67.171 E19.3406
G1 X62.245 Y66.459 E19.37965
G1 X62.69 Y65.79 E19.41706
G1 X63.271 Y64.98 E19.46348
G1 X63.973 Y64.078 E19.5167
G1 X64.405 Y63.564 E19.54797
G1 X64.878 Y63.037 E19.58094
G1 X65.314 Y62.58 E19.61035
G0 F7500 X65.595 Y62.864
G1 F1500 X66.243 Y62.242 E19.65218
G1 X66.991 Y61.574 E19.69887
G1 X67.654 Y61.03 E19.73881
G1 X68.267 Y60.569 E19.77452
G1 X69.267 Y59.872 E19.83128
G1 X69.858 Y59.495 E19.86392
G1 X70.438 Y59.153 E19.89528
G1 X70.911 Y58.89 E19.92048
G1 X71.355 Y58.659 E19.94378
G1 X72.232 Y58.242 E19.989
G1 X73.134 Y57.863 E20.03456
G1 X74.049 Y57.525 E20.07998
G1 X74.998 Y57.223 E20.12635
G1 X75.482 Y57.088 E20.14975
G1 X76.289 Y56.897 E20.18836
G1 X77.299 Y56.694 E20.23633
G1 X78.008 Y56.577 E20.26979
G1 X78.677 Y56.491 E20.3012
G1 X79.205 Y56.437 E20.32592
G1 X79.718 Y56.398 E20.34987
G1 X80.728 Y56.346 E20.39697
G1 X81.565 Y56.327 E20.43595
G1 X82.652 Y56.346 E20.48657
G1 X83.806 Y56.405 E20.54038
G1 X84.842 Y56.479 E20.58874
G1 X87.386 Y56.594 E20.70732
G1 X89.955 Y56.638 E20.82696
G1 X92.452 Y56.61 E20.94324
G1 X95.019 Y56.508 E21.06287
G1 X97.514 Y56.338 E21.17931
G1 X100.077 Y56.091 E21.29921
G1 X102.575 Y55.778 E21.41644
G1 X105.361 Y55.342 E21.54774
G1 X106.264 Y55.208 E21.59025
G1 X107.367 Y55.086 E21.64192
G1 X108.504 Y55.013 E21.69498
G1 X110.268 Y54.976 E21.77713
G1 X146.696 Y54.975 E23.47337
G1 X147.946 Y54.991 E23.53158
G1 X148.536 Y55.01 E23.55907
G1 X149.968 Y55.1 E23.62588
G1 X150.647 Y55.165 E23.65764
G1 X151.999 Y55.352 E23.7212
G1 X152.829 Y55.506 E23.76051
G1 X153.69 Y55.703 E23.80163
G1 X154.268 Y55.85 E23.82941
G1 X155.164 Y56.119 E23.87297
G1 X156.135 Y56.458 E23.92086
G1 X156.905 Y56.765 E23.95946
G1 X157.559 Y57.058 E23.99283
G1 X158.012 Y57.28 E24.01632
G1 X158.976 Y57.802 E24.06736
G1 X159.98 Y58.431 E24.12253
G1 X160.445 Y58.755 E24.14892
G1 X161.022 Y59.188 E24.18251
G1 X161.51 Y59.582 E24.21172
G1 X162.171 Y60.165 E24.25276
G1 X162.56 Y60.539 E24.27788
G1 X162.977 Y60.964 E24.30561
G1 X163.603 Y61.675 E24.34972
G1 X163.979 Y62.141 E24.3776
G1 X164.386 Y62.681 E24.40909
G1 X164.743 Y63.189 E24.438
G1 X165.1 Y63.732 E24.46826
G1 X165.584 Y64.555 E24.51272
G1 X166.052 Y65.455 E24.55995
G1 X166.407 Y66.225 E24.59943
G1 X166.735 Y67.027 E24.63978
G1 X166.939 Y67.581 E24.66727
G1 X167.117 Y68.108 E24.69317
G1 X167.377 Y69.009 E24.73684
G1 X167.597 Y69.895 E24.77935
G1 X167.742 Y70.546 E24.8104
G1 X167.928 Y71.596 E24.86006
G1 X168.056 Y72.51 E24.90303
G1 X168.126 Y73.13 E24.93208
G1 X168.211 Y74.2 E24.98206
G1 X168.248 Y74.817 E25.01085
G1 X168.294 Y76.948 E25.1101
G1 X168.301 Y135.739 E27.84765
G1 X168.278 Y137.277 E27.91928
G1 X168.257 Y137.855 E27.94621
G1 X168.19 Y138.872 E27.99367
G1 X168.123 Y139.608 E28.02808
G1 X167.994 Y140.623 E28.07572
G1 X167.847 Y141.516 E28.11786
G1 X167.644 Y142.516 E28.16538
G1 X167.451 Y143.285 E28.2023
G1 X167.145 Y144.331 E28.25304
G1 X166.915 Y145.024 E28.28704
G1 X166.675 Y145.669 E28.31909
G1 X166.438 Y146.25 E28.34831
G1 X166.065 Y147.066 E28.39009
G1 X165.68 Y147.823 E28.42963
G1 X165.37 Y148.375 E28.45911
G1 X164.93 Y149.097 E28.49848
G1 X164.603 Y149.589 E28.52599
G1 X164.124 Y150.251 E28.56404
G1 X163.78 Y150.694 E28.59015
G1 X163.331 Y151.234 E28.62286
G1 X162.954 Y151.656 E28.64921
G1 X162.502 Y152.13 E28.6797
G1 X162.121 Y152.505 E28.7046
G1 X161.637 Y152.951 E28.73524
G1 X160.879 Y153.589 E28.78138
G1 X160.015 Y154.237 E28.83167
G1 X159.518 Y154.576 E28.85968
G1 X158.935 Y154.946 E28.89183
G1 X158.499 Y155.202 E28.91537
G1 X157.904 Y155.525 E28.9469
G1 X156.913 Y155.999 E28.99805
G1 X156.351 Y156.238 E29.02649
G1 X155.712 Y156.485 E29.05839
G1 X154.671 Y156.825 E29.10938
G1 X154.165 Y156.965 E29.13383
G1 X153.506 Y157.124 E29.16539
G1 X152.9 Y157.249 E29.19421
G1 X151.949 Y157.398 E29.23903
G1 X150.825 Y157.521 E29.29168
G1 X150.3 Y157.565 E29.31621
G1 X148.963 Y157.602 E29.37849
G1 X148.288 Y157.581 E29.40994
G1 X146.991 Y157.492 E29.47047
G1 X145.767 Y157.362 E29.52779
G1 X144.741 Y157.233 E29.57594
G1 X142.223 Y156.988 E29.69374
G1 X139.653 Y156.81 E29.8137
G1 X137.147 Y156.707 E29.93049
G1 X134.62 Y156.676 E30.04816
G1 X132.052 Y156.717 E30.16776
G1 X129.51 Y156.829 E30.28624
G1 X126.991 Y157.011 E30.40384
G1 X124.468 Y157.266 E30.52192
G1 X121.953 Y157.592 E30.64001
G1 X119.444 Y157.99 E30.7583
G1 X116.954 Y158.458 E30.87627
G1 X113.653 Y159.19 E31.03371
G1 X112.788 Y159.398 E31.07514
G1 X112.031 Y159.562 E31.11121
G1 X111.346 Y159.682 E31.14359
G1 X110.814 Y159.757 E31.16861
G1 X110.224 Y159.828 E31.19628
G1 X109.072 Y159.917 E31.25008
G1 X108.492 Y159.944 E31.27712
G1 X107.923 Y159.949 E31.30361
G1 X107.338 Y159.934 E31.33086
G1 X106.671 Y159.902 E31.36195
G1 X106.072 Y159.856 E31.38993
G1 X104.898 Y159.73 E31.44491
G1 X104.189 Y159.628 E31.47826
G1 X103.222 Y159.44 E31.52413
G1 X102.618 Y159.297 E31.55304
G1 X100.07 Y158.718 E31.67471
G1 X97.54 Y158.216 E31.79481
G1 X95.113 Y157.809 E31.9094
G1 X92.539 Y157.449 E32.03042
G1 X90.026 Y157.171 E32.14815
G1 X87.506 Y156.962 E32.2659
G1 X84.99 Y156.827 E32.38322
G1 X82.418 Y156.761 E32.50302
G1 X79.885 Y156.768 E32.62097
G1 X77.345 Y156.847 E32.7393
G1 X74.82 Y156.996 E32.85708
G1 X72.297 Y157.217 E32.97501
G1 X69.734 Y157.515 E33.09516
G1 X67.263 Y157.874 E33.21143
G1 X64.739 Y158.313 E33.33072
G1 X62.216 Y158.827 E33.45061
G1 X60.786 Y159.151 E33.51889
G1 X59.501 Y159.453 E33.58035
G1 X58.87 Y159.587 E33.61039
G1 X58.333 Y159.682 E33.63578
G1 X57.818 Y159.759 E33.66003
G1 X57.206 Y159.835 E33.68875
G1 X56.624 Y159.883 E33.71594
G1 X55.664 Y159.936 E33.76071
G1 X55.067 Y159.954 E33.78852
G1 X54.357 Y159.942 E33.82159
G1 X53.484 Y159.897 E33.86229
G1 X52.817 Y159.841 E33.89346
G1 X52.307 Y159.781 E33.91737
G1 X51.666 Y159.685 E33.94755
G1 X51.168 Y159.594 E33.97112
G1 X50.544 Y159.46 E34.00084
G1 X49.976 Y159.319 E34.02809
G1 X49.435 Y159.171 E34.05421
G1 X48.732 Y158.947 E34.08857
G1 X48.011 Y158.686 E34.12427
G1 X47.513 Y158.485 E34.14928
G1 X47.024 Y158.273 E34.1741
G1 X46.441 Y157.998 E34.20411
G1 X45.979 Y157.762 E34.22827
G1 X45.527 Y157.517 E34.25221
G1 X44.812 Y157.096 E34.29084
G1 X44.121 Y156.646 E34.32924
G1 X43.281 Y156.041 E34.37744
G1 X42.878 Y155.726 E34.40126
G1 X42.446 Y155.369 E34.42736
G1 X42.056 Y155.028 E34.45148
G1 X41.647 Y154.653 E34.47732
G1 X41.242 Y154.253 E34.50382
G1 X40.807 Y153.798 E34.53314
G1 X40.408 Y153.355 E34.5609
G1 X39.697 Y152.481 E34.61336
G1 X39.299 Y151.941 E34.6446
G1 X38.891 Y151.35 E34.67804
G1 X38.411 Y150.58 E34.72029
G1 X37.94 Y149.746 E34.76489
G1 X37.707 Y149.298 E34.7884
G1 X37.448 Y148.758 E34.81629
G1 X37.06 Y147.845 E34.86248
G1 X36.777 Y147.089 E34.90007
G1 X36.465 Y146.107 E34.94805
G1 X36.193 Y144.99 E35.00158
G1 X36.029 Y144.092 E35.04409
G1 X35.944 Y143.482 E35.07276
G1 X35.857 Y142.727 E35.10815
G1 X35.792 Y141.739 E35.15426
G1 X35.782 Y141.172 E35.18066
G1 X35.788 Y140.578 E35.20832
G1 X35.81 Y140.037 E35.23354
G1 X35.849 Y139.42 E35.26232
G1 X35.951 Y138.452 E35.30765
G1 X36.087 Y137.55 E35.35012
G1 X36.185 Y137.029 E35.37481
G1 X36.375 Y136.152 E35.41659
G1 X36.507 Y135.597 E35.44316
G1 X36.697 Y134.872 E35.47806
G1 X36.861 Y134.292 E35.50612
G1 X37.157 Y133.336 E35.55272
G1 X37.352 Y132.745 E35.5817
G1 X37.609 Y132.005 E35.61818
G1 X38.681 Y129.001 E35.7667
G1 X57.537 Y78.227 E38.28872
G1 X58.863 Y74.548 E38.47081
G1 X59.237 Y73.542 E38.52079
G1 X59.575 Y72.671 E38.56429
G1 X59.784 Y72.156 E38.59017
G1 X60.118 Y71.365 E38.63015
G1 X60.351 Y70.835 E38.65711
G1 X60.695 Y70.094 E38.69515
G1 X60.988 Y69.491 E38.72637
G1 X61.393 Y68.707 E38.76746
G1 X61.727 Y68.095 E38.79993
G1 X62.147 Y67.374 E38.83878
G1 X62.583 Y66.672 E38.87726
G1 X63.022 Y66.014 E38.91409
G1 X63.594 Y65.216 E38.95981
G1 X64.287 Y64.325 E39.01237
G1 X64.703 Y63.831 E39.04244
G1 X65.176 Y63.304 E39.07542
G1 X65.595 Y62.864 E39.10371
