;FLAVOR:Marlin
;TIME:2219
;Filament used: 2.35004m
;Layer height: 0.2
;MINX:73.874
;MINY:64.575
;MINZ:0.28
;MAXX:146.126
;MAXY:155.423
;MAXZ:8.92
;Generated with Cura_SteamEngine 4.5.0
M140 S110
M105
M190 S110
M104 S240
M105
M109 S240
M82 ;absolute extrusion mode
M201 X500.00 Y500.00 Z100.00 E5000.00 ;Setup machine max acceleration
M203 X500.00 Y500.00 Z10.00 E50.00 ;Setup machine max feedrate
M204 P500.00 R1000.00 T500.00 ;Setup Print/Retract/Travel acceleration
M205 X8.00 Y8.00 Z0.40 E5.00 ;Setup Jerk
M220 S100 ;Reset Feedrate
M221 S100 ;Reset Flowrate

G28 ;Home

G92 E0 ;Reset Extruder
G1 Z2.0 F3000 ;Move Z Axis up
G1 X10.1 Y20 Z0.28 F5000.0 ;Move to start position
G1 X10.1 Y200.0 Z0.28 F1500.0 E15 ;Draw the first line
G1 X10.4 Y200.0 Z0.28 F5000.0 ;Move to side a little
G1 X10.4 Y20 Z0.28 F1500.0 E30 ;Draw the second line
G92 E0 ;Reset Extruder
G1 Z2.0 F3000 ;Move Z Axis up

G92 E0
G92 E0
G1 F1800 E-3
;LAYER_COUNT:38
;LAYER:0
M107
M205 X6 Y6
G0 F9000 X81.182 Y75.502 Z0.28
;TYPE:SKIRT
G1 F1800 E0
G1 F2400 X81.632 Y75.018 E0.03077
G1 X82.058 Y74.581 E0.05919
G1 X82.499 Y74.151 E0.08787
G1 X82.942 Y73.739 E0.11604
G1 X83.48 Y73.264 E0.14946
G1 X83.955 Y72.864 E0.17838
G1 X84.432 Y72.478 E0.20695
G1 X84.96 Y72.066 E0.23813
G1 X85.454 Y71.696 E0.26687
G1 X86.02 Y71.291 E0.29928
G1 X86.513 Y70.951 E0.32717
G1 X87.004 Y70.628 E0.35453
G1 X87.565 Y70.275 E0.3854
G1 X88.096 Y69.956 E0.41424
G1 X88.598 Y69.665 E0.44126
G1 X89.104 Y69.383 E0.46823
G1 X89.612 Y69.112 E0.49504
G1 X90.131 Y68.847 E0.52218
G1 X90.645 Y68.594 E0.54885
G1 X91.164 Y68.349 E0.57558
G1 X91.705 Y68.106 E0.60319
G1 X92.243 Y67.873 E0.63049
G1 X92.773 Y67.655 E0.65718
G1 X93.357 Y67.425 E0.68641
G1 X93.895 Y67.223 E0.71316
G1 X94.537 Y66.993 E0.74492
G1 X95.237 Y66.757 E0.77932
G1 X95.919 Y66.538 E0.81267
G1 X96.503 Y66.36 E0.8411
G1 X97.114 Y66.185 E0.87069
G1 X97.741 Y66.019 E0.9009
G1 X98.347 Y65.872 E0.92993
G1 X98.918 Y65.745 E0.95717
G1 X100.101 Y65.504 E1.01339
G1 X101.189 Y65.305 E1.06489
G1 X101.761 Y65.208 E1.0919
G1 X102.38 Y65.111 E1.12108
G1 X102.977 Y65.027 E1.14915
G1 X103.562 Y64.954 E1.1766
G1 X104.768 Y64.827 E1.23307
G1 X105.417 Y64.768 E1.26341
G1 X106.133 Y64.712 E1.29686
G1 X106.883 Y64.664 E1.33185
G1 X107.572 Y64.63 E1.36397
G1 X108.377 Y64.604 E1.40148
G1 X109.001 Y64.589 E1.43054
G1 X110.132 Y64.575 E1.48321
G1 X112.091 Y64.615 E1.57445
G1 X113.291 Y64.66 E1.63036
G1 X114.095 Y64.702 E1.66785
G1 X114.896 Y64.757 E1.70524
G1 X115.636 Y64.82 E1.73982
G1 X116.354 Y64.893 E1.77343
G1 X117.116 Y64.983 E1.80915
G1 X117.687 Y65.06 E1.83598
G1 X118.328 Y65.152 E1.86614
G1 X118.876 Y65.24 E1.89198
G1 X119.619 Y65.365 E1.92706
G1 X120.386 Y65.507 E1.96339
G1 X121.063 Y65.644 E1.99555
G1 X121.671 Y65.776 E2.02452
G1 X122.281 Y65.919 E2.05369
G1 X122.882 Y66.072 E2.08257
G1 X123.451 Y66.224 E2.10999
G1 X124.029 Y66.391 E2.13801
G1 X124.602 Y66.567 E2.16592
G1 X125.185 Y66.756 E2.19446
G1 X125.799 Y66.966 E2.22468
G1 X126.445 Y67.2 E2.25667
G1 X127.091 Y67.445 E2.28884
G1 X127.693 Y67.687 E2.31905
G1 X128.194 Y67.895 E2.34431
G1 X128.743 Y68.136 E2.37223
G1 X129.277 Y68.382 E2.39961
G1 X129.923 Y68.701 E2.43315
G1 X130.632 Y69.076 E2.4705
G1 X131.157 Y69.367 E2.49845
G1 X131.837 Y69.754 E2.53488
G1 X132.657 Y70.276 E2.58015
G1 X133.229 Y70.657 E2.61215
G1 X133.781 Y71.038 E2.64338
G1 X134.253 Y71.375 E2.67039
G1 X134.718 Y71.718 E2.69729
G1 X135.222 Y72.112 E2.72708
G1 X135.674 Y72.48 E2.75422
G1 X136.18 Y72.918 E2.78538
G1 X136.724 Y73.411 E2.81957
G1 X137.171 Y73.835 E2.84826
G1 X137.686 Y74.345 E2.88201
G1 X138.092 Y74.763 E2.90914
G1 X138.498 Y75.193 E2.93668
G1 X138.894 Y75.631 E2.96417
G1 X139.315 Y76.112 E2.99394
G1 X139.702 Y76.575 E3.02204
G1 X140.079 Y77.045 E3.05009
G1 X140.436 Y77.507 E3.07728
G1 X140.821 Y78.031 E3.10756
G1 X141.172 Y78.529 E3.13593
G1 X141.55 Y79.088 E3.16735
G1 X141.88 Y79.598 E3.19563
G1 X142.203 Y80.12 E3.22422
G1 X142.552 Y80.712 E3.25622
G1 X142.844 Y81.23 E3.28391
G1 X143.168 Y81.828 E3.31558
G1 X143.454 Y82.386 E3.34477
G1 X143.731 Y82.957 E3.37432
G1 X144.03 Y83.61 E3.40777
G1 X144.303 Y84.246 E3.43999
G1 X144.551 Y84.863 E3.47096
G1 X144.783 Y85.491 E3.50213
G1 X144.983 Y86.071 E3.5307
G1 X145.167 Y86.65 E3.55899
G1 X145.337 Y87.235 E3.58736
G1 X145.509 Y87.904 E3.61952
G1 X145.662 Y88.575 E3.65157
G1 X145.785 Y89.219 E3.6821
G1 X145.884 Y89.857 E3.71216
G1 X145.97 Y90.559 E3.74509
G1 X146.028 Y91.179 E3.77409
G1 X146.07 Y91.791 E3.80265
G1 X146.126 Y92.797 E3.84957
G1 X146.096 Y93.77 E3.8949
G1 X146.049 Y94.38 E3.92339
G1 X145.963 Y95.074 E3.95595
G1 X145.828 Y95.809 E3.99075
G1 X145.638 Y96.562 E4.02691
G1 X145.394 Y97.314 E4.06372
G1 X145.097 Y98.056 E4.10094
G1 X144.778 Y98.729 E4.13562
G1 X144.42 Y99.381 E4.17025
G1 X144.032 Y99.997 E4.20415
G1 X143.618 Y100.58 E4.23745
G1 X143.118 Y101.197 E4.27443
G1 X142.585 Y101.775 E4.31104
G1 X142.024 Y102.309 E4.3471
G1 X141.428 Y102.807 E4.38327
G1 X140.784 Y103.274 E4.42031
G1 X140.125 Y103.689 E4.45657
G1 X140.064 Y103.724 E4.45985
G1 X140.064 Y113.927 E4.93494
G1 X140.429 Y114.422 E4.96358
G1 X140.717 Y114.836 E4.98706
G1 X141.101 Y115.418 E5.01953
G1 X141.49 Y116.053 E5.0542
G1 X141.831 Y116.647 E5.0861
G1 X142.158 Y117.266 E5.1187
G1 X142.441 Y117.846 E5.14875
G1 X142.719 Y118.472 E5.18064
G1 X142.98 Y119.114 E5.21291
G1 X143.242 Y119.831 E5.24846
G1 X143.476 Y120.539 E5.28318
G1 X143.659 Y121.154 E5.31306
G1 X143.826 Y121.771 E5.34282
G1 X143.985 Y122.422 E5.37402
G1 X144.128 Y123.073 E5.40506
G1 X144.252 Y123.727 E5.43606
G1 X144.354 Y124.345 E5.46522
G1 X144.44 Y124.951 E5.49372
G1 X144.511 Y125.563 E5.52241
G1 X144.569 Y126.199 E5.55215
G1 X144.608 Y126.801 E5.58024
G1 X144.634 Y127.476 E5.61169
G1 X144.653 Y128.404 E5.65491
G1 X144.65 Y129.14 E5.68918
G1 X144.637 Y129.712 E5.71583
G1 X144.608 Y130.349 E5.74552
G1 X144.551 Y131.067 E5.77906
G1 X144.485 Y131.682 E5.80786
G1 X144.406 Y132.276 E5.83576
G1 X144.299 Y132.984 E5.8691
G1 X144.191 Y133.593 E5.8979
G1 X144.064 Y134.225 E5.92792
G1 X143.906 Y134.885 E5.95952
G1 X143.73 Y135.536 E5.99092
G1 X143.51 Y136.258 E6.02607
G1 X143.293 Y136.916 E6.05833
G1 X143.088 Y137.495 E6.08693
G1 X142.869 Y138.069 E6.11554
G1 X142.613 Y138.684 E6.14656
G1 X142.335 Y139.298 E6.17794
G1 X142.029 Y139.919 E6.21018
G1 X141.737 Y140.469 E6.23917
G1 X141.421 Y141.024 E6.26891
G1 X141.057 Y141.632 E6.30191
G1 X140.726 Y142.156 E6.33077
G1 X140.399 Y142.648 E6.35828
G1 X139.997 Y143.214 E6.3906
G1 X139.635 Y143.697 E6.41871
G1 X139.239 Y144.194 E6.4483
G1 X138.826 Y144.688 E6.47828
G1 X138.405 Y145.169 E6.50805
G1 X137.991 Y145.618 E6.53648
G1 X137.555 Y146.069 E6.56569
G1 X137.129 Y146.487 E6.59348
G1 X136.681 Y146.905 E6.62202
G1 X136.221 Y147.313 E6.65065
G1 X135.728 Y147.731 E6.68074
G1 X135.197 Y148.157 E6.71244
G1 X134.631 Y148.589 E6.7456
G1 X134.09 Y148.982 E6.77673
G1 X133.553 Y149.352 E6.8071
G1 X133.043 Y149.687 E6.83551
G1 X132.478 Y150.035 E6.86641
G1 X131.851 Y150.402 E6.90024
G1 X131.169 Y150.776 E6.93646
G1 X130.648 Y151.048 E6.96383
G1 X130.132 Y151.305 E6.99067
G1 X129.536 Y151.593 E7.02149
G1 X128.976 Y151.851 E7.0502
G1 X128.441 Y152.088 E7.07745
G1 X127.922 Y152.307 E7.10368
G1 X127.382 Y152.525 E7.13079
G1 X126.695 Y152.787 E7.16503
G1 X126.119 Y152.992 E7.1935
G1 X125.536 Y153.188 E7.22214
G1 X124.917 Y153.385 E7.25239
G1 X124.294 Y153.572 E7.28268
G1 X123.588 Y153.77 E7.31682
G1 X122.913 Y153.948 E7.34932
G1 X122.203 Y154.123 E7.38337
G1 X121.493 Y154.286 E7.4173
G1 X120.771 Y154.439 E7.45166
G1 X120.051 Y154.58 E7.48582
G1 X119.293 Y154.712 E7.52165
G1 X118.546 Y154.83 E7.55687
G1 X117.783 Y154.939 E7.59275
G1 X117 Y155.037 E7.6295
G1 X116.212 Y155.123 E7.66641
G1 X115.448 Y155.193 E7.70213
G1 X114.651 Y155.253 E7.73935
G1 X114.045 Y155.292 E7.76763
G1 X112.625 Y155.357 E7.83382
G1 X111.821 Y155.384 E7.87128
G1 X110.271 Y155.423 E7.94347
G1 X108.869 Y155.404 E8.00876
G1 X107.579 Y155.365 E8.06886
G1 X107.016 Y155.342 E8.09509
G1 X106.351 Y155.305 E8.12611
G1 X105.609 Y155.254 E8.16074
G1 X104.881 Y155.19 E8.19477
G1 X104.127 Y155.113 E8.23006
G1 X103.368 Y155.022 E8.26566
G1 X102.613 Y154.919 E8.30114
G1 X101.891 Y154.808 E8.33515
G1 X101.217 Y154.694 E8.36698
G1 X100.56 Y154.571 E8.39811
G1 X99.958 Y154.45 E8.4267
G1 X99.37 Y154.32 E8.45474
G1 X98.795 Y154.183 E8.48226
G1 X98.236 Y154.042 E8.50911
G1 X97.675 Y153.888 E8.5362
G1 X97.101 Y153.722 E8.56402
G1 X96.55 Y153.55 E8.5909
G1 X96.012 Y153.373 E8.61727
G1 X95.489 Y153.192 E8.64304
G1 X94.953 Y152.997 E8.6696
G1 X94.351 Y152.765 E8.69964
G1 X93.67 Y152.492 E8.7338
G1 X92.972 Y152.197 E8.76909
G1 X92.344 Y151.919 E8.80107
G1 X91.685 Y151.615 E8.83486
G1 X91.019 Y151.287 E8.86943
G1 X90.458 Y150.996 E8.89886
G1 X89.872 Y150.67 E8.93008
G1 X89.292 Y150.329 E8.96141
G1 X88.672 Y149.942 E8.99545
G1 X88.093 Y149.561 E9.02772
G1 X87.604 Y149.225 E9.05535
G1 X87.05 Y148.826 E9.08714
G1 X86.472 Y148.392 E9.12079
G1 X85.894 Y147.932 E9.15519
G1 X85.36 Y147.487 E9.18756
G1 X84.826 Y147.017 E9.22068
G1 X84.315 Y146.545 E9.25307
G1 X83.819 Y146.064 E9.28525
G1 X83.347 Y145.583 E9.31663
G1 X82.891 Y145.095 E9.34773
G1 X82.455 Y144.604 E9.3783
G1 X82.046 Y144.121 E9.40777
G1 X81.673 Y143.657 E9.43549
G1 X81.298 Y143.167 E9.46423
G1 X80.907 Y142.624 E9.49538
G1 X80.524 Y142.057 E9.52724
G1 X80.138 Y141.436 E9.56129
G1 X79.771 Y140.804 E9.59532
G1 X79.473 Y140.255 E9.62441
G1 X79.204 Y139.727 E9.652
G1 X78.904 Y139.088 E9.68487
G1 X78.628 Y138.454 E9.71707
G1 X78.375 Y137.817 E9.74899
G1 X78.153 Y137.199 E9.77956
G1 X77.948 Y136.564 E9.81063
G1 X77.768 Y135.934 E9.84114
G1 X77.611 Y135.317 E9.87079
G1 X77.471 Y134.657 E9.9022
G1 X77.359 Y134.005 E9.93301
G1 X77.266 Y133.25 E9.96843
G1 X77.208 Y132.52 E10.00253
G1 X77.166 Y131.583 E10.0462
G1 X77.187 Y130.736 E10.08566
G1 X77.234 Y130.087 E10.11596
G1 X77.312 Y129.422 E10.14713
G1 X77.435 Y128.705 E10.18101
G1 X77.622 Y127.932 E10.21804
G1 X77.865 Y127.163 E10.25559
G1 X78.136 Y126.463 E10.29054
G1 X78.436 Y125.804 E10.32426
G1 X78.796 Y125.121 E10.36021
G1 X79.161 Y124.511 E10.39331
G1 X79.59 Y123.878 E10.42892
G1 X80.024 Y123.309 E10.46224
G1 X80.503 Y122.745 E10.4967
G1 X81.013 Y122.207 E10.53122
G1 X81.546 Y121.706 E10.56528
G1 X82.107 Y121.238 E10.5993
G1 X82.733 Y120.782 E10.63536
G1 X83.183 Y120.496 E10.66019
G1 X83.183 Y115.126 E10.91024
G1 X82.77 Y114.799 E10.93477
G1 X82.268 Y114.383 E10.96512
G1 X81.796 Y113.973 E10.99424
G1 X81.336 Y113.551 E11.0233
G1 X80.901 Y113.133 E11.05139
G1 X80.458 Y112.682 E11.08083
G1 X80.051 Y112.249 E11.1085
G1 X79.625 Y111.768 E11.13842
G1 X79.235 Y111.302 E11.16672
G1 X78.814 Y110.767 E11.19842
G1 X78.447 Y110.274 E11.22703
G1 X78.056 Y109.714 E11.25884
G1 X77.719 Y109.202 E11.28738
G1 X77.397 Y108.689 E11.31558
G1 X77.082 Y108.152 E11.34457
G1 X76.793 Y107.636 E11.37211
G1 X76.512 Y107.102 E11.40021
G1 X76.223 Y106.517 E11.43059
G1 X75.97 Y105.968 E11.45874
G1 X75.727 Y105.403 E11.48738
G1 X75.5 Y104.829 E11.51612
G1 X75.286 Y104.24 E11.5453
G1 X75.085 Y103.629 E11.57525
G1 X74.909 Y103.045 E11.60365
G1 X74.745 Y102.436 E11.63302
G1 X74.603 Y101.849 E11.66114
G1 X74.477 Y101.279 E11.68832
G1 X74.362 Y100.704 E11.71563
G1 X74.253 Y100.065 E11.74581
G1 X74.157 Y99.425 E11.77595
G1 X74.075 Y98.763 E11.80701
G1 X74.01 Y98.1 E11.83803
G1 X73.964 Y97.503 E11.86591
G1 X73.931 Y96.892 E11.8944
G1 X73.906 Y96.306 E11.92171
G1 X73.874 Y95.153 E11.97542
G1 X73.878 Y94.474 E12.00704
G1 X73.895 Y93.785 E12.03913
G1 X73.917 Y93.227 E12.06514
G1 X73.958 Y92.574 E12.0956
G1 X74.003 Y92.003 E12.12227
G1 X74.067 Y91.387 E12.15111
G1 X74.137 Y90.805 E12.17841
G1 X74.218 Y90.229 E12.20549
G1 X74.325 Y89.575 E12.23635
G1 X74.433 Y88.982 E12.26442
G1 X74.56 Y88.354 E12.29425
G1 X74.71 Y87.691 E12.3259
G1 X74.865 Y87.072 E12.35562
G1 X75.036 Y86.461 E12.38516
G1 X75.224 Y85.844 E12.41519
G1 X75.44 Y85.196 E12.447
G1 X75.685 Y84.519 E12.48052
G1 X75.9 Y83.967 E12.50811
G1 X76.157 Y83.341 E12.53962
G1 X76.39 Y82.807 E12.56675
G1 X76.666 Y82.207 E12.5975
G1 X76.933 Y81.657 E12.62597
G1 X77.214 Y81.113 E12.65448
G1 X77.502 Y80.588 E12.68236
G1 X77.828 Y80.031 E12.71242
G1 X78.129 Y79.54 E12.73923
G1 X78.502 Y78.957 E12.77146
G1 X78.832 Y78.465 E12.79905
G1 X79.164 Y77.991 E12.82599
G1 X79.541 Y77.479 E12.8556
G1 X79.934 Y76.97 E12.88554
G1 X80.382 Y76.419 E12.91861
G1 X80.782 Y75.953 E12.94721
G1 X81.182 Y75.502 E12.97528
G0 F9000 X81.481 Y75.768
G1 F2400 X81.924 Y75.29 E13.00562
G1 X82.344 Y74.861 E13.03358
G1 X82.778 Y74.438 E13.0618
G1 X83.214 Y74.032 E13.08954
G1 X83.744 Y73.565 E13.12243
G1 X84.212 Y73.171 E13.15092
G1 X84.683 Y72.789 E13.17916
G1 X85.206 Y72.381 E13.21004
G1 X85.693 Y72.017 E13.23836
G1 X86.253 Y71.616 E13.27043
G1 X86.739 Y71.281 E13.29791
G1 X87.223 Y70.963 E13.32488
G1 X87.778 Y70.613 E13.35543
G1 X88.302 Y70.299 E13.38388
G1 X88.799 Y70.011 E13.41062
G1 X89.299 Y69.733 E13.43726
G1 X89.8 Y69.465 E13.46372
G1 X90.313 Y69.203 E13.49054
G1 X90.821 Y68.953 E13.51691
G1 X91.334 Y68.711 E13.54332
G1 X91.868 Y68.471 E13.57058
G1 X92.402 Y68.24 E13.59767
G1 X92.925 Y68.026 E13.62398
G1 X93.504 Y67.797 E13.65298
G1 X94.036 Y67.597 E13.67944
G1 X94.671 Y67.37 E13.71084
G1 X95.365 Y67.136 E13.74495
G1 X96.091 Y66.903 E13.78045
G1 X96.619 Y66.743 E13.80614
G1 X97.224 Y66.57 E13.83544
G1 X97.843 Y66.406 E13.86526
G1 X98.44 Y66.261 E13.89386
G1 X99.005 Y66.135 E13.92082
G1 X100.181 Y65.896 E13.9767
G1 X101.261 Y65.699 E14.02782
G1 X101.828 Y65.602 E14.0546
G1 X102.442 Y65.506 E14.08354
G1 X103.033 Y65.424 E14.11132
G1 X103.612 Y65.351 E14.1385
G1 X104.81 Y65.225 E14.19459
G1 X105.452 Y65.167 E14.22461
G1 X106.164 Y65.111 E14.25786
G1 X106.909 Y65.063 E14.29262
G1 X107.592 Y65.03 E14.32446
G1 X108.39 Y65.004 E14.36164
G1 X109.011 Y64.989 E14.39057
G1 X110.136 Y64.975 E14.44296
G1 X112.082 Y65.015 E14.53359
G1 X113.275 Y65.059 E14.58918
G1 X114.074 Y65.102 E14.62644
G1 X114.868 Y65.156 E14.66349
G1 X115.602 Y65.218 E14.69779
G1 X116.313 Y65.29 E14.73107
G1 X117.069 Y65.38 E14.76652
G1 X117.634 Y65.456 E14.79307
G1 X118.271 Y65.548 E14.82304
G1 X118.813 Y65.635 E14.8486
G1 X119.553 Y65.759 E14.88353
G1 X120.313 Y65.9 E14.91953
G1 X120.983 Y66.036 E14.95136
G1 X121.586 Y66.167 E14.98009
G1 X122.189 Y66.308 E15.00893
G1 X122.783 Y66.459 E15.03747
G1 X123.347 Y66.61 E15.06466
G1 X123.918 Y66.775 E15.09233
G1 X124.484 Y66.949 E15.1199
G1 X125.062 Y67.136 E15.14819
G1 X125.669 Y67.344 E15.17807
G1 X126.308 Y67.576 E15.20973
G1 X126.949 Y67.819 E15.24165
G1 X127.544 Y68.058 E15.2715
G1 X128.041 Y68.264 E15.29655
G1 X128.582 Y68.502 E15.32408
G1 X129.109 Y68.745 E15.3511
G1 X129.746 Y69.059 E15.38417
G1 X130.444 Y69.429 E15.42095
G1 X130.963 Y69.717 E15.44859
G1 X131.638 Y70.102 E15.48478
G1 X132.441 Y70.612 E15.52907
G1 X133.006 Y70.99 E15.56072
G1 X133.554 Y71.367 E15.5917
G1 X134.02 Y71.7 E15.61837
G1 X134.48 Y72.04 E15.645
G1 X134.975 Y72.426 E15.67423
G1 X135.42 Y72.79 E15.701
G1 X135.918 Y73.22 E15.73164
G1 X136.454 Y73.707 E15.76536
G1 X136.895 Y74.125 E15.79365
G1 X137.405 Y74.629 E15.82704
G1 X137.805 Y75.041 E15.85378
G1 X138.206 Y75.467 E15.88102
G1 X138.598 Y75.899 E15.90818
G1 X139.013 Y76.375 E15.93759
G1 X139.394 Y76.831 E15.96526
G1 X139.767 Y77.295 E15.99298
G1 X140.119 Y77.751 E16.0198
G1 X140.498 Y78.267 E16.04962
G1 X140.845 Y78.759 E16.07765
G1 X141.218 Y79.312 E16.10871
G1 X141.544 Y79.815 E16.13662
G1 X141.862 Y80.33 E16.1648
G1 X142.208 Y80.915 E16.19645
G1 X142.495 Y81.426 E16.22374
G1 X142.816 Y82.018 E16.2551
G1 X143.098 Y82.568 E16.28388
G1 X143.371 Y83.131 E16.31302
G1 X143.667 Y83.776 E16.34606
G1 X143.936 Y84.403 E16.37783
G1 X144.18 Y85.011 E16.40834
G1 X144.407 Y85.628 E16.43895
G1 X144.604 Y86.201 E16.46716
G1 X144.785 Y86.77 E16.49497
G1 X144.952 Y87.346 E16.52289
G1 X145.121 Y88.002 E16.55444
G1 X145.271 Y88.663 E16.586
G1 X145.392 Y89.293 E16.61587
G1 X145.489 Y89.917 E16.64527
G1 X145.573 Y90.606 E16.67759
G1 X145.629 Y91.215 E16.70607
G1 X145.67 Y91.817 E16.73417
G1 X145.727 Y92.819 E16.7809
G1 X145.697 Y93.748 E16.82418
G1 X145.65 Y94.348 E16.85221
G1 X145.566 Y95.022 E16.88383
G1 X145.435 Y95.733 E16.9175
