;FLAVOR:Marlin
;TIME:2949
;Filament used: 1.98467m
;Layer height: 0.2
;MINX:96.611
;MINY:95.577
;MINZ:0.24
;MAXX:123.388
;MAXY:126.846
;MAXZ:40
;Generated with Cura_SteamEngine 4.7.1
M140 S50
M105
M190 S50
M104 S215
M105
M109 S215
M82 ;absolute extrusion mode
M201 X500.00 Y500.00 Z100.00 E5000.00 ;Setup machine max acceleration
M203 X500.00 Y500.00 Z10.00 E50.00 ;Setup machine max feedrate
M204 P500.00 R1000.00 T500.00 ;Setup Print/Retract/Travel acceleration
M205 X8.00 Y8.00 Z0.40 E5.00 ;Setup Jerk
M220 S100 ;Reset Feedrate
M221 S100 ;Reset Flowrate

G28 ;Home

G92 E0 ;Reset Extruder
G1 Z2.0 F3000 ;Move Z Axis up
G1 X10.1 Y20 Z0.28 F5000.0 ;Move to start position
G1 X10.1 Y200.0 Z0.28 F1500.0 E15 ;Draw the first line
G1 X10.4 Y200.0 Z0.28 F5000.0 ;Move to side a little
G1 X10.4 Y20 Z0.28 F1500.0 E30 ;Draw the second line
G92 E0 ;Reset Extruder
G1 Z2.0 F3000 ;Move Z Axis up

G92 E0
G92 E0
G1 F2400 E-3
;LAYER_COUNT:197
;LAYER:0
M106 S63.8
M204 S500
M205 X6 Y6
G1 F300 Z0.44
G0 F9000 X98.699 Y103.847 Z0.44
;TYPE:SKIRT
G1 F300 Z0.24
G1 F2400 E0
G1 F1800 X99.017 Y103.561 E0.01707
G1 X99.522 Y103.156 E0.04291
G1 X99.753 Y102.975 E0.05462
G1 X100.21 Y102.667 E0.07662
G1 X100.619 Y102.465 E0.09482
G1 X101.41 Y102.131 E0.12909
G1 X101.966 Y101.945 E0.15249
G1 X102.394 Y101.861 E0.1699
G1 X103.259 Y101.742 E0.20475
G1 X103.777 Y101.707 E0.22547
G1 X104.216 Y101.73 E0.24302
G1 X104.85 Y101.8 E0.26847
G1 X105.139 Y101.834 E0.28009
G1 X105.68 Y101.938 E0.30208
G1 X106.077 Y102.068 E0.31875
G1 X106.884 Y102.383 E0.35332
G1 X107.28 Y102.565 E0.37072
G1 X107.831 Y102.914 E0.39675
G1 X108.534 Y103.45 E0.43203
G1 X108.947 Y103.815 E0.45403
G1 X109.229 Y104.139 E0.47118
G1 X109.765 Y104.828 E0.50602
G1 X110.001 Y105.176 E0.5228
G1 X110.234 Y104.836 E0.53925
G1 X110.769 Y104.146 E0.5741
G1 X111.159 Y103.715 E0.5973
G1 X111.491 Y103.431 E0.61474
G1 X112.176 Y102.91 E0.64908
G1 X112.777 Y102.536 E0.67734
G1 X113.126 Y102.38 E0.69259
G1 X113.929 Y102.068 E0.72698
G1 X114.369 Y101.927 E0.74542
G1 X114.917 Y101.826 E0.76766
G1 X115.79 Y101.731 E0.80271
G1 X116.222 Y101.709 E0.81997
G1 X116.744 Y101.745 E0.84086
G1 X117.61 Y101.865 E0.87575
G1 X118 Y101.94 E0.8916
G1 X118.592 Y102.135 E0.91648
G1 X119.385 Y102.47 E0.95084
G1 X119.982 Y102.787 E0.97782
G1 X120.307 Y103.021 E0.9938
G1 X120.984 Y103.564 E1.02844
G1 X121.373 Y103.924 E1.04959
G1 X121.688 Y104.3 E1.06917
G1 X122.202 Y105.002 E1.10389
G1 X122.477 Y105.437 E1.12444
G1 X122.672 Y105.846 E1.14252
G1 X122.998 Y106.652 E1.17722
G1 X123.117 Y106.994 E1.19167
G1 X123.253 Y107.634 E1.21779
G1 X123.359 Y108.492 E1.25229
G1 X123.388 Y108.986 E1.27204
G1 X123.344 Y109.563 E1.29514
G1 X123.212 Y110.422 E1.32983
G1 X123.077 Y110.997 E1.3534
G1 X122.929 Y111.392 E1.37024
G1 X122.581 Y112.186 E1.40484
G1 X122.307 Y112.701 E1.42812
G1 X122.088 Y113.014 E1.44337
G1 X121.552 Y113.704 E1.47824
G1 X121.234 Y114.064 E1.49741
G1 X121.345 Y114.16 E1.50327
G1 X121.732 Y114.612 E1.52702
G1 X121.783 Y114.682 E1.53047
G1 X122.075 Y115.15 E1.55249
G1 X122.295 Y115.655 E1.57447
G1 X122.436 Y116.164 E1.59555
G1 X122.535 Y116.7 E1.61731
G1 X122.57 Y117.048 E1.63127
G1 X122.668 Y118.829 E1.70246
G1 X122.665 Y119.309 E1.72162
G1 X122.593 Y119.855 E1.7436
G1 X122.443 Y120.385 E1.76558
G1 X122.218 Y120.888 E1.78758
G1 X121.923 Y121.354 E1.80959
G1 X121.564 Y121.771 E1.83155
G1 X121.304 Y121.996 E1.84527
G1 X121.226 Y122.281 E1.85707
G1 X120.933 Y123.026 E1.88902
G1 X120.92 Y123.051 E1.89014
G1 X120.631 Y123.52 E1.91213
G1 X120.27 Y123.951 E1.93457
G1 X120.075 Y124.151 E1.94572
G1 X119.613 Y124.554 E1.97019
G1 X119.333 Y124.761 E1.98408
G1 X118.867 Y125.055 E2.00608
G1 X118.13 Y125.355 E2.03783
G1 X116.845 Y125.727 E2.09123
G1 X115.16 Y126.284 E2.16206
G1 X114.626 Y126.418 E2.18403
G1 X114.316 Y126.46 E2.19652
G1 X111.757 Y126.696 E2.29909
G1 X110.44 Y126.84 E2.35196
G1 X109.676 Y126.846 E2.38246
G1 X106.948 Y126.592 E2.49181
G1 X105.614 Y126.453 E2.54534
G1 X104.897 Y126.307 E2.57454
G1 X104.563 Y126.205 E2.58848
G1 X103.447 Y125.905 E2.63461
G1 X103.184 Y125.824 E2.64559
G1 X101.733 Y125.319 E2.70691
G1 X101.183 Y125.077 E2.73089
G1 X101.116 Y125.041 E2.73393
G1 X100.624 Y124.726 E2.75724
G1 X100.366 Y124.531 E2.77015
G1 X99.888 Y124.101 E2.79581
G1 X99.685 Y123.885 E2.80764
G1 X99.338 Y123.458 E2.82961
G1 X99.022 Y122.913 E2.85475
G1 X99.003 Y122.873 E2.85652
G1 X98.803 Y122.36 E2.87849
G1 X98.657 Y121.751 E2.90349
G1 X98.442 Y121.565 E2.91483
G1 X98.082 Y121.148 E2.93682
G1 X97.787 Y120.683 E2.9588
G1 X97.561 Y120.181 E2.98077
G1 X97.411 Y119.65 E3.0028
G1 X97.339 Y119.104 E3.02478
G1 X97.338 Y118.671 E3.04206
G1 X97.439 Y116.843 E3.11513
G1 X97.509 Y116.297 E3.1371
G1 X97.752 Y115.529 E3.16925
G1 X97.833 Y115.344 E3.17731
G1 X98.09 Y114.857 E3.19929
G1 X98.415 Y114.411 E3.22131
G1 X98.76 Y114.059 E3.24099
G1 X98.45 Y113.708 E3.25968
G1 X97.913 Y113.019 E3.29454
G1 X97.602 Y112.553 E3.3169
G1 X97.41 Y112.169 E3.33404
G1 X97.056 Y111.351 E3.36961
G1 X96.874 Y110.831 E3.3916
G1 X96.786 Y110.412 E3.40869
G1 X96.69 Y109.778 E3.43428
G1 X96.649 Y109.49 E3.44589
G1 X96.611 Y108.94 E3.4679
G1 X96.64 Y108.484 E3.48613
G1 X96.747 Y107.626 E3.52064
G1 X96.897 Y106.944 E3.54851
G1 X97.007 Y106.639 E3.56145
G1 X97.346 Y105.808 E3.59728
G1 X97.59 Y105.314 E3.61927
G1 X97.809 Y104.983 E3.63511
G1 X98.34 Y104.265 E3.67075
G1 X98.699 Y103.847 E3.69274
G0 F9000 X99.002 Y104.109
G1 F1800 X99.267 Y103.873 E3.7069
G1 X99.769 Y103.471 E3.73257
G1 X100 Y103.29 E3.74428
G1 X100.434 Y103.001 E3.7651
G1 X100.774 Y102.834 E3.78021
G1 X101.565 Y102.5 E3.81448
G1 X102.063 Y102.334 E3.83544
G1 X102.449 Y102.258 E3.85114
G1 X103.314 Y102.139 E3.88599
G1 X103.799 Y102.107 E3.90539
G1 X104.172 Y102.128 E3.9203
G1 X104.803 Y102.197 E3.94563
G1 X105.092 Y102.231 E3.95725
G1 X105.604 Y102.332 E3.97807
G1 X105.931 Y102.441 E3.99183
G1 X106.738 Y102.756 E4.02641
G1 X107.096 Y102.919 E4.04211
G1 X107.588 Y103.232 E4.06538
G1 X108.291 Y103.768 E4.10066
G1 X108.68 Y104.115 E4.12147
G1 X108.914 Y104.384 E4.1357
G1 X109.45 Y105.073 E4.17054
G1 X109.717 Y105.472 E4.1897
G1 X110.001 Y106.067 E4.21602
G1 X110.112 Y105.815 E4.22701
G1 X110.355 Y105.361 E4.24756
G1 X110.55 Y105.081 E4.26118
G1 X111.085 Y104.391 E4.29603
G1 X111.434 Y104.006 E4.31677
G1 X111.733 Y103.75 E4.33248
G1 X112.418 Y103.229 E4.36683
G1 X112.955 Y102.894 E4.39209
G1 X113.271 Y102.753 E4.4059
G1 X114.074 Y102.441 E4.44028
G1 X114.47 Y102.314 E4.45688
G1 X114.96 Y102.224 E4.47676
G1 X115.833 Y102.129 E4.51181
G1 X116.222 Y102.109 E4.52736
G1 X116.689 Y102.141 E4.54604
G1 X117.555 Y102.261 E4.58094
G1 X117.906 Y102.329 E4.59521
G1 X118.436 Y102.503 E4.61747
G1 X119.229 Y102.838 E4.65183
G1 X119.763 Y103.122 E4.67597
G1 X120.056 Y103.333 E4.69038
G1 X120.733 Y103.876 E4.72502
G1 X121.098 Y104.215 E4.7449
G1 X121.365 Y104.536 E4.76156
G1 X121.879 Y105.238 E4.79629
G1 X122.139 Y105.652 E4.8158
G1 X122.301 Y105.996 E4.83098
G1 X122.627 Y106.802 E4.86568
G1 X122.735 Y107.11 E4.8787
G1 X122.856 Y107.683 E4.90208
G1 X122.962 Y108.541 E4.93658
G1 X122.988 Y108.986 E4.95438
G1 X122.949 Y109.502 E4.97503
G1 X122.817 Y110.361 E5.00972
G1 X122.696 Y110.876 E5.03083
G1 X122.563 Y111.232 E5.046
G1 X122.215 Y112.026 E5.0806
G1 X121.969 Y112.486 E5.10142
G1 X121.772 Y112.769 E5.11518
G1 X121.236 Y113.459 E5.15005
G1 X120.936 Y113.796 E5.16806
G1 X120.616 Y114.076 E5.18503
G1 X120.712 Y114.138 E5.18959
G1 X121.102 Y114.484 E5.2104
G1 X121.46 Y114.918 E5.23286
G1 X121.734 Y115.361 E5.25365
G1 X121.936 Y115.841 E5.27443
G1 X122.096 Y116.499 E5.30146
G1 X122.171 Y117.07 E5.32444
G1 X122.269 Y118.851 E5.39564
G1 X122.265 Y119.286 E5.413
G1 X122.196 Y119.802 E5.43378
G1 X122.048 Y120.302 E5.45459
G1 X121.825 Y120.773 E5.47539
G1 X121.533 Y121.205 E5.4962
G1 X121.179 Y121.587 E5.51698
G1 X120.953 Y121.766 E5.52849
G1 X120.84 Y122.175 E5.54543
G1 X120.579 Y122.842 E5.57401
G1 X120.566 Y122.867 E5.57514
G1 X120.29 Y123.309 E5.59594
G1 X119.788 Y123.872 E5.62604
G1 X119.375 Y124.232 E5.64791
G1 X119.095 Y124.439 E5.66181
G1 X118.654 Y124.716 E5.68259
G1 X118.019 Y124.971 E5.7099
G1 X116.711 Y125.35 E5.76426
G1 X115.034 Y125.904 E5.83475
G1 X114.279 Y126.062 E5.86553
G1 X111.681 Y126.302 E5.96967
G1 X110.397 Y126.442 E6.02122
G1 X109.713 Y126.447 E6.04852
G1 X106.99 Y126.194 E6.15767
G1 X105.656 Y126.055 E6.2112
G1 X105.014 Y125.924 E6.23735
G1 X104.693 Y125.826 E6.25075
G1 X103.551 Y125.519 E6.29794
G1 X103.315 Y125.446 E6.3078
G1 X101.864 Y124.941 E6.36912
G1 X101.373 Y124.725 E6.39053
G1 X101.306 Y124.689 E6.39357
G1 X100.865 Y124.406 E6.41448
G1 X100.607 Y124.211 E6.42739
G1 X100.179 Y123.827 E6.45034
G1 X99.976 Y123.611 E6.46217
G1 X99.65 Y123.205 E6.48295
G1 X99.383 Y122.742 E6.50428
G1 X99.364 Y122.702 E6.50605
G1 X99.177 Y122.215 E6.52687
G1 X99.022 Y121.546 E6.55428
G1 X98.647 Y121.202 E6.57459
G1 X98.322 Y120.794 E6.59541
G1 X98.062 Y120.342 E6.61622
G1 X97.875 Y119.856 E6.63701
G1 X97.764 Y119.347 E6.6578
G1 X97.737 Y118.693 E6.68392
G1 X97.838 Y116.865 E6.75699
G1 X97.907 Y116.349 E6.77777
G1 X98.118 Y115.689 E6.80543
G1 X98.199 Y115.504 E6.81349
G1 X98.444 Y115.044 E6.83429
G1 X98.757 Y114.627 E6.8551
G1 X99.129 Y114.263 E6.87587
G1 X99.392 Y114.083 E6.88859
G1 X99.043 Y113.776 E6.90714
G1 X98.765 Y113.462 E6.92388
G1 X98.228 Y112.773 E6.95875
G1 X97.95 Y112.356 E6.97875
G1 X97.777 Y112.01 E6.99419
G1 X97.423 Y111.192 E7.02976
G1 X97.253 Y110.7 E7.05054
G1 X97.181 Y110.352 E7.06472
G1 X97.086 Y109.721 E7.09019
G1 X97.045 Y109.433 E7.1018
G1 X97.011 Y108.913 E7.1226
G1 X97.037 Y108.533 E7.1378
G1 X97.144 Y107.675 E7.17231
G1 X97.278 Y107.065 E7.19724
G1 X97.377 Y106.79 E7.20891
G1 X97.716 Y105.959 E7.24473
G1 X97.949 Y105.493 E7.26552
G1 X98.13 Y105.221 E7.27856
G1 X98.661 Y104.503 E7.3142
G1 X99.002 Y104.109 E7.335
G0 F9000 X99.517 Y104.185
G1 F1800 X99.988 Y103.807 E7.3591
G1 X100.655 Y103.335 E7.39172
G1 X100.93 Y103.202 E7.40391
G1 X101.721 Y102.868 E7.43818
G1 X102.184 Y102.716 E7.45763
G1 X102.503 Y102.654 E7.4706
G1 X103.368 Y102.535 E7.50545
G1 X104.128 Y102.525 E7.53578
G1 X104.757 Y102.595 E7.56104
G1 X105.525 Y102.725 E7.59213
G1 X105.786 Y102.813 E7.60312
G1 X106.593 Y103.128 E7.6377
G1 X106.911 Y103.274 E7.65167
G1 X107.346 Y103.55 E7.67223
G1 X108.049 Y104.086 E7.70751
G1 X108.598 Y104.63 E7.73836
G1 X109.134 Y105.319 E7.7732
G1 X109.533 Y105.992 E7.80443
G1 X109.887 Y106.809 E7.83996
G1 X110.009 Y107.169 E7.85514
G1 X110.213 Y106.577 E7.88013
G1 X110.478 Y105.976 E7.90634
G1 X110.866 Y105.326 E7.93656
G1 X111.401 Y104.636 E7.9714
G1 X111.728 Y104.278 E7.99076
G1 X111.975 Y104.068 E8.00369
G1 X112.66 Y103.547 E8.03804
G1 X113.134 Y103.252 E8.06033
G1 X113.416 Y103.126 E8.07265
G1 X114.219 Y102.814 E8.10704
G1 X114.571 Y102.701 E8.12179
G1 X115.003 Y102.622 E8.13932
G1 X115.876 Y102.527 E8.17437
G1 X116.634 Y102.537 E8.20463
G1 X117.5 Y102.657 E8.23952
G1 X118.28 Y102.871 E8.2718
G1 X119.073 Y103.206 E8.30616
G1 X119.545 Y103.457 E8.3275
G1 X119.806 Y103.645 E8.34034
G1 X120.483 Y104.188 E8.37497
G1 X120.807 Y104.489 E8.39263
G1 X121.043 Y104.773 E8.40736
G1 X121.557 Y105.475 E8.44209
G1 X121.93 Y106.146 E8.47273
G1 X122.256 Y106.952 E8.50743
G1 X122.352 Y107.227 E8.51906
G1 X122.459 Y107.732 E8.53966
G1 X122.565 Y108.59 E8.57416
G1 X122.588 Y108.986 E8.59
G1 X122.553 Y109.442 E8.60825
G1 X122.421 Y110.301 E8.64294
G1 X122.308 Y110.777 E8.66246
G1 X122.197 Y111.071 E8.67501
G1 X121.849 Y111.865 E8.70961
G1 X121.456 Y112.523 E8.7402
G1 X120.92 Y113.213 E8.77507
G1 X120.653 Y113.513 E8.7911
G1 X120.344 Y113.783 E8.80747
G1 X119.907 Y114.114 E8.82935
G1 X120.494 Y114.475 E8.85686
G1 X120.856 Y114.805 E8.87641
G1 X121.137 Y115.153 E8.89426
G1 X121.392 Y115.571 E8.9138
G1 X121.652 Y116.323 E8.94556
G1 X121.744 Y116.817 E8.96562
G1 X121.771 Y117.092 E8.97665
G1 X121.869 Y118.873 E9.04784
G1 X121.866 Y119.263 E9.0634
G1 X121.798 Y119.748 E9.08295
G1 X121.652 Y120.215 E9.10248
G1 X121.432 Y120.652 E9.12201
G1 X121.144 Y121.048 E9.14155
G1 X120.795 Y121.391 E9.16108
G1 X120.603 Y121.527 E9.17047
G1 X120.454 Y122.069 E9.1929
G1 X120.224 Y122.657 E9.2181
G1 X119.95 Y123.096 E9.23876
G1 X119.502 Y123.592 E9.26544
G1 X118.857 Y124.117 E9.29863
G1 X118.441 Y124.375 E9.31817
G1 X117.908 Y124.587 E9.34106
G1 X116.584 Y124.97 E9.39607
G1 X114.909 Y125.524 E9.46648
G1 X114.243 Y125.663 E9.49364
G1 X111.659 Y125.901 E9.59721
G1 X110.354 Y126.044 E9.64961
G1 X109.75 Y126.049 E9.67371
G1 X107.031 Y125.796 E9.7827
G1 X105.697 Y125.657 E9.83623
G1 X105.131 Y125.542 E9.85929
G1 X104.777 Y125.434 E9.87406
G1 X103.654 Y125.132 E9.92047
G1 X103.447 Y125.068 E9.92912
G1 X101.996 Y124.563 E9.99044
G1 X101.495 Y124.337 E10.01238
G1 X100.848 Y123.892 E10.04372
G1 X100.471 Y123.554 E10.06393
G1 X99.963 Y122.955 E10.09527
G1 X99.725 Y122.53 E10.11471
G1 X99.503 Y121.877 E10.14224
G1 X99.379 Y121.303 E10.16568
G1 X98.86 Y120.84 E10.19344
G1 X98.572 Y120.444 E10.21298
G1 X98.351 Y120.007 E10.23253
G1 X98.205 Y119.54 E10.25206
G1 X98.137 Y119.055 E10.2716
G1 X98.137 Y118.715 E10.28517
G1 X98.238 Y116.887 E10.35824
G1 X98.304 Y116.403 E10.37774
G1 X98.485 Y115.85 E10.40096
G1 X98.798 Y115.234 E10.42854
G1 X99.097 Y114.847 E10.44806
G1 X99.456 Y114.513 E10.46763
G1 X100.094 Y114.115 E10.49764
G1 X99.654 Y113.782 E10.51967
G1 X99.326 Y113.493 E10.53712
G1 X99.081 Y113.216 E10.55187
G1 X98.544 Y112.527 E10.58674
G1 X98.144 Y111.851 E10.61809
G1 X97.79 Y111.033 E10.65366
G1 X97.577 Y110.292 E10.68444
G1 X97.482 Y109.665 E10.70975
G1 X97.412 Y108.888 E10.74088
G1 X97.434 Y108.583 E10.75309
G1 X97.541 Y107.725 E10.7876
G1 X97.659 Y107.186 E10.80962
G1 X97.747 Y106.941 E10.82001
G1 X98.086 Y106.11 E10.85583
G1 X98.452 Y105.459 E10.88564
G1 X98.983 Y104.741 E10.92128
G1 X99.517 Y104.185 E10.95205
G0 F9000 X99.768 Y104.497
G1 F1800 X100.262 Y104.1 E10.97735
G1 X100.875 Y103.671 E11.00721
G1 X101.086 Y103.571 E11.01653
G1 X101.877 Y103.237 E11.0508
G1 X102.558 Y103.05 E11.07898
G1 X103.423 Y102.931 E11.11383
G1 X104.084 Y102.923 E11.14022
G1 X104.71 Y102.992 E11.16535
G1 X104.999 Y103.026 E11.17697
G1 X105.64 Y103.186 E11.20334
G1 X106.447 Y103.501 E11.23791
G1 X106.727 Y103.629 E11.2502
G1 X107.103 Y103.868 E11.26798
G1 X107.806 Y104.404 E11.30326
G1 X108.282 Y104.876 E11.33002
G1 X108.818 Y105.565 E11.36486
G1 X109.166 Y106.151 E11.39206
G1 X109.52 Y106.968 E11.4276
G1 X109.704 Y107.606 E11.4541
G1 X109.836 Y108.462 E11.48867
G1 X109.866 Y108.887 E11.50567
G1 X109.846 Y109.206 E11.51843
G1 X109.74 Y110.063 E11.5529
G1 X109.561 Y110.748 E11.58116
G1 X109.221 Y111.583 E11.61714
G1 X108.906 Y112.144 E11.64282
G1 X108.391 Y112.843 E11.67747
G1 X107.911 Y113.344 E11.70516
G1 X107.419 Y113.741 E11.7304
G1 X106.811 Y114.169 E11.76007
G1 X106.595 Y114.273 E11.76964
G1 X105.803 Y114.608 E11.80396
G1 X105.115 Y114.795 E11.83242
G1 X104.978 Y114.833 E11.83809
G1 X105.298 Y115.32 E11.86135
G1 X106.594 Y115.677 E11.915
G1 X109.501 Y116.257 E12.03331
G1 X109.963 Y116.336 E12.05202
G1 X111.952 Y115.949 E12.13289
G1 X113.336 Y115.7 E12.18902
G1 X114.627 Y115.259 E12.24347
G1 X114.953 Y114.805 E12.26578
G1 X114.554 Y114.729 E12.28199
G1 X114.198 Y114.608 E12.297
G1 X113.403 Y114.272 E12.33144
G1 X112.952 Y114.026 E12.35195
G1 X112.766 Y113.89 E12.36114
G1 X112.09 Y113.347 E12.39575
G1 X111.606 Y112.842 E12.42367
G1 X111.089 Y112.139 E12.4585
G1 X110.785 Y111.6 E12.4832
G1 X110.659 Y111.298 E12.49626
G1 X110.432 Y110.73 E12.52067
G1 X110.261 Y110.062 E12.54819
G1 X110.155 Y109.203 E12.58274
G1 X110.158 Y108.538 E12.60928
G1 X110.205 Y108.196 E12.62306
G1 X110.3 Y107.596 E12.6473
G1 X110.472 Y106.993 E12.67233
G1 X110.599 Y106.694 E12.68529
G1 X110.844 Y106.138 E12.70954
G1 X111.182 Y105.571 E12.73589
G1 X111.717 Y104.881 E12.77074
G1 X112.217 Y104.387 E12.79879
G1 X112.902 Y103.866 E12.83314
G1 X113.339 Y103.596 E12.85364
G1 X113.56 Y103.499 E12.86328
G1 X114.363 Y103.187 E12.89766
G1 X115.047 Y103.019 E12.92577
G1 X115.92 Y102.924 E12.96082
G1 X116.579 Y102.934 E12.98713
G1 X117.445 Y103.054 E13.02202
G1 X118.125 Y103.24 E13.05016
G1 X118.918 Y103.575 E13.08452
G1 X119.556 Y103.957 E13.11419
G1 X120.233 Y104.5 E13.14883
