;FLAVOR:Marlin
;TIME:3075
;Filament used: 2.40025m
;Layer height: 0.2
;MINX:98.142
;MINY:95.583
;MINZ:0.28
;MAXX:121.857
;MAXY:124.882
;MAXZ:39.84
;Generated with Cura_SteamEngine 4.7.1
M140 S110
M105
M190 S110
M104 S240
M105
M109 S240
M82 ;absolute extrusion mode
M201 X500.00 Y500.00 Z100.00 E5000.00 ;Setup machine max acceleration
M203 X500.00 Y500.00 Z10.00 E50.00 ;Setup machine max feedrate
M204 P500.00 R1000.00 T500.00 ;Setup Print/Retract/Travel acceleration
M205 X8.00 Y8.00 Z0.40 E5.00 ;Setup Jerk
M220 S100 ;Reset Feedrate
M221 S100 ;Reset Flowrate

G28 ;Home

G92 E0 ;Reset Extruder
G1 Z2.0 F3000 ;Move Z Axis up
G1 X10.1 Y20 Z0.28 F5000.0 ;Move to start position
G1 X10.1 Y200.0 Z0.28 F1500.0 E15 ;Draw the first line
G1 X10.4 Y200.0 Z0.28 F5000.0 ;Move to side a little
G1 X10.4 Y20 Z0.28 F1500.0 E30 ;Draw the second line
G92 E0 ;Reset Extruder
G1 Z2.0 F3000 ;Move Z Axis up

G92 E0
G92 E0
G1 F1800 E-3
;LAYER_COUNT:197
;LAYER:0
M107
M205 X6 Y6
G0 F9000 X99.959 Y104.751 Z0.28
;TYPE:SKIRT
G1 F1800 E0
G1 F2400 X100.649 Y104.198 E0.04117
G1 X100.727 Y104.139 E0.04573
G1 X101.203 Y103.865 E0.0713
G1 X101.954 Y103.55 E0.10922
G1 X102.103 Y103.492 E0.11667
G1 X102.588 Y103.367 E0.13999
G1 X103.474 Y103.244 E0.18164
G1 X104.041 Y103.236 E0.20805
G1 X104.898 Y103.331 E0.2482
G1 X104.993 Y103.343 E0.25266
G1 X105.516 Y103.476 E0.27778
G1 X106.339 Y103.797 E0.31892
G1 X106.895 Y104.107 E0.34856
G1 X107.387 Y104.48 E0.37731
G1 X107.951 Y104.138 E0.40802
G1 X108.348 Y104.006 E0.4275
G1 X108.764 Y103.951 E0.44704
G1 X109.182 Y103.977 E0.46654
G1 X109.588 Y104.081 E0.48606
G1 X110.005 Y104.288 E0.50774
G1 X110.467 Y104.065 E0.53163
G1 X110.876 Y103.973 E0.55115
G1 X111.295 Y103.96 E0.57067
G1 X111.709 Y104.026 E0.59019
G1 X112.102 Y104.17 E0.60968
G1 X112.605 Y104.489 E0.63741
G1 X113.11 Y104.107 E0.6669
G1 X113.668 Y103.797 E0.69662
G1 X114.492 Y103.477 E0.73778
G1 X115.071 Y103.335 E0.76554
G1 X115.965 Y103.237 E0.80742
G1 X116.531 Y103.245 E0.83378
G1 X117.416 Y103.369 E0.87539
G1 X117.991 Y103.528 E0.90317
G1 X118.805 Y103.872 E0.94432
G1 X119.352 Y104.198 E0.97397
G1 X120.045 Y104.756 E1.0154
G1 X120.452 Y105.182 E1.04283
G1 X120.982 Y105.901 E1.08442
G1 X121.263 Y106.403 E1.11121
G1 X121.597 Y107.231 E1.15278
G1 X121.738 Y107.751 E1.17787
G1 X121.757 Y107.877 E1.18381
G1 X121.857 Y108.686 E1.22176
G1 X121.848 Y109.321 E1.25133
G1 X121.712 Y110.202 E1.29284
G1 X121.546 Y110.772 E1.32049
G1 X121.189 Y111.587 E1.36192
G1 X120.896 Y112.077 E1.3885
G1 X120.346 Y112.784 E1.43021
G1 X119.922 Y113.204 E1.458
G1 X119.219 Y113.738 E1.49911
G1 X118.657 Y114.05 E1.52904
G1 X117.829 Y114.371 E1.57039
G1 X117.251 Y114.513 E1.59811
G1 X116.357 Y114.611 E1.63998
G1 X115.791 Y114.603 E1.66634
G1 X114.906 Y114.479 E1.70795
G1 X114.33 Y114.32 E1.73578
G1 X113.514 Y113.975 E1.77703
G1 X112.97 Y113.65 E1.80654
G1 X112.277 Y113.092 E1.84797
G1 X111.869 Y112.665 E1.87547
G1 X111.34 Y111.947 E1.91699
G1 X111.058 Y111.441 E1.94397
G1 X110.722 Y110.608 E1.98579
G1 X110.655 Y110.405 E1.99575
G1 X109.347 Y110.401 E2.05665
G1 X109.274 Y110.62 E2.0674
G1 X108.948 Y111.419 E2.10758
G1 X108.91 Y111.508 E2.11209
G1 X108.656 Y111.951 E2.13587
G1 X108.127 Y112.667 E2.17732
G1 X107.72 Y113.092 E2.20472
G1 X107.029 Y113.647 E2.24599
G1 X106.951 Y113.706 E2.25055
G1 X106.475 Y113.98 E2.27612
G1 X105.724 Y114.295 E2.31404
G1 X105.575 Y114.353 E2.32149
G1 X105.09 Y114.478 E2.34481
G1 X104.205 Y114.601 E2.38641
G1 X103.638 Y114.609 E2.41282
G1 X102.778 Y114.513 E2.45311
G1 X102.684 Y114.501 E2.45752
G1 X102.163 Y114.368 E2.48256
G1 X101.351 Y114.051 E2.52315
G1 X101.258 Y114.012 E2.52785
G1 X100.78 Y113.736 E2.55355
G1 X100.078 Y113.204 E2.59456
G1 X99.651 Y112.782 E2.62252
G1 X99.125 Y112.105 E2.66244
G1 X99.067 Y112.028 E2.66693
G1 X98.807 Y111.583 E2.69093
G1 X98.45 Y110.764 E2.73253
G1 X98.286 Y110.198 E2.75997
G1 X98.151 Y109.322 E2.80124
G1 X98.142 Y108.685 E2.8309
G1 X98.252 Y107.805 E2.8722
G1 X98.404 Y107.225 E2.90012
G1 X98.728 Y106.428 E2.94018
G1 X98.765 Y106.341 E2.94458
G1 X99.02 Y105.895 E2.9685
G1 X99.533 Y105.201 E3.00869
G1 X99.589 Y105.128 E3.01297
G1 X99.959 Y104.751 E3.03757
G0 F9000 X100.209 Y105.063
G1 F2400 X100.89 Y104.517 E3.07821
G1 X101.358 Y104.234 E3.10368
G1 X102.16 Y103.898 E3.14417
G1 X102.643 Y103.763 E3.16752
G1 X103.529 Y103.64 E3.20917
G1 X103.997 Y103.634 E3.23097
G1 X104.848 Y103.728 E3.27083
G1 X105.371 Y103.849 E3.29583
G1 X106.194 Y104.17 E3.33697
G1 X106.654 Y104.426 E3.36148
G1 X107.362 Y104.963 E3.40286
G1 X107.393 Y104.99 E3.40477
G1 X107.813 Y104.671 E3.42933
G1 X108.146 Y104.489 E3.447
G1 X108.509 Y104.381 E3.46463
G1 X108.887 Y104.351 E3.48229
G1 X109.262 Y104.4 E3.4999
G1 X109.619 Y104.527 E3.51754
G1 X110.024 Y104.754 E3.53916
G1 X110.342 Y104.548 E3.55681
G1 X110.697 Y104.414 E3.57447
G1 X111.071 Y104.357 E3.59209
G1 X111.449 Y104.379 E3.60972
G1 X111.815 Y104.481 E3.62741
G1 X112.446 Y104.868 E3.66188
G1 X112.596 Y105.003 E3.67128
G1 X112.642 Y104.963 E3.67412
G1 X113.351 Y104.426 E3.71553
G1 X113.812 Y104.17 E3.74009
G1 X114.636 Y103.85 E3.78125
G1 X115.115 Y103.733 E3.80421
G1 X116.009 Y103.635 E3.84608
G1 X116.476 Y103.641 E3.86783
G1 X117.361 Y103.765 E3.90944
G1 X117.836 Y103.896 E3.93239
G1 X118.65 Y104.24 E3.97354
G1 X119.101 Y104.51 E3.99801
G1 X119.794 Y105.068 E4.03944
G1 X120.13 Y105.419 E4.06207
G1 X120.66 Y106.138 E4.10366
G1 X120.892 Y106.553 E4.1258
G1 X121.226 Y107.381 E4.16737
G1 X121.36 Y107.926 E4.19351
G1 X121.46 Y108.735 E4.23146
G1 X121.453 Y109.26 E4.25591
G1 X121.317 Y110.141 E4.29742
G1 X121.18 Y110.611 E4.32022
G1 X120.823 Y111.426 E4.36165
G1 X120.581 Y111.831 E4.38362
G1 X120.031 Y112.538 E4.42532
G1 X119.68 Y112.885 E4.44831
G1 X118.977 Y113.419 E4.48942
G1 X118.513 Y113.677 E4.51414
G1 X117.685 Y113.998 E4.55549
G1 X117.207 Y114.115 E4.5784
G1 X116.313 Y114.213 E4.62028
G1 X115.846 Y114.207 E4.64203
G1 X114.961 Y114.083 E4.68364
G1 X114.486 Y113.952 E4.70658
G1 X113.67 Y113.607 E4.74784
G1 X113.221 Y113.338 E4.77221
G1 X112.528 Y112.78 E4.81364
G1 X112.191 Y112.428 E4.83633
G1 X111.662 Y111.71 E4.87786
G1 X111.429 Y111.291 E4.90018
G1 X111.093 Y110.458 E4.942
G1 X110.974 Y110.006 E4.96377
G1 X109.027 Y110 E5.05443
G1 X108.903 Y110.47 E5.07706
G1 X108.58 Y111.262 E5.11689
G1 X108.335 Y111.714 E5.14083
G1 X107.806 Y112.43 E5.18228
G1 X107.469 Y112.781 E5.20494
G1 X106.788 Y113.328 E5.24561
G1 X106.32 Y113.611 E5.27108
G1 X105.518 Y113.947 E5.31157
G1 X105.035 Y114.082 E5.33492
G1 X104.15 Y114.205 E5.37653
G1 X103.682 Y114.211 E5.39832
G1 X102.829 Y114.117 E5.43828
G1 X102.309 Y113.996 E5.46314
G1 X101.506 Y113.682 E5.50329
G1 X101.022 Y113.418 E5.52896
G1 X100.32 Y112.886 E5.56998
G1 X99.967 Y112.537 E5.59309
G1 X99.444 Y111.864 E5.63278
G1 X99.174 Y111.423 E5.65686
G1 X98.817 Y110.604 E5.69846
G1 X98.681 Y110.137 E5.72111
G1 X98.546 Y109.261 E5.76238
G1 X98.539 Y108.735 E5.78687
G1 X98.649 Y107.855 E5.82817
G1 X98.775 Y107.376 E5.85123
G1 X99.097 Y106.585 E5.891
G1 X99.342 Y106.133 E5.91494
G1 X99.851 Y105.444 E5.95483
G1 X100.209 Y105.063 E5.97917
G0 F9000 X100.459 Y105.375
G1 F2400 X101.131 Y104.836 E6.01928
G1 X101.512 Y104.603 E6.04008
G1 X102.303 Y104.272 E6.08001
G1 X102.698 Y104.159 E6.09914
G1 X103.584 Y104.036 E6.14079
G1 X103.953 Y104.031 E6.15797
G1 X104.797 Y104.125 E6.19752
G1 X105.226 Y104.222 E6.218
G1 X106.049 Y104.543 E6.25913
G1 X106.412 Y104.745 E6.27847
G1 X107.12 Y105.282 E6.31985
G1 X107.419 Y105.583 E6.33961
G1 X107.595 Y105.346 E6.35335
G1 X108.042 Y105 E6.37967
G1 X108.337 Y104.844 E6.39521
G1 X108.661 Y104.762 E6.41078
G1 X108.995 Y104.759 E6.42633
G1 X109.32 Y104.835 E6.44187
G1 X109.618 Y104.986 E6.45743
G1 X109.999 Y105.356 E6.48216
G1 X110.306 Y105.041 E6.50264
G1 X110.594 Y104.872 E6.51819
G1 X110.914 Y104.776 E6.53374
G1 X111.248 Y104.758 E6.54932
G1 X111.576 Y104.82 E6.56486
G1 X111.974 Y105.02 E6.5856
G1 X112.458 Y105.419 E6.61481
G1 X112.575 Y105.596 E6.62469
G1 X112.884 Y105.282 E6.6452
G1 X113.593 Y104.745 E6.68662
G1 X113.957 Y104.543 E6.706
G1 X114.781 Y104.223 E6.74716
G1 X115.158 Y104.13 E6.76524
G1 X116.052 Y104.032 E6.80712
G1 X116.42 Y104.038 E6.82426
G1 X117.305 Y104.162 E6.86587
G1 X117.68 Y104.264 E6.88397
G1 X118.494 Y104.608 E6.92512
G1 X118.85 Y104.822 E6.94446
G1 X119.543 Y105.38 E6.98589
G1 X119.808 Y105.656 E7.0037
G1 X120.338 Y106.375 E7.0453
G1 X120.521 Y106.702 E7.06274
G1 X120.855 Y107.53 E7.10432
G1 X120.963 Y107.975 E7.12564
G1 X121.063 Y108.784 E7.1636
G1 X121.058 Y109.199 E7.18292
G1 X120.922 Y110.08 E7.22443
G1 X120.813 Y110.451 E7.24244
G1 X120.456 Y111.266 E7.28387
G1 X120.265 Y111.586 E7.30122
G1 X119.715 Y112.293 E7.34293
G1 X119.438 Y112.567 E7.36107
G1 X118.735 Y113.101 E7.40218
G1 X118.368 Y113.304 E7.42171
G1 X117.54 Y113.625 E7.46306
G1 X117.164 Y113.718 E7.4811
G1 X116.27 Y113.816 E7.52298
G1 X115.902 Y113.81 E7.54011
G1 X115.017 Y113.686 E7.58173
G1 X114.642 Y113.583 E7.59983
G1 X113.826 Y113.238 E7.64109
G1 X113.472 Y113.026 E7.6603
G1 X112.779 Y112.468 E7.70173
G1 X112.513 Y112.19 E7.71965
G1 X111.984 Y111.472 E7.76117
G1 X111.8 Y111.142 E7.77877
G1 X111.464 Y110.309 E7.82059
G1 X111.366 Y109.931 E7.83877
G1 X111.321 Y109.562 E7.85608
G1 X110.999 Y109.606 E7.87122
G1 X108.986 Y109.6 E7.96495
G1 X108.679 Y109.562 E7.97935
G1 X108.577 Y110.193 E8.00912
G1 X108.533 Y110.319 E8.01533
G1 X108.213 Y111.105 E8.05485
G1 X108.013 Y111.476 E8.07447
G1 X107.484 Y112.192 E8.11593
G1 X107.218 Y112.469 E8.13381
G1 X106.547 Y113.009 E8.17392
G1 X106.166 Y113.242 E8.19471
G1 X105.375 Y113.573 E8.23464
G1 X104.98 Y113.686 E8.25377
G1 X104.095 Y113.809 E8.29537
G1 X103.726 Y113.814 E8.31256
G1 X102.88 Y113.72 E8.35219
G1 X102.454 Y113.623 E8.37254
G1 X101.661 Y113.313 E8.41218
G1 X101.263 Y113.099 E8.43323
G1 X100.561 Y112.567 E8.47424
G1 X100.283 Y112.291 E8.49248
G1 X99.764 Y111.623 E8.53187
G1 X99.541 Y111.263 E8.55159
G1 X99.184 Y110.444 E8.59319
G1 X99.076 Y110.076 E8.61105
G1 X98.941 Y109.2 E8.65232
G1 X98.936 Y108.784 E8.67169
G1 X99.046 Y107.904 E8.71299
G1 X99.145 Y107.527 E8.73114
G1 X99.465 Y106.741 E8.77066
G1 X99.664 Y106.37 E8.79026
G1 X100.168 Y105.688 E8.82975
G1 X100.459 Y105.375 E8.84965
G0 F9000 X100.709 Y105.687
G1 F2400 X101.373 Y105.155 E8.88926
G1 X101.667 Y104.972 E8.90539
G1 X102.447 Y104.645 E8.94477
G1 X102.753 Y104.555 E8.95963
G1 X103.639 Y104.432 E9.00128
G1 X103.909 Y104.429 E9.01385
G1 X104.747 Y104.522 E9.05311
G1 X105.08 Y104.594 E9.06897
G1 X105.903 Y104.915 E9.11011
G1 X106.17 Y105.063 E9.12432
G1 X106.878 Y105.6 E9.1657
G1 X107.081 Y105.8 E9.17897
G1 X107.63 Y106.508 E9.22069
G1 X107.615 Y106.224 E9.23393
G1 X107.678 Y105.949 E9.24707
G1 X107.816 Y105.703 E9.2602
G1 X108.27 Y105.329 E9.28759
G1 X108.522 Y105.202 E9.30073
G1 X108.799 Y105.151 E9.31385
G1 X109.08 Y105.179 E9.327
G1 X109.342 Y105.285 E9.34016
G1 X109.618 Y105.522 E9.3571
G1 X109.998 Y105.993 E9.38528
G1 X110.377 Y105.525 E9.41332
G1 X110.584 Y105.333 E9.42646
G1 X110.836 Y105.207 E9.43958
G1 X111.114 Y105.156 E9.45274
G1 X111.394 Y105.184 E9.46585
G1 X111.74 Y105.345 E9.48362
G1 X112.181 Y105.712 E9.51033
G1 X112.321 Y105.957 E9.52347
G1 X112.387 Y106.231 E9.5366
G1 X112.372 Y106.508 E9.54951
G1 X112.92 Y105.803 E9.59109
G1 X113.125 Y105.601 E9.60449
G1 X113.834 Y105.064 E9.64591
G1 X114.102 Y104.916 E9.66016
G1 X114.926 Y104.596 E9.70132
G1 X115.202 Y104.528 E9.71456
G1 X116.096 Y104.43 E9.75644
G1 X116.365 Y104.434 E9.76896
G1 X117.25 Y104.558 E9.81058
G1 X117.524 Y104.633 E9.8238
G1 X118.338 Y104.977 E9.86495
G1 X118.599 Y105.133 E9.87911
G1 X119.292 Y105.691 E9.92054
G1 X119.486 Y105.894 E9.93362
G1 X120.016 Y106.613 E9.97521
G1 X120.15 Y106.852 E9.98797
G1 X120.484 Y107.68 E10.02954
G1 X120.566 Y108.024 E10.04601
G1 X120.666 Y108.833 E10.08396
G1 X120.662 Y109.138 E10.09817
G1 X120.526 Y110.019 E10.13968
G1 X120.447 Y110.29 E10.15282
G1 X120.09 Y111.105 E10.19425
G1 X119.949 Y111.34 E10.20701
G1 X119.399 Y112.047 E10.24872
G1 X119.196 Y112.248 E10.26202
G1 X118.493 Y112.782 E10.30313
G1 X118.223 Y112.931 E10.31749
G1 X117.395 Y113.252 E10.35884
G1 X117.12 Y113.32 E10.37203
G1 X116.226 Y113.418 E10.41391
G1 X115.957 Y113.414 E10.42644
G1 X115.072 Y113.29 E10.46805
G1 X114.798 Y113.215 E10.48128
G1 X113.982 Y112.87 E10.52253
G1 X113.723 Y112.715 E10.53659
G1 X113.03 Y112.157 E10.57802
G1 X112.835 Y111.953 E10.59116
G1 X112.306 Y111.235 E10.63268
G1 X112.171 Y110.992 E10.64563
G1 X111.835 Y110.159 E10.68745
G1 X111.763 Y109.883 E10.70073
G1 X111.656 Y109.005 E10.74192
G1 X111.653 Y108.955 E10.74425
G1 X111.498 Y109.075 E10.75338
G1 X111.235 Y109.179 E10.76655
G1 X111 Y109.206 E10.77756
G1 X108.987 Y109.2 E10.8713
G1 X108.708 Y109.159 E10.88443
G1 X108.451 Y109.042 E10.89758
G1 X108.348 Y108.953 E10.90392
G1 X108.344 Y109.01 E10.90658
G1 X108.235 Y109.892 E10.94796
G1 X108.162 Y110.168 E10.96125
G1 X107.845 Y110.948 E11.00046
G1 X107.691 Y111.238 E11.01575
G1 X107.162 Y111.954 E11.0572
G1 X106.968 Y112.157 E11.07027
G1 X106.305 Y112.69 E11.10989
G1 X106.011 Y112.873 E11.12601
G1 X105.231 Y113.2 E11.16539
G1 X104.925 Y113.289 E11.18023
G1 X104.04 Y113.412 E11.22184
G1 X103.77 Y113.416 E11.23441
G1 X102.93 Y113.323 E11.27376
G1 X102.599 Y113.251 E11.28954
G1 X101.815 Y112.944 E11.32874
G1 X101.505 Y112.78 E11.34507
G1 X100.803 Y112.248 E11.38609
G1 X100.598 Y112.046 E11.39949
G1 X100.083 Y111.383 E11.43858
G1 X99.907 Y111.104 E11.45394
G1 X99.55 Y110.285 E11.49554
G1 X99.472 Y110.015 E11.50863
G1 X99.337 Y109.139 E11.5499
G1 X99.333 Y108.834 E11.5641
G1 X99.443 Y107.954 E11.6054
G1 X99.516 Y107.677 E11.61874
G1 X99.833 Y106.898 E11.6579
G1 X99.986 Y106.608 E11.67317
G1 X100.486 Y105.931 E11.71236
G1 X100.709 Y105.687 E11.72775
G0 F9000 X100.96 Y105.999
G1 F2400 X101.614 Y105.474 E11.7668
G1 X101.822 Y105.341 E11.7783
G1 X102.59 Y105.019 E11.81707
G1 X102.808 Y104.952 E11.82769
G1 X103.694 Y104.829 E11.86935
G1 X103.865 Y104.827 E11.87731
G1 X104.697 Y104.919 E11.91629
G1 X104.935 Y104.967 E11.92759
G1 X105.758 Y105.288 E11.96873
G1 X105.929 Y105.382 E11.97781
G1 X106.637 Y105.919 E12.01919
G1 X106.765 Y106.046 E12.02759
G1 X107.275 Y106.703 E12.06631
G1 X107.404 Y106.901 E12.07732
G1 X107.761 Y107.718 E12.11883
G1 X107.811 Y107.893 E12.12731
G1 X107.945 Y108.767 E12.16848
G1 X107.947 Y108.961 E12.17751
G1 X107.838 Y109.843 E12.2189
G1 X107.792 Y110.017 E12.22728
G1 X107.477 Y110.791 E12.26619
G1 X107.37 Y111.001 E12.27716
G1 X106.841 Y111.717 E12.31862
G1 X106.717 Y111.846 E12.32695
G1 X106.064 Y112.371 E12.36596
G1 X105.856 Y112.504 E12.37746
G1 X105.088 Y112.826 E12.41624
G1 X104.87 Y112.893 E12.42686
G1 X103.985 Y113.016 E12.46846
G1 X103.814 Y113.018 E12.47642
G1 X102.981 Y112.926 E12.51545
G1 X102.745 Y112.878 E12.52666
G1 X101.97 Y112.575 E12.56541
G1 X101.747 Y112.461 E12.57707
G1 X101.045 Y111.929 E12.61809
G1 X100.914 Y111.8 E12.62665
G1 X100.403 Y111.142 E12.66544
G1 X100.274 Y110.944 E12.67644
G1 X99.917 Y110.125 E12.71805
G1 X99.867 Y109.954 E12.72634
G1 X99.732 Y109.078 E12.76761
G1 X99.73 Y108.884 E12.77665
G1 X99.84 Y108.004 E12.81794
G1 X99.886 Y107.828 E12.82641
G1 X100.201 Y107.054 E12.86532
G1 X100.307 Y106.846 E12.87619
G1 X100.803 Y106.175 E12.91505
G1 X100.96 Y105.999 E12.92603
G0 F9000 X101.21 Y106.311
G1 F2400 X101.855 Y105.793 E12.96455
G1 X101.977 Y105.71 E12.97142
G1 X102.733 Y105.392 E13.00961
G1 X102.863 Y105.348 E13.016
G1 X103.749 Y105.225 E13.05765
G1 X103.821 Y105.224 E13.06101
G1 X104.647 Y105.316 E13.09971
G1 X104.79 Y105.34 E13.10646
G1 X105.629 Y105.668 E13.14841
G1 X105.687 Y105.701 E13.15151
G1 X106.395 Y106.238 E13.19289
G1 X106.449 Y106.291 E13.19641
G1 X106.956 Y106.944 E13.23491
G1 X107.037 Y107.061 E13.24154
G1 X107.394 Y107.878 E13.28305
G1 X107.416 Y107.954 E13.28674
G1 X107.55 Y108.828 E13.32791
G1 X107.55 Y108.912 E13.33182
G1 X107.441 Y109.794 E13.3732
G1 X107.421 Y109.866 E13.37668
G1 X107.109 Y110.634 E13.41528
G1 X107.048 Y110.763 E13.42193
G1 X106.519 Y111.479 E13.46338
G1 X106.466 Y111.534 E13.46693
G1 X105.823 Y112.052 E13.50538
G1 X105.701 Y112.135 E13.51225
G1 X104.945 Y112.453 E13.55044
G1 X104.815 Y112.497 E13.55683
