;FLAVOR:Marlin
;TIME:3406
;Filament used: 2.02089m
;Layer height: 0.2
;MINX:84.248
;MINY:84.08
;MINZ:0.24
;MAXX:135.744
;MAXY:135.935
;MAXZ:19.44
;Generated with Cura_SteamEngine 4.7.1
M140 S50
M105
M190 S50
M104 S215
M105
M109 S215
M82 ;absolute extrusion mode
M201 X500.00 Y500.00 Z100.00 E5000.00 ;Setup machine max acceleration
M203 X500.00 Y500.00 Z10.00 E50.00 ;Setup machine max feedrate
M204 P500.00 R1000.00 T500.00 ;Setup Print/Retract/Travel acceleration
M205 X8.00 Y8.00 Z0.40 E5.00 ;Setup Jerk
M220 S100 ;Reset Feedrate
M221 S100 ;Reset Flowrate

G28 ;Home

G92 E0 ;Reset Extruder
G1 Z2.0 F3000 ;Move Z Axis up
G1 X10.1 Y20 Z0.28 F5000.0 ;Move to start position
G1 X10.1 Y200.0 Z0.28 F1500.0 E15 ;Draw the first line
G1 X10.4 Y200.0 Z0.28 F5000.0 ;Move to side a little
G1 X10.4 Y20 Z0.28 F1500.0 E30 ;Draw the second line
G92 E0 ;Reset Extruder
G1 Z2.0 F3000 ;Move Z Axis up

G92 E0
G92 E0
G1 F2400 E-3
;LAYER_COUNT:112
;LAYER:0
M106 S63.8
M204 S500
M205 X6 Y6
G1 F300 Z0.44
G0 F9000 X100.891 Y88.277 Z0.44
;TYPE:SKIRT
G1 F300 Z0.24
G1 F2400 E0
G1 F1800 X101.357 Y87.751 E0.02805
G1 X102.006 Y87.098 E0.06479
G1 X102.709 Y86.504 E0.10153
G1 X103.461 Y85.973 E0.13827
G1 X104.174 Y85.554 E0.17128
G1 X104.442 Y85.41 E0.18342
G1 X104.916 Y85.17 E0.20462
G1 X104.994 Y85.133 E0.20807
G1 X105.842 Y84.775 E0.24481
G1 X106.718 Y84.492 E0.28155
G1 X107.615 Y84.286 E0.31828
G1 X108.349 Y84.173 E0.34792
G1 X109.266 Y84.087 E0.38468
G1 X110.186 Y84.08 E0.4214
G1 X111.104 Y84.153 E0.45816
G1 X111.762 Y84.255 E0.48473
G1 X112.044 Y84.308 E0.49619
G1 X112.94 Y84.518 E0.53292
G1 X113.816 Y84.804 E0.5697
G1 X114.662 Y85.165 E0.60641
G1 X115.36 Y85.531 E0.63786
G1 X115.747 Y85.753 E0.65567
G1 X116.525 Y86.246 E0.69243
G1 X117.258 Y86.804 E0.7292
G1 X117.939 Y87.423 E0.76593
G1 X118.718 Y88.287 E0.81236
G1 X118.882 Y88.49 E0.82278
G1 X119.488 Y89.318 E0.86373
G1 X119.517 Y89.362 E0.86583
G1 X119.81 Y89.834 E0.88801
G1 X120.214 Y90.524 E0.91992
G1 X123.24 Y95.865 E1.16493
G1 X123.566 Y96.458 E1.19193
G1 X123.71 Y96.73 E1.20422
G1 X124.245 Y97.776 E1.25111
G1 X124.568 Y98.429 E1.28019
G1 X125.755 Y100.668 E1.38133
G1 X127.011 Y102.881 E1.48289
G1 X128.314 Y105.031 E1.58323
G1 X128.606 Y105.487 E1.60484
G1 X129.214 Y106.46 E1.65064
G1 X129.376 Y106.727 E1.6631
G1 X129.765 Y107.394 E1.69392
G1 X133.921 Y114.716 E2.02995
G1 X134.305 Y115.413 E2.06171
G1 X134.712 Y116.238 E2.09843
G1 X135.147 Y117.404 E2.1481
G1 X135.28 Y117.837 E2.16618
G1 X135.512 Y118.728 E2.20292
G1 X135.665 Y119.635 E2.23964
G1 X135.74 Y120.553 E2.2764
G1 X135.744 Y121.214 E2.30278
G1 X135.737 Y121.494 E2.31396
G1 X135.674 Y122.412 E2.35068
G1 X135.531 Y123.322 E2.38745
G1 X135.311 Y124.216 E2.4242
G1 X135.108 Y124.834 E2.45016
G1 X134.894 Y125.392 E2.47401
G1 X134.783 Y125.659 E2.48555
G1 X134.393 Y126.493 E2.5223
G1 X133.932 Y127.29 E2.55905
G1 X133.116 Y128.403 E2.61413
G1 X132.965 Y128.583 E2.62351
G1 X132.343 Y129.262 E2.66026
G1 X131.665 Y129.884 E2.69698
G1 X130.969 Y130.421 E2.73207
G1 X130.743 Y130.581 E2.74312
G1 X129.969 Y131.08 E2.77987
G1 X129.258 Y131.461 E2.81207
G1 X128.546 Y131.801 E2.84356
G1 X127.725 Y132.17 E2.87949
G1 X127.45 Y132.289 E2.89145
G1 X126.517 Y132.677 E2.93178
G1 X126.242 Y132.787 E2.9436
G1 X125.358 Y133.126 E2.98138
G1 X125.09 Y133.225 E2.99279
G1 X124.22 Y133.532 E3.02961
G1 X123.941 Y133.626 E3.04136
G1 X123.04 Y133.916 E3.07914
G1 X122.761 Y134.002 E3.09079
G1 X121.863 Y134.264 E3.12813
G1 X121.587 Y134.34 E3.13955
G1 X120.643 Y134.588 E3.17851
G1 X120.345 Y134.662 E3.19076
G1 X119.444 Y134.871 E3.22768
G1 X119.181 Y134.928 E3.23842
G1 X118.236 Y135.122 E3.27692
G1 X117.923 Y135.182 E3.28964
G1 X116.987 Y135.345 E3.32756
G1 X116.72 Y135.388 E3.33836
G1 X115.828 Y135.52 E3.37435
G1 X115.533 Y135.559 E3.38622
G1 X114.503 Y135.682 E3.42762
G1 X114.199 Y135.714 E3.43982
G1 X113.368 Y135.789 E3.47313
G1 X113.084 Y135.811 E3.48449
G1 X112.072 Y135.875 E3.52497
G1 X111.781 Y135.889 E3.53659
G1 X110.857 Y135.922 E3.5735
G1 X110.55 Y135.929 E3.58575
G1 X109.656 Y135.935 E3.62143
G1 X109.367 Y135.933 E3.63297
G1 X108.348 Y135.912 E3.67365
G1 X108.056 Y135.902 E3.68531
G1 X107.184 Y135.86 E3.72015
G1 X106.886 Y135.841 E3.73207
G1 X105.853 Y135.762 E3.77342
G1 X105.557 Y135.735 E3.78528
G1 X104.717 Y135.647 E3.81899
G1 X104.437 Y135.614 E3.83025
G1 X103.412 Y135.479 E3.87151
G1 X103.123 Y135.437 E3.88317
G1 X102.316 Y135.308 E3.91578
G1 X102.031 Y135.259 E3.92733
G1 X100.983 Y135.062 E3.96989
G1 X100.697 Y135.004 E3.98153
G1 X99.769 Y134.803 E4.01943
G1 X99.476 Y134.735 E4.03144
G1 X98.689 Y134.541 E4.06379
G1 X98.406 Y134.467 E4.07546
G1 X97.366 Y134.18 E4.11852
G1 X97.087 Y134.099 E4.13012
G1 X96.266 Y133.848 E4.16438
G1 X96.003 Y133.764 E4.1754
G1 X95.085 Y133.457 E4.21404
G1 X94.803 Y133.358 E4.22596
G1 X93.896 Y133.026 E4.26451
G1 X93.613 Y132.918 E4.2766
G1 X92.773 Y132.583 E4.3127
G1 X92.496 Y132.468 E4.32467
G1 X91.598 Y132.08 E4.36371
G1 X90.984 Y131.799 E4.39066
G1 X90.167 Y131.374 E4.42742
G1 X89.372 Y130.868 E4.46503
G1 X89.031 Y130.629 E4.48165
G1 X88.301 Y130.069 E4.51837
G1 X87.622 Y129.447 E4.55512
G1 X87 Y128.768 E4.59188
G1 X86.489 Y128.11 E4.62513
G1 X86.439 Y128.04 E4.62856
G1 X86.079 Y127.501 E4.65443
G1 X85.942 Y127.282 E4.66474
G1 X85.488 Y126.481 E4.70149
G1 X85.105 Y125.643 E4.73826
G1 X84.714 Y124.493 E4.78674
G1 X84.633 Y124.201 E4.79884
G1 X84.425 Y123.304 E4.83559
G1 X84.297 Y122.393 E4.87231
G1 X84.248 Y121.473 E4.90908
G1 X84.272 Y120.636 E4.9425
G1 X84.281 Y120.506 E4.9477
G1 X84.328 Y120.002 E4.9679
G1 X84.359 Y119.738 E4.97851
G1 X84.506 Y118.829 E5.01526
G1 X84.732 Y117.936 E5.05203
G1 X84.969 Y117.233 E5.08164
G1 X85.012 Y117.119 E5.0865
G1 X85.539 Y115.944 E5.1379
G1 X85.986 Y115.09 E5.17637
G1 X86.07 Y114.933 E5.18348
G1 X89.655 Y108.358 E5.48237
G1 X90.009 Y107.73 E5.51114
G1 X90.158 Y107.475 E5.52293
G1 X90.817 Y106.379 E5.57397
G1 X92.143 Y104.101 E5.67918
G1 X93.346 Y101.894 E5.7795
G1 X94.526 Y99.57 E5.88353
G1 X95.051 Y98.509 E5.93077
G1 X95.183 Y98.252 E5.9423
G1 X95.488 Y97.677 E5.96828
G1 X99.276 Y90.732 E6.28402
G1 X99.706 Y89.968 E6.31901
G1 X100.193 Y89.186 E6.35578
G1 X100.891 Y88.277 E6.40152
G0 F9000 X101.195 Y88.537
G1 F1800 X101.652 Y88.02 E6.42907
G1 X102.29 Y87.38 E6.46513
G1 X102.981 Y86.799 E6.50117
G1 X103.721 Y86.282 E6.53719
G1 X104.363 Y85.906 E6.56689
G1 X104.631 Y85.762 E6.57903
G1 X105.087 Y85.531 E6.59943
G1 X105.165 Y85.494 E6.60288
G1 X105.998 Y85.144 E6.63894
G1 X106.858 Y84.868 E6.67499
G1 X108.137 Y84.607 E6.72709
G1 X108.404 Y84.57 E6.73785
G1 X109.303 Y84.485 E6.77389
G1 X110.206 Y84.481 E6.80993
G1 X111.106 Y84.556 E6.84598
G1 X111.688 Y84.649 E6.8695
G1 X111.97 Y84.702 E6.88095
G1 X112.849 Y84.907 E6.91698
G1 X113.707 Y85.19 E6.95304
G1 X114.536 Y85.548 E6.98908
G1 X115.161 Y85.878 E7.01729
G1 X115.548 Y86.1 E7.03509
G1 X116.311 Y86.584 E7.07116
G1 X117.028 Y87.133 E7.1072
G1 X117.694 Y87.744 E7.14327
G1 X118.407 Y88.538 E7.18586
G1 X118.571 Y88.741 E7.19628
G1 X119.154 Y89.538 E7.23569
G1 X119.183 Y89.582 E7.23779
G1 X119.465 Y90.036 E7.25913
G1 X119.866 Y90.722 E7.29084
G1 X122.825 Y95.943 E7.53036
G1 X123.215 Y96.651 E7.56262
G1 X123.354 Y96.912 E7.57443
G1 X123.887 Y97.953 E7.6211
G1 X124.229 Y98.643 E7.65184
G1 X125.404 Y100.862 E7.75205
G1 X126.655 Y103.065 E7.85317
G1 X127.968 Y105.232 E7.9543
G1 X128.267 Y105.699 E7.97643
G1 X128.875 Y106.672 E8.02222
G1 X129.03 Y106.929 E8.0342
G1 X129.417 Y107.591 E8.06481
G1 X133.573 Y114.913 E8.40084
G1 X133.954 Y115.605 E8.43236
G1 X134.353 Y116.415 E8.4684
G1 X134.764 Y117.521 E8.5155
G1 X134.897 Y117.954 E8.53357
G1 X135.124 Y118.828 E8.56961
G1 X135.273 Y119.719 E8.60567
G1 X135.342 Y120.62 E8.64174
G1 X135.344 Y121.204 E8.66505
G1 X135.337 Y121.484 E8.67622
G1 X135.274 Y122.385 E8.71227
G1 X135.132 Y123.277 E8.74832
G1 X134.912 Y124.153 E8.78437
G1 X134.732 Y124.698 E8.80728
G1 X134.525 Y125.239 E8.8304
G1 X134.414 Y125.506 E8.84194
G1 X134.03 Y126.323 E8.87797
G1 X133.576 Y127.104 E8.91403
G1 X132.809 Y128.145 E8.96563
G1 X132.658 Y128.325 E8.97501
G1 X132.048 Y128.991 E9.01106
G1 X131.381 Y129.6 E9.04711
G1 X130.738 Y130.095 E9.07949
G1 X130.512 Y130.255 E9.09054
G1 X129.752 Y130.744 E9.12661
G1 X129.083 Y131.101 E9.15688
G1 X128.382 Y131.437 E9.18791
G1 X127.561 Y131.806 E9.22383
G1 X127.297 Y131.92 E9.23531
G1 X126.364 Y132.308 E9.27564
G1 X126.099 Y132.414 E9.28703
G1 X125.215 Y132.753 E9.32482
G1 X124.957 Y132.848 E9.33579
G1 X124.087 Y133.155 E9.37261
G1 X123.818 Y133.245 E9.38393
G1 X122.917 Y133.535 E9.42171
G1 X122.649 Y133.618 E9.43291
G1 X121.751 Y133.88 E9.47024
G1 X121.486 Y133.953 E9.48122
G1 X120.542 Y134.201 E9.52017
G1 X120.255 Y134.272 E9.53197
G1 X119.354 Y134.481 E9.56889
G1 X119.1 Y134.537 E9.57927
G1 X118.155 Y134.731 E9.61777
G1 X117.854 Y134.788 E9.63
G1 X116.918 Y134.951 E9.66792
G1 X116.661 Y134.992 E9.67831
G1 X115.769 Y135.124 E9.7143
G1 X115.485 Y135.162 E9.72573
G1 X114.455 Y135.285 E9.76713
G1 X114.163 Y135.316 E9.77885
G1 X113.332 Y135.391 E9.81215
G1 X113.059 Y135.412 E9.82308
G1 X112.047 Y135.476 E9.86355
G1 X111.767 Y135.49 E9.87474
G1 X110.843 Y135.523 E9.91165
G1 X110.547 Y135.529 E9.92346
G1 X109.653 Y135.535 E9.95915
G1 X109.375 Y135.533 E9.97024
G1 X108.356 Y135.512 E10.01092
G1 X108.075 Y135.502 E10.02214
G1 X107.203 Y135.46 E10.05699
G1 X106.916 Y135.442 E10.06846
G1 X105.883 Y135.363 E10.10981
G1 X105.598 Y135.337 E10.12124
G1 X104.758 Y135.249 E10.15495
G1 X104.489 Y135.218 E10.16575
G1 X103.464 Y135.083 E10.20702
G1 X103.186 Y135.042 E10.21823
G1 X102.379 Y134.913 E10.25085
G1 X102.105 Y134.865 E10.26195
G1 X101.057 Y134.668 E10.30451
G1 X100.782 Y134.613 E10.31571
G1 X99.854 Y134.412 E10.3536
G1 X99.572 Y134.347 E10.36515
G1 X98.785 Y134.153 E10.3975
G1 X98.513 Y134.081 E10.40873
G1 X97.473 Y133.794 E10.45179
G1 X97.204 Y133.716 E10.46297
G1 X96.383 Y133.465 E10.49724
G1 X96.13 Y133.384 E10.50784
G1 X95.212 Y133.077 E10.54647
G1 X94.941 Y132.982 E10.55794
G1 X94.034 Y132.65 E10.59649
G1 X93.762 Y132.546 E10.60811
G1 X92.922 Y132.211 E10.6442
G1 X92.654 Y132.1 E10.65578
G1 X91.756 Y131.712 E10.69482
G1 X91.153 Y131.436 E10.72129
G1 X90.352 Y131.019 E10.75733
G1 X89.602 Y130.541 E10.79283
G1 X89.261 Y130.302 E10.80945
G1 X88.545 Y129.751 E10.84551
G1 X87.881 Y129.139 E10.88155
G1 X87.273 Y128.471 E10.9176
G1 X86.815 Y127.878 E10.94751
G1 X86.765 Y127.808 E10.95094
G1 X86.418 Y127.289 E10.97586
G1 X86.281 Y127.07 E10.98617
G1 X85.836 Y126.283 E11.02225
G1 X85.463 Y125.461 E11.05828
G1 X85.099 Y124.386 E11.10358
G1 X85.018 Y124.094 E11.11567
G1 X84.816 Y123.214 E11.15171
G1 X84.692 Y122.32 E11.18773
G1 X84.647 Y121.418 E11.22378
G1 X84.671 Y120.664 E11.25389
G1 X84.726 Y120.048 E11.27857
G1 X84.757 Y119.784 E11.28918
G1 X84.902 Y118.893 E11.32521
G1 X85.125 Y118.018 E11.36125
G1 X85.343 Y117.374 E11.38839
G1 X85.386 Y117.26 E11.39325
G1 X85.893 Y116.13 E11.44268
G1 X86.34 Y115.276 E11.48115
G1 X86.421 Y115.124 E11.48803
G1 X90.003 Y108.554 E11.78669
G1 X90.357 Y107.926 E11.81546
G1 X90.5 Y107.681 E11.82679
G1 X91.18 Y106.549 E11.87949
G1 X92.488 Y104.303 E11.98323
G1 X93.71 Y102.06 E12.08517
G1 X94.852 Y99.814 E12.18574
G1 X94.944 Y99.625 E12.19413
G1 X95.409 Y98.687 E12.23591
G1 X95.536 Y98.439 E12.24704
G1 X95.839 Y97.869 E12.2728
G1 X99.627 Y90.924 E12.58854
G1 X100.055 Y90.164 E12.62335
G1 X100.533 Y89.398 E12.65939
G1 X101.195 Y88.537 E12.70274
G1 F2400 E9.70274
G1 F300 Z0.44
;MESH:Cheese.stl
G0 F9000 X110.436 Y100.983 Z0.44
;TYPE:WALL-OUTER
G1 F300 Z0.24
G1 F2400 E12.70274
G1 F1800 X109.912 Y101.031 E12.72374
G1 X109.404 Y101.1 E12.7442
G1 X108.889 Y101.198 E12.76512
G1 X108.062 Y101.4 E12.7991
G1 X107.521 Y101.571 E12.82175
G1 X106.817 Y101.829 E12.85167
G1 X106.138 Y102.127 E12.88127
G1 X105.421 Y102.492 E12.91338
G1 X105.039 Y102.722 E12.93118
G1 X109.094 Y95.288 E13.26915
G1 X109.318 Y95.035 E13.28264
G1 X109.589 Y94.895 E13.29481
G1 X109.799 Y94.866 E13.30328
G1 X110.057 Y94.915 E13.31376
G1 X110.352 Y95.092 E13.32749
G1 X110.49 Y95.271 E13.33651
G1 X113.89 Y101.268 E13.61165
G1 X113.436 Y101.16 E13.63028
G1 X112.772 Y101.048 E13.65716
G1 X112.146 Y100.986 E13.68226
G1 X111.548 Y100.949 E13.70618
G1 X111.015 Y100.954 E13.72745
G1 X110.436 Y100.983 E13.75059
G0 F9000 X110.405 Y100.545
G1 F2400 E10.75059
G1 F300 Z0.44
G0 F9000 X113.108 Y100.699 Z0.44
;TYPE:WALL-INNER
G1 F300 Z0.24
G1 F2400 E13.75059
G1 F1800 X112.825 Y100.651 E13.76205
G1 X112.656 Y100.635 E13.76882
G1 X112.178 Y100.587 E13.78799
G1 X111.558 Y100.549 E13.81279
G1 X111.003 Y100.554 E13.83494
G1 X110.408 Y100.584 E13.85872
G1 X109.867 Y100.633 E13.8804
G1 X109.34 Y100.705 E13.90163
G1 X108.804 Y100.807 E13.9234
G1 X107.954 Y101.015 E13.95833
G1 X107.392 Y101.192 E13.98185
G1 X106.668 Y101.458 E14.01263
G1 X106.566 Y101.503 E14.01708
G1 X106.032 Y101.736 E14.04033
G1 X106.311 Y101.225 E14.05257
G1 X109.425 Y95.517 E14.31209
G1 X109.567 Y95.356 E14.32066
G1 X109.712 Y95.282 E14.32715
G1 X109.788 Y95.271 E14.33022
G1 X109.912 Y95.295 E14.33526
G1 X110.081 Y95.396 E14.34312
G1 X110.157 Y95.494 E14.34807
G1 X112.935 Y100.394 E14.57288
G1 X113.018 Y100.541 E14.57677
G1 X113.108 Y100.699 E14.57786
G0 F9000 X112.367 Y100.204
G1 F1800 X112.21 Y100.188 E14.58416
G1 X111.962 Y100.173 E14.59408
G1 X111.568 Y100.149 E14.60983
G1 X110.991 Y100.154 E14.63286
G1 X110.38 Y100.185 E14.65728
G1 X109.822 Y100.235 E14.67964
G1 X109.275 Y100.31 E14.70168
G1 X108.719 Y100.416 E14.72427
G1 X107.846 Y100.63 E14.76014
G1 X107.452 Y100.754 E14.77663
G1 X107.263 Y100.813 E14.78453
G1 X106.923 Y100.938 E14.79899
G1 X107.053 Y100.699 E14.80153
G1 X107.148 Y100.525 E14.80796
G1 X109.616 Y96.003 E15.01357
G1 X109.754 Y95.749 E15.02511
G1 X109.802 Y95.695 E15.02799
G1 X109.811 Y95.7 E15.0284
G1 X109.823 Y95.716
G1 X109.966 Y95.968 E15.03587
G1 X112.199 Y99.908 E15.21662
G1 X112.321 Y100.124 E15.22357
G1 X112.367 Y100.204
G0 F9000 X111.669 Y99.765
;TYPE:SKIN
G1 F1800 X111.578 Y99.759 E15.22721
G1 X110.979 Y99.764 E15.25112
G1 X110.353 Y99.795 E15.27613
G1 X109.777 Y99.847 E15.29922
G1 X109.212 Y99.925 E15.32198
G1 X108.636 Y100.035 E15.34539
G1 X107.741 Y100.254 E15.38216
G1 X109.804 Y96.473 E15.55407
G1 X111.669 Y99.765 E15.70508
G1 F2400 E12.70508
G1 F300 Z0.44
G0 F9000 X109.608 Y97.163 Z0.44
G1 F300 Z0.24
G1 F2400 E15.70508
G1 F1800 X110.534 Y98.089 E15.75735
G0 F9000 X109.408 Y97.529
G1 F1800 X111.274 Y99.395 E15.86267
G0 F9000 X110.919 Y99.605
G1 F1800 X109.209 Y97.895 E15.95919
G0 F9000 X109.008 Y98.26
G1 F1800 X110.38 Y99.632 E16.03664
G0 F9000 X109.861 Y99.678
G1 F1800 X108.809 Y98.627 E16.09599
G0 F9000 X108.609 Y98.992
G1 F1800 X109.359 Y99.743 E16.13835
G0 F9000 X108.876 Y99.825
G1 F1800 X108.41 Y99.359 E16.16465
G0 F9000 X108.209 Y99.724
G1 F1800 X108.41 Y99.924 E16.17597
G0 F9000 X107.607 Y100.536
;TYPE:SKIN
G1 F1800 X107.423 Y100.352 E16.18116
G0 F9000 X107.323 Y100.535
G1 F1800 X107.391 Y100.603 E16.18308
G1 F2400 E13.18308
G1 F300 Z0.44
G0 F9000 X111.785 Y99.906 Z0.44
G1 F300 Z0.24
G1 F2400 E16.18308
G1 F1800 X111.887 Y100.008 E16.18596
G0 F9000 X111.939 Y99.777
G1 F1800 X111.895 Y99.733 E16.1872
G1 F2400 E13.1872
G1 F300 Z0.44
G0 F9000 X109.873 Y96.296 Z0.44
G1 F300 Z0.24
G1 F2400 E16.1872
G1 F1800 X109.72 Y96.143 E16.19152
G1 F2400 E13.19152
G1 F300 Z0.44
G0 F9000 X112.548 Y100.386 Z0.44
G1 F300 Z0.24
G1 F2400 E16.19152
G1 F1800 X113.331 Y100.886 E16.20066
G1 F2400 E13.20066
G1 F300 Z0.44
G0 F9000 X106.748 Y101.092 Z0.44
G1 F300 Z0.24
G1 F2400 E16.20066
G1 F1800 X106.595 Y101.221 E16.20988
G0 F9000 X105.86 Y101.9
G1 F1800 X105.716 Y102.039 E16.2163
G1 X105.572 Y102.178 E16.22272
G1 F2400 E13.22272
G1 F300 Z0.44
G0 F9000 X102.958 Y118.251 Z0.44
;TYPE:WALL-OUTER
G1 F300 Z0.24
G1 F2400 E16.22272
G1 F1800 X103.167 Y118.362 E16.23217
G1 X103.618 Y118.597 E16.25246
G1 X104.205 Y118.862 E16.27817
G1 X104.819 Y119.1 E16.30445
G1 X105.736 Y119.372 E16.34263
G1 X106.539 Y119.545 E16.37541
G1 X106.672 Y119.568 E16.3808
G1 X107.259 Y119.644 E16.40442
G1 X107.791 Y119.704 E16.42579
G1 X108.722 Y119.737 E16.46297
G1 X109.345 Y119.73 E16.48784
G1 X110.278 Y119.656 E16.52519
G1 X110.434 Y119.637 E16.53147
