;FLAVOR:Marlin
;TIME:1228
;Filament used: 0.542965m
;Layer height: 0.16
;MINX:78.744
;MINY:82.433
;MINZ:0.24
;MAXX:141.254
;MAXY:138.911
;MAXZ:14.08
;Generated with Cura_SteamEngine 4.7.1
M140 S50
M105
M190 S50
M104 S215
M105
M109 S215
M82 ;absolute extrusion mode
M201 X500.00 Y500.00 Z100.00 E5000.00 ;Setup machine max acceleration
M203 X500.00 Y500.00 Z10.00 E50.00 ;Setup machine max feedrate
M204 P500.00 R1000.00 T500.00 ;Setup Print/Retract/Travel acceleration
M205 X8.00 Y8.00 Z0.40 E5.00 ;Setup Jerk
M220 S100 ;Reset Feedrate
M221 S100 ;Reset Flowrate

G28 ;Home

G92 E0 ;Reset Extruder
G1 Z2.0 F3000 ;Move Z Axis up
G1 X10.1 Y20 Z0.28 F5000.0 ;Move to start position
G1 X10.1 Y200.0 Z0.28 F1500.0 E15 ;Draw the first line
G1 X10.4 Y200.0 Z0.28 F5000.0 ;Move to side a little
G1 X10.4 Y20 Z0.28 F1500.0 E30 ;Draw the second line
G92 E0 ;Reset Extruder
G1 Z2.0 F3000 ;Move Z Axis up

G92 E0
G92 E0
G1 F2400 E-3
;LAYER_COUNT:95
;LAYER:0
M106 S63.8
M204 S500
M205 X6 Y6
G1 F300 Z0.44
G0 F9000 X87.227 Y91.3 Z0.44
;TYPE:SKIRT
G1 F300 Z0.24
G1 F2400 E0
G1 F1800 X87.779 Y90.783 E0.03019
G1 X88.028 Y90.559 E0.04355
G1 X88.637 Y90.029 E0.07578
G1 X89.086 Y89.659 E0.099
G1 X90.001 Y88.947 E0.14527
G1 X90.455 Y88.61 E0.16784
G1 X90.696 Y88.44 E0.17961
G1 X91.168 Y88.116 E0.20246
G1 X91.431 Y87.941 E0.21507
G1 X92.309 Y87.376 E0.25674
G1 X92.889 Y87.022 E0.28386
G1 X93.427 Y86.713 E0.30862
G1 X93.702 Y86.563 E0.32112
G1 X94.808 Y85.981 E0.371
G1 X95.601 Y85.593 E0.40624
G1 X96.082 Y85.377 E0.42728
G1 X97.283 Y84.873 E0.47927
G1 X97.669 Y84.72 E0.49584
G1 X98.604 Y84.37 E0.53569
G1 X99.345 Y84.113 E0.56699
G1 X99.998 Y83.911 E0.59427
G1 X101.294 Y83.546 E0.64801
G1 X101.892 Y83.391 E0.67267
G1 X102.51 Y83.248 E0.69798
G1 X102.768 Y83.193 E0.70851
G1 X103.725 Y83.001 E0.74747
G1 X104.114 Y82.931 E0.76325
G1 X104.848 Y82.812 E0.79292
G1 X105.328 Y82.745 E0.81227
G1 X106.653 Y82.592 E0.8655
G1 X107.314 Y82.532 E0.89199
G1 X107.817 Y82.498 E0.91211
G1 X108.125 Y82.482 E0.92442
G1 X109.115 Y82.444 E0.96397
G1 X109.491 Y82.436 E0.97898
G1 X110.508 Y82.433 E1.01957
G1 X110.914 Y82.44 E1.03577
G1 X111.62 Y82.465 E1.06397
G1 X112.16 Y82.494 E1.08555
G1 X112.89 Y82.548 E1.11477
G1 X113.531 Y82.608 E1.14046
G1 X114.32 Y82.697 E1.17215
G1 X114.827 Y82.765 E1.19257
G1 X115.57 Y82.878 E1.22257
G1 X116.041 Y82.96 E1.24165
G1 X117.234 Y83.197 E1.29019
G1 X117.623 Y83.282 E1.30609
G1 X118.371 Y83.46 E1.33677
G1 X118.792 Y83.569 E1.35413
G1 X119.768 Y83.844 E1.3946
G1 X120.136 Y83.955 E1.40994
G1 X120.693 Y84.134 E1.43329
G1 X121.06 Y84.26 E1.44878
G1 X122.087 Y84.632 E1.49238
G1 X122.478 Y84.782 E1.50909
G1 X123.29 Y85.113 E1.54409
G1 X123.705 Y85.293 E1.56214
G1 X124.759 Y85.776 E1.60842
G1 X125.096 Y85.937 E1.62332
G1 X125.716 Y86.248 E1.65101
G1 X126.433 Y86.637 E1.68357
G1 X127.571 Y87.303 E1.73619
G1 X127.876 Y87.488 E1.75043
G1 X128.329 Y87.774 E1.77181
G1 X128.7 Y88.019 E1.78956
G1 X129.193 Y88.36 E1.81348
G1 X129.771 Y88.778 E1.84195
G1 X130.06 Y88.996 E1.8564
G1 X130.924 Y89.673 E1.90021
G1 X131.591 Y90.226 E1.93479
G1 X131.822 Y90.426 E1.94699
G1 X132.23 Y90.79 E1.96881
G1 X132.573 Y91.11 E1.98753
G1 X133.171 Y91.693 E2.02086
G1 X133.375 Y91.898 E2.03241
G1 X133.747 Y92.281 E2.05372
G1 X134.098 Y92.66 E2.07433
G1 X134.711 Y93.356 E2.11135
G1 X135.197 Y93.934 E2.14149
G1 X135.511 Y94.331 E2.16169
G1 X136.112 Y95.128 E2.20153
G1 X136.514 Y95.687 E2.22902
G1 X136.823 Y96.149 E2.2512
G1 X137.386 Y97.041 E2.2933
G1 X137.743 Y97.638 E2.32106
G1 X138.022 Y98.142 E2.34405
G1 X138.521 Y99.106 E2.38738
G1 X138.795 Y99.666 E2.41226
G1 X139.04 Y100.217 E2.43633
G1 X139.469 Y101.259 E2.4813
G1 X139.682 Y101.813 E2.50499
G1 X139.882 Y102.395 E2.52956
G1 X140.236 Y103.535 E2.5772
G1 X140.446 Y104.282 E2.60817
G1 X140.557 Y104.731 E2.62663
G1 X140.702 Y105.377 E2.65305
G1 X140.796 Y105.848 E2.67222
G1 X140.899 Y106.429 E2.69577
G1 X140.989 Y107.04 E2.72042
G1 X141.135 Y108.281 E2.7703
G1 X141.2 Y109.053 E2.80122
G1 X141.233 Y109.706 E2.82731
G1 X141.254 Y110.451 E2.85706
G1 X141.25 Y111.04 E2.88057
G1 X141.227 Y111.703 E2.90705
G1 X141.204 Y112.115 E2.92352
G1 X141.129 Y113.132 E2.96422
G1 X141.076 Y113.684 E2.98635
G1 X140.985 Y114.338 E3.0127
G1 X140.776 Y115.565 E3.06238
G1 X140.678 Y116.078 E3.08323
G1 X140.504 Y116.833 E3.11415
G1 X140.441 Y117.082 E3.1244
G1 X140.278 Y117.693 E3.14964
G1 X140.138 Y118.173 E3.1696
G1 X139.924 Y118.846 E3.19778
G1 X139.765 Y119.308 E3.21728
G1 X139.571 Y119.833 E3.23962
G1 X139.358 Y120.364 E3.26246
G1 X138.95 Y121.308 E3.3035
G1 X138.771 Y121.7 E3.3207
G1 X138.358 Y122.558 E3.35871
G1 X138.039 Y123.178 E3.38654
G1 X137.808 Y123.593 E3.40549
G1 X137.514 Y124.094 E3.42868
G1 X137.248 Y124.524 E3.44886
G1 X136.729 Y125.319 E3.48675
G1 X136.478 Y125.686 E3.5045
G1 X136.015 Y126.334 E3.53628
G1 X135.744 Y126.697 E3.55436
G1 X135.291 Y127.277 E3.58374
G1 X135.036 Y127.591 E3.59988
G1 X134.645 Y128.054 E3.62407
G1 X134.377 Y128.359 E3.64027
G1 X133.816 Y128.974 E3.6735
G1 X133.541 Y129.264 E3.68945
G1 X133.176 Y129.635 E3.71022
G1 X132.905 Y129.901 E3.72538
G1 X132.256 Y130.515 E3.76104
G1 X131.667 Y131.042 E3.79258
G1 X131.413 Y131.257 E3.80586
G1 X130.652 Y131.883 E3.84519
G1 X129.978 Y132.406 E3.87924
G1 X129.69 Y132.619 E3.89354
G1 X128.987 Y133.119 E3.92797
G1 X128.707 Y133.311 E3.94152
G1 X128.189 Y133.655 E3.96634
G1 X127.614 Y134.014 E3.99339
G1 X126.468 Y134.683 E4.04635
G1 X125.747 Y135.079 E4.07919
G1 X125.249 Y135.332 E4.10148
G1 X124.081 Y135.886 E4.15308
G1 X123.305 Y136.228 E4.18692
G1 X122.946 Y136.375 E4.20241
G1 X121.778 Y136.828 E4.25241
G1 X121.405 Y136.964 E4.26825
G1 X120.655 Y137.223 E4.29992
G1 X120.086 Y137.402 E4.32373
G1 X118.809 Y137.764 E4.3767
G1 X118.436 Y137.863 E4.39211
G1 X117.79 Y138.021 E4.41865
G1 X117.348 Y138.119 E4.43672
G1 X116.071 Y138.374 E4.48869
G1 X115.55 Y138.464 E4.5098
G1 X114.653 Y138.597 E4.54599
G1 X114.359 Y138.637 E4.55783
G1 X113.708 Y138.715 E4.584
G1 X113.305 Y138.755 E4.60016
G1 X112.344 Y138.833 E4.63864
G1 X111.919 Y138.859 E4.65564
G1 X110.94 Y138.899 E4.69475
G1 X110.541 Y138.908 E4.71067
G1 X109.619 Y138.911 E4.74747
G1 X109.178 Y138.903 E4.76508
G1 X108.214 Y138.866 E4.80358
G1 X107.815 Y138.843 E4.81953
G1 X106.858 Y138.77 E4.85784
G1 X106.456 Y138.732 E4.87396
G1 X105.584 Y138.632 E4.90899
G1 X105.172 Y138.576 E4.92558
G1 X104.254 Y138.434 E4.96266
G1 X103.718 Y138.34 E4.98438
G1 X102.997 Y138.198 E5.01371
G1 X102.514 Y138.091 E5.03345
G1 X101.424 Y137.823 E5.07825
G1 X101.032 Y137.719 E5.09444
G1 X99.934 Y137.404 E5.14003
G1 X99.148 Y137.154 E5.17295
G1 X98.818 Y137.04 E5.18688
G1 X97.597 Y136.594 E5.23877
G1 X96.878 Y136.31 E5.26962
G1 X96.401 Y136.103 E5.29037
G1 X95.262 Y135.577 E5.34045
G1 X94.91 Y135.407 E5.35605
G1 X94.092 Y134.992 E5.39266
G1 X93.507 Y134.671 E5.41929
G1 X92.353 Y133.991 E5.47275
G1 X91.649 Y133.553 E5.50584
G1 X91.272 Y133.303 E5.5239
G1 X90.818 Y132.988 E5.54595
G1 X90.599 Y132.832 E5.55668
G1 X90.166 Y132.515 E5.5781
G1 X89.896 Y132.31 E5.59163
G1 X89.124 Y131.706 E5.63076
G1 X88.574 Y131.254 E5.65917
G1 X88.325 Y131.041 E5.67225
G1 X87.946 Y130.705 E5.69246
G1 X87.726 Y130.504 E5.70436
G1 X87.226 Y130.035 E5.73172
G1 X86.964 Y129.781 E5.74628
G1 X86.559 Y129.374 E5.7692
G1 X86.34 Y129.147 E5.78179
G1 X85.92 Y128.699 E5.8063
G1 X85.683 Y128.437 E5.8204
G1 X85.313 Y128.015 E5.8428
G1 X85.098 Y127.763 E5.85602
G1 X84.754 Y127.345 E5.87763
G1 X84.523 Y127.054 E5.89245
G1 X84.098 Y126.499 E5.92035
G1 X83.618 Y125.837 E5.95299
G1 X83.413 Y125.539 E5.96743
G1 X83.002 Y124.92 E5.99708
G1 X82.579 Y124.243 E6.02894
G1 X82.401 Y123.943 E6.04287
G1 X82.055 Y123.335 E6.07079
G1 X81.876 Y123.007 E6.0857
G1 X81.629 Y122.535 E6.10696
G1 X81.45 Y122.175 E6.12301
G1 X81.154 Y121.553 E6.1505
G1 X80.797 Y120.744 E6.1858
G1 X80.654 Y120.394 E6.20089
G1 X80.417 Y119.785 E6.22697
G1 X80.275 Y119.398 E6.24342
G1 X80.068 Y118.798 E6.26875
G1 X79.805 Y117.959 E6.30385
G1 X79.693 Y117.565 E6.3202
G1 X79.542 Y116.989 E6.34396
G1 X79.453 Y116.621 E6.35907
G1 X79.296 Y115.921 E6.38771
G1 X79.137 Y115.096 E6.42124
G1 X79.073 Y114.706 E6.43701
G1 X78.964 Y113.949 E6.46754
G1 X78.912 Y113.526 E6.48455
G1 X78.857 Y112.993 E6.50593
G1 X78.824 Y112.601 E6.52163
G1 X78.783 Y111.978 E6.54655
G1 X78.75 Y111.123 E6.5807
G1 X78.744 Y110.41 E6.60916
G1 X78.754 Y109.922 E6.62864
G1 X78.785 Y109.212 E6.65701
G1 X78.818 Y108.718 E6.67677
G1 X78.883 Y108 E6.70554
G1 X78.944 Y107.477 E6.72656
G1 X79.048 Y106.739 E6.7563
G1 X79.124 Y106.275 E6.77507
G1 X79.245 Y105.626 E6.80142
G1 X79.373 Y105.023 E6.82602
G1 X79.542 Y104.319 E6.85492
G1 X79.664 Y103.856 E6.87403
G1 X79.863 Y103.166 E6.90269
G1 X80.003 Y102.717 E6.92146
G1 X80.241 Y102.011 E6.9512
G1 X80.407 Y101.555 E6.97057
G1 X80.617 Y101.015 E6.99369
G1 X80.821 Y100.526 E7.01484
G1 X81.125 Y99.847 E7.04453
G1 X81.276 Y99.524 E7.05876
G1 X81.578 Y98.906 E7.08622
G1 X81.761 Y98.549 E7.10223
G1 X82.004 Y98.096 E7.12275
G1 X82.184 Y97.774 E7.13747
G1 X82.542 Y97.159 E7.16587
G1 X82.979 Y96.454 E7.19898
G1 X83.172 Y96.158 E7.21308
G1 X83.508 Y95.662 E7.23699
G1 X83.731 Y95.346 E7.25243
G1 X84.168 Y94.749 E7.28196
G1 X84.638 Y94.141 E7.31263
G1 X84.85 Y93.879 E7.32608
G1 X85.35 Y93.283 E7.35713
G1 X85.856 Y92.71 E7.38764
G1 X86.11 Y92.435 E7.40258
G1 X86.659 Y91.863 E7.43422
G1 X87.227 Y91.3 E7.46614
G0 F9000 X87.507 Y91.586
G1 F1800 X88.051 Y91.076 E7.49591
G1 X88.291 Y90.861 E7.50877
G1 X88.9 Y90.331 E7.54099
G1 X89.332 Y89.975 E7.56333
G1 X90.247 Y89.263 E7.6096
G1 X90.69 Y88.934 E7.63163
G1 X90.922 Y88.77 E7.64297
G1 X91.394 Y88.446 E7.66582
G1 X91.647 Y88.278 E7.67794
G1 X92.525 Y87.713 E7.71961
G1 X93.095 Y87.365 E7.74627
G1 X93.624 Y87.061 E7.77062
G1 X93.888 Y86.917 E7.78262
G1 X94.994 Y86.335 E7.8325
G1 X95.774 Y85.954 E7.86715
G1 X96.237 Y85.746 E7.88741
G1 X97.438 Y85.242 E7.93939
G1 X97.809 Y85.094 E7.95533
G1 X98.744 Y84.744 E7.99518
G1 X99.473 Y84.492 E8.02596
G1 X100.107 Y84.296 E8.05245
G1 X101.403 Y83.931 E8.10619
G1 X101.989 Y83.779 E8.13035
G1 X102.598 Y83.638 E8.1553
G1 X102.847 Y83.585 E8.16546
G1 X103.804 Y83.393 E8.20442
G1 X104.178 Y83.325 E8.21959
G1 X104.912 Y83.206 E8.24927
G1 X105.374 Y83.142 E8.26788
G1 X106.699 Y82.989 E8.32112
G1 X107.341 Y82.931 E8.34685
G1 X107.844 Y82.897 E8.36697
G1 X108.141 Y82.882 E8.37884
G1 X109.131 Y82.844 E8.41838
G1 X109.492 Y82.836 E8.43279
G1 X110.509 Y82.833 E8.47338
G1 X110.9 Y82.839 E8.48899
G1 X111.606 Y82.864 E8.51719
G1 X112.13 Y82.893 E8.53813
G1 X112.86 Y82.947 E8.56735
G1 X113.486 Y83.005 E8.59244
G1 X114.275 Y83.094 E8.62413
G1 X114.767 Y83.16 E8.64394
G1 X115.51 Y83.273 E8.67394
G1 X115.963 Y83.353 E8.6923
G1 X117.156 Y83.59 E8.74084
G1 X117.53 Y83.671 E8.75612
G1 X118.278 Y83.849 E8.7868
G1 X118.683 Y83.954 E8.8035
G1 X119.659 Y84.229 E8.84397
G1 X120.014 Y84.336 E8.85877
G1 X120.571 Y84.515 E8.88212
G1 X120.924 Y84.636 E8.89702
G1 X121.951 Y85.008 E8.94061
G1 X122.327 Y85.153 E8.9567
G1 X123.139 Y85.484 E8.9917
G1 X123.538 Y85.656 E9.00904
G1 X124.592 Y86.139 E9.05531
G1 X124.916 Y86.295 E9.06966
G1 X125.536 Y86.606 E9.09735
G1 X126.231 Y86.982 E9.12889
G1 X127.369 Y87.648 E9.18151
G1 X127.662 Y87.826 E9.1952
G1 X128.115 Y88.112 E9.21658
G1 X128.472 Y88.348 E9.23366
G1 X128.965 Y88.689 E9.25758
G1 X129.535 Y89.101 E9.28565
G1 X129.813 Y89.311 E9.29956
G1 X130.677 Y89.988 E9.34337
G1 X131.333 Y90.532 E9.37738
G1 X131.555 Y90.725 E9.38912
G1 X131.963 Y91.089 E9.41095
G1 X132.293 Y91.396 E9.42894
G1 X132.891 Y91.979 E9.46227
G1 X133.088 Y92.176 E9.47339
G1 X133.46 Y92.559 E9.4947
G1 X133.797 Y92.924 E9.51453
G1 X134.41 Y93.62 E9.55154
G1 X134.889 Y94.19 E9.58126
G1 X135.192 Y94.572 E9.60072
G1 X135.793 Y95.369 E9.64056
G1 X136.187 Y95.918 E9.66753
G1 X136.485 Y96.363 E9.68891
G1 X137.048 Y97.255 E9.73101
G1 X137.398 Y97.841 E9.75825
G1 X137.666 Y98.326 E9.78036
G1 X138.165 Y99.29 E9.82369
G1 X138.434 Y99.839 E9.84809
G1 X138.67 Y100.369 E9.87125
G1 X139.099 Y101.411 E9.91622
G1 X139.308 Y101.953 E9.93941
G1 X139.5 Y102.514 E9.96307
G1 X139.854 Y103.654 E10.01071
G1 X140.059 Y104.386 E10.04105
G1 X140.166 Y104.818 E10.05882
G1 X140.311 Y105.464 E10.08524
G1 X140.402 Y105.918 E10.10372
G1 X140.505 Y106.499 E10.12727
G1 X140.592 Y107.087 E10.151
G1 X140.738 Y108.328 E10.20087
G1 X140.801 Y109.073 E10.23071
G1 X140.834 Y109.726 E10.25681
G1 X140.854 Y110.459 E10.28607
G1 X140.85 Y111.026 E10.3087
G1 X140.827 Y111.689 E10.33518
G1 X140.805 Y112.085 E10.35101
G1 X140.73 Y113.102 E10.39171
G1 X140.678 Y113.641 E10.41332
G1 X140.591 Y114.271 E10.43871
G1 X140.382 Y115.498 E10.48839
G1 X140.286 Y115.999 E10.50875
G1 X140.115 Y116.74 E10.5391
G1 X140.054 Y116.979 E10.54894
G1 X139.891 Y117.59 E10.57418
G1 X139.756 Y118.052 E10.59339
G1 X139.542 Y118.725 E10.62158
G1 X139.39 Y119.169 E10.64031
G1 X139.196 Y119.694 E10.66265
G1 X138.991 Y120.206 E10.68466
G1 X138.583 Y121.15 E10.72571
G1 X138.411 Y121.527 E10.74224
G1 X137.998 Y122.385 E10.78025
G1 X137.686 Y122.991 E10.80745
G1 X137.463 Y123.39 E10.8257
G1 X137.169 Y123.891 E10.84888
G1 X136.913 Y124.305 E10.86831
G1 X136.394 Y125.1 E10.9062
G1 X136.152 Y125.454 E10.92332
G1 X135.689 Y126.102 E10.9551
G1 X135.429 Y126.45 E10.97244
G1 X134.976 Y127.03 E11.00181
G1 X134.73 Y127.333 E11.01739
G1 X134.339 Y127.796 E11.04158
G1 X134.082 Y128.089 E11.05713
G1 X133.521 Y128.704 E11.09036
G1 X133.256 Y128.983 E11.10572
G1 X132.891 Y129.354 E11.12649
G1 X132.63 Y129.611 E11.14111
G1 X131.981 Y130.225 E11.17677
G1 X131.403 Y130.741 E11.20769
G1 X131.159 Y130.948 E11.22046
G1 X130.398 Y131.574 E11.25979
G1 X129.736 Y132.088 E11.29324
G1 X129.458 Y132.293 E11.30703
G1 X128.755 Y132.793 E11.34146
G1 X128.486 Y132.978 E11.35449
G1 X127.968 Y133.322 E11.37931
G1 X127.412 Y133.669 E11.40547
G1 X126.266 Y134.338 E11.45843
G1 X125.557 Y134.728 E11.49073
G1 X125.077 Y134.971 E11.5122
G1 X123.909 Y135.525 E11.56379
G1 X123.147 Y135.86 E11.59702
G1 X122.801 Y136.002 E11.61194
G1 X121.633 Y136.455 E11.66194
G1 X121.274 Y136.586 E11.6772
G1 X120.524 Y136.845 E11.70887
G1 X119.977 Y137.017 E11.73175
G1 X118.7 Y137.379 E11.78473
G1 X118.341 Y137.474 E11.79955
G1 X117.695 Y137.632 E11.82609
G1 X117.269 Y137.727 E11.84351
G1 X115.992 Y137.982 E11.89549
G1 X115.491 Y138.069 E11.91578
G1 X114.594 Y138.202 E11.95197
G1 X114.311 Y138.24 E11.96337
G1 X113.66 Y138.318 E11.98954
G1 X113.272 Y138.357 E12.0051
G1 X112.311 Y138.435 E12.04359
G1 X111.902 Y138.459 E12.05994
G1 X110.923 Y138.499 E12.09904
G1 X110.54 Y138.508 E12.11433
G1 X109.618 Y138.511 E12.15113
G1 X109.194 Y138.503 E12.16806
G1 X108.23 Y138.466 E12.20656
G1 X107.845 Y138.444 E12.22195
G1 X106.888 Y138.371 E12.26026
G1 X106.502 Y138.335 E12.27573
G1 X105.63 Y138.235 E12.31077
G1 X105.233 Y138.181 E12.32676
G1 X104.315 Y138.039 E12.36383
G1 X103.795 Y137.948 E12.3849
G1 X103.074 Y137.806 E12.41423
G1 X102.61 Y137.703 E12.4332
G1 X101.52 Y137.435 E12.478
G1 X101.142 Y137.335 E12.49361
G1 X100.044 Y137.02 E12.5392
G1 X99.273 Y136.774 E12.5715
G1 X98.955 Y136.664 E12.58493
G1 X97.734 Y136.218 E12.63681
G1 X97.027 Y135.939 E12.66715
G1 X96.569 Y135.74 E12.68708
G1 X95.43 Y135.214 E12.73715
G1 X95.091 Y135.05 E12.75218
G1 X94.273 Y134.635 E12.78879
G1 X93.71 Y134.327 E12.8144
G1 X92.556 Y133.647 E12.86786
G1 X91.863 Y133.215 E12.90046
G1 X91.5 Y132.974 E12.91785
G1 X91.046 Y132.659 E12.9399
G1 X90.836 Y132.509 E12.9502
G1 X90.403 Y132.192 E12.97162
G1 X90.143 Y131.995 E12.98464
G1 X89.371 Y131.391 E13.02376
G1 X88.83 Y130.947 E13.0517
G1 X88.59 Y130.741 E13.06432
G1 X88.211 Y130.405 E13.08453
G1 X88 Y130.212 E13.09595
G1 X87.5 Y129.743 E13.12331
G1 X87.248 Y129.499 E13.13731
G1 X86.843 Y129.092 E13.16023
G1 X86.632 Y128.873 E13.17236
G1 X86.212 Y128.425 E13.19687
G1 X85.983 Y128.173 E13.21046
G1 X85.613 Y127.751 E13.23286
G1 X85.407 Y127.509 E13.24555
G1 X85.063 Y127.091 E13.26715
G1 X84.841 Y126.81 E13.28145
G1 X84.416 Y126.255 E13.30935
G1 X83.944 Y125.605 E13.34141
G1 X83.747 Y125.318 E13.3553
G1 X83.336 Y124.699 E13.38496
G1 X82.92 Y124.034 E13.41626
G1 X82.749 Y123.745 E13.42967
G1 X82.403 Y123.137 E13.45759
G1 X82.231 Y122.821 E13.47195
G1 X81.984 Y122.349 E13.49321
