;FLAVOR:Marlin
;TIME:1403
;Filament used: 0.530136m
;Layer height: 0.16
;MINX:86.254
;MINY:90.252
;MINZ:0.24
;MAXX:133.563
;MAXY:129.748
;MAXZ:15.84
;Generated with Cura_SteamEngine 4.7.1
M140 S50
M105
M190 S50
M104 S215
M105
M109 S215
M82 ;absolute extrusion mode
M201 X500.00 Y500.00 Z100.00 E5000.00 ;Setup machine max acceleration
M203 X500.00 Y500.00 Z10.00 E50.00 ;Setup machine max feedrate
M204 P500.00 R1000.00 T500.00 ;Setup Print/Retract/Travel acceleration
M205 X8.00 Y8.00 Z0.40 E5.00 ;Setup Jerk
M220 S100 ;Reset Feedrate
M221 S100 ;Reset Flowrate

G28 ;Home

G92 E0 ;Reset Extruder
G1 Z2.0 F3000 ;Move Z Axis up
G1 X10.1 Y20 Z0.28 F5000.0 ;Move to start position
G1 X10.1 Y200.0 Z0.28 F1500.0 E15 ;Draw the first line
G1 X10.4 Y200.0 Z0.28 F5000.0 ;Move to side a little
G1 X10.4 Y20 Z0.28 F1500.0 E30 ;Draw the second line
G92 E0 ;Reset Extruder
G1 Z2.0 F3000 ;Move Z Axis up

G92 E0
G92 E0
G1 F2400 E-3
;LAYER_COUNT:102
;LAYER:0
M106 S63.8
M204 S500
M205 X6 Y6
G1 F300 Z0.44
G0 F9000 X94.144 Y96.696 Z0.44
;TYPE:SKIRT
G1 F300 Z0.24
G1 F2400 E0
G1 F1800 X94.778 Y96.08 E0.03528
G1 X95.174 Y95.723 E0.05656
G1 X95.568 Y95.384 E0.07731
G1 X95.972 Y95.053 E0.09815
G1 X96.373 Y94.741 E0.11843
G1 X96.817 Y94.413 E0.14046
G1 X97.28 Y94.09 E0.16299
G1 X97.705 Y93.809 E0.18333
G1 X98.149 Y93.53 E0.20426
G1 X98.898 Y93.093 E0.23887
G1 X99.374 Y92.836 E0.26046
G1 X100.028 Y92.507 E0.28968
G1 X100.508 Y92.282 E0.31084
G1 X100.991 Y92.07 E0.33189
G1 X101.526 Y91.851 E0.35496
G1 X102.206 Y91.597 E0.38393
G1 X102.934 Y91.349 E0.41463
G1 X103.456 Y91.19 E0.43641
G1 X104.242 Y90.973 E0.46895
G1 X105.072 Y90.776 E0.503
G1 X105.578 Y90.672 E0.52362
G1 X106.128 Y90.572 E0.54593
G1 X106.889 Y90.457 E0.57665
G1 X107.408 Y90.397 E0.5975
G1 X108.132 Y90.33 E0.62652
G1 X108.887 Y90.279 E0.65672
G1 X109.582 Y90.254 E0.68448
G1 X110.001 Y90.252 E0.7012
G1 X110.631 Y90.261 E0.72635
G1 X111.168 Y90.28 E0.7478
G1 X111.784 Y90.321 E0.77244
G1 X112.378 Y90.375 E0.79624
G1 X113.13 Y90.467 E0.82648
G1 X113.898 Y90.587 E0.8575
G1 X114.298 Y90.657 E0.87371
G1 X114.947 Y90.784 E0.90011
G1 X115.591 Y90.929 E0.92645
G1 X115.984 Y91.03 E0.94265
G1 X116.472 Y91.166 E0.96287
G1 X116.9 Y91.295 E0.98071
G1 X117.405 Y91.459 E1.0019
G1 X118.109 Y91.71 E1.03173
G1 X118.686 Y91.936 E1.05646
G1 X119.344 Y92.215 E1.08499
G1 X119.817 Y92.432 E1.10576
G1 X120.57 Y92.807 E1.13933
G1 X121.147 Y93.119 E1.16552
G1 X121.607 Y93.384 E1.1867
G1 X121.784 Y93.49 E1.19494
G1 X122.264 Y93.795 E1.21764
G1 X122.941 Y94.25 E1.25019
G1 X123.571 Y94.699 E1.28107
G1 X124.077 Y95.092 E1.30664
G1 X124.698 Y95.61 E1.33892
G1 X125.26 Y96.118 E1.36915
G1 X125.632 Y96.474 E1.3897
G1 X126.094 Y96.943 E1.41598
G1 X126.43 Y97.304 E1.43566
G1 X127.289 Y98.269 E1.48723
G1 X127.984 Y99.07 E1.52955
G1 X130.115 Y101.377 E1.6549
G1 X130.435 Y101.712 E1.67339
G1 X131.042 Y102.404 E1.71013
G1 X131.585 Y103.147 E1.74686
G1 X132.063 Y103.935 E1.78365
G1 X132.604 Y105.078 E1.83412
G1 X132.684 Y105.277 E1.84268
G1 X132.99 Y106.146 E1.87945
G1 X133.236 Y107.117 E1.91943
G1 X133.351 Y107.682 E1.94244
G1 X133.495 Y108.591 E1.97917
G1 X133.563 Y109.909 E2.03185
G1 X133.558 Y110.379 E2.05061
G1 X133.509 Y111.298 E2.08734
G1 X133.31 Y112.551 E2.13798
G1 X133.14 Y113.292 E2.16832
G1 X133.087 Y113.498 E2.17681
G1 X132.819 Y114.379 E2.21356
G1 X132.614 Y114.916 E2.2365
G1 X132.381 Y115.447 E2.25965
G1 X132.286 Y115.649 E2.26856
G1 X131.859 Y116.464 E2.30528
G1 X131.362 Y117.24 E2.34206
G1 X130.8 Y117.969 E2.3788
G1 X130.357 Y118.462 E2.40525
G1 X128.482 Y120.424 E2.51357
G1 X127.211 Y121.821 E2.58895
G1 X126.524 Y122.592 E2.63016
G1 X126.076 Y123.075 E2.65646
G1 X125.709 Y123.45 E2.6774
G1 X125.243 Y123.9 E2.70325
G1 X124.824 Y124.28 E2.72583
G1 X124.427 Y124.621 E2.74672
G1 X124.032 Y124.944 E2.76708
G1 X123.639 Y125.25 E2.78696
G1 X123.207 Y125.569 E2.8084
G1 X122.74 Y125.896 E2.83115
G1 X122.302 Y126.187 E2.85214
G1 X121.863 Y126.463 E2.87284
G1 X121.107 Y126.903 E2.90775
G1 X120.469 Y127.245 E2.93664
G1 X119.94 Y127.508 E2.96022
G1 X119.357 Y127.779 E2.98588
G1 X118.975 Y127.944 E3.00249
G1 X118.508 Y128.135 E3.02262
G1 X117.787 Y128.406 E3.05337
G1 X117.057 Y128.654 E3.08414
G1 X116.536 Y128.812 E3.10587
G1 X115.763 Y129.025 E3.13787
G1 X114.928 Y129.224 E3.17213
G1 X114.422 Y129.328 E3.19275
G1 X113.872 Y129.428 E3.21506
G1 X113.111 Y129.543 E3.24578
G1 X112.592 Y129.603 E3.26663
G1 X111.868 Y129.67 E3.29565
G1 X111.113 Y129.721 E3.32585
G1 X110.418 Y129.746 E3.35361
G1 X109.999 Y129.748 E3.37033
G1 X109.369 Y129.739 E3.39548
G1 X108.832 Y129.72 E3.41692
G1 X108.216 Y129.679 E3.44156
G1 X107.622 Y129.625 E3.46537
G1 X106.87 Y129.533 E3.49561
G1 X106.102 Y129.413 E3.52663
G1 X105.702 Y129.343 E3.54284
G1 X105.053 Y129.216 E3.56923
G1 X104.409 Y129.071 E3.59558
G1 X104.016 Y128.97 E3.61178
G1 X103.528 Y128.834 E3.632
G1 X103.106 Y128.707 E3.64958
G1 X102.603 Y128.544 E3.67069
G1 X101.884 Y128.287 E3.70116
G1 X101.304 Y128.06 E3.72602
G1 X100.646 Y127.78 E3.75456
G1 X100.027 Y127.493 E3.78179
G1 X99.42 Y127.188 E3.80891
G1 X98.846 Y126.877 E3.83496
G1 X98.232 Y126.52 E3.86331
G1 X97.709 Y126.188 E3.88804
G1 X97.057 Y125.748 E3.91943
G1 X96.39 Y125.272 E3.95214
G1 X95.922 Y124.907 E3.97582
G1 X95.536 Y124.589 E3.99578
G1 X95.162 Y124.266 E4.01551
G1 X94.771 Y123.912 E4.03656
G1 X94.332 Y123.492 E4.06081
G1 X93.883 Y123.033 E4.08644
G1 X93.316 Y122.41 E4.12006
G1 X93.144 Y122.211 E4.13055
G1 X92.453 Y121.392 E4.17332
G1 X92.33 Y121.26 E4.18052
G1 X91.557 Y120.343 E4.22839
G1 X89.357 Y117.89 E4.3599
G1 X88.763 Y117.187 E4.39664
G1 X88.278 Y116.506 E4.43001
G1 X87.922 Y115.946 E4.45649
G1 X87.78 Y115.708 E4.46755
G1 X87.343 Y114.898 E4.50429
G1 X86.978 Y114.053 E4.54102
G1 X86.688 Y113.179 E4.57778
G1 X86.475 Y112.283 E4.61453
G1 X86.34 Y111.371 E4.65133
G1 X86.31 Y111.082 E4.66293
G1 X86.254 Y110.163 E4.69968
G1 X86.31 Y108.89 E4.75053
G1 X86.345 Y108.554 E4.76402
G1 X86.48 Y107.643 E4.80077
G1 X86.694 Y106.748 E4.8375
G1 X86.984 Y105.874 E4.87425
G1 X87.349 Y105.029 E4.91099
G1 X87.717 Y104.336 E4.94231
G1 X88.019 Y103.815 E4.96634
G1 X88.515 Y103.039 E5.0031
G1 X89.076 Y102.31 E5.03982
G1 X89.442 Y101.897 E5.06184
G1 X90.271 Y101.009 E5.11033
G1 X92.056 Y99.045 E5.21625
G1 X93.264 Y97.647 E5.28999
G1 X93.672 Y97.193 E5.31436
G1 X94.144 Y96.696 E5.34171
G0 F9000 X94.429 Y96.978
G1 F1800 X95.054 Y96.37 E5.37651
G1 X95.434 Y96.026 E5.39697
G1 X95.828 Y95.687 E5.41772
G1 X96.217 Y95.369 E5.43777
G1 X96.618 Y95.057 E5.45805
G1 X97.046 Y94.742 E5.47926
G1 X97.509 Y94.419 E5.50179
G1 X97.918 Y94.148 E5.52137
G1 X98.362 Y93.869 E5.5423
G1 X99.095 Y93.441 E5.57618
G1 X99.562 Y93.189 E5.59736
G1 X100.199 Y92.869 E5.62581
G1 X100.672 Y92.647 E5.64667
G1 X101.144 Y92.44 E5.66724
G1 X101.672 Y92.223 E5.69002
G1 X102.343 Y91.973 E5.7186
G1 X103.052 Y91.731 E5.7485
G1 X103.565 Y91.575 E5.7699
G1 X104.338 Y91.361 E5.80191
G1 X105.152 Y91.168 E5.8353
G1 X105.658 Y91.064 E5.85592
G1 X106.196 Y90.966 E5.87775
G1 X106.939 Y90.854 E5.90774
G1 X107.445 Y90.795 E5.92807
G1 X108.169 Y90.728 E5.95709
G1 X108.911 Y90.678 E5.98677
G1 X109.592 Y90.654 E6.01397
G1 X109.996 Y90.652 E6.03009
G1 X110.626 Y90.661 E6.05524
G1 X111.15 Y90.679 E6.07617
G1 X111.747 Y90.719 E6.10005
G1 X112.341 Y90.773 E6.12385
G1 X113.069 Y90.862 E6.15313
G1 X113.837 Y90.982 E6.18415
G1 X114.221 Y91.05 E6.19972
G1 X114.87 Y91.177 E6.22611
G1 X115.499 Y91.318 E6.25184
G1 X115.876 Y91.415 E6.26737
G1 X116.364 Y91.551 E6.28759
G1 X116.777 Y91.676 E6.30482
G1 X117.282 Y91.84 E6.32601
G1 X117.971 Y92.085 E6.35519
G1 X118.538 Y92.308 E6.37951
G1 X119.178 Y92.579 E6.40725
G1 X119.645 Y92.793 E6.42775
G1 X120.387 Y93.163 E6.46085
G1 X120.949 Y93.466 E6.48633
G1 X121.402 Y93.727 E6.5072
G1 X121.579 Y93.833 E6.51543
G1 X122.04 Y94.127 E6.53725
G1 X122.71 Y94.577 E6.56947
G1 X123.332 Y95.019 E6.59992
G1 X123.823 Y95.401 E6.62475
G1 X124.435 Y95.911 E6.65655
G1 X124.991 Y96.413 E6.68644
G1 X125.654 Y97.064 E6.72353
G1 X126.131 Y97.57 E6.75128
G1 X126.987 Y98.531 E6.80265
G1 X127.686 Y99.336 E6.8452
G1 X129.817 Y101.643 E6.97055
G1 X130.146 Y101.988 E6.98958
G1 X130.74 Y102.668 E7.02561
G1 X131.272 Y103.398 E7.06166
G1 X131.737 Y104.172 E7.0977
G1 X132.233 Y105.227 E7.14423
G1 X132.313 Y105.426 E7.15279
G1 X132.612 Y106.278 E7.18883
G1 X132.844 Y107.197 E7.22666
G1 X132.959 Y107.762 E7.24967
G1 X133.1 Y108.654 E7.28572
G1 X133.163 Y109.905 E7.33571
G1 X133.158 Y110.375 E7.35447
G1 X133.109 Y111.276 E7.39048
G1 X132.919 Y112.465 E7.43854
G1 X132.752 Y113.193 E7.46835
G1 X132.699 Y113.399 E7.47684
G1 X132.436 Y114.262 E7.51285
G1 X132.243 Y114.765 E7.53435
G1 X132.019 Y115.277 E7.55666
G1 X131.924 Y115.479 E7.56557
G1 X131.504 Y116.278 E7.60159
G1 X131.015 Y117.037 E7.63763
G1 X130.46 Y117.75 E7.67369
G1 X130.068 Y118.185 E7.69706
G1 X128.199 Y120.141 E7.80504
G1 X126.875 Y121.596 E7.88356
G1 X126.225 Y122.326 E7.92257
G1 X125.784 Y122.802 E7.94847
G1 X125.426 Y123.167 E7.96887
G1 X124.966 Y123.611 E7.99439
G1 X124.563 Y123.977 E8.01612
G1 X124.166 Y124.318 E8.03701
G1 X123.393 Y124.934 E8.07646
G1 X122.978 Y125.241 E8.09706
G1 X122.511 Y125.568 E8.11981
G1 X122.089 Y125.848 E8.14003
G1 X121.65 Y126.124 E8.16072
G1 X120.91 Y126.555 E8.1949
G1 X120.289 Y126.888 E8.22303
G1 X119.77 Y127.146 E8.24616
G1 X119.191 Y127.415 E8.27164
G1 X118.823 Y127.574 E8.28764
G1 X118.356 Y127.765 E8.30778
G1 X117.65 Y128.03 E8.33788
G1 X116.939 Y128.272 E8.36785
G1 X116.426 Y128.427 E8.38924
G1 X115.667 Y128.637 E8.42067
G1 X114.848 Y128.832 E8.45428
G1 X114.342 Y128.936 E8.47489
G1 X113.804 Y129.034 E8.49672
G1 X113.061 Y129.146 E8.52671
G1 X112.555 Y129.205 E8.54704
G1 X111.831 Y129.272 E8.57606
G1 X111.089 Y129.322 E8.60574
G1 X110.408 Y129.346 E8.63294
G1 X110.004 Y129.348 E8.64907
G1 X109.374 Y129.339 E8.67421
G1 X108.85 Y129.321 E8.69514
G1 X108.253 Y129.281 E8.71902
G1 X107.659 Y129.227 E8.74283
G1 X106.931 Y129.138 E8.7721
G1 X106.163 Y129.018 E8.80312
G1 X105.779 Y128.95 E8.81869
G1 X105.13 Y128.823 E8.84508
G1 X104.501 Y128.682 E8.87081
G1 X104.124 Y128.585 E8.88635
G1 X103.636 Y128.449 E8.90657
G1 X103.23 Y128.326 E8.9235
G1 X102.727 Y128.163 E8.9446
G1 X102.022 Y127.912 E8.97447
G1 X101.452 Y127.689 E8.9989
G1 X100.812 Y127.416 E9.02667
G1 X100.199 Y127.132 E9.05363
G1 X99.603 Y126.832 E9.08026
G1 X99.044 Y126.53 E9.10562
G1 X98.436 Y126.176 E9.1337
G1 X97.933 Y125.857 E9.15748
G1 X97.287 Y125.421 E9.18858
G1 X96.63 Y124.952 E9.2208
G1 X96.176 Y124.599 E9.24375
G1 X95.79 Y124.281 E9.26371
G1 X95.43 Y123.969 E9.28273
G1 X95.039 Y123.615 E9.30378
G1 X94.617 Y123.211 E9.3271
G1 X94.173 Y122.757 E9.35244
G1 X93.615 Y122.145 E9.3855
G1 X93.45 Y121.953 E9.3956
G1 X92.806 Y121.19 E9.43545
G1 X92.636 Y121.002 E9.44557
G1 X91.862 Y120.084 E9.49349
G1 X89.7 Y117.672 E9.62277
G1 X89.651 Y117.619 E9.62565
G1 X89.068 Y116.929 E9.66171
G1 X88.613 Y116.287 E9.69311
G1 X88.266 Y115.741 E9.71893
G1 X88.124 Y115.503 E9.72999
G1 X87.696 Y114.708 E9.76603
G1 X87.34 Y113.878 E9.80208
G1 X87.059 Y113.02 E9.83811
G1 X86.855 Y112.14 E9.87417
G1 X86.738 Y111.33 E9.90683
G1 X86.708 Y111.041 E9.91843
G1 X86.654 Y110.14 E9.95445
G1 X86.708 Y108.931 E10.00275
G1 X86.743 Y108.595 E10.01624
G1 X86.876 Y107.702 E10.05227
G1 X87.088 Y106.824 E10.08832
G1 X87.376 Y105.968 E10.12437
G1 X87.74 Y105.141 E10.16043
G1 X88.063 Y104.537 E10.18777
G1 X88.365 Y104.016 E10.2118
G1 X88.852 Y103.255 E10.24786
G1 X89.405 Y102.541 E10.28391
G1 X89.735 Y102.17 E10.30373
G1 X90.54 Y101.308 E10.3508
G1 X92.351 Y99.316 E10.45825
G1 X93.566 Y97.909 E10.53245
G1 X93.963 Y97.467 E10.55616
G1 X94.429 Y96.978 E10.58312
G1 F2400 E7.58312
G1 F300 Z0.44
G0 F9000 X108.989 Y110.026 Z0.44
G1 F300 Z0.24
G1 F2400 E10.58312
G1 F1800 X109.535 Y109.925 E10.60528
G1 X110.154 Y109.867 E10.6301
G1 X110.75 Y110.018 E10.65463
G1 X110.298 Y110.115 E10.67309
G1 X109.094 Y110.09 E10.72115
G1 X108.989 Y110.026 E10.72606
G0 F9000 X108.928 Y110.458
G1 F1800 X108.169 Y109.994 E10.76156
G1 X108.19 Y109.911 E10.76498
G1 X108.279 Y109.831 E10.76976
G1 X108.626 Y109.686 E10.78477
G1 X109.469 Y109.53 E10.81898
G1 X110.186 Y109.463 E10.84773
G1 X111.413 Y109.773 E10.89824
G1 X111.794 Y109.865 E10.91388
G1 X111.835 Y110.004 E10.91966
G1 X111.745 Y110.108 E10.92515
G1 X111.38 Y110.293 E10.94149
G1 X110.334 Y110.516 E10.98417
G1 X108.993 Y110.489 E11.03771
G1 X108.928 Y110.458 E11.04058
G0 F9000 X108.738 Y110.81
G1 F1800 X107.827 Y110.253 E11.0832
G1 X107.764 Y110.001 E11.09356
G1 X107.845 Y109.697 E11.10612
G1 X108.066 Y109.487 E11.11829
G1 X108.508 Y109.302 E11.13741
G1 X109.417 Y109.133 E11.17432
G1 X110.219 Y109.058 E11.20646
G1 X111.511 Y109.385 E11.25966
G1 X111.928 Y109.463 E11.27659
G1 X112.103 Y109.601 E11.28548
G1 X112.232 Y109.94 E11.29996
G1 X112.199 Y110.193 E11.31014
G1 X111.997 Y110.429 E11.32254
G1 X111.517 Y110.672 E11.34402
G1 X110.395 Y110.912 E11.38981
G1 X110.352 Y110.916 E11.39153
G1 X108.901 Y110.887 E11.44946
G1 X108.738 Y110.81 E11.45665
G0 F9000 X108.555 Y111.167
G1 F1800 X107.511 Y110.529 E11.50549
G1 X107.373 Y110.129 E11.52237
G1 X107.375 Y109.872 E11.53263
G1 X107.492 Y109.504 E11.54804
G1 X107.849 Y109.144 E11.56828
G1 X108.392 Y108.916 E11.59178
G1 X109.362 Y108.737 E11.63115
G1 X110.249 Y108.654 E11.66671
G1 X111.609 Y108.998 E11.7227
G1 X112.091 Y109.082 E11.74223
G1 X112.417 Y109.345 E11.75895
G1 X112.6 Y109.733 E11.77607
G1 X112.637 Y110.099 E11.79075
G1 X112.56 Y110.386 E11.80261
G1 X112.248 Y110.75 E11.82174
G1 X111.652 Y111.052 E11.84841
G1 X110.454 Y111.308 E11.89731
G1 X110.372 Y111.317 E11.9006
G1 X108.806 Y111.285 E11.96311
G1 X108.555 Y111.167 E11.97418
G0 F9000 X108.365 Y111.52
G1 F1800 X107.211 Y110.814 E12.02818
G1 X107.049 Y110.47 E12.04335
G1 X106.96 Y109.991 E12.0628
G1 X107.052 Y109.508 E12.08242
G1 X107.266 Y109.126 E12.0999
G1 X107.633 Y108.801 E12.11946
G1 X108.279 Y108.53 E12.14742
G1 X109.307 Y108.34 E12.18915
G1 X110.279 Y108.249 E12.22811
G1 X111.708 Y108.61 E12.28694
G1 X112.253 Y108.701 E12.30899
G1 X112.682 Y109.038 E12.33077
G1 X112.88 Y109.346 E12.34538
G1 X113.03 Y109.851 E12.36641
G1 X113.036 Y110.15 E12.37834
G1 X112.903 Y110.601 E12.39711
G1 X112.501 Y111.07 E12.42176
G1 X111.785 Y111.433 E12.4538
G1 X110.522 Y111.702 E12.50534
G1 X110.39 Y111.716 E12.51064
G1 X108.711 Y111.682 E12.57767
G1 X108.365 Y111.52 E12.59292
G0 F9000 X108.172 Y111.871
G1 F1800 X106.928 Y111.11 E12.65112
G1 X106.67 Y110.606 E12.67372
G1 X106.582 Y110.269 E12.68762
G1 X106.584 Y109.74 E12.70873
G1 X106.673 Y109.376 E12.72369
G1 X106.792 Y109.111 E12.73528
G1 X106.96 Y108.863 E12.74724
G1 X107.418 Y108.457 E12.77167
G1 X108.164 Y108.145 E12.80394
G1 X109.252 Y107.943 E12.84811
G1 X110.311 Y107.844 E12.89056
G1 X111.806 Y108.222 E12.9521
G1 X112.418 Y108.321 E12.97685
G1 X112.957 Y108.745 E13.00422
G1 X113.243 Y109.174 E13.0248
G1 X113.372 Y109.512 E13.03924
G1 X113.429 Y109.812 E13.05143
G1 X113.431 Y110.223 E13.06783
G1 X113.245 Y110.816 E13.09263
G1 X112.753 Y111.391 E13.12284
G1 X111.918 Y111.814 E13.1602
G1 X110.591 Y112.097 E13.21435
G1 X110.408 Y112.117 E13.2217
G1 X108.618 Y112.081 E13.29316
G1 X108.172 Y111.871 E13.31283
G0 F9000 X107.982 Y112.224
G1 F1800 X106.643 Y111.404 E13.3755
G1 X106.471 Y111.144 E13.38794
G1 X106.293 Y110.742 E13.40549
G1 X106.185 Y110.331 E13.42245
G1 X106.158 Y109.982 E13.43642
G1 X106.292 Y109.247 E13.46624
G1 X106.444 Y108.911 E13.48096
G1 X106.656 Y108.597 E13.49608
G1 X107.203 Y108.114 E13.5252
G1 X108.046 Y107.76 E13.5617
G1 X109.199 Y107.547 E13.60849
G1 X110.344 Y107.439 E13.6544
G1 X111.904 Y107.834 E13.71862
G1 X112.045 Y107.862 E13.72436
G1 X112.58 Y107.94 E13.74594
G1 X113.237 Y108.457 E13.77931
G1 X113.402 Y108.65 E13.78944
G1 X113.604 Y109.001 E13.80561
G1 X113.759 Y109.403 E13.8228
G1 X113.828 Y109.768 E13.83763
G1 X113.825 Y110.298 E13.85878
G1 X113.705 Y110.765 E13.87803
G1 X113.586 Y111.034 E13.88977
G1 X113.005 Y111.712 E13.9254
G1 X112.052 Y112.194 E13.96803
G1 X110.649 Y112.494 E14.02529
G1 X110.427 Y112.517 E14.0342
G1 X108.525 Y112.479 E14.11013
G1 X107.982 Y112.224 E14.13407
G0 F9000 X107.792 Y112.576
G1 F1800 X106.359 Y111.7 E14.2011
