;FLAVOR:Marlin
;TIME:1234
;Filament used: 0.671694m
;Layer height: 0.16
;MINX:96.225
;MINY:96.225
;MINZ:0.24
;MAXX:123.775
;MAXY:123.775
;MAXZ:10.88
;Generated with Cura_SteamEngine 4.7.1
M140 S110
M105
M190 S110
M104 S240
M105
M109 S240
M82 ;absolute extrusion mode
M201 X500.00 Y500.00 Z100.00 E5000.00 ;Setup machine max acceleration
M203 X500.00 Y500.00 Z10.00 E50.00 ;Setup machine max feedrate
M204 P500.00 R1000.00 T500.00 ;Setup Print/Retract/Travel acceleration
M205 X8.00 Y8.00 Z0.40 E5.00 ;Setup Jerk
M220 S100 ;Reset Feedrate
M221 S100 ;Reset Flowrate

G28 ;Home

G92 E0 ;Reset Extruder
G1 Z2.0 F3000 ;Move Z Axis up
G1 X10.1 Y20 Z0.28 F5000.0 ;Move to start position
G1 X10.1 Y200.0 Z0.28 F1500.0 E15 ;Draw the first line
G1 X10.4 Y200.0 Z0.28 F5000.0 ;Move to side a little
G1 X10.4 Y20 Z0.28 F1500.0 E30 ;Draw the second line
G92 E0 ;Reset Extruder
G1 Z2.0 F3000 ;Move Z Axis up

G92 E0
G92 E0
G1 F1800 E-3
;LAYER_COUNT:75
;LAYER:0
M107
M205 X6 Y6
G0 F9000 X100.274 Y100.243 Z0.24
;TYPE:SKIRT
G1 F1800 E0
G1 F2400 X100.737 Y99.803 E0.02549
G1 X101.24 Y99.369 E0.05201
G1 X101.278 Y99.338 E0.05397
G1 X101.812 Y98.923 E0.08096
G1 X102.332 Y98.557 E0.10634
G1 X102.893 Y98.199 E0.1329
G1 X103.483 Y97.864 E0.15998
G1 X103.526 Y97.841 E0.16193
G1 X104.094 Y97.555 E0.18731
G1 X104.704 Y97.284 E0.21395
G1 X104.749 Y97.265 E0.2159
G1 X105.389 Y97.019 E0.24326
G1 X105.981 Y96.824 E0.26814
G1 X106.682 Y96.631 E0.29716
G1 X107.29 Y96.494 E0.32203
G1 X108.011 Y96.369 E0.35124
G1 X108.63 Y96.293 E0.37613
G1 X109.347 Y96.24 E0.40483
G1 X109.978 Y96.225 E0.43002
G1 X110.026 Y96.225 E0.43193
G1 X110.658 Y96.24 E0.45717
G1 X111.328 Y96.289 E0.48398
G1 X111.378 Y96.294 E0.48598
G1 X111.995 Y96.371 E0.5108
G1 X112.042 Y96.378 E0.5127
G1 X112.713 Y96.495 E0.53988
G1 X113.322 Y96.632 E0.5648
G1 X113.975 Y96.811 E0.59182
G1 X114.024 Y96.826 E0.59387
G1 X114.661 Y97.038 E0.62066
G1 X115.303 Y97.286 E0.64813
G1 X115.911 Y97.557 E0.6747
G1 X116.479 Y97.844 E0.7001
G1 X117.109 Y98.201 E0.729
G1 X117.631 Y98.532 E0.75367
G1 X118.192 Y98.926 E0.78103
G1 X118.725 Y99.34 E0.80797
G1 X118.764 Y99.372 E0.80998
G1 X119.231 Y99.775 E0.8346
G1 X119.757 Y100.275 E0.86356
G1 X120.196 Y100.737 E0.889
G1 X120.661 Y101.277 E0.91744
G1 X121.054 Y101.781 E0.94295
G1 X121.437 Y102.322 E0.96941
G1 X121.465 Y102.364 E0.97142
G1 X121.802 Y102.896 E0.99656
G1 X122.135 Y103.482 E1.02346
G1 X122.158 Y103.525 E1.0254
G1 X122.467 Y104.141 E1.05291
G1 X122.716 Y104.704 E1.07748
G1 X122.96 Y105.334 E1.10444
G1 X122.976 Y105.378 E1.10631
G1 X123.174 Y105.973 E1.13134
G1 X123.189 Y106.023 E1.13342
G1 X123.368 Y106.675 E1.16041
G1 X123.505 Y107.285 E1.18536
G1 X123.515 Y107.335 E1.1874
G1 X123.623 Y107.963 E1.21283
G1 X123.71 Y108.67 E1.24126
G1 X123.76 Y109.346 E1.26832
G1 X123.775 Y109.973 E1.29335
G1 X123.775 Y110.021 E1.29526
G1 X123.76 Y110.658 E1.3207
G1 X123.711 Y111.324 E1.34735
G1 X123.706 Y111.373 E1.34931
G1 X123.622 Y112.04 E1.37615
G1 X123.516 Y112.658 E1.40117
G1 X123.506 Y112.709 E1.40325
G1 X123.368 Y113.322 E1.42832
G1 X123.19 Y113.97 E1.45515
G1 X123.176 Y114.017 E1.4571
G1 X122.979 Y114.615 E1.48223
G1 X122.715 Y115.301 E1.51157
G1 X122.464 Y115.866 E1.53625
G1 X122.162 Y116.468 E1.56313
G1 X122.139 Y116.511 E1.56507
G1 X121.804 Y117.1 E1.59212
G1 X121.442 Y117.67 E1.61907
G1 X121.08 Y118.184 E1.64416
G1 X120.629 Y118.762 E1.67342
G1 X120.226 Y119.23 E1.69807
G1 X119.761 Y119.721 E1.72506
G1 X119.725 Y119.757 E1.72709
G1 X119.264 Y120.195 E1.75247
G1 X118.76 Y120.63 E1.77904
G1 X118.188 Y121.077 E1.80802
G1 X117.628 Y121.47 E1.83532
G1 X117.106 Y121.801 E1.85999
G1 X116.518 Y122.135 E1.88698
G1 X116.475 Y122.158 E1.88893
G1 X115.859 Y122.467 E1.91644
G1 X115.296 Y122.716 E1.94101
G1 X114.613 Y122.979 E1.97022
G1 X114.021 Y123.176 E1.99512
G1 X113.362 Y123.358 E2.02241
G1 X113.316 Y123.37 E2.0243
G1 X112.71 Y123.506 E2.04909
G1 X112.66 Y123.516 E2.05113
G1 X111.989 Y123.63 E2.07829
G1 X111.37 Y123.706 E2.10318
G1 X110.655 Y123.759 E2.1318
G1 X110.022 Y123.775 E2.15707
G1 X109.972 Y123.775 E2.15907
G1 X109.341 Y123.759 E2.18426
G1 X108.673 Y123.71 E2.21099
G1 X108.624 Y123.705 E2.21296
G1 X108.005 Y123.628 E2.23785
G1 X107.958 Y123.621 E2.23975
G1 X107.288 Y123.505 E2.26689
G1 X106.679 Y123.368 E2.2918
G1 X106.022 Y123.188 E2.31899
G1 X105.384 Y122.978 E2.3458
G1 X105.339 Y122.962 E2.34771
G1 X104.697 Y122.714 E2.37518
G1 X104.134 Y122.464 E2.39976
G1 X103.52 Y122.156 E2.42718
G1 X103.475 Y122.132 E2.42921
G1 X102.891 Y121.798 E2.45606
G1 X102.371 Y121.469 E2.48062
G1 X101.769 Y121.045 E2.51001
G1 X101.274 Y120.659 E2.53507
G1 X101.236 Y120.628 E2.53702
G1 X100.768 Y120.225 E2.56167
G1 X100.237 Y119.718 E2.59098
G1 X99.77 Y119.225 E2.61808
G1 X99.368 Y118.757 E2.6427
G1 X98.947 Y118.22 E2.66994
G1 X98.556 Y117.666 E2.697
G1 X98.529 Y117.626 E2.69893
G1 X98.192 Y117.094 E2.72406
G1 X97.859 Y116.508 E2.75096
G1 X97.532 Y115.858 E2.78
G1 X97.283 Y115.295 E2.80457
G1 X97.019 Y114.609 E2.83391
G1 X96.823 Y114.014 E2.85891
G1 X96.631 Y113.317 E2.88777
G1 X96.493 Y112.703 E2.91289
G1 X96.483 Y112.653 E2.91492
G1 X96.377 Y112.036 E2.93991
G1 X96.289 Y111.318 E2.96878
G1 X96.24 Y110.654 E2.99535
G1 X96.225 Y110.027 E3.02039
G1 X96.225 Y109.979 E3.0223
G1 X96.24 Y109.342 E3.04773
G1 X96.289 Y108.676 E3.07439
G1 X96.294 Y108.627 E3.07635
G1 X96.378 Y107.959 E3.10322
G1 X96.484 Y107.341 E3.12825
G1 X96.494 Y107.29 E3.13032
G1 X96.632 Y106.678 E3.15536
G1 X96.824 Y105.982 E3.18418
G1 X97.021 Y105.385 E3.20927
G1 X97.285 Y104.699 E3.23861
G1 X97.536 Y104.134 E3.26328
G1 X97.838 Y103.532 E3.29016
G1 X98.196 Y102.899 E3.31919
G1 X98.536 Y102.362 E3.34456
G1 X98.564 Y102.32 E3.34657
G1 X98.921 Y101.815 E3.37125
G1 X99.371 Y101.237 E3.40049
G1 X99.774 Y100.769 E3.42514
G1 X100.274 Y100.243 E3.45411
G0 F9000 X100.55 Y100.533
G1 F2400 X101.035 Y100.073 E3.48079
G1 X101.524 Y99.653 E3.50651
G1 X102.043 Y99.25 E3.53274
G1 X102.586 Y98.869 E3.55921
G1 X103.134 Y98.521 E3.58512
G1 X103.706 Y98.198 E3.61134
G1 X104.301 Y97.899 E3.63792
G1 X104.893 Y97.638 E3.66374
G1 X105.514 Y97.399 E3.6903
G1 X106.135 Y97.195 E3.71639
G1 X106.743 Y97.028 E3.74155
G1 X107.408 Y96.879 E3.76875
G1 X108.06 Y96.766 E3.79516
G1 X108.679 Y96.69 E3.82006
G1 X109.357 Y96.64 E3.84719
G1 X110.016 Y96.625 E3.8735
G1 X110.648 Y96.64 E3.89873
G1 X111.328 Y96.691 E3.92595
G1 X111.973 Y96.772 E3.95189
G1 X112.626 Y96.886 E3.97835
G1 X113.262 Y97.029 E4.00437
G1 X113.899 Y97.205 E4.03074
G1 X114.518 Y97.411 E4.05678
G1 X115.113 Y97.64 E4.08223
G1 X115.731 Y97.914 E4.10921
G1 X116.299 Y98.201 E4.13461
G1 X116.894 Y98.539 E4.16192
G1 X117.441 Y98.886 E4.18777
G1 X117.962 Y99.253 E4.21321
G1 X118.479 Y99.655 E4.23935
G1 X118.992 Y100.097 E4.26637
G1 X119.446 Y100.529 E4.29139
G1 X119.926 Y101.035 E4.31922
G1 X120.345 Y101.523 E4.34489
G1 X120.755 Y102.05 E4.37154
G1 X121.127 Y102.578 E4.39732
G1 X121.479 Y103.135 E4.42362
G1 X121.801 Y103.705 E4.44975
G1 X122.101 Y104.302 E4.47642
G1 X122.361 Y104.892 E4.50215
G1 X122.587 Y105.478 E4.52722
G1 X122.803 Y106.129 E4.55459
G1 X122.977 Y106.763 E4.58083
G1 X123.12 Y107.402 E4.60697
G1 X123.232 Y108.058 E4.63353
G1 X123.311 Y108.7 E4.65935
G1 X123.36 Y109.356 E4.6856
G1 X123.375 Y110.011 E4.71175
G1 X123.36 Y110.648 E4.73718
G1 X123.309 Y111.324 E4.76424
G1 X123.227 Y111.972 E4.79031
G1 X123.115 Y112.621 E4.81659
G1 X122.97 Y113.261 E4.84279
G1 X122.796 Y113.892 E4.86891
G1 X122.599 Y114.49 E4.89404
G1 X122.349 Y115.139 E4.9218
G1 X122.086 Y115.73 E4.94762
G1 X121.791 Y116.314 E4.97373
G1 X121.466 Y116.886 E4.99999
G1 X121.115 Y117.439 E5.02613
G1 X120.735 Y117.977 E5.05242
G1 X120.326 Y118.501 E5.07895
G1 X119.923 Y118.969 E5.1036
G1 X119.449 Y119.467 E5.13104
G1 X118.966 Y119.925 E5.15761
G1 X118.477 Y120.345 E5.18333
G1 X117.957 Y120.75 E5.20964
G1 X117.413 Y121.132 E5.23617
G1 X116.866 Y121.478 E5.262
G1 X116.295 Y121.801 E5.28819
G1 X115.698 Y122.101 E5.31485
G1 X115.108 Y122.361 E5.34059
G1 X114.513 Y122.59 E5.36603
G1 X113.864 Y122.806 E5.39333
G1 X113.256 Y122.973 E5.4185
G1 X112.592 Y123.121 E5.44565
G1 X111.94 Y123.233 E5.47205
G1 X111.321 Y123.309 E5.49695
G1 X110.645 Y123.359 E5.524
G1 X109.982 Y123.375 E5.55047
G1 X109.351 Y123.359 E5.57566
G1 X108.673 Y123.308 E5.6028
G1 X108.026 Y123.227 E5.62882
G1 X107.375 Y123.114 E5.65519
G1 X106.739 Y122.97 E5.68122
G1 X106.1 Y122.794 E5.70767
G1 X105.482 Y122.589 E5.73366
G1 X104.887 Y122.36 E5.75911
G1 X104.27 Y122.086 E5.78605
G1 X103.7 Y121.799 E5.81152
G1 X103.105 Y121.46 E5.83886
G1 X102.56 Y121.114 E5.86462
G1 X102.015 Y120.729 E5.89125
G1 X101.497 Y120.325 E5.91747
G1 X101.029 Y119.922 E5.94212
G1 X100.527 Y119.442 E5.96984
G1 X100.074 Y118.964 E5.99613
G1 X99.654 Y118.475 E6.02186
G1 X99.262 Y117.974 E6.04724
G1 X98.867 Y117.412 E6.07466
G1 X98.515 Y116.855 E6.10096
G1 X98.207 Y116.311 E6.12591
G1 X97.898 Y115.697 E6.15334
G1 X97.638 Y115.107 E6.17908
G1 X97.399 Y114.484 E6.20571
G1 X97.203 Y113.889 E6.23071
G1 X97.022 Y113.23 E6.25799
G1 X96.878 Y112.586 E6.28433
G1 X96.768 Y111.94 E6.31048
G1 X96.688 Y111.288 E6.3367
G1 X96.64 Y110.644 E6.36247
G1 X96.625 Y109.989 E6.38862
G1 X96.64 Y109.352 E6.41406
G1 X96.691 Y108.676 E6.44111
G1 X96.773 Y108.027 E6.46722
G1 X96.885 Y107.378 E6.49351
G1 X97.03 Y106.739 E6.51966
G1 X97.204 Y106.107 E6.54582
G1 X97.411 Y105.483 E6.57206
G1 X97.651 Y104.861 E6.59867
G1 X97.914 Y104.27 E6.62449
G1 X98.195 Y103.712 E6.64943
G1 X98.534 Y103.113 E6.6769
G1 X98.891 Y102.551 E6.70347
G1 X99.265 Y102.023 E6.72929
G1 X99.674 Y101.498 E6.75586
G1 X100.077 Y101.03 E6.78051
G1 X100.55 Y100.533 E6.80789
G0 F9000 X100.825 Y100.823
G1 F2400 X101.296 Y100.376 E6.83381
G1 X101.769 Y99.969 E6.85871
G1 X102.273 Y99.577 E6.8842
G1 X102.801 Y99.206 E6.90995
G1 X103.331 Y98.869 E6.93502
G1 X103.886 Y98.555 E6.96047
G1 X104.463 Y98.265 E6.98624
G1 X105.037 Y98.011 E7.0113
G1 X105.639 Y97.779 E7.03705
G1 X106.241 Y97.581 E7.06234
G1 X106.858 Y97.412 E7.08787
G1 X107.476 Y97.273 E7.11315
G1 X108.109 Y97.163 E7.1388
G1 X108.728 Y97.087 E7.16369
G1 X109.366 Y97.04 E7.18922
G1 X110.007 Y97.025 E7.21481
G1 X110.649 Y97.041 E7.24044
G1 X111.279 Y97.088 E7.26566
G1 X111.905 Y97.166 E7.29084
G1 X112.538 Y97.276 E7.31648
G1 X113.156 Y97.415 E7.34176
G1 X113.773 Y97.585 E7.3673
G1 X114.374 Y97.784 E7.39257
G1 X114.978 Y98.017 E7.41841
G1 X115.55 Y98.271 E7.44339
G1 X116.127 Y98.563 E7.4692
G1 X116.68 Y98.877 E7.49458
G1 X117.21 Y99.213 E7.51963
G1 X117.739 Y99.586 E7.54546
G1 X118.242 Y99.978 E7.57092
G1 X118.716 Y100.387 E7.5959
G1 X119.177 Y100.826 E7.62131
G1 X119.623 Y101.296 E7.64717
G1 X120.03 Y101.769 E7.67208
G1 X120.428 Y102.281 E7.69796
G1 X120.789 Y102.792 E7.72293
G1 X121.131 Y103.332 E7.74844
G1 X121.444 Y103.885 E7.7738
G1 X121.735 Y104.464 E7.79967
G1 X121.988 Y105.036 E7.82463
G1 X122.217 Y105.631 E7.85008
G1 X122.418 Y106.236 E7.87552
G1 X122.587 Y106.85 E7.90094
G1 X122.726 Y107.47 E7.9263
G1 X122.835 Y108.107 E7.95209
G1 X122.912 Y108.73 E7.97715
G1 X122.96 Y109.365 E8.00256
G1 X122.975 Y110.002 E8.02799
G1 X122.959 Y110.649 E8.05382
G1 X122.912 Y111.274 E8.07884
G1 X122.833 Y111.905 E8.10422
G1 X122.725 Y112.533 E8.12965
G1 X122.585 Y113.155 E8.1551
G1 X122.416 Y113.767 E8.18044
G1 X122.216 Y114.374 E8.20595
G1 X121.984 Y114.976 E8.2317
G1 X121.729 Y115.55 E8.25677
G1 X121.443 Y116.117 E8.28211
G1 X121.128 Y116.672 E8.30758
G1 X120.788 Y117.209 E8.33295
G1 X120.42 Y117.731 E8.35844
G1 X120.023 Y118.24 E8.38421
G1 X119.613 Y118.715 E8.40925
G1 X119.174 Y119.177 E8.43469
G1 X118.705 Y119.622 E8.46049
G1 X118.231 Y120.03 E8.48545
G1 X117.727 Y120.423 E8.51096
G1 X117.199 Y120.794 E8.53672
G1 X116.669 Y121.13 E8.56176
G1 X116.115 Y121.444 E8.58718
G1 X115.536 Y121.735 E8.61304
G1 X114.964 Y121.988 E8.638
G1 X114.36 Y122.22 E8.66383
G1 X113.758 Y122.42 E8.68915
G1 X113.141 Y122.589 E8.71468
G1 X112.525 Y122.727 E8.73988
G1 X111.891 Y122.836 E8.76555
G1 X111.272 Y122.912 E8.79044
G1 X110.635 Y122.959 E8.81594
G1 X109.992 Y122.975 E8.84161
G1 X109.351 Y122.958 E8.8672
G1 X108.722 Y122.911 E8.89237
G1 X108.094 Y122.833 E8.91763
G1 X107.463 Y122.724 E8.94319
G1 X106.845 Y122.585 E8.96847
G1 X106.225 Y122.414 E8.99414
G1 X105.626 Y122.216 E9.01932
G1 X105.022 Y121.983 E9.04516
G1 X104.45 Y121.729 E9.07014
G1 X103.871 Y121.437 E9.09602
G1 X103.319 Y121.122 E9.12139
G1 X102.791 Y120.787 E9.14634
G1 X102.261 Y120.414 E9.17221
G1 X101.758 Y120.022 E9.19766
G1 X101.283 Y119.612 E9.22271
G1 X100.817 Y119.167 E9.24842
G1 X100.377 Y118.703 E9.27395
G1 X99.969 Y118.228 E9.29894
G1 X99.571 Y117.719 E9.32473
G1 X99.205 Y117.198 E9.35014
G1 X98.863 Y116.658 E9.37565
G1 X98.55 Y116.105 E9.40101
G1 X98.264 Y115.535 E9.42646
G1 X98.011 Y114.963 E9.45143
G1 X97.779 Y114.359 E9.47725
G1 X97.58 Y113.754 E9.50267
G1 X97.412 Y113.142 E9.528
G1 X97.272 Y112.518 E9.55353
G1 X97.165 Y111.891 E9.57891
G1 X97.087 Y111.258 E9.60437
G1 X97.04 Y110.635 E9.6293
G1 X97.025 Y109.998 E9.65473
G1 X97.041 Y109.351 E9.68057
G1 X97.088 Y108.726 E9.70558
G1 X97.167 Y108.094 E9.731
G1 X97.275 Y107.466 E9.75643
G1 X97.415 Y106.845 E9.78184
G1 X97.584 Y106.232 E9.80722
G1 X97.784 Y105.626 E9.83269
G1 X98.016 Y105.024 E9.85844
G1 X98.271 Y104.45 E9.88351
G1 X98.557 Y103.884 E9.90882
G1 X98.872 Y103.327 E9.93436
G1 X99.218 Y102.782 E9.96013
G1 X99.58 Y102.269 E9.98518
G1 X99.977 Y101.759 E10.01098
G1 X100.387 Y101.284 E10.03602
G1 X100.825 Y100.823 E10.0614
G1 F1800 E7.0614
G0 F9000 X100.505 Y100.488
G0 X107.576 Y104.17
G1 F1800 E10.0614
G1 F2400 X108.51 Y103.726 E10.10268
G1 X108.818 Y103.467 E10.11874
G1 X109.141 Y103.376 E10.13213
G1 X110.033 Y103.25 E10.16809
G1 X110.938 Y103.393 E10.20466
G1 X111.156 Y103.452 E10.21367
G1 X111.39 Y103.782 E10.22982
G1 X112.472 Y104.447 E10.28051
G1 X112.864 Y104.749 E10.30026
G1 X113.916 Y106.223 E10.37254
G1 X114.448 Y107.609 E10.43179
G1 X114.582 Y108.056 E10.45041
G1 X114.749 Y109.502 E10.50851
G1 X114.749 Y109.811 E10.52084
G1 X114.609 Y110.194 E10.53712
G1 X114.275 Y112.679 E10.63719
G1 X113.815 Y113.615 E10.67882
G1 X113.738 Y114.014 E10.69504
G1 X113.5 Y114.351 E10.7115
G1 X112.749 Y115.182 E10.75621
G1 X112.731 Y115.205 E10.75737
G1 X112.255 Y115.918 E10.79159
G1 X111.125 Y116.435 E10.84119
G1 X110.832 Y116.464 E10.85294
G1 X110.491 Y116.569 E10.86718
G1 X110.005 Y116.595 E10.8866
G1 X109.155 Y116.443 E10.92107
G1 X108.746 Y116.379 E10.93759
G1 X107.527 Y115.808 E10.99132
G1 X106.291 Y114.047 E11.07719
G1 X105.512 Y112.079 E11.16166
G1 X105.312 Y111.115 E11.20096
G1 X105.29 Y109.059 E11.28302
G1 X105.525 Y107.883 E11.33089
G1 X105.636 Y107.609 E11.34268
G1 X106.072 Y106.242 E11.39995
G1 X107.576 Y104.17 E11.50214
G0 F9000 X107.841 Y104.486
G1 F2400 X108.681 Y104.087 E11.53926
G1 X109.013 Y103.827 E11.55609
G1 X109.223 Y103.768 E11.56479
G1 X110.03 Y103.655 E11.59732
G1 X110.855 Y103.785 E11.63065
G1 X110.902 Y103.797 E11.63259
G1 X111.181 Y104.123 E11.64971
G1 X112.244 Y104.776 E11.6995
G1 X112.573 Y105.03 E11.71609
G1 X113.562 Y106.416 E11.78405
G1 X114.069 Y107.738 E11.84056
G1 X114.189 Y108.138 E11.85723
G1 X114.349 Y109.522 E11.91284
G1 X114.349 Y109.737 E11.92142
G1 X114.212 Y110.141 E11.93844
G1 X113.887 Y112.562 E12.03594
G1 X113.456 Y113.438 E12.0749
G1 X113.359 Y113.856 E12.09203
G1 X113.185 Y114.103 E12.10409
G1 X112.452 Y114.914 E12.14772
G1 X112.398 Y114.983 E12.15122
G1 X111.985 Y115.602 E12.18092
G1 X111.023 Y116.042 E12.22314
G1 X110.714 Y116.082 E12.23557
G1 X110.42 Y116.173 E12.24786
G1 X110.032 Y116.193 E12.26336
G1 X109.216 Y116.048 E12.29644
G1 X108.864 Y115.993 E12.31066
G1 X107.793 Y115.491 E12.35787
G1 X106.646 Y113.857 E12.43755
G1 X105.895 Y111.96 E12.51898
G1 X105.711 Y111.076 E12.55502
G1 X105.691 Y109.095 E12.63409
G1 X105.908 Y108.002 E12.67857
G1 X106.017 Y107.73 E12.69026
G1 X106.433 Y106.426 E12.74489
G1 X107.841 Y104.486 E12.84056
G0 F9000 X108.104 Y104.804
G1 F2400 X108.853 Y104.448 E12.87366
G1 X109.308 Y104.16 E12.89515
G1 X110.026 Y104.059 E12.92409
G1 X110.659 Y104.159 E12.94967
G1 X110.972 Y104.464 E12.96711
G1 X112.016 Y105.105 E13.01601
G1 X112.282 Y105.31 E13.02941
G1 X113.205 Y106.604 E13.09285
G1 X113.694 Y107.878 E13.14732
