;FLAVOR:Marlin
;TIME:1378
;Filament used: 0.49469m
;Layer height: 0.16
;MINX:91.78
;MINY:93.902
;MINZ:0.24
;MAXX:128.52
;MAXY:126.099
;MAXZ:13.92
;Generated with Cura_SteamEngine 4.7.1
M140 S50
M105
M190 S50
M104 S215
M105
M109 S215
M82 ;absolute extrusion mode
M201 X500.00 Y500.00 Z100.00 E5000.00 ;Setup machine max acceleration
M203 X500.00 Y500.00 Z10.00 E50.00 ;Setup machine max feedrate
M204 P500.00 R1000.00 T500.00 ;Setup Print/Retract/Travel acceleration
M205 X8.00 Y8.00 Z0.40 E5.00 ;Setup Jerk
M220 S100 ;Reset Feedrate
M221 S100 ;Reset Flowrate

G28 ;Home

G92 E0 ;Reset Extruder
G1 Z2.0 F3000 ;Move Z Axis up
G1 X10.1 Y20 Z0.28 F5000.0 ;Move to start position
G1 X10.1 Y200.0 Z0.28 F1500.0 E15 ;Draw the first line
G1 X10.4 Y200.0 Z0.28 F5000.0 ;Move to side a little
G1 X10.4 Y20 Z0.28 F1500.0 E30 ;Draw the second line
G92 E0 ;Reset Extruder
G1 Z2.0 F3000 ;Move Z Axis up

G92 E0
G92 E0
G1 F2400 E-3
;LAYER_COUNT:84
;LAYER:0
M106 S63.8
M204 S500
M205 X6 Y6
G1 F300 Z0.44
G0 F9000 X95.613 Y102.847 Z0.44
;TYPE:SKIRT
G1 F300 Z0.24
G1 F2400 E0
G1 F1800 X96.304 Y102.213 E0.03743
G1 X96.762 Y101.847 E0.06083
G1 X97.692 Y101.146 E0.10731
G1 X97.781 Y101.081 E0.11171
G1 X99.725 Y99.583 E0.20966
G1 X101.253 Y98.329 E0.28856
G1 X101.364 Y98.246 E0.29409
G1 X102.349 Y97.436 E0.34499
G1 X102.835 Y97.059 E0.36954
G1 X102.962 Y96.966 E0.37582
G1 X103.41 Y96.655 E0.39759
G1 X103.706 Y96.46 E0.41173
G1 X104.211 Y96.146 E0.43547
G1 X104.384 Y96.045 E0.44346
G1 X104.862 Y95.782 E0.46524
G1 X105.149 Y95.633 E0.47814
G1 X105.67 Y95.38 E0.50126
G1 X105.833 Y95.306 E0.5084
G1 X106.295 Y95.109 E0.52845
G1 X106.61 Y94.983 E0.54199
G1 X107.194 Y94.768 E0.56683
G1 X107.778 Y94.582 E0.59129
G1 X108.131 Y94.48 E0.60596
G1 X108.756 Y94.32 E0.63171
G1 X108.915 Y94.284 E0.63821
G1 X109.422 Y94.181 E0.65886
G1 X109.794 Y94.115 E0.67394
G1 X110.749 Y93.989 E0.71239
G1 X111.463 Y93.929 E0.74099
G1 X111.542 Y93.924 E0.74414
G1 X112.264 Y93.902 E0.77297
G1 X112.679 Y93.903 E0.78954
G1 X113.688 Y93.952 E0.82986
G1 X114.416 Y94.025 E0.85906
G1 X114.587 Y94.046 E0.86594
G1 X115.523 Y94.202 E0.90381
G1 X116.247 Y94.362 E0.9334
G1 X116.49 Y94.422 E0.94339
G1 X117.248 Y94.638 E0.97485
G1 X117.789 Y94.82 E0.99763
G1 X118.087 Y94.928 E1.01028
G1 X118.691 Y95.167 E1.03621
G1 X119.228 Y95.409 E1.05972
G1 X119.576 Y95.576 E1.07512
G1 X120.179 Y95.889 E1.10224
G1 X120.723 Y96.205 E1.12735
G1 X121.048 Y96.406 E1.1426
G1 X121.494 Y96.697 E1.16385
G1 X121.606 Y96.774 E1.16928
G1 X122.019 Y97.072 E1.18961
G1 X122.3 Y97.285 E1.20368
G1 X122.85 Y97.73 E1.23192
G1 X123.324 Y98.153 E1.25727
G1 X123.593 Y98.406 E1.27201
G1 X124.04 Y98.852 E1.29721
G1 X124.131 Y98.948 E1.30249
G1 X124.469 Y99.321 E1.32258
G1 X124.737 Y99.631 E1.33894
G1 X125.056 Y100.017 E1.35892
G1 X125.134 Y100.116 E1.36396
G1 X125.508 Y100.62 E1.389
G1 X125.722 Y100.926 E1.40391
G1 X126.1 Y101.504 E1.43147
G1 X126.416 Y102.039 E1.45627
G1 X126.588 Y102.349 E1.47042
G1 X126.983 Y103.134 E1.5055
G1 X127.123 Y103.442 E1.519
G1 X127.47 Y104.299 E1.5559
G1 X127.7 Y104.944 E1.58323
G1 X128.047 Y106.12 E1.63217
G1 X128.181 Y106.72 E1.65671
G1 X128.246 Y107.045 E1.66993
G1 X128.39 Y107.96 E1.7069
G1 X128.461 Y108.625 E1.7336
G1 X128.481 Y108.861 E1.74305
G1 X128.52 Y109.859 E1.78291
G1 X128.513 Y110.439 E1.80606
G1 X128.505 Y110.706 E1.81672
G1 X128.463 Y111.391 E1.84412
G1 X128.403 Y111.941 E1.8662
G1 X128.338 Y112.424 E1.88565
G1 X128.14 Y113.465 E1.92794
G1 X128.02 Y113.965 E1.94847
G1 X127.868 Y114.534 E1.97197
G1 X127.788 Y114.803 E1.98317
G1 X127.493 Y115.661 E2.01938
G1 X127.35 Y116.028 E2.03511
G1 X127.128 Y116.556 E2.05797
G1 X127.059 Y116.709 E2.06466
G1 X126.828 Y117.191 E2.086
G1 X126.687 Y117.467 E2.09837
G1 X126.387 Y118.016 E2.12334
G1 X126.039 Y118.59 E2.15013
G1 X125.849 Y118.885 E2.16413
G1 X125.469 Y119.437 E2.19088
G1 X125.367 Y119.576 E2.19776
G1 X125.053 Y119.984 E2.21831
G1 X124.825 Y120.266 E2.23278
G1 X124.444 Y120.713 E2.25623
G1 X124.344 Y120.824 E2.26219
G1 X123.992 Y121.196 E2.28263
G1 X123.722 Y121.469 E2.29795
G1 X123.277 Y121.895 E2.32254
G1 X123.173 Y121.989 E2.32814
G1 X122.78 Y122.327 E2.34883
G1 X122.494 Y122.562 E2.3636
G1 X121.981 Y122.959 E2.38949
G1 X121.451 Y123.332 E2.41536
G1 X121.17 Y123.518 E2.42881
G1 X120.619 Y123.859 E2.45467
G1 X120.016 Y124.198 E2.48228
G1 X119.46 Y124.484 E2.50723
G1 X119.421 Y124.503 E2.50896
G1 X118.909 Y124.736 E2.53142
G1 X118.634 Y124.853 E2.54334
G1 X117.737 Y125.189 E2.58157
G1 X117.056 Y125.411 E2.61016
G1 X116.048 Y125.688 E2.65189
G1 X115.445 Y125.813 E2.67646
G1 X115.073 Y125.88 E2.69155
G1 X114.092 Y126.011 E2.73105
G1 X113.375 Y126.071 E2.75977
G1 X113.28 Y126.077 E2.76357
G1 X112.555 Y126.099 E2.79252
G1 X111.808 Y126.09 E2.82233
G1 X111.17 Y126.065 E2.84782
G1 X110.774 Y126.042 E2.86365
G1 X110.177 Y125.997 E2.88754
G1 X109.538 Y125.932 E2.91318
G1 X109.199 Y125.889 E2.92682
G1 X108.48 Y125.785 E2.95581
G1 X107.676 Y125.646 E2.98838
G1 X107.287 Y125.568 E3.00421
G1 X106.779 Y125.457 E3.02497
G1 X105.952 Y125.253 E3.05896
G1 X105.626 Y125.164 E3.07245
G1 X105.045 Y124.996 E3.09659
G1 X104.329 Y124.768 E3.12658
G1 X103.963 Y124.64 E3.14206
G1 X103.166 Y124.346 E3.17596
G1 X102.595 Y124.119 E3.20049
G1 X102.145 Y123.921 E3.22011
G1 X101.343 Y123.546 E3.25545
G1 X100.943 Y123.348 E3.27326
G1 X100.192 Y122.959 E3.30702
G1 X99.744 Y122.715 E3.32738
G1 X99.29 Y122.444 E3.34848
G1 X98.386 Y121.875 E3.39111
G1 X97.882 Y121.539 E3.41529
G1 X97.531 Y121.286 E3.43256
G1 X96.867 Y120.787 E3.46571
G1 X96.519 Y120.514 E3.48336
G1 X95.871 Y119.985 E3.51675
G1 X95.17 Y119.362 E3.55418
G1 X94.525 Y118.681 E3.59162
G1 X93.941 Y117.947 E3.62905
G1 X93.421 Y117.167 E3.66647
G1 X92.969 Y116.345 E3.70391
G1 X92.664 Y115.672 E3.7334
G1 X92.611 Y115.544 E3.73893
G1 X92.289 Y114.663 E3.77637
G1 X92.044 Y113.758 E3.81379
G1 X91.877 Y112.835 E3.85122
G1 X91.789 Y111.901 E3.88867
G1 X91.78 Y110.964 E3.92607
G1 X91.852 Y110.028 E3.96353
G1 X92.003 Y109.103 E4.00094
G1 X92.232 Y108.193 E4.03839
G1 X92.538 Y107.307 E4.07581
G1 X92.919 Y106.45 E4.11324
G1 X93.371 Y105.628 E4.15068
G1 X93.657 Y105.182 E4.17183
G1 X93.846 Y104.902 E4.18531
G1 X94.403 Y104.148 E4.22272
G1 X94.915 Y103.557 E4.25393
G1 X95.226 Y103.234 E4.27183
G1 X95.613 Y102.847 E4.29367
G0 F9000 X95.896 Y103.13
G1 F1800 X96.574 Y102.508 E4.3304
G1 X97.003 Y102.166 E4.35229
G1 X97.783 Y101.577 E4.3913
G1 X97.973 Y101.437 E4.40072
G1 X99.993 Y99.88 E4.50252
G1 X101.507 Y98.638 E4.58067
G1 X101.617 Y98.556 E4.58615
G1 X102.603 Y97.745 E4.63711
G1 X103.071 Y97.382 E4.66074
G1 X103.198 Y97.289 E4.66703
G1 X103.63 Y96.989 E4.68802
G1 X103.926 Y96.794 E4.70217
G1 X104.413 Y96.492 E4.72504
G1 X104.586 Y96.391 E4.73303
G1 X105.046 Y96.137 E4.754
G1 X105.333 Y95.988 E4.76691
G1 X105.835 Y95.744 E4.78919
G1 X106.443 Y95.48 E4.81564
G1 X106.758 Y95.354 E4.82918
G1 X107.321 Y95.147 E4.85313
G1 X107.889 Y94.967 E4.87691
G1 X108.242 Y94.865 E4.89157
G1 X108.844 Y94.71 E4.91638
G1 X109.492 Y94.575 E4.9428
G1 X109.864 Y94.509 E4.95788
G1 X110.784 Y94.387 E4.99492
G1 X111.488 Y94.328 E5.02312
G1 X111.567 Y94.323 E5.02628
G1 X112.263 Y94.302 E5.05407
G1 X112.678 Y94.303 E5.07063
G1 X113.65 Y94.35 E5.10947
G1 X114.367 Y94.422 E5.13823
G1 X114.538 Y94.443 E5.14511
G1 X115.44 Y94.593 E5.18161
G1 X116.151 Y94.75 E5.21067
G1 X116.394 Y94.81 E5.22066
G1 X117.124 Y95.018 E5.25095
G1 X117.653 Y95.196 E5.27323
G1 X117.951 Y95.304 E5.28588
G1 X118.533 Y95.535 E5.31087
G1 X119.055 Y95.769 E5.3337
G1 X119.403 Y95.936 E5.34911
G1 X119.984 Y96.238 E5.37524
G1 X120.513 Y96.545 E5.39965
G1 X120.838 Y96.746 E5.41491
G1 X121.267 Y97.026 E5.43535
G1 X121.777 Y97.391 E5.46038
G1 X122.058 Y97.604 E5.47446
G1 X122.588 Y98.033 E5.50167
G1 X123.05 Y98.445 E5.52638
G1 X123.319 Y98.698 E5.54112
G1 X123.75 Y99.127 E5.56539
G1 X124.167 Y99.583 E5.59005
G1 X124.742 Y100.265 E5.62565
G1 X124.82 Y100.364 E5.63069
G1 X125.181 Y100.849 E5.65482
G1 X125.395 Y101.155 E5.66972
G1 X125.759 Y101.713 E5.69631
G1 X126.066 Y102.233 E5.72041
G1 X126.238 Y102.543 E5.73456
G1 X126.619 Y103.3 E5.76839
G1 X126.759 Y103.608 E5.78189
G1 X127.093 Y104.434 E5.81745
G1 X127.323 Y105.079 E5.84478
G1 X127.657 Y106.211 E5.89189
G1 X127.789 Y106.798 E5.9159
G1 X127.854 Y107.123 E5.92913
G1 X127.992 Y108.005 E5.96476
G1 X128.062 Y108.659 E5.99101
G1 X128.082 Y108.895 E6.00046
G1 X128.12 Y109.856 E6.03885
G1 X128.113 Y110.427 E6.06164
G1 X128.105 Y110.694 E6.0723
G1 X128.065 Y111.354 E6.09869
G1 X128.006 Y111.894 E6.12037
G1 X127.942 Y112.368 E6.13946
G1 X127.751 Y113.372 E6.18025
G1 X127.631 Y113.872 E6.20078
G1 X127.484 Y114.42 E6.22342
G1 X127.404 Y114.689 E6.23462
G1 X127.121 Y115.515 E6.26947
G1 X126.978 Y115.882 E6.28519
G1 X126.764 Y116.392 E6.30727
G1 X126.695 Y116.545 E6.31397
G1 X126.472 Y117.009 E6.33451
G1 X126.331 Y117.285 E6.34688
G1 X126.041 Y117.814 E6.37096
G1 X125.703 Y118.374 E6.39707
G1 X125.513 Y118.669 E6.41107
G1 X125.147 Y119.2 E6.43681
G1 X124.742 Y119.732 E6.4635
G1 X124.514 Y120.014 E6.47797
G1 X124.146 Y120.445 E6.50059
G1 X123.708 Y120.915 E6.52623
G1 X123.438 Y121.188 E6.54156
G1 X123.009 Y121.598 E6.56524
G1 X122.526 Y122.018 E6.59079
G1 X122.24 Y122.253 E6.60556
G1 X121.746 Y122.636 E6.63051
G1 X121.23 Y122.998 E6.65567
G1 X120.949 Y123.184 E6.66912
G1 X120.418 Y123.513 E6.69405
G1 X119.83 Y123.843 E6.72096
G1 X119.284 Y124.124 E6.74547
G1 X118.753 Y124.368 E6.76879
G1 X118.478 Y124.485 E6.78072
G1 X117.613 Y124.809 E6.81759
G1 X116.932 Y125.031 E6.84618
G1 X115.961 Y125.297 E6.88636
G1 X115.374 Y125.419 E6.91029
G1 X115.002 Y125.486 E6.92537
G1 X114.057 Y125.613 E6.96343
G1 X113.35 Y125.672 E6.99175
G1 X113.255 Y125.678 E6.99555
G1 X112.557 Y125.699 E7.02342
G1 X111.824 Y125.69 E7.05267
G1 X111.186 Y125.665 E7.07816
G1 X110.804 Y125.643 E7.09343
G1 X110.207 Y125.598 E7.11732
G1 X109.583 Y125.535 E7.14236
G1 X109.257 Y125.493 E7.15548
G1 X108.538 Y125.389 E7.18447
G1 X107.748 Y125.253 E7.21647
G1 X107.372 Y125.178 E7.23177
G1 X106.864 Y125.067 E7.25252
G1 X106.051 Y124.865 E7.28596
G1 X105.738 Y124.78 E7.2989
G1 X105.157 Y124.612 E7.32304
G1 X104.455 Y124.388 E7.35245
G1 X104.101 Y124.265 E7.36741
G1 X103.304 Y123.971 E7.40131
G1 X102.748 Y123.749 E7.42521
G1 X102.314 Y123.558 E7.44413
G1 X101.512 Y123.183 E7.47947
G1 X101.127 Y122.993 E7.49661
G1 X100.376 Y122.604 E7.53036
G1 X99.94 Y122.366 E7.55019
G1 X99.503 Y122.106 E7.57048
G1 X98.599 Y121.537 E7.61312
G1 X98.11 Y121.21 E7.63659
G1 X97.771 Y120.966 E7.65326
G1 X97.107 Y120.467 E7.68642
G1 X96.772 Y120.204 E7.70341
G1 X96.124 Y119.675 E7.7368
G1 X95.436 Y119.063 E7.77355
G1 X94.805 Y118.393 E7.81029
G1 X94.234 Y117.67 E7.84706
G1 X93.728 Y116.901 E7.8838
G1 X93.29 Y116.091 E7.92055
G1 X93.033 Y115.519 E7.94558
G1 X92.98 Y115.391 E7.95111
G1 X92.665 Y114.526 E7.98785
G1 X92.427 Y113.637 E8.02458
G1 X92.266 Y112.73 E8.06135
G1 X92.185 Y111.813 E8.09809
G1 X92.183 Y110.893 E8.13481
G1 X92.262 Y109.975 E8.17158
G1 X92.419 Y109.068 E8.20832
G1 X92.655 Y108.178 E8.24507
G1 X92.967 Y107.312 E8.28181
G1 X93.354 Y106.477 E8.31854
G1 X93.988 Y105.406 E8.36822
G1 X94.177 Y105.126 E8.3817
G1 X94.725 Y104.386 E8.41845
G1 X95.208 Y103.83 E8.44785
G1 X95.509 Y103.517 E8.46518
G1 X95.896 Y103.13 E8.48702
G0 F9000 X96.179 Y103.413
G1 F1800 X96.845 Y102.803 E8.52307
G1 X97.244 Y102.485 E8.54343
G1 X98.024 Y101.896 E8.58244
G1 X98.231 Y101.744 E8.59269
G1 X100.245 Y100.191 E8.6942
G1 X101.76 Y98.948 E8.77241
G1 X101.867 Y98.868 E8.77774
G1 X102.857 Y98.054 E8.8289
G1 X103.308 Y97.705 E8.85166
G1 X103.435 Y97.612 E8.85794
G1 X103.85 Y97.323 E8.87813
G1 X104.146 Y97.128 E8.89227
G1 X104.614 Y96.837 E8.91427
G1 X104.787 Y96.736 E8.92226
G1 X105.23 Y96.492 E8.94245
G1 X105.517 Y96.343 E8.95536
G1 X106.001 Y96.108 E8.97683
G1 X106.592 Y95.852 E9.00254
G1 X106.907 Y95.726 E9.01608
G1 X107.448 Y95.527 E9.03908
G1 X108.001 Y95.351 E9.06225
G1 X108.354 Y95.249 E9.07691
G1 X108.933 Y95.1 E9.10077
G1 X109.562 Y94.969 E9.12642
G1 X109.934 Y94.903 E9.1415
G1 X110.819 Y94.785 E9.17713
G1 X111.514 Y94.727 E9.20497
G1 X111.593 Y94.722 E9.20813
G1 X112.262 Y94.702 E9.23484
G1 X112.677 Y94.703 E9.2514
G1 X113.612 Y94.748 E9.28876
G1 X114.318 Y94.819 E9.31708
G1 X114.489 Y94.84 E9.32396
G1 X115.357 Y94.985 E9.35908
G1 X116.055 Y95.138 E9.3876
G1 X116.298 Y95.198 E9.39759
G1 X117.001 Y95.399 E9.42678
G1 X117.516 Y95.572 E9.44846
G1 X117.814 Y95.68 E9.46111
G1 X118.374 Y95.902 E9.48515
G1 X118.882 Y96.13 E9.50738
G1 X119.23 Y96.297 E9.52278
G1 X119.789 Y96.587 E9.54792
G1 X120.302 Y96.885 E9.5716
G1 X121.041 Y97.356 E9.60657
G1 X121.536 Y97.709 E9.63084
G1 X121.817 Y97.922 E9.64491
G1 X122.326 Y98.335 E9.67107
G1 X122.776 Y98.736 E9.69513
G1 X123.045 Y98.989 E9.70987
G1 X123.46 Y99.402 E9.73324
G1 X123.864 Y99.844 E9.75714
G1 X124.428 Y100.513 E9.79206
G1 X124.506 Y100.612 E9.79709
G1 X124.853 Y101.078 E9.82028
G1 X125.067 Y101.384 E9.83518
G1 X125.417 Y101.921 E9.86077
G1 X125.716 Y102.427 E9.88423
G1 X125.888 Y102.737 E9.89838
G1 X126.255 Y103.465 E9.93092
G1 X126.395 Y103.773 E9.94442
G1 X126.716 Y104.568 E9.97864
G1 X126.946 Y105.213 E10.00597
G1 X127.268 Y106.303 E10.05133
G1 X127.397 Y106.877 E10.07481
G1 X127.462 Y107.202 E10.08804
G1 X127.595 Y108.05 E10.1223
G1 X127.664 Y108.693 E10.14811
G1 X127.684 Y108.929 E10.15756
G1 X127.72 Y109.854 E10.19451
G1 X127.713 Y110.415 E10.2169
G1 X127.705 Y110.682 E10.22756
G1 X127.667 Y111.317 E10.25295
G1 X127.608 Y111.847 E10.27424
G1 X127.545 Y112.313 E10.29301
G1 X127.362 Y113.278 E10.33221
G1 X127.242 Y113.778 E10.35273
G1 X127.101 Y114.306 E10.37454
G1 X127.021 Y114.575 E10.38574
G1 X126.748 Y115.37 E10.41929
G1 X126.605 Y115.737 E10.43501
G1 X126.399 Y116.227 E10.45623
G1 X126.115 Y116.827 E10.48272
G1 X125.974 Y117.103 E10.49509
G1 X125.696 Y117.612 E10.51824
G1 X125.366 Y118.157 E10.54367
G1 X125.176 Y118.452 E10.55767
G1 X124.824 Y118.963 E10.58244
G1 X124.431 Y119.481 E10.60839
G1 X124.203 Y119.763 E10.62286
G1 X123.849 Y120.177 E10.64461
G1 X123.423 Y120.634 E10.66954
G1 X123.153 Y120.907 E10.68487
G1 X122.741 Y121.301 E10.70762
G1 X122.273 Y121.709 E10.7324
G1 X121.987 Y121.944 E10.74717
G1 X121.51 Y122.312 E10.77122
G1 X121.009 Y122.664 E10.79566
G1 X120.728 Y122.85 E10.80911
G1 X120.218 Y123.167 E10.83307
G1 X119.644 Y123.489 E10.85934
G1 X119.109 Y123.765 E10.88337
G1 X119.07 Y123.784 E10.8851
G1 X118.596 Y124 E10.90589
G1 X118.321 Y124.117 E10.91782
G1 X117.489 Y124.429 E10.95328
G1 X116.808 Y124.651 E10.98187
G1 X115.874 Y124.907 E11.02052
G1 X115.303 Y125.025 E11.0438
G1 X114.931 Y125.092 E11.05888
G1 X114.022 Y125.214 E11.09549
G1 X113.325 Y125.273 E11.1234
G1 X113.23 Y125.279 E11.1272
G1 X112.558 Y125.299 E11.15404
G1 X111.84 Y125.29 E11.1827
G1 X111.202 Y125.265 E11.20818
G1 X110.834 Y125.244 E11.22289
G1 X110.237 Y125.199 E11.24679
G1 X109.628 Y125.137 E11.27122
G1 X109.314 Y125.097 E11.28385
G1 X108.595 Y124.993 E11.31285
G1 X107.819 Y124.859 E11.34428
G1 X107.458 Y124.787 E11.35897
G1 X106.95 Y124.676 E11.37972
G1 X106.151 Y124.478 E11.41258
G1 X105.849 Y124.396 E11.42507
G1 X105.268 Y124.228 E11.44921
G1 X104.58 Y124.008 E11.47804
G1 X104.24 Y123.89 E11.4924
G1 X103.443 Y123.596 E11.52631
G1 X102.901 Y123.38 E11.54959
G1 X102.484 Y123.196 E11.56778
G1 X101.682 Y122.821 E11.60312
G1 X101.311 Y122.638 E11.61963
G1 X100.56 Y122.249 E11.65339
G1 X99.717 Y121.767 E11.69214
G1 X98.813 Y121.198 E11.73478
G1 X98.337 Y120.881 E11.7576
G1 X98.011 Y120.646 E11.77364
G1 X97.347 Y120.147 E11.80679
G1 X97.025 Y119.894 E11.82314
G1 X96.377 Y119.365 E11.85652
G1 X95.703 Y118.764 E11.89257
G1 X95.085 Y118.105 E11.92863
G1 X94.528 Y117.394 E11.96467
G1 X94.036 Y116.637 E12.00071
G1 X93.613 Y115.839 E12.03676
G1 X93.403 Y115.366 E12.05741
G1 X93.35 Y115.238 E12.06294
G1 X93.042 Y114.389 E12.09899
G1 X92.81 Y113.516 E12.13504
G1 X92.656 Y112.627 E12.17105
G1 X92.581 Y111.727 E12.2071
G1 X92.587 Y110.823 E12.24318
G1 X92.672 Y109.924 E12.27922
G1 X92.837 Y109.036 E12.31527
G1 X93.079 Y108.166 E12.35131
G1 X93.397 Y107.321 E12.38734
G1 X93.789 Y106.508 E12.42337
G1 X94.32 Y105.629 E12.46435
G1 X94.509 Y105.349 E12.47784
G1 X95.047 Y104.624 E12.51387
