;FLAVOR:Marlin
;TIME:1435
;Filament used: 1.21196m
;Layer height: 0.24
;MINX:80.207
;MINY:80.203
;MINZ:0.28
;MAXX:139.794
;MAXY:139.797
;MAXZ:9.96
;Generated with Cura_SteamEngine 4.10.0
M82 ;absolute extrusion mode
M201 X500.00 Y500.00 Z100.00 E5000.00 ;Setup machine max acceleration
M203 X500.00 Y500.00 Z10.00 E50.00 ;Setup machine max feedrate
M204 P500.00 R1000.00 T500.00 ;Setup Print/Retract/Travel acceleration
M205 X8.00 Y8.00 Z0.40 E5.00 ;Setup Jerk
M220 S100 ;Reset Feedrate
M221 S100 ;Reset Flowrate

;*** Start Dual Nozzle/Bed Preheating ***
M140 S50 ; start preheating the bed
M104 S200 ?T0 ; start preheating hotend
M190 S50 ; heat to Cura Bed setting and WAIT
M109 S200 ?T0 ; heat to Cura Hotend and WAIT
;*** End Preheating ***

;*** Single Print Start Tone
M300 S1000 P500 ; chirp to indicate starting to print
;*** End Single Start Tone

G28 ;Home

G92 E0 ;Reset Extruder
G1 Z2.0 F3000 ;Move Z Axis up

G1 X10.1 Y20 Z0.28 F5000.0 ;Move to start position
G1 X10.1 Y200.0 Z0.28 F1500.0 E15 ;Draw the first line
G1 X10.4 Y200.0 Z0.28 F5000.0 ;Move to side a little
G1 X10.4 Y20 Z0.28 F1500.0 E30 ;Draw the second line
G92 E0 ;Reset Extruder
G1 Z2.0 F3000 ;Move Z Axis up
G92 E0
G92 E0
G1 F2400 E-3.2
;LAYER_COUNT:37
;LAYER:0
M106 S63.8
M204 S500
M205 X6 Y6
;MESH:Circle.stl
G0 F9000 X107.585 Y134.078 Z0.28
;TYPE:WALL-OUTER
G1 F1440 E0
G1 F1800 X109.198 Y134.187 E0.07528
G1 X110.816 Y134.187 E0.15062
G1 X112.43 Y134.078 E0.22595
G1 X114.032 Y133.863 E0.30121
G1 X115.617 Y133.541 E0.37652
G1 X117.177 Y133.113 E0.45185
G1 X118.705 Y132.583 E0.52716
G1 X120.194 Y131.952 E0.60246
G1 X121.637 Y131.222 E0.67776
G1 X123.029 Y130.398 E0.75308
G1 X124.363 Y129.483 E0.82841
G1 X125.631 Y128.481 E0.90366
G1 X126.831 Y127.396 E0.97899
G1 X127.955 Y126.233 E1.0543
G1 X129 Y124.998 E1.12963
G1 X129.959 Y123.696 E1.20493
G1 X130.829 Y122.333 E1.28022
G1 X131.607 Y120.914 E1.35558
G1 X132.287 Y119.447 E1.43087
G1 X132.868 Y117.939 E1.50612
G1 X133.348 Y116.394 E1.58145
G1 X133.722 Y114.82 E1.65679
G1 X133.991 Y113.226 E1.73206
G1 X134.154 Y111.616 E1.80741
G1 X134.207 Y110 E1.8827
G1 X134.154 Y108.384 E1.95799
G1 X133.991 Y106.774 E2.03334
G1 X133.722 Y105.18 E2.10861
G1 X133.348 Y103.606 E2.18394
G1 X132.868 Y102.061 E2.25928
G1 X132.287 Y100.553 E2.33453
G1 X131.607 Y99.086 E2.40982
G1 X130.829 Y97.667 E2.48517
G1 X129.959 Y96.304 E2.56047
G1 X129 Y95.002 E2.63576
G1 X127.955 Y93.767 E2.7111
G1 X126.831 Y92.604 E2.78641
G1 X125.631 Y91.519 E2.86174
G1 X124.363 Y90.517 E2.93699
G1 X123.029 Y89.602 E3.01232
G1 X121.637 Y88.778 E3.08764
G1 X120.194 Y88.048 E3.16294
G1 X118.705 Y87.417 E3.23824
G1 X117.177 Y86.887 E3.31355
G1 X115.617 Y86.459 E3.38888
G1 X114.032 Y86.137 E3.46419
G1 X112.43 Y85.922 E3.53945
G1 X110.816 Y85.813 E3.61478
G1 X109.198 Y85.813 E3.69012
G1 X107.585 Y85.922 E3.7654
G1 X105.982 Y86.137 E3.84071
G1 X104.398 Y86.459 E3.91598
G1 X102.838 Y86.887 E3.9913
G1 X101.31 Y87.417 E4.06661
G1 X99.821 Y88.048 E4.14191
G1 X98.377 Y88.778 E4.21725
G1 X96.985 Y89.602 E4.29258
G1 X95.652 Y90.517 E4.36786
G1 X94.383 Y91.519 E4.44315
G1 X93.184 Y92.604 E4.51845
G1 X92.06 Y93.767 E4.59376
G1 X91.015 Y95.002 E4.66909
G1 X90.056 Y96.304 E4.74439
G1 X89.186 Y97.667 E4.81968
G1 X88.408 Y99.086 E4.89504
G1 X87.728 Y100.553 E4.97033
G1 X87.146 Y102.061 E5.0456
G1 X86.667 Y103.606 E5.12092
G1 X86.292 Y105.18 E5.19626
G1 X86.023 Y106.774 E5.27153
G1 X85.861 Y108.384 E5.34688
G1 X85.807 Y110 E5.42217
G1 X85.861 Y111.616 E5.49746
G1 X86.023 Y113.226 E5.5728
G1 X86.292 Y114.82 E5.64808
G1 X86.667 Y116.394 E5.72342
G1 X87.146 Y117.939 E5.79874
G1 X87.728 Y119.447 E5.87401
G1 X88.408 Y120.914 E5.9493
G1 X89.186 Y122.333 E6.02465
G1 X90.056 Y123.696 E6.09995
G1 X91.015 Y124.998 E6.17524
G1 X92.06 Y126.233 E6.25058
G1 X93.184 Y127.396 E6.32589
G1 X94.383 Y128.481 E6.40118
G1 X95.652 Y129.483 E6.47647
G1 X96.985 Y130.398 E6.55176
G1 X98.377 Y131.222 E6.62708
G1 X99.821 Y131.952 E6.70242
G1 X101.31 Y132.583 E6.77773
G1 X102.838 Y133.113 E6.85304
G1 X104.398 Y133.541 E6.92836
G1 X105.982 Y133.863 E7.00363
G1 X107.585 Y134.078 E7.07894
G1 F2400 E3.87894
G0 F9000 X107.555 Y134.376
G0 X109.164 Y135.178
G0 X109.596 Y138.787
G0 X111.344 Y139.47
G0 X111.35 Y139.77
G1 F1440 E7.07894
G1 F1800 X109.565 Y139.797 E7.16206
G1 X107.778 Y139.716 E7.24536
G1 X106.001 Y139.529 E7.32856
G1 X104.251 Y139.238 E7.41117
G1 X102.512 Y138.842 E7.49422
G1 X100.798 Y138.341 E7.57737
G1 X99.125 Y137.742 E7.66011
G1 X97.476 Y137.037 E7.74362
G1 X95.885 Y136.241 E7.82646
G1 X94.344 Y135.351 E7.90932
G1 X92.855 Y134.369 E7.99237
G1 X91.429 Y133.3 E8.07536
G1 X90.068 Y132.146 E8.15845
G1 X88.78 Y130.914 E8.24144
G1 X87.562 Y129.602 E8.3248
G1 X86.437 Y128.234 E8.40728
G1 X85.387 Y126.789 E8.49045
G1 X84.423 Y125.279 E8.57387
G1 X83.555 Y123.722 E8.65687
G1 X82.781 Y122.115 E8.73993
G1 X82.105 Y120.465 E8.82296
G1 X81.533 Y118.789 E8.90542
G1 X81.059 Y117.07 E8.98845
G1 X80.685 Y115.315 E9.07201
G1 X80.42 Y113.552 E9.15502
G1 X80.261 Y111.787 E9.23754
G1 X80.207 Y110.006 E9.32051
G1 X80.261 Y108.212 E9.40408
G1 X80.42 Y106.448 E9.48655
G1 X80.685 Y104.685 E9.56957
G1 X81.059 Y102.93 E9.65312
G1 X81.533 Y101.21 E9.7362
G1 X82.105 Y99.535 E9.81862
G1 X82.781 Y97.885 E9.90165
G1 X83.555 Y96.278 E9.9847
G1 X84.423 Y94.721 E10.06771
G1 X85.389 Y93.208 E10.15129
G1 X86.437 Y91.766 E10.2343
G1 X87.562 Y90.398 E10.31677
G1 X88.783 Y89.082 E10.40036
G1 X90.071 Y87.851 E10.48333
G1 X91.432 Y86.698 E10.56638
G1 X92.855 Y85.631 E10.6492
G1 X94.347 Y84.647 E10.73243
G1 X95.885 Y83.759 E10.81512
G1 X97.476 Y82.963 E10.89796
G1 X99.126 Y82.258 E10.98151
G1 X100.798 Y81.659 E11.06421
G1 X102.512 Y81.158 E11.14736
G1 X104.251 Y80.762 E11.23041
G1 X106.001 Y80.471 E11.31302
G1 X107.778 Y80.284 E11.39622
G1 X109.565 Y80.203 E11.47951
G1 X111.35 Y80.23 E11.56264
G1 X113.118 Y80.362 E11.64519
G1 X114.889 Y80.602 E11.72841
G1 X116.633 Y80.946 E11.81119
G1 X118.37 Y81.398 E11.89476
G1 X120.06 Y81.946 E11.97749
G1 X121.725 Y82.6 E12.06078
G1 X123.332 Y83.345 E12.14326
G1 X124.912 Y84.195 E12.22681
G1 X126.419 Y85.127 E12.30931
G1 X127.887 Y86.16 E12.3929
G1 X129.271 Y87.264 E12.47533
G1 X130.605 Y88.465 E12.55892
G1 X131.848 Y89.727 E12.6414
G1 X133.029 Y91.079 E12.72499
G1 X134.113 Y92.479 E12.80744
G1 X135.117 Y93.952 E12.89044
G1 X136.038 Y95.493 E12.97404
G1 X136.858 Y97.075 E13.05701
G1 X137.583 Y98.704 E13.14003
G1 X138.206 Y100.363 E13.22255
G1 X138.735 Y102.078 E13.30612
G1 X139.155 Y103.799 E13.38861
G1 X139.473 Y105.553 E13.47162
G1 X139.687 Y107.323 E13.55463
G1 X139.794 Y109.115 E13.63823
G1 X139.794 Y110.885 E13.72065
G1 X139.688 Y112.665 E13.80368
G1 X139.473 Y114.444 E13.88712
G1 X139.155 Y116.201 E13.97026
G1 X138.735 Y117.922 E14.05275
G1 X138.207 Y119.635 E14.13622
G1 X137.583 Y121.296 E14.21884
G1 X136.858 Y122.925 E14.30186
G1 X136.038 Y124.507 E14.38483
G1 X135.117 Y126.048 E14.46843
G1 X134.113 Y127.521 E14.55144
G1 X133.029 Y128.921 E14.63388
G1 X131.848 Y130.273 E14.71747
G1 X130.605 Y131.535 E14.79996
G1 X129.271 Y132.736 E14.88354
G1 X127.887 Y133.84 E14.96597
G1 X126.419 Y134.873 E15.04956
G1 X124.912 Y135.805 E15.13207
G1 X123.332 Y136.655 E15.21561
G1 X121.725 Y137.4 E15.29809
G1 X120.06 Y138.054 E15.38138
G1 X118.37 Y138.602 E15.46411
G1 X116.633 Y139.054 E15.54768
G1 X114.889 Y139.398 E15.63046
G1 X113.118 Y139.638 E15.71368
G1 X111.35 Y139.77 E15.79623
G0 F9000 X111.331 Y139.37
;TYPE:WALL-INNER
G1 F1800 X109.577 Y139.397 E15.87791
G1 X107.805 Y139.316 E15.96051
G1 X106.059 Y139.133 E16.04226
G1 X104.321 Y138.844 E16.1243
G1 X102.612 Y138.455 E16.20591
G1 X100.929 Y137.962 E16.28757
G1 X99.266 Y137.367 E16.36982
G1 X97.647 Y136.675 E16.4518
G1 X96.064 Y135.883 E16.53422
G1 X94.559 Y135.013 E16.61517
G1 X93.086 Y134.042 E16.69732
G1 X91.68 Y132.988 E16.77914
G1 X90.327 Y131.841 E16.86174
G1 X89.067 Y130.635 E16.94295
G1 X87.865 Y129.341 E17.02519
G1 X86.756 Y127.992 E17.10651
G1 X85.711 Y126.554 E17.18928
G1 X84.767 Y125.075 E17.27098
G1 X83.911 Y123.539 E17.35286
G1 X83.148 Y121.955 E17.43473
G1 X82.482 Y120.33 E17.5165
G1 X81.915 Y118.67 E17.59818
G1 X81.445 Y116.964 E17.68058
G1 X81.081 Y115.254 E17.76199
G1 X80.816 Y113.493 E17.84491
G1 X80.661 Y111.772 E17.92537
G1 X80.607 Y110.006 E18.00765
G1 X80.661 Y108.224 E18.09066
G1 X80.816 Y106.507 E18.17094
G1 X81.081 Y104.744 E18.25395
G1 X81.445 Y103.036 E18.33527
G1 X81.915 Y101.329 E18.41771
G1 X82.484 Y99.664 E18.49964
G1 X83.148 Y98.045 E18.58113
G1 X83.911 Y96.461 E18.66299
G1 X84.767 Y94.925 E18.74487
G1 X85.713 Y93.443 E18.82674
G1 X86.756 Y92.008 E18.90935
G1 X87.866 Y90.659 E18.99069
G1 X89.07 Y89.361 E19.07313
G1 X90.33 Y88.156 E19.15431
G1 X91.683 Y87.01 E19.23688
G1 X93.086 Y85.958 E19.31853
G1 X94.561 Y84.985 E19.40081
G1 X96.064 Y84.117 E19.48163
G1 X97.647 Y83.325 E19.56405
G1 X99.267 Y82.633 E19.64608
G1 X100.929 Y82.038 E19.72828
G1 X102.612 Y81.545 E19.80994
G1 X104.321 Y81.156 E19.89155
G1 X106.059 Y80.867 E19.97359
G1 X107.805 Y80.684 E20.05534
G1 X109.577 Y80.603 E20.13794
G1 X111.331 Y80.63 E20.21962
G1 X113.084 Y80.761 E20.30148
G1 X114.826 Y80.997 E20.38333
G1 X116.536 Y81.334 E20.46449
G1 X118.269 Y81.785 E20.54787
G1 X119.922 Y82.321 E20.62879
G1 X121.562 Y82.965 E20.71083
G1 X123.153 Y83.703 E20.7925
G1 X124.717 Y84.545 E20.87521
G1 X126.196 Y85.459 E20.95616
G1 X127.645 Y86.478 E21.03865
G1 X129.011 Y87.568 E21.12002
G1 X130.326 Y88.752 E21.20242
G1 X131.563 Y90.008 E21.2845
G1 X132.719 Y91.331 E21.36631
G1 X133.782 Y92.704 E21.44717
G1 X134.786 Y94.177 E21.53017
G1 X135.687 Y95.684 E21.61193
G1 X136.498 Y97.25 E21.69405
G1 X137.213 Y98.856 E21.77591
G1 X137.827 Y100.49 E21.85719
G1 X138.346 Y102.173 E21.9392
G1 X138.763 Y103.884 E22.0212
G1 X139.079 Y105.624 E22.10355
G1 X139.289 Y107.362 E22.18506
G1 X139.394 Y109.115 E22.26684
G1 X139.394 Y110.885 E22.34926
G1 X139.29 Y112.626 E22.43047
G1 X139.079 Y114.373 E22.51241
G1 X138.763 Y116.116 E22.59489
G1 X138.346 Y117.826 E22.67685
G1 X137.828 Y119.508 E22.7588
G1 X137.213 Y121.144 E22.84018
G1 X136.498 Y122.75 E22.92204
G1 X135.687 Y124.316 E23.00416
G1 X134.786 Y125.823 E23.08592
G1 X133.786 Y127.291 E23.16863
G1 X132.719 Y128.669 E23.24978
G1 X131.563 Y129.992 E23.33159
G1 X130.326 Y131.248 E23.41368
G1 X129.011 Y132.432 E23.49607
G1 X127.645 Y133.522 E23.57744
G1 X126.196 Y134.541 E23.65993
G1 X124.717 Y135.455 E23.74089
G1 X123.153 Y136.297 E23.8236
G1 X121.562 Y137.035 E23.90526
G1 X119.922 Y137.679 E23.98731
G1 X118.269 Y138.215 E24.06822
G1 X116.536 Y138.666 E24.1516
G1 X114.826 Y139.003 E24.23276
G1 X113.084 Y139.239 E24.31462
G1 X111.331 Y139.37 E24.39647
G1 F2400 E21.19647
G0 F9000 X109.596 Y138.787
G0 X109.164 Y135.178
G0 X107.545 Y134.476
G1 F1440 E24.39647
G1 F1800 X109.185 Y134.587 E24.47301
G1 X110.829 Y134.587 E24.54956
G1 X112.47 Y134.476 E24.62615
G1 X114.098 Y134.258 E24.70263
G1 X115.71 Y133.93 E24.77923
G1 X117.296 Y133.495 E24.85581
G1 X118.849 Y132.957 E24.93234
G1 X120.363 Y132.315 E25.00892
G1 X121.829 Y131.573 E25.08542
G1 X123.244 Y130.735 E25.162
G1 X124.6 Y129.805 E25.23856
G1 X125.889 Y128.787 E25.31505
G1 X127.109 Y127.684 E25.39163
G1 X128.252 Y126.501 E25.46823
G1 X129.314 Y125.246 E25.54478
G1 X130.289 Y123.922 E25.62134
G1 X131.173 Y122.537 E25.69785
G1 X131.964 Y121.094 E25.77448
G1 X132.655 Y119.603 E25.851
G1 X133.246 Y118.07 E25.9275
G1 X133.734 Y116.5 E26.00406
G1 X134.114 Y114.9 E26.08063
G1 X134.388 Y113.279 E26.15718
G1 X134.553 Y111.643 E26.23375
G1 X134.607 Y110 E26.3103
G1 X134.553 Y108.357 E26.38684
G1 X134.388 Y106.721 E26.46341
G1 X134.114 Y105.1 E26.53996
G1 X133.734 Y103.5 E26.61653
G1 X133.246 Y101.93 E26.69309
G1 X132.655 Y100.397 E26.76959
G1 X131.964 Y98.906 E26.84611
G1 X131.173 Y97.463 E26.92274
G1 X130.289 Y96.078 E26.99925
G1 X129.314 Y94.754 E27.07581
G1 X128.252 Y93.499 E27.15237
G1 X127.109 Y92.316 E27.22896
G1 X125.889 Y91.213 E27.30555
G1 X124.6 Y90.195 E27.38203
G1 X123.244 Y89.265 E27.45859
G1 X121.829 Y88.427 E27.53517
G1 X120.363 Y87.685 E27.61168
G1 X118.849 Y87.043 E27.68825
G1 X117.296 Y86.505 E27.76478
G1 X115.71 Y86.07 E27.84136
G1 X114.098 Y85.742 E27.91796
G1 X112.47 Y85.524 E27.99444
G1 X110.829 Y85.413 E28.07103
G1 X109.185 Y85.413 E28.14758
G1 X107.545 Y85.524 E28.22412
G1 X105.915 Y85.742 E28.3007
G1 X104.305 Y86.07 E28.3772
G1 X102.719 Y86.505 E28.45378
G1 X101.166 Y87.043 E28.53031
G1 X99.653 Y87.685 E28.60685
G1 X98.185 Y88.427 E28.68344
G1 X96.77 Y89.265 E28.76001
G1 X95.415 Y90.195 E28.83654
G1 X94.125 Y91.213 E28.91306
G1 X92.906 Y92.316 E28.98961
G1 X91.763 Y93.499 E29.0662
G1 X90.701 Y94.754 E29.14276
G1 X89.726 Y96.078 E29.21932
G1 X88.842 Y97.463 E29.29583
G1 X88.051 Y98.906 E29.37245
G1 X87.36 Y100.397 E29.44898
G1 X86.768 Y101.93 E29.5255
G1 X86.281 Y103.5 E29.60204
G1 X85.9 Y105.1 E29.67862
G1 X85.626 Y106.721 E29.75517
G1 X85.462 Y108.357 E29.83174
G1 X85.407 Y110 E29.90828
G1 X85.462 Y111.643 E29.98483
G1 X85.626 Y113.279 E30.06139
G1 X85.9 Y114.9 E30.13794
G1 X86.281 Y116.5 E30.21453
G1 X86.768 Y118.07 E30.29107
G1 X87.36 Y119.603 E30.36759
G1 X88.051 Y121.094 E30.44411
G1 X88.842 Y122.537 E30.52074
G1 X89.726 Y123.922 E30.59725
G1 X90.701 Y125.246 E30.67381
G1 X91.763 Y126.501 E30.75036
G1 X92.906 Y127.684 E30.82696
G1 X94.125 Y128.787 E30.90351
G1 X95.415 Y129.805 E30.98003
G1 X96.77 Y130.735 E31.05655
G1 X98.185 Y131.573 E31.13313
G1 X99.653 Y132.315 E31.20972
G1 X101.166 Y132.957 E31.28625
G1 X102.719 Y133.495 E31.36278
G1 X104.305 Y133.93 E31.43936
G1 X105.915 Y134.258 E31.51587
G1 X107.545 Y134.476 E31.59245
G0 F9000 X107.505 Y134.874
G1 F1800 X109.171 Y134.987 E31.6702
G1 X110.843 Y134.987 E31.74806
G1 X112.51 Y134.874 E31.82586
G1 X114.164 Y134.653 E31.90356
G1 X115.803 Y134.319 E31.98145
G1 X117.414 Y133.877 E32.05923
G1 X118.993 Y133.331 E32.13703
G1 X120.532 Y132.678 E32.21487
G1 X122.021 Y131.924 E32.29259
G1 X123.459 Y131.072 E32.37042
G1 X124.837 Y130.127 E32.44823
G1 X126.147 Y129.093 E32.52594
G1 X127.387 Y127.972 E32.60377
G1 X128.549 Y126.769 E32.68165
G1 X129.628 Y125.494 E32.75943
G1 X130.619 Y124.148 E32.83726
G1 X131.517 Y122.741 E32.91498
G1 X132.321 Y121.274 E32.99288
G1 X133.023 Y119.759 E33.07063
G1 X133.624 Y118.201 E33.14839
G1 X134.12 Y116.606 E33.22616
G1 X134.506 Y114.98 E33.30398
G1 X134.785 Y113.332 E33.38181
G1 X134.952 Y111.67 E33.45959
G1 X135.007 Y110 E33.5374
G1 X134.952 Y108.33 E33.6152
G1 X134.785 Y106.668 E33.69298
G1 X134.506 Y105.02 E33.77081
G1 X134.12 Y103.394 E33.84863
G1 X133.624 Y101.799 E33.92641
G1 X133.023 Y100.241 E34.00416
G1 X132.321 Y98.726 E34.08191
G1 X131.517 Y97.259 E34.15981
G1 X130.619 Y95.852 E34.23753
G1 X129.628 Y94.506 E34.31536
G1 X128.549 Y93.231 E34.39314
G1 X127.387 Y92.028 E34.47102
G1 X126.147 Y90.907 E34.54886
G1 X124.837 Y89.873 E34.62657
G1 X123.459 Y88.928 E34.70437
G1 X122.021 Y88.076 E34.7822
G1 X120.532 Y87.322 E34.85992
G1 X118.993 Y86.669 E34.93776
G1 X117.414 Y86.123 E35.01556
G1 X115.803 Y85.681 E35.09335
G1 X114.164 Y85.347 E35.17123
G1 X112.51 Y85.126 E35.24894
G1 X110.843 Y85.013 E35.32674
G1 X109.171 Y85.013 E35.40459
G1 X107.505 Y85.126 E35.48235
G1 X105.848 Y85.347 E35.56019
G1 X104.212 Y85.681 E35.63794
G1 X102.601 Y86.123 E35.71572
G1 X101.022 Y86.669 E35.79352
G1 X99.484 Y87.322 E35.87132
G1 X97.993 Y88.076 E35.94912
G1 X96.555 Y88.928 E36.02695
G1 X95.178 Y89.873 E36.10472
G1 X93.867 Y90.907 E36.18247
G1 X92.628 Y92.028 E36.26027
G1 X91.466 Y93.231 E36.33815
G1 X90.387 Y94.506 E36.41593
G1 X89.396 Y95.852 E36.49376
G1 X88.498 Y97.259 E36.57148
G1 X87.694 Y98.726 E36.64937
G1 X86.992 Y100.241 E36.72712
G1 X86.39 Y101.799 E36.8049
G1 X85.895 Y103.394 E36.88266
G1 X85.508 Y105.02 E36.96049
G1 X85.229 Y106.668 E37.03832
G1 X85.063 Y108.33 E37.1161
G1 X85.007 Y110 E37.1939
G1 X85.063 Y111.67 E37.27171
G1 X85.229 Y113.332 E37.34948
G1 X85.508 Y114.98 E37.42731
G1 X85.895 Y116.606 E37.50514
G1 X86.39 Y118.201 E37.5829
G1 X86.992 Y119.759 E37.66068
G1 X87.694 Y121.274 E37.73843
G1 X88.498 Y122.741 E37.81633
G1 X89.396 Y124.148 E37.89405
G1 X90.387 Y125.494 E37.97188
G1 X91.466 Y126.769 E38.04965
G1 X92.628 Y127.972 E38.12753
