;FLAVOR:Marlin
;TIME:1643
;Filament used: 1.26303m
;Layer height: 0.24
;MINX:83.493
;MINY:83.44
;MINZ:0.28
;MAXX:136.507
;MAXY:136.563
;MAXZ:9.96
;Generated with Cura_SteamEngine 4.10.0
M82 ;absolute extrusion mode
M201 X500.00 Y500.00 Z100.00 E5000.00 ;Setup machine max acceleration
M203 X500.00 Y500.00 Z10.00 E50.00 ;Setup machine max feedrate
M204 P500.00 R1000.00 T500.00 ;Setup Print/Retract/Travel acceleration
M205 X8.00 Y8.00 Z0.40 E5.00 ;Setup Jerk
M220 S100 ;Reset Feedrate
M221 S100 ;Reset Flowrate

;*** Start Dual Nozzle/Bed Preheating ***
M140 S50 ; start preheating the bed
M104 S200 ?T0 ; start preheating hotend
M190 S50 ; heat to Cura Bed setting and WAIT
M109 S200 ?T0 ; heat to Cura Hotend and WAIT
;*** End Preheating ***

;*** Single Print Start Tone
M300 S1000 P500 ; chirp to indicate starting to print
;*** End Single Start Tone

G28 ;Home

G92 E0 ;Reset Extruder
G1 Z2.0 F3000 ;Move Z Axis up

G1 X10.1 Y20 Z0.28 F5000.0 ;Move to start position
G1 X10.1 Y200.0 Z0.28 F1500.0 E15 ;Draw the first line
G1 X10.4 Y200.0 Z0.28 F5000.0 ;Move to side a little
G1 X10.4 Y20 Z0.28 F1500.0 E30 ;Draw the second line
G92 E0 ;Reset Extruder
G1 Z2.0 F3000 ;Move Z Axis up
G92 E0
G92 E0
G1 F2400 E-3.2
;LAYER_COUNT:37
;LAYER:0
M106 S63.8
M204 S500
M205 X6 Y6
;MESH:star_v2.stl
G0 F9000 X109.757 Y91.951 Z0.28
;TYPE:WALL-OUTER
G1 F1440 E0
G1 F1800 X118.276 Y84.886 E0.51535
G1 X118.889 Y84.437 E0.55073
G1 X119.569 Y84.057 E0.587
G1 X120.274 Y83.769 E0.62246
G1 X121.016 Y83.567 E0.65827
G1 X121.775 Y83.457 E0.69398
G1 X122.542 Y83.44 E0.7297
G1 X123.306 Y83.516 E0.76545
G1 X124.056 Y83.685 E0.80125
G1 X124.769 Y83.941 E0.83653
G1 X125.46 Y84.287 E0.87251
G1 X126.103 Y84.715 E0.90848
G1 X126.681 Y85.209 E0.94388
G1 X127.201 Y85.78 E0.97985
G1 X127.644 Y86.403 E1.01544
G1 X128.01 Y87.079 E1.05124
G1 X128.289 Y87.788 E1.08671
G1 X128.483 Y88.539 E1.12283
G1 X128.582 Y89.292 E1.1582
G1 X128.589 Y90.06 E1.19396
G1 X128.503 Y90.823 E1.22971
G1 X128.321 Y91.583 E1.2661
G1 X124.902 Y102.806 E1.8124
G1 X134.07 Y109.915 E2.35261
G1 X134.631 Y110.406 E2.38732
G1 X135.126 Y110.953 E2.42168
G1 X135.555 Y111.559 E2.45625
G1 X135.911 Y112.214 E2.49096
G1 X136.189 Y112.907 E2.52573
G1 X136.379 Y113.62 E2.56009
G1 X136.487 Y114.358 E2.59482
G1 X136.507 Y115.102 E2.62948
G1 X136.438 Y115.837 E2.66385
G1 X136.282 Y116.573 E2.69888
G1 X136.045 Y117.271 E2.73321
G1 X135.726 Y117.936 E2.76755
G1 X135.326 Y118.57 E2.80246
G1 X134.858 Y119.147 E2.83705
G1 X134.329 Y119.662 E2.87143
G1 X133.737 Y120.113 E2.90608
G1 X133.098 Y120.492 E2.94068
G1 X132.416 Y120.795 E2.97543
G1 X131.71 Y121.012 E3.00982
G1 X130.978 Y121.146 E3.04447
G1 X130.223 Y121.194 E3.0797
G1 X119.288 Y121.238 E3.58888
G1 X115.98 Y132.098 E4.11751
G1 X115.711 Y132.82 E4.15339
G1 X115.356 Y133.505 E4.18931
G1 X114.927 Y134.134 E4.22476
G1 X114.424 Y134.708 E4.2603
G1 X113.856 Y135.216 E4.29578
G1 X113.233 Y135.649 E4.33111
G1 X112.551 Y136.011 E4.36707
G1 X111.842 Y136.282 E4.40241
G1 X111.097 Y136.468 E4.43816
G1 X110.347 Y136.561 E4.47335
G1 X109.583 Y136.563 E4.50893
G1 X108.817 Y136.471 E4.54485
G1 X108.082 Y136.29 E4.5801
G1 X107.366 Y136.02 E4.61573
G1 X106.695 Y135.668 E4.65102
G1 X106.062 Y135.232 E4.68681
G1 X105.492 Y134.725 E4.72233
G1 X104.984 Y134.15 E4.75806
G1 X104.55 Y133.521 E4.79364
G1 X104.202 Y132.852 E4.82875
G1 X103.926 Y132.122 E4.86509
G1 X100.588 Y121.323 E5.39141
G1 X89.802 Y121.323 E5.89366
G1 X89.043 Y121.279 E5.92906
G1 X88.307 Y121.146 E5.96388
G1 X87.602 Y120.931 E5.9982
G1 X86.914 Y120.628 E6.03321
G1 X86.272 Y120.248 E6.06795
G1 X85.682 Y119.799 E6.10247
G1 X85.142 Y119.275 E6.13751
G1 X84.675 Y118.7 E6.172
G1 X84.273 Y118.064 E6.20704
G1 X83.953 Y117.395 E6.24157
G1 X83.716 Y116.694 E6.27602
G1 X83.56 Y115.955 E6.31119
G1 X83.493 Y115.217 E6.3457
G1 X83.515 Y114.47 E6.3805
G1 X83.624 Y113.731 E6.41528
G1 X83.822 Y113.007 E6.45023
G1 X84.1 Y112.32 E6.48474
G1 X84.457 Y111.669 E6.51931
G1 X84.892 Y111.061 E6.55412
G1 X85.399 Y110.506 E6.58913
G1 X85.962 Y110.021 E6.62373
G1 X94.659 Y103.363 E7.13374
G1 X91.471 Y92.672 E7.65322
G1 X91.3 Y91.945 E7.688
G1 X91.217 Y91.203 E7.72276
G1 X91.222 Y90.455 E7.7576
G1 X91.313 Y89.722 E7.79199
G1 X91.493 Y88.998 E7.82673
G1 X91.757 Y88.298 E7.86156
G1 X92.102 Y87.638 E7.89624
G1 X92.522 Y87.021 E7.931
G1 X93.012 Y86.458 E7.96575
G1 X93.561 Y85.961 E8.00023
G1 X94.168 Y85.53 E8.0349
G1 X94.829 Y85.17 E8.06995
G1 X95.521 Y84.893 E8.10465
G1 X96.237 Y84.702 E8.13916
G1 X96.976 Y84.594 E8.17394
G1 X97.723 Y84.575 E8.20873
G1 X98.458 Y84.643 E8.2431
G1 X99.197 Y84.803 E8.27831
G1 X99.897 Y85.042 E8.31275
G1 X100.568 Y85.365 E8.34743
G1 X101.208 Y85.772 E8.38275
G1 X109.757 Y91.951 E8.87392
G1 F2400 E5.67392
G0 F9000 X109.947 Y92.182
G0 X109.802 Y92.23
G0 X108.091 Y91.945
G0 X109.166 Y90.457
G0 X106.605 Y97.649
G0 X107.69 Y96.146
G0 X98.017 Y90.082
G0 X97.627 Y89.931
G0 X97.167 Y89.988
G0 X96.786 Y90.257
G0 X96.581 Y90.675
G0 X96.596 Y91.099
G0 X100.859 Y105.376
G0 X89.173 Y114.313
G0 X88.925 Y114.638
G0 X88.846 Y115.096
G0 X88.996 Y115.538
G0 X89.337 Y115.856
G0 X89.669 Y115.941
G0 X104.494 Y116.008
G0 X104.719 Y115.723
G1 F1440 E8.87392
G1 F1800 X109.284 Y130.492 E9.59372
G1 X109.465 Y130.782 E9.60964
G1 X109.774 Y130.953 E9.62609
G1 X110.127 Y130.952 E9.64252
G1 X110.435 Y130.779 E9.65897
G1 X110.615 Y130.489 E9.67487
G1 X115.134 Y115.653 E10.39703
G1 X130.232 Y115.593 E11.10006
G1 X130.547 Y115.51 E11.11523
G1 X130.799 Y115.276 E11.13124
G1 X130.91 Y114.95 E11.14728
G1 X130.852 Y114.611 E11.16329
G1 X130.65 Y114.349 E11.1787
G1 X118.42 Y104.866 E11.89932
G1 X122.972 Y89.919 E12.62687
G1 X122.983 Y89.584 E12.64248
G1 X122.822 Y89.268 E12.65899
G1 X122.525 Y89.071 E12.67559
G1 X122.35 Y89.035 E12.68391
G1 X122.001 Y89.099 E12.70043
G1 X121.861 Y89.188 E12.70815
G1 X109.993 Y99.031 E13.42611
G1 X97.902 Y90.294 E14.12072
G1 X97.597 Y90.175 E14.13597
G1 X97.255 Y90.217 E14.15201
G1 X96.973 Y90.416 E14.16808
G1 X96.822 Y90.726 E14.18414
G1 X96.834 Y91.06 E14.1997
G1 X101.128 Y105.463 E14.89954
G1 X89.344 Y114.484 E15.59057
G1 X89.15 Y114.737 E15.60542
G1 X89.091 Y115.077 E15.62149
G1 X89.202 Y115.405 E15.63761
G1 X89.455 Y115.64 E15.65369
G1 X89.778 Y115.723 E15.66922
G1 X104.719 Y115.723 E16.36494
G0 F9000 X104.424 Y116.123
;TYPE:WALL-INNER
G1 F1800 X108.917 Y130.66 E17.07343
G1 X109.181 Y131.082 E17.09661
G1 X109.671 Y131.353 E17.12268
G1 X110.232 Y131.352 E17.14881
G1 X110.721 Y131.077 E17.17493
G1 X110.982 Y130.656 E17.198
G1 X115.431 Y116.052 E17.90887
G1 X130.285 Y115.993 E18.60054
G1 X130.746 Y115.871 E18.62275
G1 X131.145 Y115.5 E18.64812
G1 X131.321 Y114.983 E18.67355
G1 X131.23 Y114.446 E18.69891
G1 X130.936 Y114.064 E18.72136
G1 X118.883 Y104.719 E19.43152
G1 X123.37 Y89.985 E20.14871
G1 X123.386 Y89.494 E20.17158
G1 X123.131 Y88.993 E20.19776
G1 X122.682 Y88.695 E20.22285
G1 X122.354 Y88.628 E20.23844
G1 X121.852 Y88.72 E20.26221
G1 X121.625 Y88.864 E20.27472
G1 X109.976 Y98.526 E20.97945
G1 X98.095 Y89.94 E21.66202
G1 X97.648 Y89.766 E21.68436
G1 X97.106 Y89.832 E21.70978
G1 X96.658 Y90.148 E21.73531
G1 X96.419 Y90.641 E21.76082
G1 X96.436 Y91.125 E21.78337
G1 X100.666 Y105.313 E22.47276
G1 X89.059 Y114.199 E23.15343
G1 X88.773 Y114.572 E23.17532
G1 X88.679 Y115.109 E23.2007
G1 X88.856 Y115.629 E23.22628
G1 X89.257 Y116.002 E23.25178
G1 X89.727 Y116.123 E23.27438
G1 X104.424 Y116.123 E23.95874
G1 F2400 E20.75874
G0 F9000 X89.748 Y115.962
G0 X89.337 Y115.856
G0 X88.996 Y115.538
G0 X88.846 Y115.096
G0 X88.925 Y114.638
G0 X89.173 Y114.313
G0 X100.859 Y105.376
G0 X96.596 Y91.099
G0 X96.581 Y90.675
G0 X96.786 Y90.257
G0 X97.167 Y89.988
G0 X97.627 Y89.931
G0 X97.847 Y90.015
G0 X107.307 Y95.869
G0 X106.222 Y97.372
G0 X109.166 Y90.457
G0 X108.091 Y91.945
G0 X109.774 Y92.457
G1 F1440 E23.95874
G1 F1800 X118.52 Y85.203 E24.48783
G1 X119.107 Y84.773 E24.52172
G1 X119.744 Y84.417 E24.5557
G1 X120.399 Y84.149 E24.58865
G1 X121.097 Y83.96 E24.62232
G1 X121.808 Y83.856 E24.65578
G1 X122.527 Y83.841 E24.68927
G1 X123.244 Y83.912 E24.72282
G1 X123.946 Y84.07 E24.75632
G1 X124.606 Y84.307 E24.78898
G1 X125.259 Y84.634 E24.82298
G1 X125.863 Y85.036 E24.85677
G1 X126.402 Y85.497 E24.88979
G1 X126.888 Y86.031 E24.92342
G1 X127.304 Y86.616 E24.95684
G1 X127.646 Y87.246 E24.99022
G1 X127.908 Y87.911 E25.0235
G1 X128.088 Y88.61 E25.05711
G1 X128.182 Y89.323 E25.0906
G1 X128.189 Y90.043 E25.12413
G1 X128.109 Y90.75 E25.15726
G1 X127.938 Y91.466 E25.19154
G1 X124.439 Y102.953 E25.75068
G1 X133.817 Y110.225 E26.30327
G1 X134.348 Y110.69 E26.33613
G1 X134.816 Y111.207 E26.3686
G1 X135.215 Y111.77 E26.40074
G1 X135.548 Y112.383 E26.43322
G1 X135.807 Y113.028 E26.46558
G1 X135.987 Y113.703 E26.49811
G1 X136.088 Y114.393 E26.53059
G1 X136.106 Y115.092 E26.56314
G1 X136.042 Y115.777 E26.59518
G1 X135.897 Y116.462 E26.62778
G1 X135.674 Y117.12 E26.66013
G1 X135.372 Y117.748 E26.69258
G1 X135.004 Y118.331 E26.72468
G1 X134.562 Y118.877 E26.7574
G1 X134.063 Y119.362 E26.7898
G1 X133.516 Y119.779 E26.82183
G1 X132.916 Y120.135 E26.85431
G1 X132.272 Y120.421 E26.88712
G1 X131.613 Y120.624 E26.91923
G1 X130.931 Y120.748 E26.95151
G1 X130.213 Y120.794 E26.98501
G1 X118.991 Y120.839 E27.50756
G1 X115.6 Y131.973 E28.04952
G1 X115.343 Y132.661 E28.08371
G1 X115.01 Y133.303 E28.11739
G1 X114.615 Y133.882 E28.15003
G1 X114.139 Y134.426 E28.18369
G1 X113.606 Y134.903 E28.21699
G1 X113.028 Y135.305 E28.24978
G1 X112.389 Y135.644 E28.28346
G1 X111.718 Y135.901 E28.31692
G1 X111.024 Y136.074 E28.35022
G1 X110.322 Y136.161 E28.38316
G1 X109.606 Y136.163 E28.4165
G1 X108.887 Y136.077 E28.45022
G1 X108.201 Y135.908 E28.48312
G1 X107.531 Y135.655 E28.51646
G1 X106.901 Y135.324 E28.5496
G1 X106.311 Y134.918 E28.58295
G1 X105.776 Y134.442 E28.6163
G1 X105.297 Y133.899 E28.65001
G1 X104.896 Y133.318 E28.68288
G1 X104.564 Y132.68 E28.71637
G1 X104.305 Y131.994 E28.75052
G1 X100.883 Y120.923 E29.29009
G1 X89.808 Y120.923 E29.80579
G1 X89.096 Y120.882 E29.839
G1 X88.402 Y120.756 E29.87184
G1 X87.737 Y120.553 E29.90422
G1 X87.098 Y120.272 E29.93672
G1 X86.493 Y119.914 E29.96946
G1 X85.947 Y119.499 E30.00139
G1 X85.433 Y119 E30.03475
G1 X85.003 Y118.47 E30.06653
G1 X84.625 Y117.872 E30.09947
G1 X84.324 Y117.242 E30.13198
G1 X84.102 Y116.586 E30.16423
G1 X83.956 Y115.895 E30.19712
G1 X83.894 Y115.209 E30.22919
G1 X83.914 Y114.506 E30.26194
G1 X84.016 Y113.814 E30.29451
G1 X84.202 Y113.134 E30.32734
G1 X84.462 Y112.491 E30.35963
G1 X84.797 Y111.881 E30.39204
G1 X85.203 Y111.313 E30.42455
G1 X85.678 Y110.793 E30.45734
G1 X86.21 Y110.335 E30.49003
G1 X95.121 Y103.513 E31.0126
G1 X91.858 Y92.571 E31.54428
G1 X91.696 Y91.882 E31.57723
G1 X91.617 Y91.179 E31.61018
G1 X91.622 Y90.481 E31.64268
G1 X91.707 Y89.795 E31.67487
G1 X91.876 Y89.115 E31.70749
G1 X92.123 Y88.46 E31.74009
G1 X92.442 Y87.85 E31.77214
G1 X92.838 Y87.267 E31.80496
G1 X93.301 Y86.736 E31.83776
G1 X93.811 Y86.274 E31.86981
G1 X94.384 Y85.867 E31.90253
G1 X94.998 Y85.533 E31.93508
G1 X95.65 Y85.272 E31.96778
G1 X96.312 Y85.096 E31.99968
G1 X97.011 Y84.993 E32.03258
G1 X97.713 Y84.976 E32.06528
G1 X98.394 Y85.038 E32.09712
G1 X99.088 Y85.189 E32.13019
G1 X99.752 Y85.416 E32.16286
G1 X100.365 Y85.71 E32.19452
G1 X100.993 Y86.11 E32.22919
G1 X109.774 Y92.457 E32.7337
G0 F9000 X109.791 Y92.963
G1 F1800 X118.764 Y85.52 E33.27655
G1 X119.325 Y85.109 E33.30894
G1 X119.919 Y84.777 E33.34062
G1 X120.524 Y84.529 E33.37107
G1 X121.177 Y84.353 E33.40256
G1 X121.842 Y84.255 E33.43386
G1 X122.513 Y84.241 E33.46511
G1 X123.181 Y84.308 E33.49637
G1 X123.837 Y84.455 E33.52768
G1 X124.443 Y84.673 E33.55766
G1 X125.058 Y84.981 E33.58969
G1 X125.623 Y85.357 E33.62129
G1 X126.123 Y85.785 E33.65194
G1 X126.575 Y86.281 E33.68319
G1 X126.962 Y86.826 E33.71431
G1 X127.284 Y87.419 E33.74573
G1 X127.527 Y88.035 E33.77657
G1 X127.693 Y88.681 E33.80763
G1 X127.782 Y89.354 E33.83924
G1 X127.789 Y90.026 E33.87053
G1 X127.715 Y90.677 E33.90104
G1 X127.555 Y91.349 E33.9332
G1 X123.976 Y103.1 E34.5052
G1 X133.553 Y110.526 E35.0695
G1 X134.069 Y110.978 E35.10144
G1 X134.506 Y111.461 E35.13177
G1 X134.875 Y111.981 E35.16146
G1 X135.185 Y112.552 E35.19171
G1 X135.428 Y113.157 E35.22207
G1 X135.593 Y113.778 E35.25199
G1 X135.689 Y114.428 E35.28259
G1 X135.705 Y115.082 E35.31305
G1 X135.646 Y115.717 E35.34274
G1 X135.511 Y116.353 E35.37302
G1 X135.301 Y116.973 E35.4035
G1 X135.024 Y117.549 E35.43326
G1 X134.679 Y118.096 E35.46337
G1 X134.266 Y118.607 E35.49397
G1 X133.801 Y119.059 E35.52416
G1 X133.29 Y119.448 E35.55407
G1 X132.734 Y119.778 E35.58417
G1 X132.128 Y120.047 E35.61505
G1 X131.524 Y120.233 E35.64448
G1 X130.876 Y120.351 E35.67514
G1 X130.202 Y120.394 E35.70659
G1 X118.694 Y120.44 E36.24246
G1 X115.22 Y131.847 E36.7977
G1 X114.975 Y132.502 E36.83027
G1 X114.664 Y133.101 E36.86169
G1 X114.301 Y133.634 E36.89172
G1 X113.856 Y134.142 E36.92317
G1 X113.353 Y134.592 E36.95459
G1 X112.82 Y134.963 E36.98483
G1 X112.23 Y135.276 E37.01593
G1 X111.594 Y135.52 E37.04765
G1 X110.951 Y135.68 E37.07851
G1 X110.297 Y135.761 E37.10919
G1 X109.628 Y135.763 E37.14034
G1 X108.957 Y135.683 E37.17181
G1 X108.32 Y135.526 E37.20236
G1 X107.697 Y135.29 E37.23338
G1 X107.113 Y134.984 E37.26408
G1 X106.556 Y134.601 E37.29556
G1 X106.061 Y134.16 E37.32643
G1 X105.61 Y133.648 E37.3582
G1 X105.242 Y133.115 E37.38836
G1 X104.928 Y132.512 E37.42001
G1 X104.684 Y131.866 E37.45217
G1 X101.178 Y120.523 E38.005
G1 X89.814 Y120.523 E38.53416
G1 X89.149 Y120.485 E38.56517
G1 X88.498 Y120.366 E38.59599
G1 X87.871 Y120.175 E38.62651
G1 X87.282 Y119.916 E38.65647
G1 X86.714 Y119.58 E38.6872
G1 X86.212 Y119.199 E38.71654
G1 X85.729 Y118.729 E38.74792
G1 X85.327 Y118.235 E38.77758
G1 X84.975 Y117.677 E38.8083
G1 X84.696 Y117.092 E38.83848
G1 X84.488 Y116.478 E38.86867
G1 X84.352 Y115.835 E38.89927
G1 X84.295 Y115.201 E38.92891
G1 X84.313 Y114.542 E38.95961
G1 X84.408 Y113.897 E38.98997
G1 X84.582 Y113.261 E39.02067
G1 X84.823 Y112.666 E39.05056
G1 X85.139 Y112.09 E39.08115
G1 X85.514 Y111.565 E39.1112
G1 X85.957 Y111.08 E39.14178
G1 X86.458 Y110.649 E39.17256
G1 X95.583 Y103.663 E39.70768
G1 X92.245 Y92.47 E40.25155
G1 X92.09 Y91.812 E40.28303
G1 X92.017 Y91.162 E40.31349
G1 X92.022 Y90.507 E40.34399
G1 X92.101 Y89.866 E40.37406
G1 X92.258 Y89.234 E40.40439
G1 X92.489 Y88.622 E40.43485
G1 X92.782 Y88.062 E40.46428
G1 X93.158 Y87.508 E40.49545
G1 X93.585 Y87.018 E40.52572
G1 X94.061 Y86.587 E40.55562
G1 X94.6 Y86.205 E40.58638
G1 X95.167 Y85.896 E40.61645
G1 X95.771 Y85.654 E40.64675
G1 X96.395 Y85.488 E40.67681
G1 X97.046 Y85.392 E40.70745
G1 X97.704 Y85.376 E40.7381
G1 X98.329 Y85.433 E40.76732
G1 X98.987 Y85.576 E40.79868
G1 X99.593 Y85.784 E40.82851
G1 X100.175 Y86.063 E40.85857
G1 X100.769 Y86.442 E40.89138
G1 X109.791 Y92.963 E41.40973
G1 F2400 E38.20973
G0 F9000 X108.091 Y91.945
G0 X109.166 Y90.457
G0 X106.605 Y97.649
G0 X107.69 Y96.146
G0 X98.017 Y90.082
G0 X97.627 Y89.931
G0 X97.167 Y89.988
G0 X96.786 Y90.257
G0 X96.581 Y90.675
G0 X96.596 Y91.099
G0 X100.859 Y105.376
G0 X89.173 Y114.313
G0 X88.925 Y114.638
G0 X88.846 Y115.096
G0 X88.996 Y115.538
G0 X89.337 Y115.856
G0 X89.669 Y115.941
G0 X104.129 Y116.523
G1 F1440 E41.40973
G1 F1800 X108.55 Y130.828 E42.10691
G1 X108.897 Y131.382 E42.13735
G1 X109.568 Y131.753 E42.17305
G1 X110.337 Y131.752 E42.20886
G1 X111.007 Y131.375 E42.24466
G1 X111.349 Y130.822 E42.27494
G1 X115.728 Y116.451 E42.97449
G1 X130.338 Y116.393 E43.65479
G1 X130.945 Y116.232 E43.68404
G1 X131.491 Y115.724 E43.71876
G1 X131.732 Y115.016 E43.75359
G1 X131.608 Y114.281 E43.7883
G1 X131.222 Y113.779 E43.81778
G1 X119.346 Y104.572 E44.5175
G1 X123.768 Y90.051 E45.22431
G1 X123.789 Y89.404 E45.25446
G1 X123.44 Y88.718 E45.2903
G1 X122.838 Y88.319 E45.32393
G1 X122.358 Y88.221 E45.34674
G1 X121.703 Y88.341 E45.37774
G1 X121.389 Y88.54 E45.39505
G1 X109.959 Y98.021 E46.08655
G1 X98.288 Y89.586 E46.75708
G1 X97.699 Y89.357 E46.7865
G1 X96.958 Y89.447 E46.82126
G1 X96.343 Y89.881 E46.85631
G1 X96.016 Y90.556 E46.89124
G1 X96.038 Y91.19 E46.92078
G1 X100.204 Y105.163 E47.59972
G1 X88.774 Y113.914 E48.27003
G1 X88.396 Y114.406 E48.29892
