;FLAVOR:Marlin
;TIME:1803
;Filament used: 1.71498m
;Layer height: 0.24
;MINX:79.858
;MINY:83.641
;MINZ:0.28
;MAXX:140.143
;MAXY:137.211
;MAXZ:9.96
;Generated with Cura_SteamEngine 4.10.0
M82 ;absolute extrusion mode
M201 X500.00 Y500.00 Z100.00 E5000.00 ;Setup machine max acceleration
M203 X500.00 Y500.00 Z10.00 E50.00 ;Setup machine max feedrate
M204 P500.00 R1000.00 T500.00 ;Setup Print/Retract/Travel acceleration
M205 X8.00 Y8.00 Z0.40 E5.00 ;Setup Jerk
M220 S100 ;Reset Feedrate
M221 S100 ;Reset Flowrate

;*** Start Dual Nozzle/Bed Preheating ***
M140 S50 ; start preheating the bed
M104 S200 ?T0 ; start preheating hotend
M190 S50 ; heat to Cura Bed setting and WAIT
M109 S200 ?T0 ; heat to Cura Hotend and WAIT
;*** End Preheating ***

;*** Single Print Start Tone
M300 S1000 P500 ; chirp to indicate starting to print
;*** End Single Start Tone

G28 ;Home

G92 E0 ;Reset Extruder
G1 Z2.0 F3000 ;Move Z Axis up

G1 X10.1 Y20 Z0.28 F5000.0 ;Move to start position
G1 X10.1 Y200.0 Z0.28 F1500.0 E15 ;Draw the first line
G1 X10.4 Y200.0 Z0.28 F5000.0 ;Move to side a little
G1 X10.4 Y20 Z0.28 F1500.0 E30 ;Draw the second line
G92 E0 ;Reset Extruder
G1 Z2.0 F3000 ;Move Z Axis up
G92 E0
G92 E0
G1 F2400 E-3.2
;LAYER_COUNT:37
;LAYER:0
M106 S63.8
M204 S500
M205 X6 Y6
;MESH:triangle_v3.stl
G0 F9000 X109.073 Y131.711 Z0.28
;TYPE:WALL-OUTER
G1 F1440 E0
G1 F1800 X109.38 Y131.755 E0.01444
G1 X109.689 Y131.717 E0.02894
G1 X109.977 Y131.603 E0.04336
G1 X110.227 Y131.418 E0.05784
G1 X110.412 Y131.187 E0.07162
G1 X135.387 Y90.041 E2.31288
G1 X135.495 Y89.805 E2.32496
G1 X135.548 Y89.527 E2.33814
G1 X135.535 Y89.244 E2.35133
G1 X135.45 Y88.963 E2.365
G1 X135.306 Y88.718 E2.37823
G1 X135.133 Y88.532 E2.39006
G1 X134.899 Y88.372 E2.40326
G1 X134.622 Y88.271 E2.41699
G1 X134.36 Y88.241 E2.42927
G1 X85.644 Y88.241 E4.69769
G1 X85.346 Y88.28 E4.71169
G1 X85.056 Y88.4 E4.7263
G1 X84.807 Y88.591 E4.74091
G1 X84.616 Y88.84 E4.75553
G1 X84.496 Y89.13 E4.77014
G1 X84.455 Y89.441 E4.78475
G1 X84.496 Y89.752 E4.79935
G1 X84.611 Y90.03 E4.81336
G1 X108.36 Y131.164 E7.02505
G1 X108.541 Y131.4 E7.0389
G1 X108.787 Y131.59 E7.05337
G1 X109.073 Y131.711 E7.06783
G1 F2400 E3.86783
G0 F9000 X109.03 Y132.007
G0 X109.637 Y132.741
G0 X109.779 Y135.317
G0 X110.043 Y136.013
G0 X110.078 Y136.312
G1 F1440 E7.06783
G1 F1800 X109.324 Y136.353 E7.10299
G1 X108.586 Y136.296 E7.13746
G1 X107.846 Y136.142 E7.17266
G1 X107.138 Y135.896 E7.20756
G1 X106.466 Y135.558 E7.24258
G1 X105.841 Y135.137 E7.27767
G1 X105.285 Y134.647 E7.31218
G1 X104.783 Y134.072 E7.34772
G1 X104.368 Y133.449 E7.38258
G1 X80.634 Y92.341 E9.59287
G1 X80.299 Y91.661 E9.62817
G1 X80.056 Y90.944 E9.66342
G1 X79.908 Y90.202 E9.69865
G1 X79.858 Y89.441 E9.73416
G1 X79.908 Y88.68 E9.76967
G1 X80.056 Y87.938 E9.8049
G1 X80.299 Y87.221 E9.84016
G1 X80.633 Y86.542 E9.87539
G1 X81.055 Y85.911 E9.91074
G1 X81.557 Y85.34 E9.94614
G1 X82.128 Y84.839 E9.98151
G1 X82.759 Y84.417 E10.01686
G1 X83.437 Y84.083 E10.05205
G1 X84.154 Y83.839 E10.08732
G1 X84.896 Y83.691 E10.12255
G1 X85.67 Y83.641 E10.15867
G1 X134.337 Y83.641 E12.42481
G1 X135.077 Y83.687 E12.45933
G1 X135.778 Y83.82 E12.49255
G1 X136.463 Y84.039 E12.52604
G1 X137.116 Y84.345 E12.55962
G1 X137.731 Y84.729 E12.59338
G1 X138.291 Y85.186 E12.62704
G1 X138.787 Y85.708 E12.66057
G1 X139.219 Y86.291 E12.69436
G1 X139.57 Y86.914 E12.72765
G1 X139.845 Y87.585 E12.76142
G1 X140.032 Y88.28 E12.79493
G1 X140.132 Y88.995 E12.82855
G1 X140.143 Y89.715 E12.86208
G1 X140.063 Y90.433 E12.89572
G1 X139.895 Y91.141 E12.9296
G1 X139.643 Y91.809 E12.96285
G1 X139.307 Y92.45 E12.99655
G1 X114.356 Y133.555 E15.23559
G1 X113.92 Y134.177 E15.27096
G1 X113.414 Y134.732 E15.30593
G1 X112.838 Y135.218 E15.34102
G1 X112.214 Y135.62 E15.37559
G1 X111.527 Y135.945 E15.41097
G1 X110.822 Y136.173 E15.44548
G1 X110.078 Y136.312 E15.48072
G0 F9000 X110.029 Y135.914
;TYPE:WALL-INNER
G1 F1800 X109.333 Y135.952 E15.51318
G1 X108.643 Y135.899 E15.5454
G1 X107.951 Y135.755 E15.57831
G1 X107.292 Y135.526 E15.6108
G1 X106.669 Y135.213 E15.64326
G1 X106.084 Y134.818 E15.67613
G1 X105.569 Y134.365 E15.70807
G1 X105.104 Y133.832 E15.74101
G1 X104.701 Y133.227 E15.77485
G1 X80.991 Y92.161 E17.98289
G1 X80.669 Y91.506 E18.01688
G1 X80.442 Y90.838 E18.04973
G1 X80.305 Y90.151 E18.08235
G1 X80.259 Y89.441 E18.11548
G1 X80.305 Y88.731 E18.14861
G1 X80.442 Y88.044 E18.18123
G1 X80.669 Y87.376 E18.21408
G1 X80.983 Y86.736 E18.24727
G1 X81.371 Y86.156 E18.27977
G1 X81.836 Y85.628 E18.31253
G1 X82.378 Y85.152 E18.34612
G1 X82.954 Y84.767 E18.37838
G1 X83.59 Y84.454 E18.41138
G1 X84.263 Y84.225 E18.44449
G1 X84.947 Y84.088 E18.47697
G1 X85.681 Y84.041 E18.51122
G1 X134.328 Y84.041 E20.77643
G1 X135.025 Y84.084 E20.80894
G1 X135.68 Y84.209 E20.83999
G1 X136.318 Y84.412 E20.87117
G1 X136.925 Y84.697 E20.90239
G1 X137.496 Y85.053 E20.93373
G1 X138.017 Y85.479 E20.96506
G1 X138.484 Y85.97 E20.99662
G1 X138.884 Y86.51 E21.02791
G1 X139.207 Y87.084 E21.05858
G1 X139.466 Y87.715 E21.09034
G1 X139.639 Y88.36 E21.12143
G1 X139.732 Y89.024 E21.15265
G1 X139.743 Y89.693 E21.18381
G1 X139.667 Y90.37 E21.21553
G1 X139.512 Y91.024 E21.24683
G1 X139.278 Y91.644 E21.27768
G1 X138.965 Y92.242 E21.30911
G1 X114.023 Y133.332 E23.54734
G1 X113.604 Y133.93 E23.58134
G1 X113.138 Y134.442 E23.61358
G1 X112.598 Y134.897 E23.64646
G1 X112.022 Y135.268 E23.67836
G1 X111.379 Y135.572 E23.71148
G1 X110.718 Y135.786 E23.74383
G1 X110.029 Y135.914 E23.77646
G1 F2400 E20.57646
G0 F9000 X109.339 Y135.341
G0 X109.37 Y132.755
G0 X108.965 Y132.1
G1 F1440 E23.77646
G1 F1800 X109.376 Y132.159 E23.7958
G1 X109.789 Y132.108 E23.81518
G1 X110.173 Y131.956 E23.83441
G1 X110.507 Y131.709 E23.85375
G1 X110.74 Y131.417 E23.87114
G1 X135.741 Y90.229 E26.1147
G1 X135.879 Y89.927 E26.13016
G1 X135.95 Y89.556 E26.14775
G1 X135.932 Y89.176 E26.16546
G1 X135.819 Y88.801 E26.1837
G1 X135.629 Y88.478 E26.20115
G1 X135.396 Y88.227 E26.2171
G1 X135.083 Y88.013 E26.23475
G1 X134.715 Y87.879 E26.25299
G1 X134.383 Y87.841 E26.26855
G1 X85.618 Y87.841 E28.53925
G1 X85.242 Y87.89 E28.55691
G1 X84.854 Y88.051 E28.57647
G1 X84.522 Y88.306 E28.59596
G1 X84.267 Y88.638 E28.61545
G1 X84.106 Y89.026 E28.63501
G1 X84.052 Y89.441 E28.6545
G1 X84.106 Y89.856 E28.67399
G1 X84.251 Y90.207 E28.69167
G1 X108.027 Y131.387 E30.90584
G1 X108.255 Y131.685 E30.92331
G1 X108.583 Y131.938 E30.9426
G1 X108.965 Y132.1 E30.96192
G0 F9000 X108.857 Y132.489
G1 F1800 X109.372 Y132.563 E30.98615
G1 X109.889 Y132.499 E31.01041
G1 X110.369 Y132.309 E31.03445
G1 X110.787 Y131.999 E31.05868
G1 X111.069 Y131.646 E31.07972
G1 X136.095 Y90.417 E33.32551
G1 X136.263 Y90.049 E33.34434
G1 X136.352 Y89.585 E33.36634
G1 X136.329 Y89.108 E33.38858
G1 X136.188 Y88.64 E33.41134
G1 X135.952 Y88.238 E33.43304
G1 X135.659 Y87.922 E33.45311
G1 X135.267 Y87.654 E33.47522
G1 X134.807 Y87.487 E33.49801
G1 X134.406 Y87.441 E33.5168
G1 X85.592 Y87.441 E35.78979
G1 X85.138 Y87.5 E35.81111
G1 X84.652 Y87.702 E35.83561
G1 X84.237 Y88.021 E35.85999
G1 X83.918 Y88.436 E35.88436
G1 X83.716 Y88.922 E35.90887
G1 X83.649 Y89.441 E35.93324
G1 X83.716 Y89.96 E35.9576
G1 X83.891 Y90.384 E35.97896
G1 X107.694 Y131.609 E38.19557
G1 X107.969 Y131.97 E38.21671
G1 X108.379 Y132.286 E38.24081
G1 X108.857 Y132.489 E38.26499
G1 F2400 E35.06499
G0 F9000 X109.637 Y132.741
G0 X109.779 Y135.317
G0 X109.981 Y135.516
G1 F1440 E38.26499
G1 F1800 X109.342 Y135.551 E38.29479
G1 X108.7 Y135.502 E38.32477
G1 X108.056 Y135.368 E38.3554
G1 X107.446 Y135.156 E38.38547
G1 X106.876 Y134.87 E38.41517
G1 X106.324 Y134.497 E38.44619
G1 X105.853 Y134.083 E38.47539
G1 X105.425 Y133.592 E38.50572
G1 X105.034 Y133.005 E38.53856
G1 X81.345 Y91.975 E40.74466
G1 X81.041 Y91.357 E40.77673
G1 X80.828 Y90.729 E40.8076
G1 X80.702 Y90.1 E40.83748
G1 X80.66 Y89.441 E40.86822
G1 X80.702 Y88.782 E40.89897
G1 X80.828 Y88.153 E40.92884
G1 X81.041 Y87.525 E40.95972
G1 X81.332 Y86.933 E40.99044
G1 X81.687 Y86.402 E41.02018
G1 X82.115 Y85.916 E41.05033
G1 X82.623 Y85.469 E41.08184
G1 X83.154 Y85.115 E41.11156
G1 X83.743 Y84.825 E41.14213
G1 X84.371 Y84.611 E41.17302
G1 X85 Y84.485 E41.20289
G1 X85.691 Y84.441 E41.23513
G1 X134.319 Y84.441 E43.49946
G1 X134.973 Y84.481 E43.52997
G1 X135.584 Y84.598 E43.55894
G1 X136.171 Y84.785 E43.58762
G1 X136.734 Y85.049 E43.61658
G1 X137.261 Y85.377 E43.64548
G1 X137.743 Y85.772 E43.6745
G1 X138.181 Y86.232 E43.70407
G1 X138.545 Y86.723 E43.73254
G1 X138.847 Y87.261 E43.76126
G1 X139.087 Y87.845 E43.79066
G1 X139.246 Y88.44 E43.81934
G1 X139.332 Y89.053 E43.84817
G1 X139.343 Y89.67 E43.8769
G1 X139.271 Y90.308 E43.9068
G1 X139.129 Y90.907 E43.93546
G1 X138.912 Y91.482 E43.96408
G1 X138.623 Y92.034 E43.99309
G1 X113.69 Y133.109 E46.23051
G1 X113.288 Y133.683 E46.26314
G1 X112.861 Y134.152 E46.29267
G1 X112.358 Y134.576 E46.3233
G1 X111.83 Y134.916 E46.35255
G1 X111.231 Y135.199 E46.38339
G1 X110.615 Y135.399 E46.41355
G1 X109.981 Y135.516 E46.44357
G0 F9000 X109.936 Y135.128
;TYPE:SKIN
G1 F1800 X109.336 Y135.161 E46.47155
G1 X108.762 Y135.116 E46.49836
G1 X108.157 Y134.991 E46.52713
G1 X107.604 Y134.799 E46.55439
G1 X107.069 Y134.529 E46.58229
G1 X106.563 Y134.188 E46.6107
G1 X106.13 Y133.808 E46.63753
G1 X105.733 Y133.352 E46.66568
G1 X105.37 Y132.806 E46.69621
G1 X81.687 Y91.787 E48.90172
G1 X81.401 Y91.205 E48.93192
G1 X81.205 Y90.628 E48.9603
G1 X81.09 Y90.057 E48.98742
G1 X81.052 Y89.441 E49.01616
G1 X81.091 Y88.821 E49.04508
G1 X81.205 Y88.254 E49.07201
G1 X81.401 Y87.677 E49.10039
G1 X81.67 Y87.128 E49.12886
G1 X81.998 Y86.639 E49.15627
G1 X82.388 Y86.197 E49.18372
G1 X82.864 Y85.777 E49.21328
G1 X83.349 Y85.453 E49.24044
G1 X83.893 Y85.186 E49.26866
G1 X84.476 Y84.987 E49.29734
G1 X85.041 Y84.874 E49.32417
G1 X85.716 Y84.831 E49.35567
G1 X134.295 Y84.831 E51.61771
G1 X134.93 Y84.87 E51.64733
G1 X135.483 Y84.975 E51.67354
G1 X136.032 Y85.15 E51.70037
G1 X136.55 Y85.393 E51.72701
G1 X137.032 Y85.693 E51.75345
G1 X137.475 Y86.057 E51.78015
G1 X137.882 Y86.484 E51.80762
G1 X138.219 Y86.938 E51.83395
G1 X138.495 Y87.43 E51.86021
G1 X138.719 Y87.976 E51.88769
G1 X138.863 Y88.514 E51.91363
G1 X138.942 Y89.081 E51.94028
G1 X138.953 Y89.649 E51.96674
G1 X138.886 Y90.239 E51.99439
G1 X138.754 Y90.795 E52.021
G1 X138.554 Y91.327 E52.04746
G1 X138.29 Y91.831 E52.07395
G1 X113.37 Y132.885 E54.31022
G1 X112.983 Y133.437 E54.34161
G1 X112.584 Y133.876 E54.36923
G1 X112.128 Y134.26 E54.39699
G1 X111.64 Y134.574 E54.42401
G1 X111.088 Y134.835 E54.45244
G1 X110.521 Y135.019 E54.4802
G1 X109.936 Y135.128 E54.50791
G1 F2400 E51.30791
G0 F9000 X109.985 Y135.403
G0 X109.517 Y135.332
G0 X109.37 Y132.755
G0 X109.371 Y132.674
G0 X109.368 Y132.957
G1 F1440 E54.50791
G1 F1800 X109.986 Y132.88 E54.53691
G1 X110.56 Y132.652 E54.56567
G1 X111.06 Y132.282 E54.59463
G1 X111.389 Y131.87 E54.61918
G1 X136.44 Y90.6 E56.86721
G1 X136.637 Y90.168 E56.88932
G1 X136.744 Y89.613 E56.91564
G1 X136.717 Y89.042 E56.94225
G1 X136.548 Y88.482 E56.96949
G1 X136.266 Y88.004 E56.99533
G1 X135.915 Y87.625 E57.01939
G1 X135.446 Y87.305 E57.04582
G1 X134.897 Y87.105 E57.07303
G1 X134.428 Y87.051 E57.09501
G1 X85.567 Y87.051 E59.37019
G1 X85.037 Y87.12 E59.39507
G1 X84.455 Y87.361 E59.42441
G1 X83.958 Y87.742 E59.45357
G1 X83.577 Y88.239 E59.48273
G1 X83.336 Y88.821 E59.51206
G1 X83.255 Y89.441 E59.54117
G1 X83.336 Y90.061 E59.57029
G1 X83.54 Y90.557 E59.59526
G1 X107.369 Y131.826 E61.81426
G1 X107.69 Y132.247 E61.83891
G1 X108.18 Y132.625 E61.86772
G1 X108.751 Y132.868 E61.89662
G1 X109.368 Y132.957 E61.92565
G1 F2400 E58.72565
G0 F9000 X109.371 Y132.674
G0 X108.282 Y132.452
G0 X107.12 Y134.757
G0 X107.067 Y134.842
G0 X107.277 Y134.43
G1 F1440 E61.92565
G1 F1800 X105.475 Y132.628 E62.04431
G0 F9000 X105.077 Y132.858
G0 X104.304 Y131.519
G0 X104.702 Y131.289
G1 F1800 X108.234 Y134.821 E62.2769
G0 F9000 X108.926 Y134.947
G1 F1800 X103.929 Y129.951 E62.60593
G0 F9000 X103.531 Y130.18
G0 X102.758 Y128.841
G0 X103.156 Y128.612
G1 F1800 X109.513 Y134.969 E63.02455
G0 F9000 X110.035 Y134.925
G1 F1800 X102.384 Y127.274 E63.52838
G0 F9000 X101.986 Y127.504
G0 X101.212 Y126.165
G0 X101.611 Y125.935
G1 F1800 X106.696 Y131.021 E63.86327
G0 F9000 X107.094 Y130.791
G0 X106.321 Y129.452
G0 X105.923 Y129.682
G1 F1800 X100.838 Y124.597 E64.19812
G0 F9000 X100.44 Y124.826
G0 X99.667 Y123.487
G0 X100.065 Y123.258
G1 F1800 X105.151 Y128.344 E64.53305
G0 F9000 X105.549 Y128.115
G0 X104.775 Y126.775
G0 X104.377 Y127.004
G1 F1800 X99.293 Y121.92 E64.86784
G0 F9000 X98.894 Y122.15
G0 X98.122 Y120.811
G0 X98.52 Y120.582
G1 F1800 X103.604 Y125.666 E65.20263
G0 F9000 X104.002 Y125.436
G0 X103.229 Y124.097
G0 X102.831 Y124.327
G1 F1800 X97.747 Y119.243 E65.53742
G0 F9000 X97.349 Y119.473
G0 X96.576 Y118.134
G0 X96.974 Y117.905
G1 F1800 X102.058 Y122.989 E65.87221
G0 F9000 X102.457 Y122.759
G0 X101.684 Y121.42
G0 X101.285 Y121.65
G1 F1800 X96.201 Y116.566 E66.207
G0 F9000 X95.803 Y116.795
G0 X95.03 Y115.457
G0 X95.429 Y115.227
G1 F1800 X100.513 Y120.312 E66.54182
G0 F9000 X100.911 Y120.083
G0 X100.138 Y118.744
G0 X99.74 Y118.973
G1 F1800 X94.656 Y113.889 E66.87661
G0 F9000 X94.258 Y114.119
G0 X93.484 Y112.78
G0 X93.883 Y112.55
G1 F1800 X98.967 Y117.634 E67.2114
G0 F9000 X99.365 Y117.405
G0 X98.592 Y116.066
G0 X98.194 Y116.296
G1 F1800 X93.11 Y111.212 E67.54619
G0 F9000 X92.712 Y111.441
G0 X91.939 Y110.104
G0 X92.338 Y109.874
G1 F1800 X97.421 Y114.957 E67.88091
G0 F9000 X97.819 Y114.728
G0 X97.047 Y113.389
G0 X96.648 Y113.619
G1 F1800 X91.565 Y108.535 E68.21567
G0 F9000 X91.166 Y108.765
G0 X90.394 Y107.427
G0 X90.792 Y107.197
G1 F1800 X95.875 Y112.28 E68.55039
G0 F9000 X96.273 Y112.05
G0 X95.5 Y110.711
G0 X95.102 Y110.941
G1 F1800 X90.019 Y105.858 E68.88512
G0 F9000 X89.621 Y106.088
G0 X88.848 Y104.749
G0 X89.246 Y104.52
G1 F1800 X94.329 Y109.602 E69.21981
G0 F9000 X94.727 Y109.372
G0 X93.955 Y108.034
G0 X93.556 Y108.264
G1 F1800 X88.473 Y103.181 E69.55453
G0 F9000 X88.075 Y103.41
G0 X87.303 Y102.073
G0 X87.701 Y101.843
G1 F1800 X92.783 Y106.925 E69.88919
G0 F9000 X93.181 Y106.695
G0 X92.409 Y105.357
G0 X92.01 Y105.587
G1 F1800 X86.928 Y100.504 E70.22388
G0 F9000 X86.529 Y100.734
G0 X85.757 Y99.396
G0 X86.156 Y99.166
G1 F1800 X91.237 Y104.248 E70.55851
G0 F9000 X91.636 Y104.018
G0 X90.863 Y102.68
G0 X90.465 Y102.91
G1 F1800 X85.383 Y97.828 E70.89317
G0 F9000 X84.984 Y98.058
G0 X84.211 Y96.719
G0 X84.61 Y96.489
G1 F1800 X89.692 Y101.571 E71.22783
G0 F9000 X90.09 Y101.342
G0 X89.318 Y100.003
G0 X88.919 Y100.233
G1 F1800 X83.837 Y95.151 E71.56248
G0 F9000 X83.439 Y95.38
G0 X82.666 Y94.042
G0 X83.064 Y93.812
G1 F1800 X88.146 Y98.894 E71.89714
G0 F9000 X88.544 Y98.664
G0 X87.771 Y97.325
G0 X87.373 Y97.555
G1 F1800 X82.291 Y92.474 E72.23177
G0 F9000 X81.893 Y92.703
G0 X81.2 Y91.43
G0 X81.612 Y91.228
G1 F1800 X86.6 Y96.217 E72.56027
G0 F9000 X86.999 Y95.987
G0 X86.226 Y94.648
G0 X85.827 Y94.878
G1 F1800 X81.341 Y90.392 E72.85568
G0 F9000 X81.25 Y89.736
G1 F1800 X85.054 Y93.539 E73.10615
G0 F9000 X85.452 Y93.309
G0 X84.68 Y91.971
G0 X84.281 Y92.201
G1 F1800 X81.249 Y89.168 E73.30584
G0 F9000 X81.305 Y88.659
G1 F1800 X83.508 Y90.862 E73.45091
G0 F9000 X83.907 Y90.632
G0 X83.593 Y89.867
G0 X83.137 Y89.925
G1 F1800 X81.412 Y88.2 E73.56451
G0 F9000 X81.554 Y87.777
G1 F1800 X83.089 Y89.312 E73.66559
G0 F9000 X83.155 Y88.812
G1 F1800 X81.738 Y87.395 E73.7589
G0 F9000 X81.946 Y87.037
G1 F1800 X83.312 Y88.403 E73.84886
G0 F9000 X83.507 Y88.032
G1 F1800 X82.179 Y86.704 E73.93631
G0 F9000 X82.444 Y86.404
G1 F1800 X83.752 Y87.712 E74.02244
G0 F9000 X84.048 Y87.442
G1 F1800 X82.736 Y86.13 E74.10884
G0 F9000 X83.044 Y85.873
G1 F1800 X84.37 Y87.198 E74.19612
G0 F9000 X84.77 Y87.033
G1 F1800 X83.383 Y85.646 E74.28746
G0 F9000 X83.756 Y85.453
G1 F1800 X85.216 Y86.914 E74.38364
G0 F9000 X85.739 Y86.87
G1 F1800 X84.154 Y85.286 E74.48798
G0 F9000 X84.583 Y85.149
G1 F1800 X86.305 Y86.87 E74.60134
G0 F9000 X86.87 Y86.87
G1 F1800 X85.055 Y85.055 E74.72086
G0 F9000 X85.586 Y85.02
G1 F1800 X87.436 Y86.87 E74.84269
G0 F9000 X88.002 Y86.87
G1 F1800 X86.142 Y85.011 E74.96514
G0 F9000 X86.708 Y85.011
