;FLAVOR:Marlin
;TIME:1928
;Filament used: 1.51377m
;Layer height: 0.24
;MINX:81.96
;MINY:80.329
;MINZ:0.28
;MAXX:138.04
;MAXY:139.67
;MAXZ:9.96
;Generated with Cura_SteamEngine 4.10.0
M82 ;absolute extrusion mode
M201 X500.00 Y500.00 Z100.00 E5000.00 ;Setup machine max acceleration
M203 X500.00 Y500.00 Z10.00 E50.00 ;Setup machine max feedrate
M204 P500.00 R1000.00 T500.00 ;Setup Print/Retract/Travel acceleration
M205 X8.00 Y8.00 Z0.40 E5.00 ;Setup Jerk
M220 S100 ;Reset Feedrate
M221 S100 ;Reset Flowrate

;*** Start Dual Nozzle/Bed Preheating ***
M140 S50 ; start preheating the bed
M104 S200 ?T0 ; start preheating hotend
M190 S50 ; heat to Cura Bed setting and WAIT
M109 S200 ?T0 ; heat to Cura Hotend and WAIT
;*** End Preheating ***

;*** Single Print Start Tone
M300 S1000 P500 ; chirp to indicate starting to print
;*** End Single Start Tone

G28 ;Home

G92 E0 ;Reset Extruder
G1 Z2.0 F3000 ;Move Z Axis up

G1 X10.1 Y20 Z0.28 F5000.0 ;Move to start position
G1 X10.1 Y200.0 Z0.28 F1500.0 E15 ;Draw the first line
G1 X10.4 Y200.0 Z0.28 F5000.0 ;Move to side a little
G1 X10.4 Y20 Z0.28 F1500.0 E30 ;Draw the second line
G92 E0 ;Reset Extruder
G1 Z2.0 F3000 ;Move Z Axis up
G92 E0
G92 E0
G1 F2400 E-3.2
;LAYER_COUNT:37
;LAYER:0
M106 S63.8
M204 S500
M205 X6 Y6
;MESH:umbrellar_v4.stl
G0 F9000 X102.7 Y99.45 Z0.28
;TYPE:WALL-OUTER
G1 F1440 E0
G1 F1800 X102.424 Y99.565 E0.01392
G1 X101.653 Y99.887 E0.05283
G1 X100.868 Y100.116 E0.09091
G1 X100.065 Y100.254 E0.12884
G1 X99.242 Y100.302 E0.16723
G1 X98.419 Y100.258 E0.20561
G1 X97.615 Y100.124 E0.24356
G1 X96.829 Y99.899 E0.28163
G1 X96.065 Y99.584 E0.32011
G1 X95.354 Y99.193 E0.3579
G1 X94.679 Y98.715 E0.39641
G1 X94.069 Y98.171 E0.43447
G1 X93.524 Y97.563 E0.47249
G1 X93.048 Y96.892 E0.5108
G1 X92.649 Y96.174 E0.54904
G1 X92.336 Y95.418 E0.58714
G1 X92.108 Y94.628 E0.62543
G1 X91.972 Y93.826 E0.66331
G1 X91.925 Y93.001 E0.70179
G1 X91.976 Y91.857 E0.75511
G1 X92.129 Y90.739 E0.80765
G1 X92.382 Y89.628 E0.86071
G1 X92.73 Y88.554 E0.91328
G1 X93.183 Y87.497 E0.96683
G1 X93.721 Y86.495 E1.01979
G1 X94.348 Y85.545 E1.07279
G1 X95.056 Y84.658 E1.12563
G1 X95.841 Y83.836 E1.17856
G1 X96.703 Y83.083 E1.23186
G1 X97.622 Y82.416 E1.28473
G1 X98.605 Y81.828 E1.33807
G1 X99.628 Y81.336 E1.39093
G1 X100.687 Y80.938 E1.44361
G1 X101.787 Y80.635 E1.49673
G1 X102.914 Y80.43 E1.55007
G1 X104.041 Y80.329 E1.60276
G1 X105.183 Y80.329 E1.65594
G1 X106.31 Y80.43 E1.70863
G1 X107.437 Y80.635 E1.76196
G1 X108.538 Y80.938 E1.81514
G1 X109.596 Y81.336 E1.86777
G1 X110.619 Y81.828 E1.92063
G1 X111.609 Y82.42 E1.97434
G1 X112.516 Y83.078 E2.02652
G1 X113.386 Y83.839 E2.08034
G1 X114.162 Y84.649 E2.13257
G1 X114.877 Y85.545 E2.18595
G1 X115.504 Y86.495 E2.23895
G1 X116.042 Y87.496 E2.29187
G1 X116.494 Y88.554 E2.34544
G1 X116.843 Y89.628 E2.39803
G1 X117.096 Y90.738 E2.45104
G1 X117.248 Y91.857 E2.50362
G1 X117.3 Y93.003 E2.55704
G1 X117.3 Y104.881 E3.11013
G1 X118.271 Y104.902 E3.15535
G1 X119.03 Y105.018 E3.19111
G1 X119.761 Y105.232 E3.22657
G1 X120.461 Y105.542 E3.26222
G1 X121.115 Y105.941 E3.29789
G1 X121.705 Y106.419 E3.33325
G1 X122.234 Y106.978 E3.36909
G1 X122.733 Y107.666 E3.40866
G1 X123.017 Y108.044 E3.43068
G1 X123.423 Y108.429 E3.45673
G1 X123.888 Y108.743 E3.48286
G1 X124.398 Y108.976 E3.50897
G1 X124.939 Y109.122 E3.53506
G1 X125.498 Y109.175 E3.56121
G1 X126.057 Y109.134 E3.58731
G1 X126.601 Y109.002 E3.61337
G1 X127.117 Y108.782 E3.63949
G1 X127.589 Y108.48 E3.66558
G1 X127.994 Y108.114 E3.691
G1 X128.561 Y107.582 E3.72721
G1 X129.177 Y107.139 E3.76254
G1 X129.844 Y106.782 E3.79776
G1 X130.551 Y106.515 E3.83295
G1 X131.298 Y106.34 E3.86868
G1 X132.051 Y106.266 E3.90391
G1 X132.813 Y106.291 E3.93941
G1 X133.561 Y106.415 E3.97472
G1 X134.288 Y106.635 E4.01009
G1 X134.975 Y106.946 E4.0452
G1 X135.629 Y107.354 E4.08109
G1 X136.208 Y107.83 E4.116
G1 X136.731 Y108.389 E4.15164
G1 X137.169 Y109.002 E4.18672
G1 X137.531 Y109.682 E4.22259
G1 X137.794 Y110.385 E4.25754
G1 X137.966 Y111.13 E4.29315
G1 X138.04 Y111.882 E4.32833
G1 X138.012 Y112.651 E4.36416
G1 X137.798 Y114.292 E4.44122
G1 X137.489 Y115.911 E4.51797
G1 X137.083 Y117.52 E4.59524
G1 X136.58 Y119.11 E4.67289
G1 X135.986 Y120.662 E4.75027
G1 X135.308 Y122.162 E4.82692
G1 X134.532 Y123.641 E4.9047
G1 X133.682 Y125.052 E4.9814
G1 X132.744 Y126.42 E5.05863
G1 X131.727 Y127.73 E5.13586
G1 X130.628 Y128.988 E5.21364
G1 X129.472 Y130.16 E5.29029
G1 X128.231 Y131.279 E5.3681
G1 X126.945 Y132.309 E5.44482
G1 X125.592 Y133.268 E5.52205
G1 X124.184 Y134.145 E5.59929
G1 X122.717 Y134.943 E5.67705
G1 X121.227 Y135.644 E5.75372
G1 X119.681 Y136.262 E5.83125
G1 X118.104 Y136.788 E5.90866
G1 X116.509 Y137.217 E5.98557
G1 X114.821 Y137.566 E6.06583
G1 X114.221 Y138.133 E6.10427
G1 X113.601 Y138.593 E6.14022
G1 X112.947 Y138.971 E6.17539
G1 X112.244 Y139.275 E6.21106
G1 X111.511 Y139.494 E6.24668
G1 X110.764 Y139.627 E6.28201
G1 X110 Y139.67 E6.31764
G1 X109.236 Y139.627 E6.35327
G1 X108.489 Y139.494 E6.3886
G1 X107.756 Y139.275 E6.42423
G1 X107.053 Y138.971 E6.45989
G1 X106.399 Y138.593 E6.49506
G1 X105.779 Y138.133 E6.53101
G1 X105.179 Y137.566 E6.56945
G1 X103.491 Y137.217 E6.64971
G1 X101.896 Y136.788 E6.72662
G1 X100.319 Y136.262 E6.80403
G1 X98.773 Y135.644 E6.88156
G1 X97.283 Y134.943 E6.95823
G1 X95.816 Y134.145 E7.036
G1 X94.408 Y133.268 E7.11324
G1 X93.055 Y132.309 E7.19046
G1 X91.769 Y131.279 E7.26718
G1 X90.528 Y130.16 E7.34499
G1 X89.373 Y128.987 E7.42164
G1 X88.273 Y127.73 E7.49942
G1 X87.256 Y126.42 E7.57664
G1 X86.318 Y125.052 E7.65388
G1 X85.468 Y123.641 E7.73058
G1 X84.692 Y122.162 E7.80835
G1 X84.014 Y120.662 E7.885
G1 X83.42 Y119.11 E7.96238
G1 X82.917 Y117.52 E8.04004
G1 X82.511 Y115.911 E8.11731
G1 X82.202 Y114.292 E8.19406
G1 X81.988 Y112.651 E8.27111
G1 X81.96 Y111.882 E8.30695
G1 X82.034 Y111.13 E8.34213
G1 X82.206 Y110.385 E8.37773
G1 X82.469 Y109.682 E8.41268
G1 X82.831 Y109.002 E8.44856
G1 X83.269 Y108.389 E8.48364
G1 X83.792 Y107.83 E8.51928
G1 X84.371 Y107.354 E8.55418
G1 X85.025 Y106.946 E8.59008
G1 X85.712 Y106.635 E8.62519
G1 X86.439 Y106.415 E8.66056
G1 X87.187 Y106.291 E8.69587
G1 X87.949 Y106.266 E8.73137
G1 X88.702 Y106.34 E8.7666
G1 X89.449 Y106.515 E8.80232
G1 X90.156 Y106.782 E8.83751
G1 X90.823 Y107.139 E8.87274
G1 X91.439 Y107.582 E8.90807
G1 X92.061 Y108.163 E8.94771
G1 X92.411 Y108.48 E8.96969
G1 X92.883 Y108.782 E8.99579
G1 X93.399 Y109.002 E9.02191
G1 X93.943 Y109.134 E9.04797
G1 X94.502 Y109.175 E9.07407
G1 X95.061 Y109.122 E9.10022
G1 X95.602 Y108.976 E9.12631
G1 X96.112 Y108.743 E9.15242
G1 X96.577 Y108.429 E9.17854
G1 X96.983 Y108.043 E9.20463
G1 X97.376 Y107.517 E9.2352
G1 X97.766 Y106.978 E9.26618
G1 X98.295 Y106.419 E9.30202
G1 X98.885 Y105.941 E9.33738
G1 X99.539 Y105.542 E9.37305
G1 X100.239 Y105.232 E9.4087
G1 X100.97 Y105.018 E9.44417
G1 X101.729 Y104.902 E9.47992
G1 X102.7 Y104.881 E9.52514
G1 X102.7 Y99.75 E9.76406
G1 X102.7 Y99.749 E9.76411
G1 X102.7 Y99.45 E9.77225
G1 F2400 E6.57225
G0 F9000 X103 Y99.45
G0 X102.928 Y105.104
G0 X102.021 Y105.135
G0 X101.889 Y105.91
G0 X102.231 Y108.594
G0 X101.987 Y110.158
G0 X102.231 Y110.331
G1 F1440 E9.77225
G1 F1800 X102.068 Y110.563 E9.78545
G1 X101.536 Y111.322 E9.82861
G1 X100.943 Y112.006 E9.87076
G1 X100.279 Y112.632 E9.91326
G1 X99.549 Y113.192 E9.9561
G1 X98.78 Y113.667 E9.99819
G1 X97.958 Y114.065 E10.04071
G1 X97.103 Y114.376 E10.08308
G1 X96.218 Y114.6 E10.12558
G1 X95.317 Y114.732 E10.16799
G1 X94.405 Y114.773 E10.2105
G1 X93.488 Y114.721 E10.25326
G1 X92.595 Y114.578 E10.29538
G1 X91.717 Y114.344 E10.33769
G1 X90.863 Y114.021 E10.3802
G1 X90.043 Y113.61 E10.42291
G1 X89.276 Y113.124 E10.46519
G1 X88.559 Y112.56 E10.50767
G1 X87.914 Y111.936 E10.54946
G1 X87.794 Y111.82 E10.55723
G1 X87.54 Y111.949 E10.5705
G1 X87.562 Y112.114 E10.57718
G1 X87.765 Y113.612 E10.64757
G1 X88.076 Y115.123 E10.71941
G1 X88.489 Y116.609 E10.79122
G1 X89.004 Y118.063 E10.86305
G1 X89.616 Y119.48 E10.93492
G1 X90.323 Y120.85 E11.00671
G1 X91.124 Y122.17 E11.07861
G1 X92.011 Y123.431 E11.15039
G1 X92.983 Y124.629 E11.22223
G1 X94.035 Y125.757 E11.29405
G1 X95.161 Y126.812 E11.3659
G1 X96.358 Y127.786 E11.43776
G1 X97.617 Y128.676 E11.50955
G1 X98.935 Y129.479 E11.58142
G1 X100.304 Y130.19 E11.65325
G1 X101.72 Y130.805 E11.72513
G1 X103.172 Y131.322 E11.7969
G1 X104.659 Y131.738 E11.8688
G1 X106.169 Y132.052 E11.94062
G1 X107.698 Y132.262 E12.01248
G1 X109.043 Y132.354 E12.07526
G1 X109.044 Y133.094 E12.10972
G1 X109.058 Y133.299 E12.11928
G1 X109.134 Y133.527 E12.13048
G1 X109.263 Y133.728 E12.1416
G1 X109.438 Y133.891 E12.15273
G1 X109.648 Y134.006 E12.16388
G1 X109.88 Y134.066 E12.17504
G1 X110.12 Y134.066 E12.18621
G1 X110.352 Y134.006 E12.19737
G1 X110.562 Y133.891 E12.20852
G1 X110.737 Y133.728 E12.21966
G1 X110.866 Y133.527 E12.23078
G1 X110.942 Y133.299 E12.24197
G1 X110.957 Y133.078 E12.25228
G1 X110.957 Y132.354 E12.286
G1 X112.302 Y132.262 E12.34877
G1 X113.831 Y132.052 E12.42064
G1 X115.341 Y131.738 E12.49245
G1 X116.828 Y131.322 E12.56435
G1 X118.28 Y130.805 E12.63612
G1 X119.696 Y130.19 E12.70801
G1 X121.065 Y129.479 E12.77984
G1 X122.383 Y128.676 E12.8517
G1 X123.642 Y127.786 E12.9235
G1 X124.839 Y126.812 E12.99535
G1 X125.965 Y125.757 E13.0672
G1 X127.017 Y124.629 E13.13903
G1 X127.989 Y123.431 E13.21086
G1 X128.876 Y122.17 E13.28265
G1 X129.677 Y120.85 E13.35455
G1 X130.384 Y119.48 E13.42633
G1 X130.996 Y118.063 E13.4982
G1 X131.511 Y116.609 E13.57003
G1 X131.924 Y115.123 E13.64185
G1 X132.235 Y113.612 E13.71368
G1 X132.438 Y112.114 E13.78407
G1 X132.46 Y111.949 E13.79182
G1 X132.206 Y111.82 E13.80509
G1 X132.086 Y111.936 E13.81179
G1 X131.441 Y112.56 E13.85358
G1 X130.724 Y113.124 E13.89606
G1 X129.957 Y113.61 E13.93834
G1 X129.137 Y114.021 E13.98105
G1 X128.283 Y114.344 E14.02357
G1 X127.405 Y114.578 E14.06588
G1 X126.512 Y114.721 E14.10799
G1 X125.595 Y114.773 E14.15076
G1 X124.683 Y114.732 E14.19327
G1 X123.782 Y114.6 E14.23567
G1 X122.897 Y114.376 E14.27818
G1 X122.042 Y114.065 E14.32054
G1 X121.22 Y113.667 E14.36307
G1 X120.451 Y113.192 E14.40516
G1 X119.721 Y112.632 E14.448
G1 X119.057 Y112.006 E14.49049
G1 X118.464 Y111.322 E14.53264
G1 X117.932 Y110.563 E14.5758
G1 X117.769 Y110.331 E14.589
G1 X117.606 Y110.563 E14.5968
G1 X117.051 Y111.352 E14.64171
G1 X116.432 Y112.058 E14.68543
G1 X115.726 Y112.71 E14.73018
G1 X114.976 Y113.269 E14.77374
G1 X114.156 Y113.753 E14.81808
G1 X113.296 Y114.146 E14.86211
G1 X112.386 Y114.451 E14.9068
G1 X111.942 Y114.549 E14.92797
G1 X111.7 Y114.602 E14.9395
G1 X111.7 Y114.355 E14.94652
G1 X111.7 Y114.354 E14.94657
G1 X111.699 Y92.974 E15.94211
G1 X111.649 Y92.149 E15.9806
G1 X111.495 Y91.307 E16.02046
G1 X111.239 Y90.49 E16.06032
G1 X110.888 Y89.709 E16.10019
G1 X110.446 Y88.977 E16.14001
G1 X109.918 Y88.303 E16.17988
G1 X109.313 Y87.698 E16.21972
G1 X108.639 Y87.17 E16.25959
G1 X107.906 Y86.727 E16.29947
G1 X107.126 Y86.376 E16.33929
G1 X106.309 Y86.121 E16.37915
G1 X105.466 Y85.967 E16.41905
G1 X104.612 Y85.916 E16.45889
G1 X103.758 Y85.967 E16.49872
G1 X102.916 Y86.121 E16.53858
G1 X102.099 Y86.376 E16.57843
G1 X101.318 Y86.727 E16.6183
G1 X100.585 Y87.17 E16.65819
G1 X99.912 Y87.698 E16.69802
G1 X99.307 Y88.303 E16.73786
G1 X98.779 Y88.977 E16.77772
G1 X98.336 Y89.709 E16.81757
G1 X97.985 Y90.49 E16.85744
G1 X97.73 Y91.307 E16.89729
G1 X97.576 Y92.149 E16.93715
G1 X97.523 Y93.01 E16.97731
G1 X97.581 Y93.444 E16.9977
G1 X97.75 Y93.854 E17.01835
G1 X98.021 Y94.207 E17.03907
G1 X98.373 Y94.477 E17.05973
G1 X98.784 Y94.647 E17.08044
G1 X99.224 Y94.705 E17.10111
G1 X99.665 Y94.647 E17.12182
G1 X100.075 Y94.477 E17.14249
G1 X100.428 Y94.207 E17.16318
G1 X100.698 Y93.854 E17.18387
G1 X100.868 Y93.444 E17.20454
G1 X100.924 Y93.007 E17.22506
G1 X100.97 Y92.426 E17.2522
G1 X101.105 Y91.866 E17.27902
G1 X101.327 Y91.328 E17.30612
G1 X101.628 Y90.837 E17.33294
G1 X102.005 Y90.396 E17.35995
G1 X102.446 Y90.019 E17.38697
G1 X102.937 Y89.718 E17.41378
G1 X103.475 Y89.496 E17.44088
G1 X104.036 Y89.361 E17.46775
G1 X104.612 Y89.316 E17.49466
G1 X105.188 Y89.361 E17.52156
G1 X105.75 Y89.496 E17.54847
G1 X106.287 Y89.718 E17.57553
G1 X106.778 Y90.019 E17.60235
G1 X107.219 Y90.396 E17.62936
G1 X107.596 Y90.837 E17.65638
G1 X107.896 Y91.326 E17.68309
G1 X108.118 Y91.863 E17.71015
G1 X108.255 Y92.432 E17.7374
G1 X108.3 Y93.003 E17.76407
G1 X108.3 Y114.354 E18.75826
G1 X108.3 Y114.355 E18.75831
G1 X108.3 Y114.602 E18.76981
G1 X108.058 Y114.549 E18.77685
G1 X107.614 Y114.451 E18.79802
G1 X106.704 Y114.146 E18.84271
G1 X105.844 Y113.753 E18.88674
G1 X105.024 Y113.269 E18.93108
G1 X104.274 Y112.71 E18.97464
G1 X103.568 Y112.058 E19.01939
G1 X102.949 Y111.352 E19.06311
G1 X102.394 Y110.563 E19.10802
G1 X102.231 Y110.331 E19.11581
G0 F9000 X102.231 Y109.635
;TYPE:WALL-INNER
G1 F1800 X102.068 Y109.867 E19.12902
G1 X101.221 Y111.075 E19.19772
G1 X100.653 Y111.73 E19.23809
G1 X100.018 Y112.329 E19.27873
G1 X99.324 Y112.862 E19.31948
G1 X98.589 Y113.315 E19.35968
G1 X97.805 Y113.695 E19.40025
G1 X96.985 Y113.993 E19.44088
G1 X96.14 Y114.207 E19.48147
G1 X95.281 Y114.333 E19.52189
G1 X94.4 Y114.372 E19.56296
G1 X93.534 Y114.323 E19.60335
G1 X92.683 Y114.187 E19.64347
G1 X91.836 Y113.961 E19.68429
G1 X91.026 Y113.655 E19.72461
G1 X90.238 Y113.26 E19.76566
G1 X89.503 Y112.794 E19.80618
G1 X88.828 Y112.263 E19.84617
G1 X87.867 Y111.334 E19.90841
G1 X87.106 Y111.721 E19.94816
G1 X87.37 Y113.679 E20.04016
G1 X87.687 Y115.217 E20.11328
G1 X88.107 Y116.729 E20.18635
G1 X88.631 Y118.209 E20.25946
G1 X89.254 Y119.651 E20.33261
G1 X89.974 Y121.046 E20.4057
G1 X90.789 Y122.389 E20.47885
G1 X91.692 Y123.672 E20.55191
G1 X92.681 Y124.892 E20.62504
G1 X93.752 Y126.04 E20.69815
G1 X94.898 Y127.113 E20.77125
G1 X96.116 Y128.105 E20.84439
G1 X97.397 Y129.01 E20.91743
G1 X98.739 Y129.828 E20.99061
G1 X100.132 Y130.551 E21.06369
G1 X101.573 Y131.177 E21.13685
G1 X103.051 Y131.703 E21.2099
G1 X104.564 Y132.127 E21.28306
G1 X106.101 Y132.446 E21.35616
G1 X107.657 Y132.66 E21.42929
G1 X108.643 Y132.728 E21.47531
G1 X108.662 Y133.377 E21.50555
G1 X108.77 Y133.701 E21.52145
G1 X108.954 Y133.986 E21.53725
G1 X109.202 Y134.218 E21.55306
G1 X109.5 Y134.381 E21.56888
G1 X109.829 Y134.466 E21.5847
G1 X110.171 Y134.466 E21.60062
G1 X110.5 Y134.381 E21.61645
G1 X110.798 Y134.218 E21.63226
G1 X111.046 Y133.986 E21.64808
G1 X111.23 Y133.701 E21.66387
G1 X111.338 Y133.377 E21.67977
G1 X111.357 Y132.727 E21.71005
G1 X112.343 Y132.66 E21.75607
G1 X113.899 Y132.446 E21.82921
G1 X115.436 Y132.127 E21.9023
G1 X116.949 Y131.703 E21.97547
G1 X118.427 Y131.177 E22.04852
G1 X119.868 Y130.551 E22.12168
G1 X121.261 Y129.828 E22.19476
G1 X122.603 Y129.01 E22.26794
G1 X123.884 Y128.105 E22.34097
G1 X125.102 Y127.113 E22.41412
G1 X126.248 Y126.04 E22.48722
G1 X127.319 Y124.892 E22.56033
G1 X128.308 Y123.672 E22.63345
G1 X129.211 Y122.389 E22.70651
G1 X130.026 Y121.046 E22.77966
G1 X130.746 Y119.651 E22.85276
G1 X131.369 Y118.209 E22.9259
G1 X131.893 Y116.729 E22.99901
G1 X132.313 Y115.217 E23.07208
G1 X132.63 Y113.679 E23.1452
G1 X132.894 Y111.721 E23.2372
G1 X132.133 Y111.334 E23.27695
G1 X131.172 Y112.263 E23.33919
G1 X130.497 Y112.794 E23.37918
G1 X129.762 Y113.26 E23.41971
G1 X128.974 Y113.655 E23.46075
G1 X128.164 Y113.961 E23.50107
G1 X127.317 Y114.187 E23.54189
G1 X126.466 Y114.323 E23.58202
G1 X125.6 Y114.372 E23.62241
G1 X124.719 Y114.333 E23.66347
G1 X123.86 Y114.207 E23.7039
G1 X123.015 Y113.993 E23.74449
G1 X122.195 Y113.695 E23.78511
G1 X121.411 Y113.315 E23.82568
G1 X120.676 Y112.862 E23.86588
G1 X119.982 Y112.329 E23.90663
G1 X119.347 Y111.73 E23.94728
G1 X118.779 Y111.075 E23.98765
G1 X117.932 Y109.867 E24.05635
G1 X117.769 Y109.635 E24.06955
G1 X117.606 Y109.867 E24.07734
G1 X116.739 Y111.1 E24.14753
G1 X116.142 Y111.782 E24.18973
G1 X115.473 Y112.4 E24.23214
G1 X114.748 Y112.94 E24.27424
G1 X113.976 Y113.395 E24.31596
G1 X113.146 Y113.775 E24.35847
G1 X112.426 Y114.016 E24.39382
G1 X112.285 Y114.063 E24.40074
G1 X112.1 Y114.104 E24.40957
G1 X112.1 Y114.064
G1 X112.1 Y113.915 E24.415
G1 X112.099 Y92.962 E25.39066
G1 X112.047 Y92.101 E25.43082
