;FLAVOR:Marlin
;TIME:4287
;Filament used: 4.37314m
;Layer height: 0.16
;MINX:77.424
;MINY:27.5
;MINZ:0.24
;MAXX:142.569
;MAXY:192.5
;MAXZ:4.84
;Generated with Cura_SteamEngine 4.5.0
M140 S50
M105
M190 S50
M104 S215
M105
M109 S215
M82 ;absolute extrusion mode
M201 X500.00 Y500.00 Z100.00 E5000.00 ;Setup machine max acceleration
M203 X500.00 Y500.00 Z10.00 E50.00 ;Setup machine max feedrate
M204 P500.00 R1000.00 T500.00 ;Setup Print/Retract/Travel acceleration
M205 X8.00 Y8.00 Z0.40 E5.00 ;Setup Jerk
M220 S100 ;Reset Feedrate
M221 S100 ;Reset Flowrate

G28 ;Home

G92 E0 ;Reset Extruder
G1 Z2.0 F3000 ;Move Z Axis up
G1 X10.1 Y20 Z0.28 F5000.0 ;Move to start position
G1 X10.1 Y200.0 Z0.28 F1500.0 E15 ;Draw the first line
G1 X10.4 Y200.0 Z0.28 F5000.0 ;Move to side a little
G1 X10.4 Y20 Z0.28 F1500.0 E30 ;Draw the second line
G92 E0 ;Reset Extruder
G1 Z2.0 F3000 ;Move Z Axis up

G92 E0
G92 E0
G1 F1800 E-3
;LAYER_COUNT:25
;LAYER:0
M106 S63.8
M204 S500
M205 X6 Y6
G0 F9000 X92.746 Y67.641 Z0.24
;TYPE:SKIRT
G1 F1800 E0
G1 X93.267 Y66.979 E0.05043
G1 X93.852 Y66.376 E0.10073
G1 X94.523 Y65.816 E0.15306
G1 X95.23 Y65.346 E0.20388
G1 X95.976 Y64.957 E0.25425
G1 X96.761 Y64.647 E0.30478
G1 X97.568 Y64.421 E0.35495
G1 X98.403 Y64.281 E0.40564
G1 X99.239 Y64.229 E0.45579
G1 X108.374 Y64.227 E1.00268
G1 X109.136 Y64.265 E1.04836
G1 X109.969 Y64.388 E1.09877
G1 X110.783 Y64.598 E1.1491
G1 X111.572 Y64.893 E1.19953
G1 X112.324 Y65.267 E1.24981
G1 X113.034 Y65.718 E1.30017
G1 X113.694 Y66.242 E1.35062
G1 X114.271 Y66.805 E1.39888
G1 X114.805 Y67.449 E1.44897
G1 X115.271 Y68.144 E1.49906
G1 X115.665 Y68.888 E1.54947
G1 X115.979 Y69.672 E1.60003
G1 X116.209 Y70.473 E1.64992
G1 X116.354 Y71.308 E1.70066
G1 X116.41 Y72.144 E1.75082
G1 X116.385 Y72.511 E1.77284
G1 X116.267 Y73.13 E1.81057
G1 X116.062 Y73.651 E1.84409
G1 X115.783 Y74.092 E1.87533
G1 X115.418 Y74.488 E1.90757
G1 X115.004 Y74.8 E1.93861
G1 X114.578 Y75.024 E1.96742
G1 X114.119 Y75.178 E1.99641
G1 X113.655 Y75.256 E2.02458
G1 X111.407 Y75.276 E2.15916
G1 X110.969 Y75.24 E2.18548
G1 X110.614 Y75.159 E2.20727
G1 X110.145 Y74.99 E2.23712
G1 X109.732 Y74.762 E2.26536
G1 X109.361 Y74.473 E2.29352
G1 X109.027 Y74.11 E2.32305
G1 X108.753 Y73.69 E2.35307
G1 X108.554 Y73.236 E2.38275
G1 X108.425 Y72.661 E2.41803
G1 X108.324 Y72.266 E2.44244
G1 X99.394 Y72.258 E2.97706
G1 X99.34 Y72.275 E2.98045
G1 X99.31 Y72.417 E2.98914
G1 X99.309 Y107.233 E5.07351
G1 X99.269 Y107.577 E5.09425
G1 X99.152 Y107.902 E5.11493
G1 X98.963 Y108.192 E5.13565
G1 X98.713 Y108.43 E5.15631
G1 X98.414 Y108.605 E5.17705
G1 X98.084 Y108.708 E5.19775
G1 X91.561 Y108.733 E5.58827
G1 X91.561 Y111.267 E5.73998
G1 X97.809 Y111.267 E6.11404
G1 X98.153 Y111.307 E6.13477
G1 X98.478 Y111.424 E6.15545
G1 X98.768 Y111.613 E6.17617
G1 X99.006 Y111.863 E6.19684
G1 X99.181 Y112.162 E6.21758
G1 X99.284 Y112.492 E6.23828
G1 X99.323 Y147.708 E8.3466
G1 X108.34 Y147.727 E8.88643
G1 X108.555 Y146.763 E8.94556
G1 X108.764 Y146.293 E8.97636
G1 X109.056 Y145.859 E9.00767
G1 X109.399 Y145.497 E9.03753
G1 X109.795 Y145.199 E9.0672
G1 X110.22 Y144.976 E9.09593
G1 X110.679 Y144.822 E9.12492
G1 X111.143 Y144.744 E9.15309
G1 X113.391 Y144.724 E9.28768
G1 X113.829 Y144.76 E9.31399
G1 X114.184 Y144.841 E9.33579
G1 X114.653 Y145.01 E9.36563
G1 X115.066 Y145.238 E9.39388
G1 X115.437 Y145.527 E9.42203
G1 X115.771 Y145.89 E9.45156
G1 X116.045 Y146.31 E9.48158
G1 X116.243 Y146.763 E9.51118
G1 X116.363 Y147.239 E9.54057
G1 X116.408 Y147.658 E9.5658
G1 X116.381 Y148.434 E9.61229
G1 X116.261 Y149.288 E9.66392
G1 X116.053 Y150.105 E9.71439
G1 X115.766 Y150.889 E9.76437
G1 X115.393 Y151.647 E9.81495
G1 X114.947 Y152.359 E9.86525
G1 X114.43 Y153.019 E9.91544
G1 X113.816 Y153.649 E9.96811
G1 X113.159 Y154.191 E10.0191
G1 X112.463 Y154.653 E10.06911
G1 X111.716 Y155.043 E10.11956
G1 X110.931 Y155.353 E10.17009
G1 X110.124 Y155.579 E10.22026
G1 X109.291 Y155.719 E10.27083
G1 X108.453 Y155.771 E10.3211
G1 X99.318 Y155.773 E10.86799
G1 X98.557 Y155.735 E10.91361
G1 X97.724 Y155.612 E10.96402
G1 X96.909 Y155.402 E11.01441
G1 X96.12 Y155.107 E11.06484
G1 X95.366 Y154.732 E11.11525
G1 X94.657 Y154.281 E11.16556
G1 X93.998 Y153.757 E11.21596
G1 X93.398 Y153.171 E11.26617
G1 X92.882 Y152.544 E11.31479
G1 X92.42 Y151.854 E11.3645
G1 X92.026 Y151.11 E11.4149
G1 X91.713 Y150.327 E11.46539
G1 X91.484 Y149.525 E11.51532
G1 X91.339 Y148.689 E11.56612
G1 X91.283 Y147.854 E11.61622
G1 X91.278 Y131.722 E12.58201
G1 X91.221 Y131.249 E12.61054
G1 X91.027 Y130.809 E12.63933
G1 X90.675 Y130.429 E12.67034
G1 X78.099 Y122.133 E13.5723
G1 X77.834 Y121.911 E13.593
G1 X77.627 Y121.633 E13.61375
G1 X77.49 Y121.316 E13.63442
G1 X77.428 Y120.976 E13.65511
G1 X77.446 Y120.631 E13.6758
G1 X77.543 Y120.299 E13.6965
G1 X77.756 Y119.941 E13.72144
G1 X78.115 Y119.495 E13.75572
G1 X79.013 Y118.117 E13.85419
G1 X79.779 Y116.63 E13.95433
G1 X80.395 Y115.049 E14.05591
G1 X80.841 Y113.423 E14.15686
G1 X81.11 Y111.771 E14.25706
G1 X81.208 Y110.071 E14.35901
G1 X81.131 Y108.402 E14.45903
G1 X80.875 Y106.73 E14.5603
G1 X80.447 Y105.103 E14.66102
G1 X79.849 Y103.523 E14.76216
G1 X79.093 Y102.02 E14.86288
G1 X78.179 Y100.597 E14.96413
G1 X77.767 Y100.075 E15.00395
G1 X77.572 Y99.77 E15.02562
G1 X77.459 Y99.443 E15.04633
G1 X77.424 Y99.099 E15.06703
G1 X77.469 Y98.756 E15.08774
G1 X77.591 Y98.433 E15.10841
G1 X77.784 Y98.146 E15.12912
G1 X78.098 Y97.868 E15.15423
G1 X90.686 Y89.563 E16.05709
G1 X91.022 Y89.199 E16.08675
G1 X91.218 Y88.764 E16.11531
G1 X91.277 Y88.283 E16.14432
G1 X91.278 Y72.267 E17.10317
G1 X91.313 Y71.542 E17.14663
G1 X91.432 Y70.712 E17.19683
G1 X91.639 Y69.897 E17.24717
G1 X91.926 Y69.111 E17.29726
G1 X92.299 Y68.353 E17.34784
G1 X92.746 Y67.641 E17.39817
G0 F9000 X93.251 Y67.966
G1 F1800 X93.735 Y67.354 E17.44488
G1 X94.278 Y66.798 E17.49141
G1 X94.903 Y66.28 E17.54001
G1 X95.557 Y65.849 E17.5869
G1 X96.248 Y65.491 E17.63349
G1 X96.976 Y65.207 E17.68028
G1 X97.724 Y65.001 E17.72672
G1 X98.496 Y64.874 E17.77356
G1 X99.271 Y64.828 E17.82004
G1 X108.374 Y64.827 E18.36502
G1 X109.104 Y64.864 E18.40878
G1 X109.875 Y64.981 E18.45547
G1 X110.627 Y65.178 E18.50201
G1 X111.357 Y65.453 E18.54871
G1 X112.052 Y65.801 E18.59525
G1 X112.707 Y66.221 E18.64183
G1 X113.317 Y66.708 E18.68856
G1 X113.847 Y67.23 E18.7331
G1 X114.34 Y67.828 E18.77949
G1 X114.77 Y68.474 E18.82595
G1 X115.132 Y69.163 E18.87255
G1 X115.42 Y69.89 E18.91936
G1 X115.63 Y70.633 E18.96559
G1 X115.761 Y71.404 E19.01241
G1 X115.811 Y72.179 E19.0589
G1 X115.678 Y73.018 E19.10976
G1 X115.555 Y73.33 E19.12984
G1 X115.276 Y73.771 E19.16108
G1 X115.057 Y74.009 E19.18044
G1 X114.643 Y74.321 E19.21148
G1 X114.387 Y74.455 E19.22878
G1 X113.928 Y74.609 E19.25776
G1 X113.65 Y74.656 E19.27464
G1 X111.402 Y74.676 E19.40923
G1 X110.818 Y74.595 E19.44453
G1 X110.349 Y74.426 E19.47437
G1 X110.101 Y74.289 E19.49134
G1 X109.73 Y74 E19.51949
G1 X109.529 Y73.782 E19.53724
G1 X109.255 Y73.362 E19.56727
G1 X109.136 Y73.09 E19.58504
G1 X109.004 Y72.485 E19.62211
G1 X108.903 Y71.993 E19.65218
G1 X108.766 Y71.824 E19.66521
G1 X108.595 Y71.716 E19.67732
G1 X108.392 Y71.665 E19.68985
G1 X99.362 Y71.658 E20.23046
G1 X99.021 Y71.752 E20.25163
G1 X98.88 Y71.862 E20.26234
G1 X98.782 Y72.011 E20.27302
G1 X98.71 Y72.356 E20.29412
G1 X98.709 Y107.233 E22.38214
G1 X98.669 Y107.498 E22.39819
G1 X98.553 Y107.739 E22.4142
G1 X98.372 Y107.935 E22.43017
G1 X98.14 Y108.07 E22.44624
G1 X97.809 Y108.133 E22.46641
G1 X90.961 Y108.133 E22.87639
G1 X90.961 Y111.867 E23.09994
G1 X97.809 Y111.867 E23.50992
G1 X98.074 Y111.907 E23.52596
G1 X98.315 Y112.023 E23.54197
G1 X98.511 Y112.204 E23.55795
G1 X98.646 Y112.436 E23.57402
G1 X98.709 Y112.767 E23.59419
G1 X98.723 Y147.733 E25.68754
G1 X98.769 Y147.963 E25.70158
G1 X98.89 Y148.143 E25.71457
G1 X99.048 Y148.262 E25.72641
G1 X99.228 Y148.322 E25.73777
G1 X108.374 Y148.327 E26.28532
G1 X108.625 Y148.271 E26.30072
G1 X108.778 Y148.171 E26.31166
G1 X108.901 Y148.014 E26.3236
G1 X109.007 Y147.461 E26.35731
G1 X109.136 Y146.91 E26.39119
G1 X109.262 Y146.628 E26.40968
G1 X109.554 Y146.194 E26.441
G1 X109.76 Y145.977 E26.45891
G1 X110.156 Y145.679 E26.48858
G1 X110.411 Y145.545 E26.50583
G1 X110.87 Y145.391 E26.53481
G1 X111.148 Y145.344 E26.55169
G1 X113.396 Y145.324 E26.68628
G1 X113.98 Y145.405 E26.72158
G1 X114.449 Y145.574 E26.75143
G1 X114.697 Y145.711 E26.76839
G1 X115.068 Y146 E26.79654
G1 X115.269 Y146.218 E26.8143
G1 X115.543 Y146.638 E26.84432
G1 X115.662 Y146.91 E26.86209
G1 X115.808 Y147.637 E26.90649
G1 X115.781 Y148.413 E26.95297
G1 X115.668 Y149.197 E27.00039
G1 X115.473 Y149.951 E27.04702
G1 X115.204 Y150.678 E27.09343
G1 X114.858 Y151.377 E27.14012
G1 X114.442 Y152.035 E27.18673
G1 X113.961 Y152.644 E27.23319
G1 X113.39 Y153.227 E27.28204
G1 X112.782 Y153.724 E27.32906
G1 X112.136 Y154.15 E27.37538
G1 X111.444 Y154.509 E27.42206
G1 X110.716 Y154.793 E27.46884
G1 X109.968 Y154.999 E27.51529
G1 X109.197 Y155.126 E27.56207
G1 X108.421 Y155.172 E27.60861
G1 X99.318 Y155.173 E28.15359
G1 X98.589 Y155.136 E28.19729
G1 X97.817 Y155.019 E28.24403
G1 X97.065 Y154.822 E28.29057
G1 X96.335 Y154.547 E28.33728
G1 X95.638 Y154.198 E28.38394
G1 X94.984 Y153.778 E28.43048
G1 X94.375 Y153.291 E28.47716
G1 X93.822 Y152.746 E28.52364
G1 X93.349 Y152.167 E28.5684
G1 X92.921 Y151.524 E28.61465
G1 X92.559 Y150.835 E28.66124
G1 X92.272 Y150.11 E28.70792
G1 X92.062 Y149.366 E28.75421
G1 X91.932 Y148.593 E28.80113
G1 X91.882 Y147.819 E28.84757
G1 X91.878 Y131.683 E29.8136
G1 X91.81 Y131.117 E29.84773
G1 X91.696 Y130.784 E29.8688
G1 X91.531 Y130.48 E29.88951
G1 X91.3 Y130.187 E29.91185
G1 X91.042 Y129.953 E29.9327
G1 X78.429 Y121.632 E30.83734
G1 X78.23 Y121.453 E30.85336
G1 X78.093 Y121.224 E30.86934
G1 X78.029 Y120.964 E30.88537
G1 X78.044 Y120.697 E30.90138
G1 X78.224 Y120.317 E30.92655
G1 X78.599 Y119.851 E30.96236
G1 X79.531 Y118.421 E31.06455
G1 X80.328 Y116.875 E31.16868
G1 X80.966 Y115.236 E31.27398
G1 X81.427 Y113.554 E31.37839
G1 X81.707 Y111.836 E31.4826
G1 X81.809 Y110.078 E31.58803
G1 X81.728 Y108.339 E31.69225
G1 X81.462 Y106.603 E31.7974
G1 X81.021 Y104.924 E31.90133
G1 X80.399 Y103.28 E32.00656
G1 X79.616 Y101.723 E32.1109
G1 X78.667 Y100.247 E32.21595
G1 X78.238 Y99.703 E32.25743
G1 X78.089 Y99.455 E32.27475
G1 X78.027 Y99.194 E32.29081
G1 X78.045 Y98.927 E32.30683
G1 X78.14 Y98.677 E32.32284
G1 X78.428 Y98.369 E32.34809
G1 X91.054 Y90.039 E33.25367
G1 X91.317 Y89.798 E33.27503
G1 X91.53 Y89.523 E33.29585
G1 X91.696 Y89.216 E33.31675
G1 X91.806 Y88.899 E33.33683
G1 X91.877 Y88.325 E33.37146
G1 X91.878 Y72.267 E34.33282
G1 X91.912 Y71.572 E34.37448
G1 X92.025 Y70.803 E34.42102
G1 X92.219 Y70.05 E34.46757
G1 X92.488 Y69.322 E34.51403
G1 X92.834 Y68.623 E34.56073
G1 X93.251 Y67.966 E34.60731
G0 F9000 X93.756 Y68.29
G1 F1800 X94.203 Y67.729 E34.65026
G1 X94.705 Y67.22 E34.69306
G1 X95.283 Y66.745 E34.73785
G1 X95.884 Y66.352 E34.78084
G1 X96.521 Y66.026 E34.82368
G1 X97.191 Y65.767 E34.86668
G1 X97.879 Y65.58 E34.90937
G1 X98.589 Y65.467 E34.95241
G1 X99.302 Y65.427 E34.99516
G1 X108.39 Y65.427 E35.53924
G1 X109.073 Y65.463 E35.58019
G1 X109.782 Y65.574 E35.62315
G1 X110.472 Y65.757 E35.66589
G1 X111.142 Y66.013 E35.70883
G1 X111.779 Y66.336 E35.75159
G1 X112.38 Y66.724 E35.79442
G1 X112.94 Y67.175 E35.83746
G1 X113.423 Y67.655 E35.87823
G1 X113.875 Y68.207 E35.92094
G1 X114.269 Y68.803 E35.96372
G1 X114.599 Y69.438 E36.00656
G1 X114.861 Y70.107 E36.04958
G1 X115.052 Y70.793 E36.09221
G1 X115.169 Y71.501 E36.13517
G1 X115.212 Y72.213 E36.17787
G1 X115.089 Y72.905 E36.21995
G1 X114.769 Y73.45 E36.25779
G1 X114.282 Y73.842 E36.29522
G1 X113.737 Y74.04 E36.32993
G1 X111.397 Y74.076 E36.47004
G1 X111.021 Y74.03 E36.49272
G1 X110.47 Y73.816 E36.5281
G1 X110.032 Y73.454 E36.56212
G1 X109.758 Y73.034 E36.59215
G1 X109.598 Y72.466 E36.62747
G1 X109.563 Y72.069 E36.65133
G1 X109.436 Y71.698 E36.67481
G1 X109.171 Y71.371 E36.70001
G1 X108.836 Y71.157 E36.72381
G1 X108.46 Y71.064 E36.747
G1 X107.947 Y71.072 E36.77771
G1 X99.33 Y71.058 E37.2936
G1 X99.116 Y71.08 E37.30648
G1 X98.727 Y71.221 E37.33125
G1 X98.432 Y71.45 E37.35361
G1 X98.219 Y71.776 E37.37692
G1 X98.11 Y72.295 E37.40867
G1 X98.109 Y107.233 E39.50035
G1 X98.07 Y107.382 E39.50957
G1 X97.962 Y107.491 E39.51875
G1 X97.809 Y107.533 E39.52825
G1 X90.361 Y107.533 E39.97415
G1 X90.361 Y112.467 E40.26954
G1 X97.809 Y112.467 E40.71544
G1 X97.958 Y112.506 E40.72466
G1 X98.067 Y112.614 E40.73385
G1 X98.109 Y112.767 E40.74335
G1 X98.123 Y147.733 E42.8367
G1 X98.212 Y148.211 E42.86581
G1 X98.448 Y148.561 E42.89108
G1 X98.766 Y148.8 E42.9149
G1 X99.129 Y148.922 E42.93782
G1 X108.374 Y148.927 E43.4913
G1 X108.49 Y148.93 E43.49825
G1 X108.873 Y148.825 E43.52203
G1 X109.189 Y148.62 E43.54458
G1 X109.435 Y148.305 E43.56851
G1 X109.563 Y147.93 E43.59223
G1 X109.598 Y147.533 E43.61609
G1 X109.76 Y146.963 E43.65156
G1 X110.052 Y146.529 E43.68288
G1 X110.517 Y146.158 E43.71849
G1 X111.061 Y145.96 E43.75315
G1 X113.401 Y145.924 E43.89326
G1 X113.777 Y145.97 E43.91594
G1 X114.328 Y146.184 E43.95133
G1 X114.766 Y146.546 E43.98535
G1 X115.04 Y146.966 E44.01537
G1 X115.2 Y147.533 E44.05064
G1 X115.182 Y148.392 E44.10208
G1 X115.075 Y149.106 E44.1453
G1 X114.893 Y149.797 E44.18808
G1 X114.643 Y150.467 E44.23089
G1 X114.322 Y151.107 E44.27376
G1 X113.937 Y151.711 E44.31664
G1 X113.492 Y152.269 E44.35937
G1 X112.964 Y152.804 E44.40437
G1 X112.405 Y153.257 E44.44745
G1 X111.809 Y153.647 E44.49009
G1 X111.171 Y153.974 E44.53301
G1 X110.501 Y154.233 E44.57601
G1 X109.813 Y154.42 E44.6187
G1 X109.104 Y154.533 E44.66168
G1 X108.39 Y154.573 E44.70449
G1 X99.302 Y154.573 E45.24857
G1 X98.62 Y154.537 E45.28946
G1 X97.91 Y154.426 E45.33248
G1 X97.22 Y154.243 E45.37522
G1 X96.55 Y153.987 E45.41816
G1 X95.911 Y153.663 E45.46105
G1 X95.311 Y153.275 E45.50383
G1 X94.753 Y152.825 E45.54675
G1 X94.246 Y152.321 E45.58955
G1 X93.816 Y151.79 E45.63045
G1 X93.422 Y151.195 E45.67318
G1 X93.092 Y150.56 E45.71602
G1 X92.831 Y149.893 E45.7589
G1 X92.641 Y149.207 E45.80152
G1 X92.524 Y148.497 E45.8446
G1 X92.481 Y147.785 E45.8873
G1 X92.478 Y131.653 E46.85309
G1 X92.397 Y130.981 E46.89362
G1 X92.248 Y130.544 E46.92126
G1 X92.034 Y130.149 E46.94815
G1 X91.737 Y129.772 E46.97689
G1 X91.41 Y129.477 E47.00325
G1 X78.76 Y121.131 E47.91056
G1 X78.657 Y121.017 E47.91976
G1 X78.625 Y120.867 E47.92894
G1 X78.691 Y120.693 E47.94009
G1 X79.091 Y120.196 E47.97828
G1 X80.047 Y118.729 E48.08311
G1 X80.876 Y117.12 E48.19147
G1 X81.538 Y115.421 E48.30064
G1 X82.013 Y113.687 E48.40827
G1 X82.305 Y111.901 E48.51662
G1 X82.409 Y110.085 E48.62552
G1 X82.326 Y108.277 E48.73387
G1 X82.051 Y106.481 E48.84265
G1 X81.593 Y104.742 E48.95031
G1 X80.949 Y103.039 E49.05931
G1 X80.134 Y101.419 E49.16788
G1 X79.162 Y99.906 E49.27554
G1 X78.709 Y99.332 E49.31932
G1 X78.628 Y99.168 E49.33027
G1 X78.643 Y99.015 E49.33947
G1 X78.759 Y98.87 E49.35059
G1 X91.423 Y90.515 E50.2589
G1 X91.76 Y90.206 E50.28627
G1 X92.032 Y89.854 E50.3129
G1 X92.248 Y89.457 E50.33996
G1 X92.393 Y89.037 E50.36656
G1 X92.477 Y88.357 E50.40758
G1 X92.478 Y72.267 E51.37086
G1 X92.511 Y71.603 E51.41066
G1 X92.618 Y70.894 E51.45359
G1 X92.799 Y70.203 E51.49636
G1 X93.049 Y69.533 E51.53917
G1 X93.37 Y68.893 E51.58203
G1 X93.756 Y68.29 E51.6249
G1 F1800 E48.6249
G0 F9000 X93.468 Y68.063
G0 X93.94 Y67.474
G0 X94.471 Y66.939
G0 X95.082 Y66.439
G0 X95.715 Y66.027
G0 X96.387 Y65.684
G0 X97.82 Y65.219
G0 X99.301 Y65.063
G0 X109.127 Y65.102
G0 X109.872 Y65.219
G0 X111.305 Y65.684
G0 X111.977 Y66.027
G0 X112.609 Y66.438
G0 X113.084 Y66.822
G0 X122.041 Y76.08
G1 F1800 E51.6249
G1 X122.533 Y75.111 E51.68996
G1 X122.936 Y74.075 E51.75651
G1 X123.229 Y73.004 E51.82299
G1 X123.407 Y71.921 E51.88869
G1 X123.473 Y70.763 E51.95813
G1 X123.477 Y35.54 E54.06687
G1 X123.511 Y34.818 E54.11014
G1 X123.632 Y33.984 E54.1606
G1 X123.838 Y33.171 E54.21081
G1 X124.125 Y32.384 E54.26096
G1 X124.498 Y31.626 E54.31154
G1 X124.945 Y30.914 E54.36187
G1 X125.466 Y30.252 E54.4123
G1 X126.051 Y29.649 E54.4626
G1 X126.722 Y29.089 E54.51492
G1 X127.429 Y28.619 E54.56575
G1 X128.175 Y28.23 E54.61612
