;FLAVOR:Marlin
;TIME:5808
;Filament used: 4.55799m
;Layer height: 0.2
;MINX:68.527
;MINY:18.9
;MINZ:0.24
;MAXX:151.474
;MAXY:201.1
;MAXZ:4.8
;Generated with Cura_SteamEngine 4.10.0
M82 ;absolute extrusion mode
M201 X500.00 Y500.00 Z100.00 E5000.00 ;Setup machine max acceleration
M203 X500.00 Y500.00 Z10.00 E50.00 ;Setup machine max feedrate
M204 P500.00 R1000.00 T500.00 ;Setup Print/Retract/Travel acceleration
M205 X8.00 Y8.00 Z0.40 E5.00 ;Setup Jerk
M220 S100 ;Reset Feedrate
M221 S100 ;Reset Flowrate

;*** Start Dual Nozzle/Bed Preheating ***
M140 S50 ; start preheating the bed
M104 S200 ?T0 ; start preheating hotend
M190 S50 ; heat to Cura Bed setting and WAIT
M109 S200 ?T0 ; heat to Cura Hotend and WAIT
;*** End Preheating ***

G28 ;Home

G92 E0 ;Reset Extruder
G1 Z2.0 F3000 ;Move Z Axis up

;*** Single Print Start Tone
M300 S1000 P500 ; chirp to indicate starting to print
;*** End Single Start Tone

G1 X10.1 Y20 Z0.28 F5000.0 ;Move to start position
G1 X10.1 Y200.0 Z0.28 F1500.0 E15 ;Draw the first line
G1 X10.4 Y200.0 Z0.28 F5000.0 ;Move to side a little
G1 X10.4 Y20 Z0.28 F1500.0 E30 ;Draw the second line
G92 E0 ;Reset Extruder
G1 Z2.0 F3000 ;Move Z Axis up
G92 E0
G92 E0
G1 F2400 E-3.2
;LAYER_COUNT:21
;LAYER:0
M106 S63.8
M204 S500
M205 X6 Y6
G0 F9000 X85.673 Y62.301 Z0.24
;TYPE:SKIRT
G1 F1440 E0
G1 F1800 X85.786 Y62.151 E0.0075
G1 X86.125 Y61.724 E0.02926
G1 X86.444 Y61.343 E0.04909
G1 X86.792 Y60.947 E0.07013
G1 X86.929 Y60.799 E0.07818
G1 X87.342 Y60.378 E0.10172
G1 X87.669 Y60.062 E0.11987
G1 X88.072 Y59.692 E0.1417
G1 X88.235 Y59.55 E0.15033
G1 X88.629 Y59.223 E0.17077
G1 X89.243 Y58.744 E0.20185
G1 X90.17 Y58.056 E0.24792
G1 X90.762 Y57.629 E0.27706
G1 X92.772 Y56.091 E0.37807
G1 X94.7 Y54.527 E0.47716
G1 X96.634 Y52.866 E0.57891
G1 X98.511 Y51.159 E0.68017
G1 X100.332 Y49.407 E0.78103
G1 X102.11 Y47.596 E0.88232
G1 X103.817 Y45.756 E0.98249
G1 X105.497 Y43.838 E1.08426
G1 X107.103 Y41.898 E1.18478
G1 X108.637 Y39.934 E1.28424
G1 X110.159 Y37.867 E1.38669
G1 X111.594 Y35.799 E1.48716
G1 X112.987 Y33.664 E1.5889
G1 X114.29 Y31.539 E1.68839
G1 X115.573 Y29.307 E1.79114
G1 X116.436 Y27.718 E1.86331
G1 X116.784 Y27.121 E1.89089
G1 X117.07 Y26.671 E1.91217
G1 X117.34 Y26.269 E1.9315
G1 X117.679 Y25.792 E1.95486
G1 X117.793 Y25.641 E1.96241
G1 X118.124 Y25.225 E1.98363
G1 X118.442 Y24.845 E2.0034
G1 X118.784 Y24.456 E2.02408
G1 X118.917 Y24.312 E2.0319
G1 X119.336 Y23.884 E2.05581
G1 X119.669 Y23.562 E2.07429
G1 X120.082 Y23.183 E2.09667
G1 X120.243 Y23.043 E2.10518
G1 X120.646 Y22.709 E2.12607
G1 X121.011 Y22.422 E2.1446
G1 X121.463 Y22.086 E2.16708
G1 X121.625 Y21.972 E2.17499
G1 X122.084 Y21.666 E2.19701
G1 X122.512 Y21.397 E2.21718
G1 X122.99 Y21.114 E2.23935
G1 X123.146 Y21.027 E2.24648
G1 X123.638 Y20.77 E2.26864
G1 X124.078 Y20.554 E2.2882
G1 X124.625 Y20.304 E2.31221
G1 X124.831 Y20.217 E2.32113
G1 X125.329 Y20.022 E2.34248
G1 X125.763 Y19.864 E2.36091
G1 X126.303 Y19.683 E2.38364
G1 X126.464 Y19.634 E2.39036
G1 X126.955 Y19.498 E2.41069
G1 X127.458 Y19.371 E2.4314
G1 X128.056 Y19.238 E2.45585
G1 X128.228 Y19.205 E2.46284
G1 X128.732 Y19.121 E2.48323
G1 X129.231 Y19.05 E2.50335
G1 X129.83 Y18.982 E2.52741
G1 X130.493 Y18.936 E2.55394
G1 X131.023 Y18.915 E2.57511
G1 X131.315 Y18.908 E2.58676
G1 X132.023 Y18.9 E2.61502
G1 X137.677 Y18.9 E2.84069
G1 X138.342 Y18.908 E2.86723
G1 X139.029 Y18.939 E2.89468
G1 X139.705 Y18.992 E2.92174
G1 X140.618 Y19.104 E2.95845
G1 X141.732 Y19.352 E3.004
G1 X142.27 Y19.509 E3.02637
G1 X142.532 Y19.592 E3.03734
G1 X143.397 Y19.908 E3.0741
G1 X144.144 Y20.253 E3.10694
G1 X144.727 Y20.559 E3.13322
G1 X144.98 Y20.701 E3.1448
G1 X145.763 Y21.186 E3.18156
G1 X146.479 Y21.72 E3.21721
G1 X147.008 Y22.161 E3.2447
G1 X147.683 Y22.787 E3.28144
G1 X148.188 Y23.334 E3.31115
G1 X148.54 Y23.753 E3.33299
G1 X148.735 Y23.997 E3.34546
G1 X149.278 Y24.741 E3.38222
G1 X149.722 Y25.472 E3.41636
G1 X149.967 Y25.921 E3.43677
G1 X150.096 Y26.17 E3.44797
G1 X150.484 Y27.005 E3.48471
G1 X150.752 Y27.731 E3.5156
G1 X150.921 Y28.267 E3.53803
G1 X151.01 Y28.575 E3.55083
G1 X151.227 Y29.47 E3.58758
G1 X151.349 Y30.236 E3.61854
G1 X151.416 Y30.859 E3.64355
G1 X151.439 Y31.143 E3.65492
G1 X151.474 Y32.063 E3.69167
G1 X151.442 Y32.825 E3.72211
G1 X151.39 Y33.397 E3.74503
G1 X151.356 Y33.694 E3.75696
G1 X151.212 Y34.603 E3.7937
G1 X151.038 Y35.325 E3.82334
G1 X150.863 Y35.926 E3.84832
G1 X150.776 Y36.197 E3.85968
G1 X150.456 Y37.061 E3.89646
G1 X150.232 Y37.559 E3.91825
G1 X149.792 Y38.47 E3.95863
G1 X149.363 Y39.33 E3.99699
G1 X148.281 Y41.655 E4.09934
G1 X147.307 Y43.917 E4.19763
G1 X146.351 Y46.315 E4.30067
G1 X145.493 Y48.666 E4.40056
G1 X144.693 Y51.061 E4.50134
G1 X143.955 Y53.499 E4.603
G1 X143.291 Y55.942 E4.70405
G1 X142.697 Y58.406 E4.80521
G1 X142.18 Y60.844 E4.90468
G1 X141.717 Y63.374 E5.00733
G1 X141.342 Y65.82 E5.1061
G1 X141.022 Y68.385 E5.20927
G1 X140.784 Y70.863 E5.30862
G1 X140.612 Y73.402 E5.41019
G1 X140.512 Y75.946 E5.51181
G1 X140.484 Y78.218 E5.60249
G1 X140.485 Y143.797 E8.21989
G1 X140.522 Y146.421 E8.32463
G1 X140.629 Y148.929 E8.42482
G1 X140.806 Y151.43 E8.52489
G1 X141.06 Y153.982 E8.62725
G1 X141.378 Y156.467 E8.72724
G1 X141.768 Y158.955 E8.82776
G1 X142.24 Y161.496 E8.93091
G1 X142.758 Y163.901 E9.0291
G1 X143.367 Y166.387 E9.13126
G1 X144.034 Y168.809 E9.23152
G1 X144.776 Y171.232 E9.33266
G1 X145.593 Y173.653 E9.43464
G1 X146.456 Y175.993 E9.53419
G1 X147.407 Y178.362 E9.63607
G1 X148.425 Y180.703 E9.73796
G1 X149.226 Y182.42 E9.81358
G1 X149.523 Y183.119 E9.84389
G1 X149.641 Y183.428 E9.85709
G1 X149.92 Y184.263 E9.89223
G1 X150.008 Y184.567 E9.90486
G1 X150.225 Y185.461 E9.94158
G1 X150.347 Y186.218 E9.97218
G1 X150.416 Y186.855 E9.99776
G1 X150.439 Y187.137 E10.00905
G1 X150.474 Y188.057 E10.04579
G1 X150.442 Y188.825 E10.07647
G1 X150.391 Y189.393 E10.09923
G1 X150.357 Y189.691 E10.1112
G1 X150.213 Y190.6 E10.14794
G1 X150.033 Y191.345 E10.17853
G1 X149.863 Y191.923 E10.20257
G1 X149.775 Y192.197 E10.21406
G1 X149.456 Y193.061 E10.25082
G1 X149.116 Y193.791 E10.28296
G1 X148.836 Y194.322 E10.30692
G1 X148.702 Y194.562 E10.31789
G1 X148.219 Y195.346 E10.35464
G1 X147.761 Y195.97 E10.38554
G1 X147.41 Y196.404 E10.40781
G1 X147.237 Y196.608 E10.41849
G1 X146.612 Y197.284 E10.45524
G1 X146.129 Y197.733 E10.48156
G1 X145.632 Y198.154 E10.50755
G1 X145.392 Y198.346 E10.51982
G1 X144.649 Y198.89 E10.55657
G1 X143.94 Y199.323 E10.58973
G1 X143.45 Y199.59 E10.612
G1 X143.196 Y199.721 E10.62341
G1 X142.36 Y200.107 E10.66016
G1 X141.622 Y200.378 E10.69154
G1 X141.116 Y200.537 E10.71271
G1 X140.834 Y200.619 E10.72443
G1 X139.939 Y200.838 E10.76121
G1 X139.189 Y200.959 E10.79153
G1 X138.546 Y201.03 E10.81735
G1 X138.462 Y201.037 E10.82071
G1 X137.802 Y201.072 E10.84709
G1 X136.547 Y201.098 E10.89719
G1 X136.325 Y201.1 E10.90605
G1 X131.899 Y201.098 E11.0827
G1 X131.129 Y201.087 E11.11344
G1 X130.364 Y201.055 E11.144
G1 X129.937 Y201.025 E11.16108
G1 X129.401 Y200.974 E11.18257
G1 X129.22 Y200.952 E11.18985
G1 X128.702 Y200.876 E11.21074
G1 X128.231 Y200.795 E11.22982
G1 X127.577 Y200.661 E11.25646
G1 X126.908 Y200.49 E11.28402
G1 X126.447 Y200.358 E11.30316
G1 X125.909 Y200.189 E11.32567
G1 X125.735 Y200.129 E11.33302
G1 X125.254 Y199.95 E11.3535
G1 X124.409 Y199.601 E11.38999
G1 X124.221 Y199.516 E11.39822
G1 X123.639 Y199.231 E11.42409
G1 X123.192 Y198.995 E11.44426
G1 X122.687 Y198.71 E11.46741
G1 X122.517 Y198.608 E11.47532
G1 X122.076 Y198.329 E11.49615
G1 X121.671 Y198.058 E11.5156
G1 X121.144 Y197.681 E11.54146
G1 X120.614 Y197.264 E11.56837
G1 X120.235 Y196.947 E11.58809
G1 X119.859 Y196.617 E11.60806
G1 X119.709 Y196.479 E11.6162
G1 X119.279 Y196.06 E11.64016
G1 X118.952 Y195.723 E11.6589
G1 X118.504 Y195.231 E11.68546
G1 X118.078 Y194.719 E11.71204
G1 X117.79 Y194.352 E11.73066
G1 X117.423 Y193.855 E11.75532
G1 X117.036 Y193.277 E11.78308
G1 X116.788 Y192.882 E11.8017
G1 X116.494 Y192.386 E11.82471
G1 X115.756 Y191.052 E11.88556
G1 X115.451 Y190.487 E11.91118
G1 X114.166 Y188.265 E12.01363
G1 X112.841 Y186.116 E12.11439
G1 X111.468 Y184.022 E12.21433
G1 X110.017 Y181.942 E12.31556
G1 X108.496 Y179.885 E12.41766
G1 X106.945 Y177.911 E12.51786
G1 X105.342 Y175.982 E12.61796
G1 X103.67 Y174.084 E12.71892
G1 X101.936 Y172.223 E12.82044
G1 X100.157 Y170.419 E12.92156
G1 X98.336 Y168.675 E13.0222
G1 X96.461 Y166.978 E13.12313
G1 X94.535 Y165.332 E13.22425
G1 X92.573 Y163.746 E13.32494
G1 X90.554 Y162.21 E13.4262
G1 X89.392 Y161.367 E13.48349
G1 X89.06 Y161.119 E13.50003
G1 X88.597 Y160.751 E13.52364
G1 X88.213 Y160.428 E13.54366
G1 X87.709 Y159.979 E13.57061
G1 X87.276 Y159.557 E13.59474
G1 X86.956 Y159.227 E13.61308
G1 X86.534 Y158.765 E13.63806
G1 X86.078 Y158.219 E13.66645
G1 X85.79 Y157.852 E13.68507
G1 X85.437 Y157.376 E13.70872
G1 X85.326 Y157.217 E13.71646
G1 X85.029 Y156.767 E13.73798
G1 X84.759 Y156.335 E13.75831
G1 X84.495 Y155.888 E13.77903
G1 X84.419 Y155.752 E13.78525
G1 X84.153 Y155.245 E13.8081
G1 X83.934 Y154.798 E13.82797
G1 X83.694 Y154.271 E13.85108
G1 X83.616 Y154.087 E13.85906
G1 X83.427 Y153.61 E13.87954
G1 X83.127 Y152.769 E13.91517
G1 X82.289 Y150.16 E14.02454
G1 X81.44 Y147.751 E14.12649
G1 X80.555 Y145.451 E14.22485
G1 X79.567 Y143.079 E14.3274
G1 X78.532 Y140.784 E14.42789
G1 X77.427 Y138.509 E14.52883
G1 X76.245 Y136.238 E14.63101
G1 X75.034 Y134.065 E14.7303
G1 X73.719 Y131.857 E14.83287
G1 X72.381 Y129.746 E14.93263
G1 X71.025 Y127.731 E15.02956
G1 X70.408 Y126.838 E15.07288
G1 X69.918 Y126.059 E15.10962
G1 X69.497 Y125.24 E15.14637
G1 X69.149 Y124.387 E15.18314
G1 X68.876 Y123.508 E15.21988
G1 X68.681 Y122.608 E15.25663
G1 X68.564 Y121.695 E15.29337
G1 X68.527 Y120.775 E15.33012
G1 X68.581 Y119.74 E15.37148
G1 X68.647 Y119.094 E15.3974
G1 X68.868 Y116.544 E15.49956
G1 X69.02 Y113.972 E15.60239
G1 X69.096 Y111.473 E15.70218
G1 X69.102 Y108.925 E15.80387
G1 X69.036 Y106.417 E15.90401
G1 X68.9 Y103.92 E16.00382
G1 X68.649 Y100.944 E16.12302
G1 X68.578 Y100.226 E16.15181
G1 X68.528 Y99.306 E16.18859
G1 X68.557 Y98.386 E16.22532
G1 X68.667 Y97.472 E16.26207
G1 X68.855 Y96.571 E16.2988
G1 X69.121 Y95.689 E16.33557
G1 X69.463 Y94.834 E16.37232
G1 X69.877 Y94.012 E16.40906
G1 X70.421 Y93.143 E16.44998
G1 X70.927 Y92.414 E16.48539
G1 X72.405 Y90.219 E16.59101
G1 X73.748 Y88.101 E16.69111
G1 X75.037 Y85.931 E16.79184
G1 X76.276 Y83.705 E16.89352
G1 X77.44 Y81.467 E16.99421
G1 X78.545 Y79.185 E17.0954
G1 X79.577 Y76.896 E17.19562
G1 X80.569 Y74.519 E17.29842
G1 X81.45 Y72.217 E17.3968
G1 X82.303 Y69.793 E17.49936
G1 X82.873 Y68.036 E17.57308
G1 X83.097 Y67.32 E17.60302
G1 X83.264 Y66.826 E17.62384
G1 X83.442 Y66.351 E17.64408
G1 X83.63 Y65.884 E17.66418
G1 X83.839 Y65.401 E17.68518
G1 X83.911 Y65.245 E17.69204
G1 X84.157 Y64.746 E17.71424
G1 X84.383 Y64.317 E17.7336
G1 X84.712 Y63.737 E17.76021
G1 X85.07 Y63.171 E17.78694
G1 X85.34 Y62.769 E17.80627
G1 X85.673 Y62.301 E17.82919
G0 F9000 X85.992 Y62.542
G1 F1800 X86.105 Y62.392 E17.83669
G1 X86.431 Y61.981 E17.85762
G1 X86.75 Y61.6 E17.87746
G1 X87.086 Y61.219 E17.89773
G1 X87.223 Y61.071 E17.90578
G1 X87.62 Y60.665 E17.92845
G1 X87.947 Y60.349 E17.9466
G1 X88.335 Y59.993 E17.96761
G1 X88.877 Y59.537 E17.99588
G1 X89.482 Y59.065 E18.02651
G1 X90.404 Y58.381 E18.07233
G1 X90.994 Y57.956 E18.10135
G1 X93 Y56.421 E18.20216
G1 X94.968 Y54.825 E18.30329
G1 X96.9 Y53.164 E18.40499
G1 X98.792 Y51.444 E18.50704
G1 X100.595 Y49.71 E18.60688
G1 X102.405 Y47.866 E18.71001
G1 X104.12 Y46.016 E18.81069
G1 X105.805 Y44.093 E18.91274
G1 X107.41 Y42.153 E19.01323
G1 X108.958 Y40.171 E19.11361
G1 X110.494 Y38.087 E19.21693
G1 X111.925 Y36.024 E19.31714
G1 X113.32 Y33.886 E19.41903
G1 X114.635 Y31.741 E19.51945
G1 X115.932 Y29.485 E19.62331
G1 X116.788 Y27.909 E19.69489
G1 X117.126 Y27.327 E19.72176
G1 X117.402 Y26.894 E19.74225
G1 X117.672 Y26.492 E19.76158
G1 X117.998 Y26.033 E19.78405
G1 X118.112 Y25.882 E19.7916
G1 X118.431 Y25.482 E19.81202
G1 X119.078 Y24.727 E19.85171
G1 X119.211 Y24.583 E19.85953
G1 X119.614 Y24.171 E19.88253
G1 X119.947 Y23.849 E19.90102
G1 X120.344 Y23.485 E19.92252
G1 X120.505 Y23.345 E19.93103
G1 X120.893 Y23.024 E19.95113
G1 X121.258 Y22.737 E19.96966
G1 X121.693 Y22.413 E19.99131
G1 X121.855 Y22.299 E19.99922
G1 X122.297 Y22.005 E20.0204
G1 X122.725 Y21.736 E20.04058
G1 X123.185 Y21.464 E20.06191
G1 X123.341 Y21.377 E20.06904
G1 X123.814 Y21.129 E20.09036
G1 X124.254 Y20.913 E20.10992
G1 X124.781 Y20.673 E20.13303
G1 X124.987 Y20.586 E20.14196
G1 X125.466 Y20.397 E20.16251
G1 X125.9 Y20.239 E20.18094
G1 X126.419 Y20.066 E20.20278
G1 X127.053 Y19.885 E20.22909
G1 X127.556 Y19.758 E20.2498
G1 X128.131 Y19.631 E20.2733
G1 X128.788 Y19.517 E20.29991
G1 X129.287 Y19.446 E20.32003
G1 X129.864 Y19.38 E20.34321
G1 X130.509 Y19.336 E20.36901
G1 X131.039 Y19.315 E20.39018
G1 X131.32 Y19.308 E20.4014
G1 X132.023 Y19.3 E20.42946
G1 X137.677 Y19.3 E20.65513
G1 X138.337 Y19.308 E20.68147
G1 X138.997 Y19.338 E20.70784
G1 X139.673 Y19.391 E20.7349
G1 X140.57 Y19.502 E20.77098
G1 X141.624 Y19.737 E20.81408
G1 X142.149 Y19.89 E20.8359
G1 X142.411 Y19.973 E20.84687
G1 X143.259 Y20.284 E20.88292
G1 X143.962 Y20.609 E20.91383
G1 X144.531 Y20.908 E20.93949
G1 X144.784 Y21.05 E20.95107
G1 X145.552 Y21.527 E20.98715
G1 X146.226 Y22.03 E21.02072
G1 X146.749 Y22.466 E21.04789
G1 X147.411 Y23.08 E21.08393
G1 X147.885 Y23.595 E21.11187
G1 X148.227 Y24.003 E21.13312
G1 X148.422 Y24.247 E21.14558
G1 X148.954 Y24.977 E21.18163
G1 X149.373 Y25.666 E21.21382
G1 X149.741 Y26.354 E21.24496
G1 X150.12 Y27.173 E21.28098
G1 X150.372 Y27.856 E21.31003
G1 X150.537 Y28.378 E21.33188
G1 X150.626 Y28.686 E21.34468
G1 X150.838 Y29.564 E21.38073
G1 X150.952 Y30.284 E21.40983
G1 X151.018 Y30.892 E21.43423
G1 X151.041 Y31.176 E21.44561
G1 X151.074 Y32.078 E21.48163
G1 X151.043 Y32.793 E21.5102
G1 X150.993 Y33.351 E21.53256
G1 X150.959 Y33.648 E21.54449
G1 X150.816 Y34.54 E21.58054
G1 X150.653 Y35.218 E21.60837
G1 X150.482 Y35.804 E21.63274
G1 X150.395 Y36.075 E21.6441
G1 X150.081 Y36.922 E21.68015
G1 X149.872 Y37.385 E21.70043
G1 X149.434 Y38.291 E21.74059
G1 X149 Y39.161 E21.7794
G1 X147.927 Y41.465 E21.88084
G1 X146.921 Y43.802 E21.98239
G1 X145.98 Y46.164 E22.08386
G1 X145.121 Y48.518 E22.18388
G1 X144.307 Y50.955 E22.28643
G1 X143.572 Y53.383 E22.38768
G1 X142.911 Y55.815 E22.48826
G1 X142.303 Y58.334 E22.59169
G1 X141.781 Y60.794 E22.69206
G1 X141.328 Y63.279 E22.79288
G1 X140.944 Y65.781 E22.89391
G1 X140.626 Y68.333 E22.99655
G1 X140.385 Y70.83 E23.09667
G1 X140.212 Y73.395 E23.19928
G1 X140.112 Y75.925 E23.30034
G1 X140.084 Y78.213 E23.39166
G1 X140.085 Y143.803 E26.0095
G1 X140.122 Y146.408 E26.11348
G1 X140.231 Y148.976 E26.21607
G1 X140.407 Y151.463 E26.31558
G1 X140.66 Y154.001 E26.41738
G1 X140.985 Y156.543 E26.51966
G1 X141.379 Y159.053 E26.62107
G1 X141.842 Y161.547 E26.72231
G1 X142.365 Y163.975 E26.82144
G1 X142.979 Y166.483 E26.92449
G1 X143.656 Y168.937 E27.0261
G1 X144.398 Y171.362 E27.12731
G1 X145.211 Y173.772 E27.22883
G1 X146.097 Y176.174 E27.33101
G1 X147.027 Y178.492 E27.4307
G1 X148.054 Y180.851 E27.53338
G1 X148.864 Y182.589 E27.60992
G1 X149.149 Y183.262 E27.63909
G1 X149.267 Y183.571 E27.65229
G1 X149.536 Y184.374 E27.68609
G1 X149.624 Y184.678 E27.69872
G1 X149.836 Y185.556 E27.73477
G1 X149.95 Y186.267 E27.76351
G1 X150.017 Y186.888 E27.78844
G1 X150.04 Y187.17 E27.79973
G1 X150.074 Y188.072 E27.83576
G1 X150.043 Y188.793 E27.86456
G1 X149.993 Y189.347 E27.88676
G1 X149.959 Y189.645 E27.89873
G1 X149.817 Y190.537 E27.93478
G1 X149.648 Y191.237 E27.96352
G1 X149.482 Y191.801 E27.98699
G1 X149.394 Y192.075 E27.99847
G1 X149.08 Y192.922 E28.03453
G1 X148.76 Y193.609 E28.06478
G1 X148.487 Y194.127 E28.08815
G1 X148.353 Y194.367 E28.09912
G1 X147.878 Y195.136 E28.13519
G1 X147.447 Y195.722 E28.16423
G1 X147.105 Y196.145 E28.18594
G1 X146.932 Y196.349 E28.19661
G1 X146.318 Y197.011 E28.23265
G1 X145.866 Y197.432 E28.2573
G1 X145.382 Y197.842 E28.28262
G1 X145.142 Y198.034 E28.29489
G1 X144.412 Y198.566 E28.33094
G1 X143.745 Y198.974 E28.36215
G1 X143.266 Y199.234 E28.3839
