;FLAVOR:Marlin
;TIME:8984
;Filament used: 4.73228m
;Layer height: 0.16
;MINX:28.934
;MINY:81.235
;MINZ:0.2
;MAXX:191.066
;MAXY:138.765
;MAXZ:2.88
;Generated with Cura_SteamEngine 4.10.0
M82 ;absolute extrusion mode
M201 X500.00 Y500.00 Z100.00 E5000.00 ;Setup machine max acceleration
M203 X500.00 Y500.00 Z10.00 E50.00 ;Setup machine max feedrate
M204 P500.00 R1000.00 T500.00 ;Setup Print/Retract/Travel acceleration
M205 X8.00 Y8.00 Z0.40 E5.00 ;Setup Jerk
M220 S100 ;Reset Feedrate
M221 S100 ;Reset Flowrate

;*** Start Dual Nozzle/Bed Preheating ***
M140 S50 ; start preheating the bed
M104 S195 ?T0 ; start preheating hotend
M190 S50 ; heat to Cura Bed setting and WAIT
M109 S195 ?T0 ; heat to Cura Hotend and WAIT
;*** End Preheating ***

;*** Single Print Start Tone
M300 S1000 P500 ; chirp to indicate starting to print
;*** End Single Start Tone

G28 ;Home

G92 E0 ;Reset Extruder
G1 Z2.0 F3000 ;Move Z Axis up

G1 X10.1 Y20 Z0.28 F5000.0 ;Move to start position
G1 X10.1 Y200.0 Z0.28 F1500.0 E15 ;Draw the first line
G1 X10.4 Y200.0 Z0.28 F5000.0 ;Move to side a little
G1 X10.4 Y20 Z0.28 F1500.0 E30 ;Draw the second line
G92 E0 ;Reset Extruder
G1 Z2.0 F3000 ;Move Z Axis up
G92 E0
G92 E0
G1 F2400 E-4
;LAYER_COUNT:16
;LAYER:0
M106 S63.8
M204 S500
M205 X6 Y6
G0 F9000 X32.553 Y81.617 Z0.2
;TYPE:SKIRT
G1 F1440 E0
G1 F1800 X33.348 Y81.376 E0.02763
G1 X33.618 Y81.323 E0.03678
G1 X34.449 Y81.242 E0.06455
G1 X34.585 Y81.235 E0.06908
G1 X185.415 Y81.235 E5.08571
G1 X185.551 Y81.242 E5.09024
G1 X186.382 Y81.323 E5.11801
G1 X186.652 Y81.376 E5.12716
G1 X187.447 Y81.617 E5.15479
G1 X187.702 Y81.723 E5.16397
G1 X188.44 Y82.118 E5.19181
G1 X188.667 Y82.27 E5.2009
G1 X189.308 Y82.796 E5.22848
G1 X189.502 Y82.99 E5.2376
G1 X190.03 Y83.633 E5.26528
G1 X190.182 Y83.86 E5.27436
G1 X190.577 Y84.598 E5.3022
G1 X190.683 Y84.853 E5.31139
G1 X190.924 Y85.648 E5.33902
G1 X190.977 Y85.916 E5.34811
G1 X191.059 Y86.746 E5.37585
G1 X191.066 Y86.884 E5.38044
G1 X191.066 Y133.114 E6.91806
G1 X191.059 Y133.251 E6.92262
G1 X190.977 Y134.082 E6.95039
G1 X190.924 Y134.351 E6.95951
G1 X190.683 Y135.147 E6.98717
G1 X190.578 Y135.401 E6.99632
G1 X190.184 Y136.138 E7.02411
G1 X190.031 Y136.366 E7.03324
G1 X189.504 Y137.008 E7.06087
G1 X189.31 Y137.202 E7.07
G1 X188.667 Y137.73 E7.09767
G1 X188.44 Y137.882 E7.10675
G1 X187.702 Y138.277 E7.1346
G1 X187.447 Y138.383 E7.14378
G1 X186.652 Y138.624 E7.17141
G1 X186.382 Y138.677 E7.18056
G1 X185.551 Y138.758 E7.20833
G1 X185.415 Y138.765 E7.21286
G1 X34.585 Y138.765 E12.22949
G1 X34.449 Y138.758 E12.23402
G1 X33.618 Y138.677 E12.26179
G1 X33.348 Y138.624 E12.27094
G1 X32.553 Y138.383 E12.29857
G1 X32.298 Y138.277 E12.30775
G1 X31.56 Y137.882 E12.33559
G1 X31.333 Y137.73 E12.34468
G1 X30.69 Y137.202 E12.37235
G1 X30.496 Y137.008 E12.38148
G1 X29.969 Y136.366 E12.4091
G1 X29.816 Y136.138 E12.41824
G1 X29.422 Y135.401 E12.44603
G1 X29.317 Y135.147 E12.45517
G1 X29.076 Y134.351 E12.48284
G1 X29.023 Y134.083 E12.49192
G1 X28.941 Y133.254 E12.51963
G1 X28.934 Y133.116 E12.52423
G1 X28.934 Y86.886 E14.06184
G1 X28.941 Y86.749 E14.0664
G1 X29.023 Y85.917 E14.09421
G1 X29.076 Y85.648 E14.10333
G1 X29.317 Y84.853 E14.13096
G1 X29.423 Y84.598 E14.14014
G1 X29.818 Y83.86 E14.16798
G1 X29.97 Y83.633 E14.17707
G1 X30.496 Y82.992 E14.20465
G1 X30.69 Y82.798 E14.21378
G1 X31.333 Y82.27 E14.24145
G1 X31.56 Y82.118 E14.25053
G1 X31.836 Y81.97 E14.26095
G0 F1620 X32.298 Y81.723
G0 X32.553 Y81.617
G0 F9000 X32.669 Y82
G1 F1800 X33.464 Y81.759 E14.28858
G1 X33.657 Y81.721 E14.29512
G1 X34.488 Y81.64 E14.32289
G1 X34.585 Y81.635 E14.32612
G1 X185.415 Y81.635 E19.34275
G1 X185.512 Y81.64 E19.34598
G1 X186.343 Y81.721 E19.37375
G1 X186.536 Y81.759 E19.38029
G1 X187.331 Y82 E19.40792
G1 X187.513 Y82.075 E19.41447
G1 X188.251 Y82.47 E19.44231
G1 X188.413 Y82.579 E19.44881
G1 X189.054 Y83.105 E19.47638
G1 X189.193 Y83.243 E19.4829
G1 X189.721 Y83.886 E19.51057
G1 X189.83 Y84.049 E19.51709
G1 X190.225 Y84.787 E19.54493
G1 X190.3 Y84.969 E19.55148
G1 X190.541 Y85.764 E19.57911
G1 X190.579 Y85.956 E19.58562
G1 X190.661 Y86.786 E19.61336
G1 X190.666 Y86.884 E19.61663
G1 X190.666 Y133.114 E21.15424
G1 X190.661 Y133.212 E21.15751
G1 X190.579 Y134.043 E21.18528
G1 X190.541 Y134.235 E21.19179
G1 X190.3 Y135.031 E21.21945
G1 X190.225 Y135.212 E21.22597
G1 X189.831 Y135.949 E21.25376
G1 X189.722 Y136.112 E21.26028
G1 X189.195 Y136.754 E21.28791
G1 X189.057 Y136.893 E21.29442
G1 X188.414 Y137.421 E21.3221
G1 X188.251 Y137.53 E21.32862
G1 X187.513 Y137.925 E21.35646
G1 X187.331 Y138 E21.36301
G1 X186.536 Y138.241 E21.39064
G1 X186.343 Y138.279 E21.39718
G1 X185.512 Y138.36 E21.42495
G1 X185.415 Y138.365 E21.42818
G1 X34.585 Y138.365 E26.44481
G1 X34.488 Y138.36 E26.44804
G1 X33.657 Y138.279 E26.47581
G1 X33.464 Y138.241 E26.48235
G1 X32.669 Y138 E26.50998
G1 X32.487 Y137.925 E26.51653
G1 X31.749 Y137.53 E26.54437
G1 X31.586 Y137.421 E26.55089
G1 X30.943 Y136.893 E26.57856
G1 X30.805 Y136.754 E26.58508
G1 X30.278 Y136.112 E26.6127
G1 X30.169 Y135.949 E26.61922
G1 X29.775 Y135.212 E26.64702
G1 X29.7 Y135.031 E26.65354
G1 X29.459 Y134.235 E26.6812
G1 X29.421 Y134.043 E26.68771
G1 X29.339 Y133.214 E26.71542
G1 X29.334 Y133.116 E26.71868
G1 X29.334 Y86.886 E28.2563
G1 X29.339 Y86.788 E28.25956
G1 X29.421 Y85.956 E28.28737
G1 X29.459 Y85.764 E28.29388
G1 X29.7 Y84.969 E28.32151
G1 X29.775 Y84.787 E28.32805
G1 X30.17 Y84.049 E28.35589
G1 X30.279 Y83.887 E28.36239
G1 X30.805 Y83.246 E28.38997
G1 X30.943 Y83.107 E28.39648
G1 X31.586 Y82.579 E28.42415
G1 X31.749 Y82.47 E28.43068
G1 X31.955 Y82.36 E28.43844
G0 F1620 X32.487 Y82.075
G0 X32.669 Y82
G0 F9000 X32.785 Y82.383
G1 F1800 X33.58 Y82.142 E28.46607
G1 X33.696 Y82.119 E28.47001
G1 X34.527 Y82.038 E28.49778
G1 X34.585 Y82.035 E28.49971
G1 X185.415 Y82.035 E33.51633
G1 X185.473 Y82.038 E33.51827
G1 X186.304 Y82.119 E33.54604
G1 X186.42 Y82.142 E33.54997
G1 X187.215 Y82.383 E33.5776
G1 X187.324 Y82.428 E33.58152
G1 X188.062 Y82.823 E33.60936
G1 X188.16 Y82.888 E33.61327
G1 X188.801 Y83.414 E33.64085
G1 X188.884 Y83.497 E33.64476
G1 X189.412 Y84.14 E33.67243
G1 X189.477 Y84.238 E33.67634
G1 X189.872 Y84.976 E33.70418
G1 X189.917 Y85.085 E33.7081
G1 X190.158 Y85.88 E33.73573
G1 X190.181 Y85.995 E33.73963
G1 X190.263 Y86.825 E33.76737
G1 X190.266 Y86.884 E33.76934
G1 X190.266 Y133.114 E35.30696
G1 X190.263 Y133.173 E35.30892
G1 X190.181 Y134.004 E35.33669
G1 X190.158 Y134.119 E35.34059
G1 X189.917 Y134.915 E35.36826
G1 X189.872 Y135.024 E35.37218
G1 X189.478 Y135.761 E35.39997
G1 X189.413 Y135.859 E35.40389
G1 X188.886 Y136.501 E35.43151
G1 X188.803 Y136.584 E35.43542
G1 X188.16 Y137.112 E35.46309
G1 X188.062 Y137.177 E35.467
G1 X187.324 Y137.572 E35.49484
G1 X187.215 Y137.617 E35.49876
G1 X186.42 Y137.858 E35.52639
G1 X186.304 Y137.881 E35.53033
G1 X185.473 Y137.962 E35.5581
G1 X185.415 Y137.965 E35.56003
G1 X34.585 Y137.965 E40.57665
G1 X34.527 Y137.962 E40.57858
G1 X33.696 Y137.881 E40.60636
G1 X33.58 Y137.858 E40.61029
G1 X32.785 Y137.617 E40.63792
G1 X32.676 Y137.572 E40.64184
G1 X31.938 Y137.177 E40.66968
G1 X31.84 Y137.112 E40.67359
G1 X31.197 Y136.584 E40.70127
G1 X31.114 Y136.501 E40.70517
G1 X30.587 Y135.859 E40.7328
G1 X30.522 Y135.761 E40.73671
G1 X30.128 Y135.024 E40.7645
G1 X30.083 Y134.915 E40.76842
G1 X29.842 Y134.119 E40.79609
G1 X29.819 Y134.004 E40.79999
G1 X29.737 Y133.175 E40.82769
G1 X29.734 Y133.116 E40.82966
G1 X29.734 Y86.886 E42.36727
G1 X29.737 Y86.827 E42.36924
G1 X29.819 Y85.995 E42.39705
G1 X29.842 Y85.88 E42.40095
G1 X30.083 Y85.085 E42.42858
G1 X30.128 Y84.976 E42.4325
G1 X30.523 Y84.238 E42.46034
G1 X30.588 Y84.14 E42.46425
G1 X31.114 Y83.499 E42.49183
G1 X31.197 Y83.416 E42.49573
G1 X31.84 Y82.888 E42.52341
G1 X31.938 Y82.823 E42.52732
G1 X32.074 Y82.75 E42.53245
G0 F1620 X32.676 Y82.428
G0 X32.785 Y82.383
G0 F9000 X32.901 Y82.766
G1 F1800 X33.696 Y82.525 E42.56008
G1 X33.735 Y82.517 E42.56141
G1 X34.585 Y82.435 E42.58981
G1 X185.415 Y82.435 E47.60643
G1 X186.265 Y82.517 E47.63484
G1 X186.304 Y82.525 E47.63616
G1 X187.099 Y82.766 E47.66379
G1 X187.135 Y82.781 E47.66509
G1 X187.873 Y83.176 E47.69293
G1 X187.906 Y83.197 E47.69423
G1 X188.547 Y83.723 E47.72181
G1 X188.575 Y83.751 E47.72313
G1 X189.103 Y84.394 E47.7508
G1 X189.124 Y84.427 E47.7521
G1 X189.519 Y85.165 E47.77994
G1 X189.534 Y85.201 E47.78124
G1 X189.775 Y85.996 E47.80887
G1 X189.783 Y86.034 E47.81016
G1 X189.866 Y86.884 E47.83856
G1 X189.865 Y133.134 E49.37685
G1 X189.783 Y133.965 E49.40462
G1 X189.775 Y134.003 E49.40591
G1 X189.534 Y134.799 E49.43357
G1 X189.519 Y134.835 E49.43487
G1 X189.125 Y135.572 E49.46267
G1 X189.104 Y135.605 E49.46397
G1 X188.577 Y136.247 E49.49159
G1 X188.549 Y136.275 E49.49291
G1 X187.906 Y136.803 E49.52058
G1 X187.873 Y136.824 E49.52188
G1 X187.135 Y137.219 E49.54972
G1 X187.099 Y137.234 E49.55102
G1 X186.304 Y137.475 E49.57865
G1 X186.265 Y137.483 E49.57998
G1 X185.415 Y137.565 E49.60838
G1 X34.566 Y137.564 E54.62564
G1 X33.735 Y137.483 E54.65341
G1 X33.696 Y137.475 E54.65473
G1 X32.901 Y137.234 E54.68236
G1 X32.865 Y137.219 E54.68366
G1 X32.127 Y136.824 E54.7115
G1 X32.094 Y136.803 E54.7128
G1 X31.451 Y136.275 E54.74047
G1 X31.423 Y136.247 E54.74179
G1 X30.896 Y135.605 E54.76941
G1 X30.875 Y135.572 E54.77072
G1 X30.481 Y134.835 E54.79851
G1 X30.466 Y134.799 E54.79981
G1 X30.225 Y134.003 E54.82747
G1 X30.217 Y133.965 E54.82876
G1 X30.134 Y133.116 E54.85713
G1 X30.135 Y86.866 E56.39542
G1 X30.217 Y86.034 E56.42322
G1 X30.225 Y85.996 E56.42451
G1 X30.466 Y85.201 E56.45214
G1 X30.481 Y85.165 E56.45344
G1 X30.876 Y84.427 E56.48128
G1 X30.897 Y84.394 E56.48258
G1 X31.423 Y83.753 E56.51016
G1 X31.451 Y83.725 E56.51148
G1 X32.094 Y83.197 E56.53915
G1 X32.127 Y83.176 E56.54045
G1 X32.195 Y83.14 E56.54301
G0 F1620 X32.865 Y82.781
G0 X32.901 Y82.766
G1 F2400 E52.54301
;MESH:Office.stl
G0 F9000 X32.766 Y82.322
G0 X31.852 Y82.796
G0 X31.107 Y83.407
G0 X30.496 Y84.152
G0 X30.042 Y85.003
G0 X29.761 Y85.926
G0 X29.67 Y86.853
G0 X29.67 Y133.147
G0 X29.761 Y134.074
G0 X30.042 Y134.997
G0 X30.496 Y135.848
G0 X31.107 Y136.593
G0 X31.852 Y137.204
G0 X32.703 Y137.658
G0 X33.626 Y137.939
G0 X34.553 Y138.029
G0 X185.447 Y138.029
G0 X186.291 Y137.946
G0 X186.207 Y137.087
;TYPE:WALL-OUTER
G1 F1440 E56.54301
G1 F1800 X185.407 Y137.165 E56.56975
G1 X34.593 Y137.165 E61.58584
G1 X33.793 Y137.087 E61.61257
G1 X33.034 Y136.857 E61.63895
G1 X32.338 Y136.484 E61.66522
G1 X31.721 Y135.979 E61.69173
G1 X31.216 Y135.362 E61.71825
G1 X30.843 Y134.666 E61.74452
G1 X30.613 Y133.907 E61.7709
G1 X30.534 Y133.105 E61.7977
G1 X30.534 Y86.895 E63.33465
G1 X30.613 Y86.093 E63.36145
G1 X30.843 Y85.334 E63.38783
G1 X31.216 Y84.638 E63.4141
G1 X31.721 Y84.021 E63.44061
G1 X32.338 Y83.516 E63.46713
G1 X33.034 Y83.143 E63.4934
G1 X33.793 Y82.913 E63.51978
G1 X34.593 Y82.835 E63.54651
G1 X185.407 Y82.835 E68.5626
G1 X186.207 Y82.913 E68.58934
G1 X186.966 Y83.143 E68.61572
G1 X187.662 Y83.516 E68.64198
G1 X188.279 Y84.021 E68.6685
G1 X188.784 Y84.638 E68.69502
G1 X189.157 Y85.334 E68.72128
G1 X189.387 Y86.093 E68.74766
G1 X189.466 Y86.895 E68.77446
G1 X189.466 Y133.105 E70.31141
G1 X189.387 Y133.907 E70.33822
G1 X189.157 Y134.666 E70.3646
G1 X188.784 Y135.362 E70.39086
G1 X188.279 Y135.979 E70.41738
G1 X187.662 Y136.484 E70.4439
G1 X186.972 Y136.854 E70.46994
G0 F1620 X186.966 Y136.857
G0 X186.207 Y137.087
G0 F9000 X186.127 Y136.693
;TYPE:WALL-INNER
G1 F1800 X185.389 Y136.765 E70.4946
G1 X34.611 Y136.765 E75.5095
G1 X33.873 Y136.693 E75.53416
G1 X33.189 Y136.486 E75.55793
G1 X32.56 Y136.149 E75.58166
G1 X32.005 Y135.695 E75.60551
G1 X31.551 Y135.14 E75.62936
G1 X31.214 Y134.511 E75.65309
G1 X31.007 Y133.827 E75.67686
G1 X30.934 Y133.086 E75.70163
G1 X30.934 Y86.914 E77.23731
G1 X31.007 Y86.173 E77.26208
G1 X31.214 Y85.489 E77.28585
G1 X31.551 Y84.86 E77.30958
G1 X32.005 Y84.305 E77.33343
G1 X32.56 Y83.851 E77.35728
G1 X33.189 Y83.514 E77.38101
G1 X33.873 Y83.307 E77.40478
G1 X34.611 Y83.235 E77.42945
G1 X185.389 Y83.235 E82.44434
G1 X186.127 Y83.307 E82.46901
G1 X186.811 Y83.514 E82.49277
G1 X187.44 Y83.851 E82.51651
G1 X187.995 Y84.305 E82.54036
G1 X188.449 Y84.86 E82.56421
G1 X188.786 Y85.489 E82.58794
G1 X188.993 Y86.173 E82.61171
G1 X189.066 Y86.914 E82.63647
G1 X189.066 Y133.086 E84.17216
G1 X188.993 Y133.827 E84.19693
G1 X188.786 Y134.511 E84.22069
G1 X188.449 Y135.14 E84.24443
G1 X187.995 Y135.695 E84.26828
G1 X187.44 Y136.149 E84.29213
G1 X186.886 Y136.446 E84.31303
G0 F1620 X186.811 Y136.486
G0 X186.127 Y136.693
G0 F9000 X186.048 Y136.299
G1 F1800 X185.371 Y136.365 E84.33566
G1 X34.629 Y136.365 E89.34936
G1 X33.952 Y136.299 E89.37198
G1 X33.344 Y136.115 E89.39311
G1 X32.782 Y135.814 E89.41431
G1 X32.289 Y135.411 E89.43549
G1 X31.886 Y134.918 E89.45667
G1 X31.585 Y134.356 E89.47787
G1 X31.401 Y133.747 E89.49903
G1 X31.334 Y133.067 E89.52176
G1 X31.334 Y86.933 E91.05618
G1 X31.401 Y86.253 E91.07891
G1 X31.585 Y85.644 E91.10007
G1 X31.886 Y85.082 E91.12127
G1 X32.289 Y84.589 E91.14245
G1 X32.782 Y84.186 E91.16363
G1 X33.344 Y83.885 E91.18483
G1 X33.952 Y83.701 E91.20596
G1 X34.63 Y83.635 E91.22862
G1 X185.37 Y83.635 E96.24225
G1 X186.048 Y83.701 E96.26491
G1 X186.656 Y83.885 E96.28604
G1 X187.218 Y84.186 E96.30724
G1 X187.711 Y84.589 E96.32842
G1 X188.114 Y85.082 E96.3496
G1 X188.415 Y85.644 E96.3708
G1 X188.599 Y86.253 E96.39196
G1 X188.666 Y86.933 E96.41469
G1 X188.666 Y133.067 E97.94911
G1 X188.599 Y133.747 E97.97184
G1 X188.415 Y134.356 E97.993
G1 X188.114 Y134.918 E98.0142
G1 X187.711 Y135.411 E98.03538
G1 X187.218 Y135.814 E98.05656
G1 X186.801 Y136.038 E98.0723
G0 F1620 X186.656 Y136.115
G0 X186.048 Y136.299
G0 F9000 X185.972 Y135.915
;TYPE:SKIN
G1 F1800 X185.354 Y135.975 E98.09296
G1 X34.646 Y135.975 E103.10552
G1 X34.028 Y135.915 E103.12618
G1 X33.491 Y135.753 E103.14483
G1 X33.003 Y135.491 E103.16325
G1 X32.566 Y135.134 E103.18202
G1 X32.209 Y134.697 E103.20079
G1 X31.947 Y134.209 E103.21921
G1 X31.785 Y133.672 E103.23787
G1 X31.724 Y133.048 E103.25872
G1 X31.724 Y86.952 E104.79188
G1 X31.785 Y86.328 E104.81273
G1 X31.947 Y85.791 E104.83139
G1 X32.209 Y85.303 E104.84981
G1 X32.566 Y84.866 E104.86858
G1 X33.003 Y84.509 E104.88735
G1 X33.491 Y84.247 E104.90577
G1 X34.028 Y84.085 E104.92443
G1 X34.647 Y84.025 E104.94511
G1 X185.353 Y84.025 E109.95761
G1 X185.972 Y84.085 E109.9783
G1 X186.509 Y84.247 E109.99695
G1 X186.997 Y84.509 E110.01537
G1 X187.434 Y84.866 E110.03414
G1 X187.791 Y85.303 E110.05291
G1 X188.053 Y85.791 E110.07133
G1 X188.215 Y86.328 E110.08999
G1 X188.276 Y86.952 E110.11084
G1 X188.276 Y133.048 E111.644
G1 X188.215 Y133.672 E111.66485
G1 X188.053 Y134.209 E111.68351
G1 X187.791 Y134.697 E111.70193
G1 X187.434 Y135.134 E111.7207
G1 X186.997 Y135.491 E111.73947
G1 X186.72 Y135.64 E111.74993
G0 F1620 X186.509 Y135.753
G0 X185.972 Y135.915
G1 F2400 E107.74993
G0 F9000 X186.569 Y137.88
G0 X187.297 Y137.658
G0 X188.148 Y137.204
G0 X188.893 Y136.593
G0 X189.504 Y135.848
G0 X189.958 Y134.997
G0 X190.239 Y134.074
G0 X190.33 Y133.147
G0 X190.33 Y86.853
G0 X190.258 Y86.103
G0 X190.11 Y85.501
G0 X187.973 Y86.15
G1 F1440 E111.74993
G1 F1800 X186.149 Y84.326 E111.83573
G0 F9000 X185.475 Y84.217
G1 F1800 X188.081 Y86.824 E111.95833
G0 F9000 X188.095 Y87.403
G1 F1800 X184.897 Y84.205 E112.10875
G0 F9000 X184.331 Y84.205
G1 F1800 X188.095 Y87.969 E112.2858
G0 F9000 X188.095 Y88.534
G1 F1800 X183.765 Y84.205 E112.48945
G0 F9000 X183.2 Y84.205
G1 F1800 X188.095 Y89.1 E112.71969
G0 F9000 X188.095 Y89.666
G1 F1800 X182.634 Y84.205 E112.97656
G0 F9000 X182.068 Y84.205
G1 F1800 X188.095 Y90.231 E113.26003
G0 F9000 X188.095 Y90.797
G1 F1800 X181.502 Y84.205 E113.57012
G0 F9000 X180.937 Y84.205
G1 F1800 X188.095 Y91.363 E113.90681
G0 F9000 X188.095 Y91.928
G1 F1800 X180.371 Y84.205 E114.2701
G0 F9000 X179.805 Y84.205
G1 F1800 X188.095 Y92.494 E114.66001
G0 F9000 X188.095 Y93.06
G1 F1800 X179.24 Y84.205 E115.07652
G0 F9000 X178.674 Y84.205
G1 F1800 X188.095 Y93.625 E115.51964
G0 F9000 X188.095 Y94.191
G1 F1800 X178.108 Y84.205 E115.98937
G0 F9000 X177.543 Y84.205
G1 F1800 X188.095 Y94.757 E116.4857
