;FLAVOR:Marlin
;TIME:6327
;Filament used: 8.88867m
;Layer height: 0.24
;MINX:2.272
;MINY:36.836
;MINZ:0.24
;MAXX:217.717
;MAXY:182.199
;MAXZ:2.76
;Generated with Cura_SteamEngine 4.8.0
M82 ;absolute extrusion mode
M201 X500.00 Y500.00 Z100.00 E5000.00 ;Setup machine max acceleration
M203 X500.00 Y500.00 Z10.00 E50.00 ;Setup machine max feedrate
M204 P500.00 R1000.00 T500.00 ;Setup Print/Retract/Travel acceleration
M205 X8.00 Y8.00 Z0.40 E5.00 ;Setup Jerk
M220 S100 ;Reset Feedrate
M221 S100 ;Reset Flowrate

;*** Start Dual Nozzle/Bed Preheating ***
M140 S50 ; start preheating the bed
M104 S230 ﻿T0 ; start preheating hotend
G28 ; home
M190 S50 ; heat to Cura Bed setting and WAIT
M109 S230 ﻿T0 ; heat to Cura Hotend and WAIT
;*** End Preheating ***


G92 E0 ;Reset Extruder
G1 Z2.0 F3000 ;Move Z Axis up

;*** Single Print Start Tone
M300 S1000 P500 ; chirp to indicate starting to print
;*** End Single Start Tone

G1 X10.1 Y20 Z0.28 F5000.0 ;Move to start position
G1 X10.1 Y200.0 Z0.28 F1500.0 E15 ;Draw the first line
G1 X10.4 Y200.0 Z0.28 F5000.0 ;Move to side a little
G1 X10.4 Y20 Z0.28 F1500.0 E30 ;Draw the second line
G92 E0 ;Reset Extruder
G1 Z2.0 F3000 ;Move Z Axis up
G92 E0
G92 E0
G1 F1800 E-3
;LAYER_COUNT:11
;LAYER:0
M107
M205 X6 Y6
;MESH:CatGuard.stl
G0 F9000 X74.105 Y64.457 Z0.24
;TYPE:WALL-INNER
G1 F1800 E0
G1 F3600 X74.243 Y67.214 E0.16526
G1 X74.34 Y68.655 E0.25173
G1 X74.891 Y75.612 E0.66954
G1 X75.523 Y84.805 E1.2212
G1 X75.892 Y90.931 E1.58862
G1 X75.967 Y91.899 E1.64675
G1 X75.981 Y92.029 E1.65458
G1 X76.116 Y93.054 E1.71647
G1 X76.245 Y93.658 E1.75345
G1 X76.448 Y94.348 E1.79651
G1 X76.961 Y95.372 E1.86507
G1 X77.473 Y95.938 E1.91077
G1 X78.03 Y96.394 E1.95386
G1 X79.154 Y96.924 E2.02826
G1 X79.891 Y97.125 E2.074
G1 X80.621 Y97.257 E2.11841
G1 X80.636 Y97.258 E2.11931
G1 X81.411 Y97.359 E2.1661
G1 X83.069 Y97.474 E2.2656
G1 X85.081 Y97.537 E2.38611
G1 X87.156 Y97.56 E2.51035
G1 X89.514 Y97.54 E2.65152
G1 X91.112 Y97.506 E2.74721
G1 X92.559 Y97.452 E2.8339
G1 X94.11 Y97.375 E2.92687
G1 X97.753 Y97.143 E3.14541
G1 X99.357 Y97.078 E3.24152
G1 X100.452 Y97.057 E3.30709
G1 X102.626 Y97.046 E3.43724
G1 X110.155 Y97.091 E3.888
G1 X114.644 Y97.091 E4.15675
G1 X122.074 Y97.114 E4.60157
G1 X126.061 Y97.089 E4.84027
G1 X128.315 Y97.057 E4.97523
G1 X129.381 Y97.08 E5.03906
G1 X130.435 Y97.137 E5.10226
G1 X131.227 Y97.16 E5.14969
G1 X132.398 Y97.127 E5.21982
G1 X132.548 Y97.117 E5.22882
G1 X133.863 Y96.99 E5.30792
G1 X135.486 Y96.785 E5.40586
G1 X137.135 Y96.565 E5.50545
G1 X139.73 Y96.269 E5.66182
G1 X140.61 Y96.028 E5.71644
G1 X141.265 Y95.667 E5.76122
G1 X141.843 Y95.085 E5.81032
G1 X142.199 Y94.477 E5.85251
G1 X142.608 Y93.378 E5.92271
G1 X142.85 Y92.363 E5.98518
G1 X143.034 Y91.308 E6.04929
G1 X143.147 Y90.629 E6.0905
G1 X143.348 Y88.989 E6.18942
G1 X143.499 Y87.55 E6.27604
G1 X143.628 Y85.973 E6.37077
G1 X143.712 Y84.529 E6.45737
G1 X143.724 Y84.268 E6.47301
G1 X143.779 Y82.842 E6.55845
G1 X143.859 Y79.787 E6.74141
G1 X143.95 Y77.631 E6.8706
G1 X144.063 Y75.696 E6.98664
G1 X144.183 Y74.245 E7.0738
G1 X144.36 Y72.503 E7.17863
G1 X144.801 Y68.364 E7.42783
G1 X145.085 Y65.106 E7.62362
G1 X145.378 Y61.471 E7.84195
G1 X145.544 Y59.6 E7.9544
G1 X145.783 Y57.564 E8.07713
G1 X146.064 Y55.483 E8.20285
G1 X146.21 Y54.12 E8.28491
G1 X146.306 Y52.742 E8.36761
G1 X146.318 Y52.374 E8.38965
G1 X146.465 Y48.385 E8.62863
G1 X146.474 Y46.41 E8.74687
G1 X146.452 Y44.524 E8.85979
G1 X146.463 Y43.704 E8.90889
G1 X146.467 Y43.584 E8.91608
G1 X146.492 Y43.083 E8.94611
G1 X146.558 Y42.47 E8.98302
G1 X146.636 Y41.931 E9.01562
G1 X146.748 Y41.454 E9.04496
G1 X147.075 Y40.659 E9.09642
G1 X147.265 Y40.374 E9.11693
G1 X147.772 Y39.889 E9.15893
G1 X148.098 Y39.68 E9.18212
G1 X148.897 Y39.322 E9.23453
G1 X149.77 Y39.096 E9.28852
G1 X150.155 Y39.029 E9.31192
G1 X150.927 Y39.013 E9.35814
G1 X151.501 Y39.128 E9.39319
G1 X151.98 Y39.384 E9.42571
G1 X152.439 Y39.808 E9.46312
G1 X152.772 Y40.309 E9.49913
G1 X153.046 Y40.958 E9.54131
G1 X153.143 Y41.316 E9.56351
G1 X153.265 Y41.971 E9.6034
G1 X153.454 Y43.674 E9.70598
G1 X153.625 Y45.285 E9.80297
G1 X154.247 Y50.375 E10.10997
G1 X154.598 Y53.7 E10.31014
G1 X154.76 Y55.484 E10.41738
G1 X154.87 Y56.953 E10.50557
G1 X155.05 Y60.136 E10.69644
G1 X155.176 Y63.365 E10.8899
G1 X155.267 Y66.629 E11.08539
G1 X155.279 Y67.905 E11.16178
G1 X155.279 Y69.192 E11.23883
G1 X155.257 Y70.373 E11.30955
G1 X155.176 Y72.482 E11.4359
G1 X155.198 Y73.157 E11.47634
G1 X155.205 Y73.275 E11.48341
G1 X155.279 Y74.03 E11.52883
G1 X155.644 Y76.76 E11.69372
G1 X155.691 Y77.389 E11.73149
G1 X155.713 Y78.228 E11.78173
G1 X155.69 Y79.245 E11.84264
G1 X155.702 Y80.172 E11.89814
G1 X155.791 Y81.205 E11.96021
G1 X155.961 Y82.275 E12.02507
G1 X156.315 Y84.296 E12.14791
G1 X156.426 Y85.15 E12.19947
G1 X156.508 Y86.11 E12.25715
G1 X156.563 Y86.946 E12.30731
G1 X156.672 Y87.939 E12.36711
G1 X156.951 Y88.979 E12.43158
G1 X157.221 Y89.58 E12.47102
G1 X157.609 Y90.161 E12.51285
G1 X158.043 Y90.629 E12.55106
G1 X158.609 Y91.075 E12.5942
G1 X159.232 Y91.434 E12.63725
G1 X159.901 Y91.693 E12.6802
G1 X160.548 Y91.877 E12.72047
G1 X161.283 Y92.013 E12.76522
G1 X162.049 Y92.105 E12.81141
G1 X162.887 Y92.156 E12.86167
G1 X164.129 Y92.178 E12.93604
G1 X169.995 Y92.132 E13.28724
G1 X172.74 Y92.142 E13.45158
G1 X177.032 Y92.176 E13.70854
G1 X180.813 Y92.176 E13.9349
G1 X189.822 Y92.155 E14.47426
G1 X197.941 Y92.248 E14.96036
G1 X200.402 Y92.258 E15.10769
G1 X200.701 Y92.256 E15.1256
G1 X205.276 Y92.177 E15.39953
G1 X206.353 Y92.176 E15.46401
G1 X207.054 Y92.208 E15.50602
G1 X207.644 Y92.267 E15.54152
G1 X208.102 Y92.345 E15.56934
G1 X208.67 Y92.562 E15.60574
G1 X208.942 Y92.783 E15.62672
G1 X209.204 Y93.137 E15.65309
G1 X209.538 Y93.879 E15.7018
G1 X210.312 Y96.094 E15.84227
G1 X210.597 Y96.72 E15.88345
G1 X210.915 Y97.326 E15.92442
G1 X211.307 Y97.92 E15.96703
G1 X211.742 Y98.455 E16.00831
G1 X212.219 Y98.961 E16.04994
G1 X212.641 Y99.326 E16.08335
G1 X212.988 Y99.702 E16.11398
G1 X213.501 Y100.217 E16.1575
G1 X214.441 Y101.112 E16.2352
G1 X214.814 Y101.514 E16.26803
G1 X215.095 Y101.873 E16.29533
G1 X215.28 Y102.244 E16.32015
G1 X215.437 Y102.731 E16.35078
G1 X215.507 Y103.211 E16.37982
G1 X215.553 Y103.778 E16.41388
G1 X215.564 Y104.496 E16.45687
G1 X215.555 Y105.226 E16.50057
G1 X215.499 Y106.372 E16.56927
G1 X215.409 Y107.511 E16.63767
G1 X215.269 Y108.608 E16.70388
G1 X215.173 Y109.15 E16.73683
G1 X215.03 Y109.655 E16.76825
G1 X214.931 Y109.895 E16.78379
G1 X214.585 Y110.588 E16.83017
G1 X214.192 Y111.455 E16.88716
G1 X213.918 Y111.994 E16.92336
G1 X213.605 Y112.436 E16.95578
G1 X213.23 Y112.81 E16.98749
G1 X212.747 Y113.182 E17.02399
G1 X211.668 Y113.929 E17.10255
G1 X211.565 Y114.008 E17.11033
G1 X210.628 Y114.81 E17.18416
G1 X209.922 Y115.28 E17.23494
G1 X209.602 Y115.437 E17.25628
G1 X208.89 Y115.735 E17.30249
G1 X206.649 Y116.491 E17.44408
G1 X205.143 Y116.963 E17.53857
G1 X204.551 Y117.127 E17.57535
G1 X203.861 Y117.261 E17.61743
G1 X203.063 Y117.377 E17.6657
G1 X202.269 Y117.435 E17.71337
G1 X201.345 Y117.457 E17.7687
G1 X200.384 Y117.424 E17.82627
G1 X199.478 Y117.352 E17.88068
G1 X198.565 Y117.236 E17.93578
G1 X197.665 Y117.075 E17.99051
G1 X196.857 Y116.89 E18.04014
G1 X196.037 Y116.66 E18.09113
G1 X195.313 Y116.422 E18.13675
G1 X194.522 Y116.108 E18.1877
G1 X193.778 Y115.773 E18.23655
G1 X193.011 Y115.362 E18.28865
G1 X192.259 Y114.921 E18.34084
G1 X191.553 Y114.439 E18.39202
G1 X190.933 Y113.938 E18.43974
G1 X190.443 Y113.456 E18.48089
G1 X190.006 Y112.912 E18.52266
G1 X189.639 Y112.367 E18.562
G1 X188.451 Y110.275 E18.70603
G1 X187.592 Y108.887 E18.80375
G1 X186.813 Y107.666 E18.89046
G1 X186.535 Y107.138 E18.92619
G1 X186.355 Y106.732 E18.95278
G1 X186.108 Y105.946 E19.0021
G1 X185.974 Y105.199 E19.04754
G1 X185.898 Y104.451 E19.09255
G1 X185.907 Y103.828 E19.12985
G1 X185.999 Y103.334 E19.15993
G1 X186.15 Y102.929 E19.18581
G1 X186.826 Y101.72 E19.26874
G1 X187.193 Y100.97 E19.31873
G1 X187.477 Y99.999 E19.37929
G1 X187.419 Y99.256 E19.42391
G1 X187.188 Y98.54 E19.46895
G1 X186.386 Y97.911 E19.52997
G1 X185.683 Y97.707 E19.5738
G1 X184.76 Y97.736 E19.62908
G1 X183.236 Y97.96 E19.7213
G1 X183.114 Y97.974 E19.72865
G1 X182.532 Y98.009 E19.76356
G1 X181.867 Y97.98 E19.80341
G1 X180.047 Y97.819 E19.9128
G1 X178.926 Y97.759 E19.98
G1 X177.731 Y97.748 E20.05155
G1 X176.514 Y97.784 E20.12444
G1 X175.269 Y97.859 E20.19911
G1 X173.256 Y97.992 E20.31989
G1 X172.326 Y98.033 E20.37562
G1 X171.367 Y98.022 E20.43304
G1 X170.55 Y97.967 E20.48206
G1 X169.488 Y97.877 E20.54587
G1 X166.508 Y97.527 E20.7255
G1 X165.884 Y97.472 E20.76301
G1 X165.711 Y97.46 E20.77339
G1 X164.571 Y97.403 E20.84172
G1 X163.888 Y97.436 E20.88266
G1 X162.882 Y97.601 E20.94369
G1 X162.293 Y97.842 E20.98179
G1 X161.714 Y98.22 E21.02319
G1 X161.193 Y98.976 E21.07816
G1 X161.029 Y99.799 E21.1284
G1 X161.069 Y100.363 E21.16225
G1 X161.301 Y101.393 E21.22546
G1 X161.424 Y102.274 E21.27871
G1 X161.437 Y102.706 E21.30459
G1 X161.426 Y103.388 E21.34542
G1 X161.285 Y105.146 E21.45101
G1 X161.094 Y107.016 E21.56355
G1 X160.966 Y107.916 E21.61797
G1 X160.812 Y108.851 E21.6747
G1 X160.627 Y109.789 E21.73194
G1 X160.41 Y110.684 E21.78707
G1 X159.876 Y112.465 E21.89839
G1 X159.451 Y113.739 E21.97879
G1 X158.645 Y116.054 E22.12555
G1 X158.217 Y117.169 E22.19705
G1 X157.958 Y117.783 E22.23695
G1 X157.648 Y118.403 E22.27844
G1 X157.311 Y119.019 E22.32048
G1 X156.858 Y119.779 E22.37345
G1 X155.484 Y121.845 E22.52199
G1 X155.124 Y122.419 E22.56256
G1 X154.619 Y123.392 E22.62819
G1 X154.401 Y124.24 E22.68061
G1 X154.401 Y124.831 E22.71599
G1 X154.588 Y125.454 E22.75493
G1 X154.885 Y125.889 E22.78647
G1 X155.025 Y126.038 E22.79871
G1 X154.966 Y126.326 E22.81631
G1 X154.925 Y127.263 E22.87246
G1 X155.224 Y128.064 E22.92364
G1 X155.739 Y128.663 E22.97094
G1 X156.314 Y128.978 E23.01019
G1 X156.081 Y129.55 E23.04716
G1 X156.293 Y130.699 E23.11711
G1 X156.371 Y130.767 E23.12331
G1 X156.093 Y131.458 E23.1679
G1 X155.872 Y132.536 E23.23378
G1 X155.85 Y133.23 E23.27535
G1 X155.886 Y134.318 E23.34052
G1 X156.034 Y136.241 E23.45599
G1 X156.034 Y137.102 E23.50754
G1 X155.956 Y138.535 E23.59345
G1 X155.842 Y140.067 E23.68543
G1 X155.793 Y141.244 E23.75595
G1 X155.793 Y142.493 E23.83073
G1 X155.866 Y143.786 E23.90826
G1 X156.025 Y145.062 E23.98524
G1 X156.244 Y146.307 E24.06092
G1 X156.507 Y147.498 E24.13394
G1 X157.056 Y149.733 E24.27173
G1 X157.268 Y150.776 E24.33545
G1 X157.414 Y151.806 E24.39773
G1 X157.495 Y152.857 E24.46084
G1 X157.518 Y153.973 E24.52766
G1 X157.416 Y157.576 E24.74345
G1 X157.427 Y158.771 E24.815
G1 X157.476 Y159.954 E24.88588
G1 X157.597 Y161.075 E24.95339
G1 X157.618 Y161.225 E24.96245
G1 X158.045 Y164.053 E25.13368
G1 X158.158 Y164.886 E25.18401
G1 X158.227 Y165.708 E25.23339
G1 X158.25 Y166.588 E25.28609
G1 X158.227 Y167.561 E25.34436
G1 X158.155 Y168.515 E25.40164
G1 X158.029 Y169.52 E25.46228
G1 X157.868 Y170.523 E25.52309
G1 X157.659 Y171.52 E25.58408
G1 X157.449 Y172.344 E25.63499
G1 X157.183 Y173.18 E25.68751
G1 X156.927 Y173.877 E25.73196
G1 X156.644 Y174.515 E25.77375
G1 X156.291 Y175.187 E25.81919
G1 X155.915 Y175.821 E25.86332
G1 X155.494 Y176.413 E25.90681
G1 X155.103 Y176.836 E25.9413
G1 X154.783 Y177.052 E25.96441
G1 X154.548 Y177.119 E25.97904
G1 X154.198 Y177.109 E26.00001
G1 X153.705 Y176.966 E26.03074
G1 X153.062 Y176.671 E26.07309
G1 X152.378 Y176.286 E26.12008
G1 X151.201 Y175.536 E26.20364
G1 X150.114 Y174.819 E26.2816
G1 X148.716 Y173.851 E26.3834
G1 X146.342 Y172.129 E26.55898
G1 X144.361 Y170.634 E26.70756
G1 X142.984 Y169.52 E26.8136
G1 X141.772 Y168.496 E26.90859
G1 X140.666 Y167.465 E26.99911
G1 X139.523 Y166.32 E27.09597
G1 X136.205 Y162.793 E27.38587
G1 X134.569 Y161.081 E27.52764
G1 X133.034 Y159.535 E27.65807
G1 X132.126 Y158.664 E27.7334
G1 X131.276 Y157.897 E27.80194
G1 X130.403 Y157.17 E27.86996
G1 X129.477 Y156.47 E27.93945
G1 X128.476 Y155.84 E28.01026
G1 X127.915 Y155.553 E28.04799
G1 X127.351 Y155.298 E28.08504
G1 X126.747 Y155.078 E28.12353
G1 X126.136 Y154.902 E28.1616
G1 X125.495 Y154.762 E28.20088
G1 X124.847 Y154.681 E28.23997
G1 X124.182 Y154.628 E28.27991
G1 X123.524 Y154.628 E28.3193
G1 X123.418 Y154.632 E28.32565
G1 X122.173 Y154.727 E28.40041
G1 X120.849 Y154.922 E28.48053
G1 X118.306 Y155.394 E28.63537
G1 X117.105 Y155.594 E28.70826
G1 X116.03 Y155.729 E28.77313
G1 X114.948 Y155.805 E28.83807
G1 X112.353 Y155.886 E28.9935
G1 X110.912 Y155.945 E29.07984
G1 X107.897 Y156.197 E29.26097
G1 X106.84 Y156.251 E29.32434
G1 X105.686 Y156.285 E29.39346
G1 X104.501 Y156.262 E29.46441
G1 X103.253 Y156.185 E29.53927
G1 X102.007 Y156.084 E29.61411
G1 X100.156 Y155.876 E29.72562
G1 X98.071 Y155.652 E29.85117
G1 X98.055 Y155.652 E29.85213
G1 X97.081 Y155.603 E29.91051
G1 X97.058 Y155.601 E29.91189
G1 X96.46 Y155.615 E29.9477
G1 X95.58 Y155.714 E30.00072
G1 X94.972 Y155.841 E30.03791
G1 X94.137 Y156.123 E30.09067
G1 X93.613 Y156.358 E30.12505
G1 X92.777 Y156.844 E30.18294
G1 X92.014 Y157.428 E30.24047
G1 X91.343 Y158.06 E30.29565
G1 X90.744 Y158.694 E30.34787
G1 X89.616 Y159.978 E30.45019
G1 X88.615 Y161.05 E30.538
G1 X84.427 Y165.096 E30.88662
G1 X83.134 Y166.338 E30.99396
G1 X80.3 Y168.89 E31.22228
G1 X78.782 Y170.242 E31.34398
G1 X77.398 Y171.395 E31.45182
G1 X76.033 Y172.426 E31.55423
G1 X74.394 Y173.636 E31.6762
G1 X73.68 Y174.188 E31.73023
G1 X73.533 Y174.304 E31.74144
G1 X71.435 Y176.086 E31.90624
G1 X70.838 Y176.568 E31.95218
G1 X70.267 Y176.989 E31.99465
G1 X68.371 Y178.196 E32.12921
G1 X67.629 Y178.702 E32.18298
G1 X66.214 Y179.738 E32.28797
G1 X65.494 Y180.222 E32.33991
G1 X64.763 Y180.612 E32.38951
G1 X64.427 Y180.763 E32.41156
G1 X63.845 Y180.943 E32.44803
G1 X63.414 Y180.988 E32.47398
G1 X63.214 Y180.938 E32.48632
G1 X62.995 Y180.647 E32.50812
G1 X62.589 Y179.78 E32.56544
G1 X62.228 Y178.917 E32.62144
G1 X62.048 Y178.358 E32.6566
G1 X61.933 Y177.803 E32.69053
G1 X61.9 Y177.239 E32.72436
G1 X61.919 Y176.55 E32.76562
G1 X62.023 Y174.875 E32.8661
G1 X62.046 Y173.927 E32.92287
G1 X62.001 Y171.024 E33.09669
G1 X62.021 Y170.013 E33.15722
G1 X62.088 Y168.956 E33.22063
G1 X62.202 Y167.957 E33.28083
G1 X62.382 Y166.918 E33.34396
G1 X62.623 Y165.855 E33.40921
G1 X63.508 Y162.663 E33.60752
G1 X63.776 Y161.552 E33.67594
G1 X63.974 Y160.42 E33.74474
G1 X63.975 Y160.403 E33.74576
G1 X64.099 Y159.314 E33.81138
G1 X64.164 Y158.358 E33.86875
G1 X64.268 Y156.467 E33.98213
G1 X64.377 Y155.755 E34.02525
G1 X64.522 Y155.128 E34.06378
G1 X65.06 Y153.532 E34.16461
G1 X65.319 Y152.672 E34.21838
G1 X65.57 Y151.645 E34.28168
G1 X65.751 Y150.583 E34.34617
G1 X65.754 Y150.57 E34.34697
G1 X66.003 Y148.658 E34.46241
G1 X66.109 Y147.67 E34.5219
G1 X66.162 Y146.746 E34.57731
G1 X66.117 Y145.84 E34.63161
G1 X65.891 Y144.879 E34.69072
G1 X65.682 Y144.329 E34.72594
G1 X65.126 Y143.054 E34.80922
G1 X64.967 Y142.65 E34.83521
G1 X64.763 Y141.965 E34.878
G1 X64.726 Y141.386 E34.91273
G1 X64.758 Y141.186 E34.92486
G1 X64.949 Y140.603 E34.96159
G1 X64.979 Y140.526 E34.96653
G1 X65.276 Y139.689 E35.0197
G1 X65.362 Y138.865 E35.0693
G1 X65.221 Y138.167 E35.11194
G1 X64.776 Y137.386 E35.16575
G1 X64.078 Y136.719 E35.22355
G1 X63.972 Y136.634 E35.23168
G1 X63.959 Y136.623 E35.2327
G1 X63.985 Y136.603
G1 X64.017 Y136.577 E35.23388
G1 X64.474 Y135.909 E35.28234
G1 X64.667 Y135.05 E35.33504
G1 X64.522 Y134.416 E35.37398
G1 X65.134 Y134.261 E35.41178
G1 X65.725 Y132.643 E35.5149
G1 X65.166 Y131.882 E35.57143
G1 X65.527 Y131.313 E35.61178
G1 X65.559 Y130.475 E35.66198
G1 X65.386 Y129.898 E35.69805
G1 X65.028 Y129.267 E35.74148
G1 X64.769 Y128.787 E35.77413
G1 X64.664 Y128.51 E35.79187
G1 X64.291 Y127.184 E35.87433
G1 X63.969 Y126.337 E35.92858
G1 X63.889 Y126.176 E35.93935
G1 X63.419 Y125.348 E35.99635
G1 X62.278 Y123.69 E36.11684
G1 X61.706 Y122.799 E36.18023
G1 X61.226 Y121.931 E36.23961
G1 X60.784 Y120.969 E36.30299
G1 X59.649 Y118.19 E36.48271
G1 X58.58 Y115.858 E36.63629
G1 X58.369 Y115.305 E36.67173
G1 X58.174 Y114.68 E36.71092
G1 X57.992 Y113.999 E36.75312
G1 X57.838 Y113.263 E36.79814
G1 X57.644 Y112.151 E36.86572
G1 X57.278 Y109.655 E37.01675
