;FLAVOR:Marlin
;TIME:308
;Filament used: 0.132636m
;Layer height: 0.16
;MINX:89.531
;MINY:80.989
;MINZ:0.24
;MAXX:123.767
;MAXY:122.713
;MAXZ:2.44
;Generated with Cura_SteamEngine 4.8.0
M82 ;absolute extrusion mode
M201 X500.00 Y500.00 Z100.00 E5000.00 ;Setup machine max acceleration
M203 X500.00 Y500.00 Z10.00 E50.00 ;Setup machine max feedrate
M204 P500.00 R1000.00 T500.00 ;Setup Print/Retract/Travel acceleration
M205 X8.00 Y8.00 Z0.40 E5.00 ;Setup Jerk
M220 S100 ;Reset Feedrate
M221 S100 ;Reset Flowrate

;*** Start Dual Nozzle/Bed Preheating ***
M140 S50 ; start preheating the bed
M104 S215 ﻿T0 ; start preheating hotend
G28 ; home
M190 S50 ; heat to Cura Bed setting and WAIT
M109 S215 ﻿T0 ; heat to Cura Hotend and WAIT
;*** End Preheating ***


G92 E0 ;Reset Extruder
G1 Z2.0 F3000 ;Move Z Axis up

;*** Single Print Start Tone
M300 S1000 P500 ; chirp to indicate starting to print
;*** End Single Start Tone

G1 X10.1 Y20 Z0.28 F5000.0 ;Move to start position
G1 X10.1 Y200.0 Z0.28 F1500.0 E15 ;Draw the first line
G1 X10.4 Y200.0 Z0.28 F5000.0 ;Move to side a little
G1 X10.4 Y20 Z0.28 F1500.0 E30 ;Draw the second line
G92 E0 ;Reset Extruder
G1 Z2.0 F3000 ;Move Z Axis up
G92 E0
G92 E0
G1 F2400 E-3
;LAYER_COUNT:12
;LAYER:0
M106 S63.8
M204 S500
M205 X6 Y6
G1 F300 Z0.44
G0 F9000 X92.917 Y85.078 Z0.44
;TYPE:SKIRT
G1 F300 Z0.24
G1 F2400 E0
G1 F1800 X93.724 Y84.259 E0.04589
G1 X93.921 Y84.079 E0.05654
G1 X94.64 Y83.477 E0.09397
G1 X95.407 Y82.938 E0.13138
G1 X96.218 Y82.466 E0.16884
G1 X97.066 Y82.065 E0.20627
G1 X97.945 Y81.738 E0.24371
G1 X98.848 Y81.486 E0.28112
G1 X99.362 Y81.38 E0.30207
G1 X99.772 Y81.305 E0.31871
G1 X101.021 Y81.149 E0.36894
G1 X101.592 Y81.112 E0.39178
G1 X102.413 Y81.063 E0.42461
G1 X102.881 Y81.055 E0.44329
G1 X103.86 Y81.004 E0.48242
G1 X104.499 Y80.989 E0.50793
G1 X105.327 Y80.999 E0.54098
G1 X105.602 Y81.009 E0.55196
G1 X106.606 Y81.092 E0.59217
G1 X107.199 Y81.18 E0.6161
G1 X107.519 Y81.236 E0.62906
G1 X108.013 Y81.334 E0.64916
G1 X108.69 Y81.492 E0.67691
G1 X109.264 Y81.646 E0.70063
G1 X109.906 Y81.836 E0.72735
G1 X110.409 Y82.002 E0.74849
G1 X111.136 Y82.264 E0.77933
G1 X111.758 Y82.51 E0.80603
G1 X112.513 Y82.837 E0.83887
G1 X113.19 Y83.151 E0.86866
G1 X113.999 Y83.568 E0.90498
G1 X114.451 Y83.825 E0.92573
G1 X114.958 Y84.131 E0.94937
G1 X115.486 Y84.477 E0.97456
G1 X115.682 Y84.612 E0.98406
G1 X116.251 Y85.032 E1.01229
G1 X116.812 Y85.486 E1.04109
G1 X117.216 Y85.833 E1.06235
G1 X117.665 Y86.241 E1.08656
G1 X118.187 Y86.751 E1.11569
G1 X118.791 Y87.391 E1.15081
G1 X119.217 Y87.873 E1.17649
G1 X119.602 Y88.334 E1.20046
G1 X119.87 Y88.671 E1.21765
G1 X120.553 Y89.568 E1.26264
G1 X120.917 Y90.073 E1.28749
G1 X121.568 Y91.116 E1.33656
G1 X121.873 Y91.691 E1.36254
G1 X122.076 Y92.101 E1.3808
G1 X122.456 Y92.959 E1.41825
G1 X122.682 Y93.591 E1.44504
G1 X122.934 Y94.385 E1.47829
G1 X122.999 Y94.609 E1.4876
G1 X123.223 Y95.527 E1.52531
G1 X123.358 Y96.205 E1.5529
G1 X123.478 Y96.93 E1.58223
G1 X123.612 Y97.957 E1.62357
G1 X123.682 Y98.614 E1.64994
G1 X123.733 Y99.31 E1.6778
G1 X123.752 Y99.758 E1.69569
G1 X123.767 Y100.43 E1.72252
G1 X123.764 Y101.034 E1.74663
G1 X123.755 Y101.31 E1.75765
G1 X123.726 Y101.827 E1.77832
G1 X123.676 Y102.453 E1.80338
G1 X123.564 Y103.369 E1.84021
G1 X123.546 Y103.478 E1.84462
G1 X123.45 Y103.987 E1.8653
G1 X123.407 Y104.188 E1.8735
G1 X123.243 Y104.851 E1.90076
G1 X122.926 Y105.984 E1.94772
G1 X122.86 Y106.211 E1.95715
G1 X122.339 Y107.929 E2.0288
G1 X121.671 Y110.379 E2.13016
G1 X121.388 Y111.533 E2.17758
G1 X121.16 Y112.406 E2.21359
G1 X120.885 Y113.302 E2.251
G1 X120.522 Y114.198 E2.28959
G1 X120.199 Y114.892 E2.32014
G1 X120.091 Y115.11 E2.32985
G1 X119.639 Y115.932 E2.36729
G1 X119.248 Y116.531 E2.39584
G1 X119.141 Y116.684 E2.40329
G1 X118.738 Y117.225 E2.43022
G1 X118.49 Y117.537 E2.44612
G1 X117.876 Y118.245 E2.48353
G1 X117.203 Y118.899 E2.52098
G1 X116.641 Y119.368 E2.5502
G1 X116.126 Y119.757 E2.57596
G1 X115.893 Y119.923 E2.58737
G1 X115.106 Y120.434 E2.62483
G1 X114.492 Y120.771 E2.65278
G1 X113.927 Y121.058 E2.67807
G1 X113.462 Y121.282 E2.69867
G1 X112.945 Y121.509 E2.72121
G1 X112.28 Y121.779 E2.74985
G1 X111.395 Y122.091 E2.78731
G1 X110.765 Y122.262 E2.81336
G1 X110.25 Y122.386 E2.8345
G1 X109.371 Y122.56 E2.87027
G1 X109.23 Y122.582 E2.87596
G1 X108.298 Y122.687 E2.9134
G1 X107.36 Y122.713 E2.95085
G1 X106.646 Y122.678 E2.97938
G1 X106.105 Y122.63 E3.00106
G1 X105.772 Y122.594 E3.01443
G1 X104.844 Y122.454 E3.05188
G1 X104.215 Y122.311 E3.07763
G1 X104.075 Y122.275 E3.0834
G1 X103.573 Y122.134 E3.10421
G1 X103.32 Y122.056 E3.11478
G1 X102.641 Y121.822 E3.14344
G1 X101.953 Y121.551 E3.17295
G1 X101.389 Y121.303 E3.19754
G1 X100.522 Y120.898 E3.23574
G1 X100.199 Y120.741 E3.25007
G1 X99.671 Y120.473 E3.2737
G1 X99.208 Y120.224 E3.29469
G1 X98.808 Y119.988 E3.31322
G1 X98.077 Y119.536 E3.34753
G1 X97.447 Y119.116 E3.37775
G1 X96.685 Y118.569 E3.41518
G1 X96.097 Y118.122 E3.44466
G1 X95.571 Y117.691 E3.47181
G1 X95.038 Y117.21 E3.50046
G1 X94.467 Y116.66 E3.5321
G1 X94.058 Y116.245 E3.55536
G1 X93.176 Y115.177 E3.61064
G1 X92.976 Y114.901 E3.62425
G1 X92.258 Y113.771 E3.67768
G1 X92.011 Y113.321 E3.69817
G1 X91.488 Y112.335 E3.74272
G1 X91.166 Y111.73 E3.77007
G1 X91.049 Y111.497 E3.78048
G1 X90.664 Y110.642 E3.8179
G1 X90.462 Y110.095 E3.84117
G1 X90.26 Y109.487 E3.86674
G1 X90.214 Y109.339 E3.87293
G1 X89.974 Y108.432 E3.91038
G1 X89.837 Y107.687 E3.94061
G1 X89.718 Y106.884 E3.97301
G1 X89.644 Y106.293 E3.99678
G1 X89.589 Y105.617 E4.02385
G1 X89.547 Y104.802 E4.05642
G1 X89.531 Y103.975 E4.08944
G1 X89.543 Y103.053 E4.12624
G1 X89.548 Y102.831 E4.1351
G1 X89.593 Y101.505 E4.18805
G1 X89.623 Y100.827 E4.21514
G1 X89.638 Y100.563 E4.2257
G1 X89.705 Y99.589 E4.26466
G1 X89.867 Y97.624 E4.34336
G1 X90.007 Y95.063 E4.44572
G1 X90.064 Y93.074 E4.52514
G1 X90.072 Y92.581 E4.54482
G1 X90.172 Y91.269 E4.59734
G1 X90.188 Y91.152 E4.60205
G1 X90.338 Y90.304 E4.63642
G1 X90.395 Y90.042 E4.64712
G1 X90.634 Y89.134 E4.6846
G1 X90.948 Y88.251 E4.722
G1 X91.337 Y87.397 E4.75946
G1 X91.797 Y86.58 E4.79688
G1 X92.325 Y85.805 E4.83431
G1 X92.917 Y85.078 E4.87173
G0 F9000 X93.284 Y85.268
G1 F1800 X93.994 Y84.555 E4.91189
G1 X94.191 Y84.375 E4.92254
G1 X94.897 Y83.784 E4.95928
G1 X95.652 Y83.256 E4.99606
G1 X96.449 Y82.796 E5.03278
G1 X97.283 Y82.407 E5.06951
G1 X98.148 Y82.092 E5.10625
G1 X99.434 Y81.773 E5.15914
G1 X99.844 Y81.698 E5.17577
G1 X101.047 Y81.548 E5.22416
G1 X101.615 Y81.511 E5.24688
G1 X102.436 Y81.462 E5.2797
G1 X102.89 Y81.455 E5.29783
G1 X103.881 Y81.403 E5.33743
G1 X104.496 Y81.389 E5.36199
G1 X105.312 Y81.399 E5.39456
G1 X105.587 Y81.409 E5.40554
G1 X106.555 Y81.489 E5.44431
G1 X107.13 Y81.574 E5.4675
G1 X107.926 Y81.724 E5.49983
G1 X108.589 Y81.879 E5.52701
G1 X109.152 Y82.03 E5.55027
G1 X109.784 Y82.217 E5.57658
G1 X110.276 Y82.38 E5.59727
G1 X110.992 Y82.637 E5.62763
G1 X111.602 Y82.879 E5.65382
G1 X112.345 Y83.2 E5.68612
G1 X113.022 Y83.514 E5.71591
G1 X113.801 Y83.915 E5.75088
G1 X114.253 Y84.172 E5.77163
G1 X114.742 Y84.468 E5.79445
G1 X115.259 Y84.806 E5.8191
G1 X115.455 Y84.941 E5.8286
G1 X116.004 Y85.346 E5.85583
G1 X116.552 Y85.79 E5.88398
G1 X116.956 Y86.137 E5.90523
G1 X117.388 Y86.529 E5.92851
G1 X117.9 Y87.03 E5.95711
G1 X118.497 Y87.663 E5.99183
G1 X118.915 Y88.135 E6.017
G1 X119.294 Y88.588 E6.04057
G1 X119.552 Y88.913 E6.05713
G1 X120.235 Y89.81 E6.10213
G1 X120.59 Y90.303 E6.12638
G1 X121.218 Y91.308 E6.17368
G1 X121.514 Y91.869 E6.19899
G1 X121.717 Y92.279 E6.21725
G1 X122.09 Y93.121 E6.25401
G1 X122.302 Y93.714 E6.27914
G1 X122.55 Y94.497 E6.31193
G1 X122.615 Y94.721 E6.32123
G1 X122.831 Y95.605 E6.35755
G1 X122.966 Y96.283 E6.38515
G1 X123.081 Y96.982 E6.41342
G1 X123.215 Y98.009 E6.45476
G1 X123.284 Y98.654 E6.48065
G1 X123.334 Y99.335 E6.5079
G1 X123.352 Y99.766 E6.52512
G1 X123.367 Y100.438 E6.55195
G1 X123.364 Y101.02 E6.57518
G1 X123.327 Y101.795 E6.60614
G1 X123.277 Y102.421 E6.63121
G1 X123.169 Y103.304 E6.66671
G1 X123.058 Y103.903 E6.69103
G1 X123.015 Y104.104 E6.69923
G1 X122.858 Y104.743 E6.72549
G1 X122.541 Y105.876 E6.77245
G1 X122.477 Y106.095 E6.78156
G1 X121.956 Y107.813 E6.85321
G1 X121.28 Y110.294 E6.95584
G1 X121.001 Y111.432 E7.00261
G1 X120.773 Y112.305 E7.03862
G1 X120.502 Y113.184 E7.07533
G1 X120.158 Y114.031 E7.11182
G1 X119.84 Y114.715 E7.14192
G1 X119.732 Y114.933 E7.15163
G1 X119.288 Y115.739 E7.18836
G1 X118.921 Y116.302 E7.21518
G1 X118.814 Y116.455 E7.22264
G1 X118.425 Y116.976 E7.24859
G1 X118.177 Y117.288 E7.26449
G1 X117.573 Y117.983 E7.30124
G1 X116.912 Y118.623 E7.33797
G1 X116.395 Y119.053 E7.36481
G1 X115.894 Y119.431 E7.38985
G1 X115.661 Y119.597 E7.40127
G1 X114.888 Y120.098 E7.43804
G1 X114.311 Y120.415 E7.46431
G1 X113.746 Y120.702 E7.48961
G1 X113.294 Y120.919 E7.50962
G1 X112.786 Y121.142 E7.53176
G1 X112.131 Y121.408 E7.55998
G1 X111.262 Y121.713 E7.59674
G1 X110.671 Y121.873 E7.62117
G1 X110.156 Y121.997 E7.64231
G1 X109.309 Y122.165 E7.67678
G1 X109.168 Y122.187 E7.68247
G1 X108.253 Y122.29 E7.71922
G1 X107.333 Y122.312 E7.75595
G1 X106.679 Y122.279 E7.78209
G1 X106.148 Y122.233 E7.80336
G1 X105.815 Y122.197 E7.81673
G1 X104.905 Y122.058 E7.85347
G1 X104.314 Y121.924 E7.87766
G1 X104.174 Y121.888 E7.88343
G1 X103.691 Y121.752 E7.90346
G1 X103.438 Y121.674 E7.91402
G1 X102.783 Y121.448 E7.94168
G1 X102.11 Y121.183 E7.97055
G1 X101.559 Y120.941 E7.99456
G1 X100.692 Y120.536 E8.03276
G1 X100.38 Y120.384 E8.04661
G1 X99.852 Y120.116 E8.07024
G1 X99.404 Y119.875 E8.09055
G1 X99.018 Y119.648 E8.10842
G1 X98.287 Y119.196 E8.14272
G1 X97.681 Y118.791 E8.17181
G1 X96.919 Y118.244 E8.20925
G1 X96.342 Y117.806 E8.23816
G1 X95.829 Y117.386 E8.26463
G1 X95.315 Y116.922 E8.29226
G1 X94.744 Y116.372 E8.32391
G1 X94.35 Y115.972 E8.34631
G1 X93.5 Y114.942 E8.39961
G1 X93.3 Y114.666 E8.41322
G1 X92.608 Y113.577 E8.46472
G1 X92.364 Y113.133 E8.48494
G1 X91.786 Y112.044 E8.53414
G1 X91.523 Y111.551 E8.55644
G1 X91.406 Y111.318 E8.56685
G1 X91.029 Y110.478 E8.6036
G1 X90.841 Y109.966 E8.62537
G1 X90.642 Y109.368 E8.65052
G1 X90.596 Y109.22 E8.65671
G1 X90.361 Y108.33 E8.69345
G1 X90.233 Y107.628 E8.72193
G1 X90.114 Y106.825 E8.75433
G1 X90.042 Y106.248 E8.77754
G1 X89.988 Y105.597 E8.80361
G1 X89.946 Y104.782 E8.83618
G1 X89.931 Y103.98 E8.86819
G1 X89.943 Y103.058 E8.905
G1 X89.948 Y102.844 E8.91354
G1 X89.992 Y101.522 E8.96633
G1 X90.022 Y100.844 E8.99342
G1 X90.037 Y100.59 E9.00357
G1 X90.104 Y99.622 E9.0423
G1 X90.267 Y97.642 E9.1216
G1 X90.404 Y95.135 E9.2218
G1 X90.465 Y93.017 E9.30637
G1 X90.472 Y92.587 E9.32354
G1 X90.569 Y91.323 E9.37414
G1 X90.585 Y91.206 E9.37885
G1 X90.729 Y90.389 E9.41196
G1 X90.786 Y90.127 E9.42266
G1 X91.021 Y89.236 E9.45944
G1 X91.332 Y88.37 E9.49616
G1 X91.717 Y87.534 E9.5329
G1 X92.173 Y86.734 E9.56965
G1 X92.697 Y85.977 E9.6064
G1 X93.284 Y85.268 E9.64314
G0 F9000 X93.65 Y85.46
G1 F1800 X94.264 Y84.85 E9.67768
G1 X94.461 Y84.67 E9.68833
G1 X95.154 Y84.091 E9.72437
G1 X95.895 Y83.575 E9.76041
G1 X96.68 Y83.127 E9.79649
G1 X97.5 Y82.751 E9.83249
G1 X98.351 Y82.448 E9.86854
G1 X99.506 Y82.166 E9.916
G1 X99.916 Y82.091 E9.93263
G1 X101.074 Y81.948 E9.9792
G1 X101.639 Y81.91 E10.0018
G1 X102.46 Y81.861 E10.03463
G1 X102.926 Y81.854 E10.05323
G1 X103.901 Y81.803 E10.0922
G1 X104.494 Y81.789 E10.11587
G1 X105.298 Y81.799 E10.14796
G1 X105.573 Y81.809 E10.15895
G1 X106.504 Y81.885 E10.19623
G1 X107.061 Y81.968 E10.21871
G1 X107.839 Y82.115 E10.25031
G1 X108.488 Y82.266 E10.2769
G1 X109.04 Y82.414 E10.29971
G1 X109.662 Y82.598 E10.3256
G1 X110.143 Y82.757 E10.34582
G1 X110.848 Y83.01 E10.37571
G1 X111.446 Y83.247 E10.40139
G1 X112.177 Y83.563 E10.43317
G1 X112.854 Y83.877 E10.46296
G1 X113.604 Y84.263 E10.49662
G1 X114.056 Y84.52 E10.51738
G1 X114.526 Y84.805 E10.53932
G1 X115.032 Y85.136 E10.56345
G1 X115.228 Y85.271 E10.57295
G1 X115.756 Y85.66 E10.59912
G1 X116.291 Y86.093 E10.62659
G1 X116.695 Y86.44 E10.64785
G1 X117.111 Y86.818 E10.67028
G1 X117.613 Y87.309 E10.69831
G1 X118.204 Y87.935 E10.73267
G1 X118.614 Y88.398 E10.75735
G1 X118.985 Y88.843 E10.78048
G1 X119.233 Y89.156 E10.79641
G1 X119.916 Y90.053 E10.84141
G1 X120.263 Y90.533 E10.86505
G1 X120.867 Y91.501 E10.91059
G1 X121.156 Y92.046 E10.93521
G1 X121.359 Y92.456 E10.95347
G1 X121.723 Y93.282 E10.9895
G1 X121.921 Y93.837 E11.01302
G1 X122.166 Y94.608 E11.04531
G1 X122.231 Y94.832 E11.05462
G1 X122.439 Y95.683 E11.08958
G1 X122.574 Y96.361 E11.11717
G1 X122.684 Y97.033 E11.14435
G1 X122.818 Y98.06 E11.18569
G1 X122.886 Y98.693 E11.2111
G1 X122.935 Y99.36 E11.23779
G1 X122.952 Y99.775 E11.25437
G1 X122.967 Y100.447 E11.2812
G1 X122.965 Y101.007 E11.30355
G1 X122.929 Y101.763 E11.33375
G1 X122.879 Y102.389 E11.35882
G1 X122.775 Y103.239 E11.393
G1 X122.667 Y103.82 E11.41658
G1 X122.624 Y104.021 E11.42479
G1 X122.473 Y104.635 E11.45002
G1 X122.156 Y105.768 E11.49698
G1 X122.094 Y105.979 E11.50576
G1 X121.573 Y107.697 E11.57741
G1 X120.898 Y110.173 E11.67984
G1 X120.654 Y111.173 E11.72092
G1 X120.386 Y112.203 E11.7634
G1 X120.119 Y113.066 E11.79946
G1 X119.794 Y113.865 E11.83388
G1 X119.482 Y114.537 E11.86345
G1 X119.374 Y114.755 E11.87316
G1 X118.938 Y115.546 E11.90921
G1 X118.593 Y116.073 E11.93435
G1 X118.486 Y116.226 E11.9418
G1 X118.112 Y116.727 E11.96676
G1 X117.864 Y117.039 E11.98267
G1 X117.271 Y117.72 E12.01871
G1 X116.62 Y118.347 E12.05478
G1 X116.149 Y118.737 E12.07919
G1 X115.662 Y119.105 E12.10355
G1 X115.429 Y119.271 E12.11497
G1 X114.671 Y119.762 E12.15101
G1 X114.129 Y120.058 E12.17566
G1 X113.564 Y120.345 E12.20095
G1 X112.876 Y120.667 E12.23127
G1 X112.379 Y120.878 E12.25282
G1 X111.982 Y121.037 E12.26989
G1 X111.13 Y121.335 E12.30592
G1 X110.578 Y121.485 E12.32875
G1 X110.063 Y121.609 E12.34989
G1 X109.247 Y121.77 E12.38309
G1 X109.106 Y121.792 E12.38878
G1 X108.209 Y121.892 E12.4248
G1 X107.306 Y121.911 E12.46085
G1 X106.711 Y121.881 E12.48463
G1 X106.191 Y121.835 E12.50547
G1 X105.858 Y121.799 E12.51883
G1 X104.965 Y121.662 E12.55489
G1 X104.414 Y121.537 E12.57744
G1 X103.809 Y121.369 E12.6025
G1 X103.556 Y121.291 E12.61307
G1 X102.926 Y121.074 E12.63967
G1 X102.267 Y120.815 E12.66793
G1 X101.728 Y120.578 E12.69143
G1 X100.861 Y120.173 E12.72962
G1 X100.561 Y120.027 E12.74294
G1 X100.033 Y119.759 E12.76657
G1 X99.229 Y119.307 E12.80338
G1 X98.498 Y118.855 E12.83768
G1 X97.914 Y118.466 E12.86569
G1 X97.152 Y117.919 E12.90313
G1 X96.586 Y117.49 E12.93147
G1 X96.087 Y117.08 E12.95725
G1 X95.593 Y116.634 E12.98381
G1 X95.022 Y116.084 E13.01546
G1 X94.642 Y115.698 E13.03708
G1 X93.824 Y114.707 E13.08836
G1 X93.624 Y114.431 E13.10197
G1 X92.958 Y113.383 E13.15153
G1 X92.717 Y112.946 E13.17144
G1 X92.139 Y111.857 E13.22065
G1 X91.881 Y111.371 E13.24261
G1 X91.764 Y111.138 E13.25302
G1 X91.395 Y110.314 E13.28905
G1 X91.22 Y109.838 E13.30929
G1 X91.024 Y109.249 E13.33407
G1 X90.978 Y109.101 E13.34026
G1 X90.748 Y108.228 E13.37629
G1 X90.628 Y107.569 E13.40302
G1 X90.509 Y106.766 E13.43542
G1 X90.439 Y106.203 E13.45807
G1 X90.388 Y105.576 E13.48317
G1 X90.346 Y104.761 E13.51574
G1 X90.331 Y103.985 E13.54672
G1 X90.343 Y103.063 E13.58352
G1 X90.348 Y102.858 E13.59171
G1 X90.392 Y101.54 E13.64434
G1 X90.422 Y100.862 E13.67143
G1 X90.436 Y100.617 E13.68122
G1 X90.503 Y99.654 E13.71975
G1 X90.665 Y97.694 E13.79825
G1 X90.805 Y95.131 E13.90069
G1 X90.865 Y93.033 E13.98446
G1 X90.872 Y92.594 E14.00199
G1 X90.965 Y91.377 E14.0507
G1 X90.981 Y91.26 E14.05542
G1 X91.12 Y90.474 E14.08727
G1 X91.177 Y90.212 E14.09798
G1 X91.408 Y89.339 E14.13402
G1 X91.715 Y88.489 E14.17009
G1 X92.096 Y87.671 E14.2061
G1 X92.548 Y86.889 E14.24215
G1 X93.068 Y86.15 E14.27822
G1 X93.65 Y85.46 E14.31425
G1 F2400 E11.31425
G1 F300 Z0.44
;MESH:CatGuard_eyes_insert.stl(1)
G0 F9000 X101.666 Y95.12 Z0.44
;TYPE:WALL-OUTER
G1 F300 Z0.24
G1 F2400 E14.31425
G1 F1800 X101.546 Y94.293 E14.3476
G1 X101.362 Y93.436 E14.38258
G1 X101.265 Y92.737 E14.41075
G1 X101.319 Y92.466 E14.42178
G1 X101.433 Y92.368 E14.42778
G1 X101.735 Y92.317 E14.44
G1 X102.098 Y92.323 E14.45449
G1 X102.795 Y92.35 E14.48233
