;FLAVOR:Marlin
;TIME:7210
;Filament used: 5.41854m
;Layer height: 0.2
;MINX:37.835
;MINY:80.335
;MINZ:0.24
;MAXX:182.165
;MAXY:139.665
;MAXZ:3
;Generated with Cura_SteamEngine 4.7.1
M140 S50
M105
M190 S50
M104 S215
M105
M109 S215
M82 ;absolute extrusion mode
M201 X500.00 Y500.00 Z100.00 E5000.00 ;Setup machine max acceleration
M203 X500.00 Y500.00 Z10.00 E50.00 ;Setup machine max feedrate
M204 P500.00 R1000.00 T500.00 ;Setup Print/Retract/Travel acceleration
M205 X8.00 Y8.00 Z0.40 E5.00 ;Setup Jerk
M220 S100 ;Reset Feedrate
M221 S100 ;Reset Flowrate

G28 ;Home

G92 E0 ;Reset Extruder
G1 Z2.0 F3000 ;Move Z Axis up
G1 X10.1 Y20 Z0.28 F5000.0 ;Move to start position
G1 X10.1 Y200.0 Z0.28 F1500.0 E15 ;Draw the first line
G1 X10.4 Y200.0 Z0.28 F5000.0 ;Move to side a little
G1 X10.4 Y20 Z0.28 F1500.0 E30 ;Draw the second line
G92 E0 ;Reset Extruder
G1 Z2.0 F3000 ;Move Z Axis up

G92 E0
G92 E0
G1 F1800 E-3
;LAYER_COUNT:14
;LAYER:0
M106 S63.8
M204 S500
M205 X6 Y6
;MESH:HauntedHouse_Back.stl
G0 F9000 X100.69 Y81.2 Z0.24
;TYPE:WALL-OUTER
G1 F1800 E0
G1 X181.3 Y81.2 E3.21732
G1 X181.3 Y138.8 E5.51626
G1 X38.7 Y138.8 E11.20773
G1 X38.7 Y81.2 E13.50667
G1 X72.933 Y81.2 E14.87299
G1 X81.099 Y111.677 E16.1323
G1 X81.981 Y114.963 E16.26809
G1 X83.704 Y117.456 E16.38904
G1 X85.948 Y119.994 E16.52426
G1 X88.332 Y122.041 E16.64967
G1 X90.798 Y123.547 E16.765
G1 X93.29 Y124.472 E16.87109
G1 X94.994 Y124.692 E16.93966
G1 X100.893 Y123.112 E17.1834
G1 X102.258 Y122.069 E17.25197
G1 X103.953 Y120.023 E17.35801
G1 X105.336 Y117.485 E17.47337
G1 X106.377 Y114.52 E17.59879
G1 X107.051 Y111.2 E17.734
G1 X107.345 Y107.607 E17.87789
G1 X107.302 Y105.878 E17.94692
G1 X100.69 Y81.2 E18.96661
G1 F1800 E15.96661
G0 F9000 X101.03 Y81.5
G0 X154.205 Y82.21
G0 X154.205 Y80.335
G0 X156.542 Y99.306
G0 X155.438 Y97.786
G0 X154.205 Y100.655
G0 X154.5 Y100.701
G1 F1800 E18.96661
G1 X154.318 Y101.864 E19.01359
G1 X154.317 Y102.134 E19.02437
G1 X154.5 Y103.3 E19.07148
G1 X155.098 Y104.472 E19.12399
G1 X156.028 Y105.402 E19.17648
G1 X157.201 Y106 E19.22903
G1 X158.364 Y106.182 E19.27602
G1 X158.634 Y106.183 E19.28679
G1 X159.8 Y106 E19.3339
G1 X160.972 Y105.402 E19.38641
G1 X161.902 Y104.472 E19.43891
G1 X162.5 Y103.3 E19.49142
G1 X162.705 Y102 E19.54395
G1 X162.5 Y100.7 E19.59648
G1 X161.902 Y99.528 E19.64899
G1 X160.972 Y98.598 E19.70148
G1 X159.8 Y98 E19.754
G1 X158.5 Y97.795 E19.80653
G1 X157.2 Y98 E19.85905
G1 X156.028 Y98.598 E19.91157
G1 X155.098 Y99.528 E19.96406
G1 X154.5 Y100.701 E20.01661
G0 F9000 X154.115 Y100.576
;TYPE:WALL-INNER
G1 F1800 X153.918 Y101.832 E20.06735
G1 X153.917 Y102.164 E20.0806
G1 X154.115 Y103.425 E20.13155
G1 X154.77 Y104.71 E20.18911
G1 X155.79 Y105.73 E20.24669
G1 X157.076 Y106.385 E20.30429
G1 X158.332 Y106.582 E20.35503
G1 X158.664 Y106.583 E20.36828
G1 X159.925 Y106.385 E20.41923
G1 X161.21 Y105.73 E20.47679
G1 X162.23 Y104.71 E20.53437
G1 X162.885 Y103.425 E20.59193
G1 X163.11 Y102 E20.64951
G1 X162.885 Y100.575 E20.70709
G1 X162.23 Y99.29 E20.76466
G1 X161.21 Y98.27 E20.82223
G1 X159.925 Y97.615 E20.8798
G1 X158.5 Y97.39 E20.93738
G1 X157.075 Y97.615 E20.99495
G1 X155.79 Y98.27 E21.05252
G1 X154.77 Y99.29 E21.11009
G1 X154.115 Y100.576 E21.16769
G0 F9000 X153.73 Y100.451
G1 F1800 X153.518 Y101.8 E21.2222
G1 X153.517 Y102.195 E21.23796
G1 X153.73 Y103.55 E21.29271
G1 X154.442 Y104.948 E21.35532
G1 X155.552 Y106.058 E21.41798
G1 X156.951 Y106.77 E21.48063
G1 X158.3 Y106.982 E21.53513
G1 X158.695 Y106.983 E21.5509
G1 X160.05 Y106.77 E21.60564
G1 X161.448 Y106.058 E21.66826
G1 X162.558 Y104.948 E21.73091
G1 X163.27 Y103.55 E21.79353
G1 X163.515 Y102 E21.85616
G1 X163.27 Y100.45 E21.91879
G1 X162.558 Y99.052 E21.98141
G1 X161.448 Y97.942 E22.04406
G1 X160.05 Y97.23 E22.10668
G1 X158.5 Y96.985 E22.16931
G1 X156.95 Y97.23 E22.23194
G1 X155.552 Y97.942 E22.29456
G1 X154.442 Y99.052 E22.35721
G1 X153.73 Y100.451 E22.41987
G1 F1800 E19.41987
G0 F9000 X153.327 Y101.784
G0 X155.182 Y101.93
G0 X105.713 Y102.985
G0 X106.441 Y106.003
G0 X81.934 Y111.453
G0 X79.732 Y103.54
G0 X60.194 Y103.958
G0 X61.714 Y105.062
G0 X58.875 Y106.229
G0 X57.446 Y106.5
G0 X57.499 Y106.205
;TYPE:WALL-OUTER
G1 F1800 E22.41987
G1 X58.649 Y106.024 E22.46633
G1 X58.8 Y105.999 E22.47244
G1 X59.972 Y105.402 E22.52494
G1 X60.902 Y104.472 E22.57743
G1 X61.5 Y103.299 E22.62998
G1 X61.679 Y102.151 E22.67635
G1 X61.705 Y102.001 E22.68243
G1 X61.524 Y100.851 E22.72889
G1 X61.499 Y100.7 E22.735
G1 X60.902 Y99.528 E22.7875
G1 X59.972 Y98.598 E22.83999
G1 X58.8 Y98 E22.8925
G1 X57.5 Y97.795 E22.94503
G1 X56.2 Y98 E22.99756
G1 X55.028 Y98.598 E23.05007
G1 X54.098 Y99.528 E23.10257
G1 X53.5 Y100.7 E23.15508
G1 X53.295 Y102 E23.20761
G1 X53.5 Y103.3 E23.26013
G1 X54.098 Y104.472 E23.31265
G1 X55.028 Y105.402 E23.36514
G1 X56.201 Y106 E23.41769
G1 X57.349 Y106.179 E23.46406
G1 X57.499 Y106.205 E23.47014
G0 F9000 X57.496 Y106.61
;TYPE:WALL-INNER
G1 F1800 X58.713 Y106.419 E23.51931
G1 X58.926 Y106.384 E23.52792
G1 X60.21 Y105.73 E23.58543
G1 X61.23 Y104.71 E23.64301
G1 X61.885 Y103.424 E23.70061
G1 X62.073 Y102.219 E23.74929
G1 X62.11 Y102.004 E23.75799
G1 X61.919 Y100.787 E23.80716
G1 X61.884 Y100.574 E23.81578
G1 X61.23 Y99.29 E23.87329
G1 X60.21 Y98.27 E23.93086
G1 X58.925 Y97.615 E23.98843
G1 X57.5 Y97.39 E24.04601
G1 X56.075 Y97.615 E24.10359
G1 X54.79 Y98.27 E24.16115
G1 X53.77 Y99.29 E24.21872
G1 X53.115 Y100.575 E24.27629
G1 X52.89 Y102 E24.33387
G1 X53.115 Y103.425 E24.39145
G1 X53.77 Y104.71 E24.44901
G1 X54.79 Y105.73 E24.50659
G1 X56.076 Y106.385 E24.56419
G1 X57.281 Y106.573 E24.61286
G1 X57.496 Y106.61 E24.62157
G0 F9000 X57.428 Y107.003
G1 F1800 X57.493 Y107.015 E24.62421
G1 X58.776 Y106.814 E24.67604
G1 X59.052 Y106.769 E24.6872
G1 X60.448 Y106.058 E24.74973
G1 X61.558 Y104.948 E24.81238
G1 X62.27 Y103.549 E24.87504
G1 X62.279 Y103.486 E24.87758
G1 X62.467 Y102.287 E24.92602
G1 X62.503 Y102.072 E24.93472
G1 X62.515 Y102.007 E24.93735
G1 X62.314 Y100.724 E24.98919
G1 X62.269 Y100.448 E25.00035
G1 X61.558 Y99.052 E25.06288
G1 X60.448 Y97.942 E25.12553
G1 X59.05 Y97.23 E25.18815
G1 X57.5 Y96.985 E25.25078
G1 X55.95 Y97.23 E25.31341
G1 X54.552 Y97.942 E25.37603
G1 X53.442 Y99.052 E25.43868
G1 X52.73 Y100.45 E25.5013
G1 X52.485 Y102 E25.56393
G1 X52.73 Y103.55 E25.62656
G1 X53.442 Y104.948 E25.68918
G1 X54.552 Y106.058 E25.75183
G1 X55.951 Y106.77 E25.81448
G1 X56.014 Y106.779 E25.81702
G1 X57.213 Y106.967 E25.86546
G1 X57.428 Y107.003 E25.87416
G1 F1800 E22.87416
G0 F9000 X60.114 Y105.598
G0 X60.999 Y104.713
G0 X62.655 Y102.319
G0 X60.829 Y101.996
G0 X78.359 Y98.112
G0 X76.549 Y98.597
G0 X81.761 Y115.064
G0 X83.515 Y117.604
G0 X85.779 Y120.165
G0 X88.191 Y122.235
G0 X90.693 Y123.763
G0 X93.233 Y124.705
G0 X95.01 Y124.934
G0 X101 Y123.33
G0 X102.425 Y122.242
G0 X104.152 Y120.158
G0 X105.555 Y117.583
G0 X106.608 Y114.583
G0 X107.288 Y111.233
G0 X107.584 Y107.614
G0 X107.54 Y105.844
G0 X101.211 Y81.6
G1 F1800 E25.87416
G1 X101.469 Y81.6 E25.88446
G1 X101.47 Y81.6 E25.8845
G1 X180.9 Y81.6 E29.05472
G1 X180.9 Y138.4 E31.32173
G1 X39.1 Y138.4 E36.98128
G1 X39.1 Y81.6 E39.24829
G1 X72.626 Y81.6 E40.58638
G1 X80.713 Y111.781 E41.83347
G1 X81.613 Y115.133 E41.97199
G1 X83.389 Y117.703 E42.09667
G1 X85.667 Y120.28 E42.23395
G1 X88.096 Y122.366 E42.36174
G1 X90.623 Y123.909 E42.47992
G1 X93.194 Y124.863 E42.58937
G1 X95.021 Y125.099 E42.66289
G1 X101.073 Y123.478 E42.91296
G1 X102.537 Y122.359 E42.9865
G1 X104.286 Y120.248 E43.09592
G1 X105.703 Y117.648 E43.2141
G1 X106.764 Y114.627 E43.34189
G1 X107.448 Y111.256 E43.47918
G1 X107.745 Y107.618 E43.62486
G1 X107.701 Y105.82 E43.69665
G1 X101.278 Y81.85 E44.68709
G1 X101.211 Y81.6 E44.69332
G0 F9000 X101.732 Y82
G1 F1800 X101.991 Y82 E44.70365
G1 X101.992 Y82 E44.70369
G1 X180.5 Y82 E47.83712
G1 X180.5 Y138 E50.0722
G1 X39.5 Y138 E55.69981
G1 X39.5 Y82 E57.9349
G1 X72.319 Y82 E59.24477
G1 X80.327 Y111.885 E60.47963
G1 X81.245 Y115.303 E60.62088
G1 X83.073 Y117.95 E60.74927
G1 X85.386 Y120.566 E60.88864
G1 X87.86 Y122.691 E61.01881
G1 X90.448 Y124.271 E61.13983
G1 X93.098 Y125.254 E61.25264
G1 X95.048 Y125.506 E61.33112
G1 X101.253 Y123.844 E61.5875
G1 X102.816 Y122.649 E61.66603
G1 X104.619 Y120.473 E61.77882
G1 X106.07 Y117.811 E61.89982
G1 X107.151 Y114.734 E62.02999
G1 X107.845 Y111.312 E62.16935
G1 X108.145 Y107.629 E62.31683
G1 X108.1 Y105.763 E62.39133
G1 X101.799 Y82.251 E63.36286
G1 X101.732 Y82 E63.36911
G0 F9000 X102.241 Y82.39
;TYPE:SKIN
G1 F1800 X180.11 Y82.39 E66.47703
G1 X180.11 Y137.61 E68.68098
G1 X39.89 Y137.61 E74.27747
G1 X39.89 Y82.39 E76.48142
G1 X72.02 Y82.39 E77.76379
G1 X79.95 Y111.986 E78.9867
G1 X80.886 Y115.469 E79.13065
G1 X82.765 Y118.191 E79.26266
G1 X85.111 Y120.845 E79.40404
G1 X87.63 Y123.007 E79.53653
G1 X90.277 Y124.624 E79.66033
G1 X93.004 Y125.635 E79.77641
G1 X95.075 Y125.902 E79.85975
G1 X101.428 Y124.201 E80.12225
G1 X103.089 Y122.932 E80.20567
G1 X104.943 Y120.693 E80.3217
G1 X106.427 Y117.97 E80.44547
G1 X107.528 Y114.838 E80.57797
G1 X108.231 Y111.367 E80.71932
G1 X108.535 Y107.64 E80.86857
G1 X108.488 Y105.707 E80.94574
G1 X102.241 Y82.39 E81.90919
G1 F1800 E78.90919
G0 F9000 X102.241 Y82.11
G0 X101.975 Y82.186
G0 X107.54 Y105.844
G0 X107.584 Y107.614
G0 X107.288 Y111.233
G0 X106.608 Y114.583
G0 X105.555 Y117.583
G0 X104.152 Y120.158
G0 X102.425 Y122.242
G0 X101 Y123.33
G0 X95.01 Y124.934
G0 X93.233 Y124.705
G0 X90.693 Y123.763
G0 X88.191 Y122.235
G0 X85.779 Y120.165
G0 X83.515 Y117.604
G0 X81.761 Y115.064
G0 X76.054 Y96.748
G0 X77.863 Y96.263
G0 X60.67 Y100.975
G0 X62.452 Y100.388
G0 X62.374 Y100.413
G0 X62.644 Y100.325
G1 F1800 E81.90919
G1 X61.878 Y98.82 E81.97659
G1 X60.68 Y97.622 E82.04421
G1 X59.172 Y96.854 E82.11176
G1 X57.5 Y96.591 E82.17931
G1 X55.828 Y96.854 E82.24687
G1 X54.32 Y97.622 E82.31441
G1 X53.122 Y98.82 E82.38203
G1 X52.354 Y100.328 E82.44957
G1 X52.091 Y102 E82.51713
G1 X52.354 Y103.672 E82.58468
G1 X53.122 Y105.18 E82.65222
G1 X54.32 Y106.378 E82.71984
G1 X55.83 Y107.146 E82.78746
G1 X57.153 Y107.353 E82.8409
G1 X57.491 Y107.411 E82.85459
G1 X58.838 Y107.199 E82.90902
G1 X59.175 Y107.144 E82.92264
G1 X60.68 Y106.378 E82.99004
G1 X61.878 Y105.18 E83.05766
G1 X62.646 Y103.67 E83.12528
G1 X62.853 Y102.347 E83.17873
G1 X62.911 Y102.009 E83.19241
G1 X62.699 Y100.662 E83.24684
G1 X62.644 Y100.325 E83.26046
G1 F1800 E80.26046
G0 F9000 X62.374 Y100.413
G0 X62.708 Y102.009
G0 X60.829 Y101.996
G0 X79.315 Y101.982
G0 X81.934 Y111.453
G0 X106.441 Y106.003
G0 X105.439 Y101.964
G0 X155.182 Y101.93
G0 X153.327 Y101.784
G0 X153.624 Y100.416
G0 X153.354 Y100.33
G1 F1800 E83.26046
G1 X153.128 Y101.769 E83.3186
G1 X153.127 Y102.225 E83.3368
G1 X153.354 Y103.671 E83.39522
G1 X154.122 Y105.18 E83.4628
G1 X155.32 Y106.378 E83.53042
G1 X156.83 Y107.146 E83.59804
G1 X158.269 Y107.372 E83.65617
G1 X158.725 Y107.373 E83.67437
G1 X160.171 Y107.146 E83.73279
G1 X161.68 Y106.378 E83.80037
G1 X162.878 Y105.18 E83.86799
G1 X163.646 Y103.672 E83.93554
G1 X163.909 Y102 E84.00309
G1 X163.646 Y100.328 E84.07064
G1 X162.878 Y98.82 E84.13819
G1 X161.68 Y97.622 E84.20581
G1 X160.172 Y96.854 E84.27335
G1 X158.5 Y96.591 E84.3409
G1 X156.828 Y96.854 E84.40846
G1 X155.32 Y97.622 E84.476
G1 X154.122 Y98.82 E84.54362
G1 X153.354 Y100.33 E84.61124
G0 F9000 X152.969 Y100.205
G1 F1800 X152.728 Y101.737 E84.67313
G1 X152.727 Y102.256 E84.69385
G1 X152.969 Y103.796 E84.75607
G1 X153.794 Y105.418 E84.8287
G1 X155.082 Y106.706 E84.9014
G1 X156.705 Y107.531 E84.97406
G1 X158.237 Y107.772 E85.03596
G1 X158.756 Y107.773 E85.05668
G1 X160.296 Y107.531 E85.11889
G1 X161.918 Y106.706 E85.19153
G1 X163.206 Y105.418 E85.26423
G1 X164.031 Y103.797 E85.33682
G1 X164.314 Y102 E85.40943
G1 X164.031 Y100.203 E85.48203
G1 X163.206 Y98.582 E85.55463
G1 X161.918 Y97.294 E85.62733
G1 X160.297 Y96.469 E85.69992
G1 X158.5 Y96.186 E85.77253
G1 X156.703 Y96.469 E85.84513
G1 X155.082 Y97.294 E85.91773
G1 X153.794 Y98.582 E85.99043
G1 X152.969 Y100.205 E86.0631
G1 F1800 E83.0631
G0 F9000 X153.624 Y100.416
G0 X155.886 Y98.402
G0 X157.001 Y97.833
G0 X160.11 Y97.047
G0 X159.528 Y98.832
G0 X160.11 Y80.335
G0 X160.11 Y82.21
G0 X179.71 Y82.11
G0 X179.71 Y82.79
G1 F1800 E86.0631
G1 X179.71 Y137.21 E88.23512
G1 X40.29 Y137.21 E93.79967
G1 X40.29 Y82.79 E95.97169
G1 X71.713 Y82.79 E97.22585
G1 X79.564 Y112.09 E98.43653
G1 X80.518 Y115.639 E98.58321
G1 X82.449 Y118.438 E98.71893
G1 X84.83 Y121.131 E98.8624
G1 X87.394 Y123.332 E98.99726
G1 X90.102 Y124.986 E99.12391
G1 X92.908 Y126.026 E99.24335
G1 X95.102 Y126.309 E99.33164
G1 X101.608 Y124.567 E99.60046
G1 X103.368 Y123.222 E99.68887
G1 X105.276 Y120.918 E99.80826
G1 X106.794 Y118.133 E99.93486
G1 X107.915 Y114.945 E100.06973
G1 X108.628 Y111.423 E100.21316
G1 X108.935 Y107.651 E100.3642
G1 X108.887 Y105.65 E100.44409
G1 X102.762 Y82.79 E101.38866
G1 X179.71 Y82.79 E104.45983
G1 F1800 E101.45983
G0 F9000 X179.71 Y82.11
G0 X101.975 Y82.186
G0 X107.54 Y105.844
G0 X107.584 Y107.614
G0 X107.288 Y111.233
G0 X106.608 Y114.583
G0 X105.555 Y117.583
G0 X104.152 Y120.158
G0 X102.425 Y122.242
G0 X101 Y123.33
G0 X95.01 Y124.934
G0 X93.233 Y124.705
G0 X90.693 Y123.763
G0 X88.191 Y122.235
G0 X85.779 Y120.165
G0 X83.515 Y117.604
G0 X81.761 Y115.064
G0 X76.47 Y98.299
G0 X78.279 Y97.814
G0 X60.671 Y100.986
G0 X62.502 Y100.694
G0 X62.627 Y102.008
G0 X63.316 Y102.012
G1 F1800 E104.45983
G1 X63.094 Y100.599 E104.51691
G1 X63.029 Y100.199 E104.53309
G1 X62.206 Y98.582 E104.6055
G1 X60.918 Y97.294 E104.6782
G1 X59.297 Y96.469 E104.7508
G1 X57.5 Y96.186 E104.82341
G1 X55.703 Y96.469 E104.89601
G1 X54.082 Y97.294 E104.96861
G1 X52.794 Y98.582 E105.04131
G1 X51.969 Y100.203 E105.1139
G1 X51.686 Y102 E105.18651
G1 X51.969 Y103.797 E105.25911
G1 X52.794 Y105.418 E105.33171
G1 X54.082 Y106.706 E105.40441
G1 X55.705 Y107.531 E105.47707
G1 X57.085 Y107.747 E105.53282
G1 X57.488 Y107.816 E105.54914
G1 X58.901 Y107.594 E105.60623
G1 X59.301 Y107.529 E105.6224
G1 X60.918 Y106.706 E105.69482
G1 X62.206 Y105.418 E105.76752
G1 X63.031 Y103.795 E105.84019
G1 X63.247 Y102.415 E105.89594
G1 X63.316 Y102.012 E105.91226
G1 F1800 E102.91226
G0 F9000 X62.627 Y102.008
G0 X61.098 Y104.614
G0 X59.112 Y106.952
G0 X58.525 Y105.17
G0 X59.112 Y139.665
G0 X59.112 Y137.79
G0 X40.882 Y137.89
G0 X40.882 Y137.049
G1 F1800 E105.91226
G1 X40.449 Y136.615 E105.93672
G0 F9000 X40.449 Y136.05
G1 F1800 X41.448 Y137.049 E105.99311
G0 F9000 X42.014 Y137.049
G1 F1800 X40.449 Y135.484 E106.08145
G0 F9000 X40.449 Y134.918
G1 F1800 X42.579 Y137.049 E106.2017
G0 F9000 X43.145 Y137.049
G1 F1800 X40.449 Y134.353 E106.35388
G0 F9000 X40.449 Y133.787
G1 F1800 X43.711 Y137.049 E106.538
G0 F9000 X44.276 Y137.049
G1 F1800 X40.449 Y133.221 E106.75404
G0 F9000 X40.449 Y132.656
G1 F1800 X44.842 Y137.049 E107.002
G0 F9000 X45.408 Y137.049
G1 F1800 X40.449 Y132.09 E107.28191
G0 F9000 X40.449 Y131.524
G1 F1800 X45.973 Y137.049 E107.59373
G0 F9000 X46.539 Y137.049
G1 F1800 X40.449 Y130.959 E107.93748
G0 F9000 X40.449 Y130.393
G1 F1800 X47.105 Y137.049 E108.31317
G0 F9000 X47.671 Y137.049
G1 F1800 X40.449 Y129.827 E108.72081
G0 F9000 X40.449 Y129.261
G1 F1800 X48.236 Y137.049 E109.16037
G0 F9000 X48.802 Y137.049
G1 F1800 X40.449 Y128.696 E109.63185
G0 F9000 X40.449 Y128.13
G1 F1800 X49.368 Y137.049 E110.13528
G0 F9000 X49.933 Y137.049
G1 F1800 X40.449 Y127.564 E110.67062
G0 F9000 X40.449 Y126.999
G1 F1800 X50.499 Y137.049 E111.23789
G0 F9000 X51.065 Y137.049
G1 F1800 X40.449 Y126.433 E111.8371
G0 F9000 X40.449 Y125.867
G1 F1800 X51.63 Y137.049 E112.46824
G0 F9000 X52.196 Y137.049
G1 F1800 X40.449 Y125.302 E113.13129
G0 F9000 X40.449 Y124.736
G1 F1800 X52.762 Y137.049 E113.82629
G0 F9000 X53.327 Y137.049
G1 F1800 X40.449 Y124.17 E114.5532
G0 F9000 X40.449 Y123.605
G1 F1800 X53.893 Y137.049 E115.31204
G0 F9000 X54.459 Y137.049
G1 F1800 X40.449 Y123.039 E116.10283
G0 F9000 X40.449 Y122.473
G1 F1800 X55.024 Y137.049 E116.92553
G0 F9000 X55.59 Y137.049
G1 F1800 X40.449 Y121.908 E117.78015
G0 F9000 X40.449 Y121.342
G1 F1800 X56.156 Y137.049 E118.66672
G0 F9000 X56.721 Y137.049
G1 F1800 X40.449 Y120.776 E119.58521
G0 F9000 X40.449 Y120.21
