;FLAVOR:Marlin
;TIME:384
;Filament used: 0.347775m
;Layer height: 0.24
;MINX:100.781
;MINY:102.8
;MINZ:0.24
;MAXX:119.879
;MAXY:117.2
;MAXZ:9.64
;Generated with Cura_SteamEngine 4.5.0
M140 S50
M105
M190 S50
M104 S230
M105
M109 S230
M82 ;absolute extrusion mode
M201 X500.00 Y500.00 Z100.00 E5000.00 ;Setup machine max acceleration
M203 X500.00 Y500.00 Z10.00 E50.00 ;Setup machine max feedrate
M204 P500.00 R1000.00 T500.00 ;Setup Print/Retract/Travel acceleration
M205 X8.00 Y8.00 Z0.40 E5.00 ;Setup Jerk
M220 S100 ;Reset Feedrate
M221 S100 ;Reset Flowrate

G28 ;Home

G92 E0 ;Reset Extruder
G1 Z2.0 F3000 ;Move Z Axis up
G1 X10.1 Y20 Z0.28 F5000.0 ;Move to start position
G1 X10.1 Y200.0 Z0.28 F1500.0 E15 ;Draw the first line
G1 X10.4 Y200.0 Z0.28 F5000.0 ;Move to side a little
G1 X10.4 Y20 Z0.28 F1500.0 E30 ;Draw the second line
G92 E0 ;Reset Extruder
G1 Z2.0 F3000 ;Move Z Axis up

G92 E0
G92 E0
G1 F1800 E-3
;LAYER_COUNT:50
;LAYER:0
M107
;MESH:HauntedHouse_Wall_Support_x8.stl
G0 F9000 X101.981 Y116 Z0.24
;TYPE:WALL-INNER
G1 F1800 E0
G1 F1200 X101.981 Y104 E0.71842
G1 X118.5 Y104 E1.70738
G1 X118.5 Y116 E2.4258
G1 X101.981 Y116 E3.41476
G0 F9000 X101.381 Y116.6
G1 F1200 X101.381 Y103.4 E4.20503
G1 X119.1 Y103.4 E5.26583
G1 X119.1 Y116.6 E6.05609
G1 X101.381 Y116.6 E7.1169
G0 F9000 X100.781 Y117.2
;TYPE:WALL-OUTER
G1 F1200 X100.781 Y102.8 E7.979
G1 X119.7 Y102.8 E9.11165
G1 X119.7 Y117.2 E9.97375
G1 X100.781 Y117.2 E11.1064
G0 F9000 X101.151 Y116.83
G0 X102.191 Y115.41
G0 X102.571 Y115.41
;TYPE:SKIN
G1 F1200 X102.571 Y104.59 E11.75417
G1 X117.91 Y104.59 E12.67249
G1 X117.91 Y115.41 E13.32027
G1 X102.571 Y115.41 E14.23858
G0 F9000 X103.289 Y115.169
G1 F1200 X102.81 Y114.689 E14.27918
G0 F9000 X102.81 Y113.841
G1 F1200 X104.138 Y115.169 E14.39162
G0 F9000 X104.986 Y115.169
G1 F1200 X102.81 Y112.992 E14.5759
G0 F9000 X102.81 Y112.144
G1 F1200 X105.835 Y115.169 E14.83201
G0 F9000 X106.684 Y115.169
G1 F1200 X102.81 Y111.295 E15.16001
G0 F9000 X102.81 Y110.447
G1 F1200 X107.532 Y115.169 E15.5598
G0 F9000 X108.381 Y115.169
G1 F1200 X102.81 Y109.598 E16.03148
G0 F9000 X102.81 Y108.75
G1 F1200 X109.229 Y115.169 E16.57496
G0 F9000 X110.078 Y115.169
G1 F1200 X102.81 Y107.901 E17.19031
G0 F9000 X102.81 Y107.053
G1 F1200 X110.926 Y115.169 E17.87746
G0 F9000 X111.775 Y115.169
G1 F1200 X102.81 Y106.204 E18.6365
G0 F9000 X102.81 Y105.356
G1 F1200 X112.623 Y115.169 E19.46733
G0 F9000 X113.472 Y115.169
G1 F1200 X103.132 Y104.829 E20.34278
G0 F9000 X103.981 Y104.829
G1 F1200 X114.32 Y115.169 E21.21819
G0 F9000 X115.169 Y115.169
G1 F1200 X104.829 Y104.829 E22.09364
G0 F9000 X105.678 Y104.829
G1 F1200 X116.017 Y115.169 E22.96905
G0 F9000 X116.866 Y115.169
G1 F1200 X106.527 Y104.829 E23.84446
G0 F9000 X107.375 Y104.829
G1 F1200 X117.669 Y115.124 E24.71606
G0 F9000 X117.669 Y114.275
G1 F1200 X108.224 Y104.829 E25.51578
G0 F9000 X109.072 Y104.829
G1 F1200 X117.669 Y113.426 E26.24366
G0 F9000 X117.669 Y112.578
G1 F1200 X109.921 Y104.829 E26.89969
G0 F9000 X110.769 Y104.829
G1 F1200 X117.669 Y111.729 E27.48389
G0 F9000 X117.669 Y110.881
G1 F1200 X111.618 Y104.829 E27.99625
G0 F9000 X112.466 Y104.829
G1 F1200 X117.669 Y110.032 E28.43677
G0 F9000 X117.669 Y109.184
G1 F1200 X113.315 Y104.829 E28.80545
G0 F9000 X114.163 Y104.829
G1 F1200 X117.669 Y108.335 E29.10229
G0 F9000 X117.669 Y107.487
G1 F1200 X115.012 Y104.829 E29.32729
G0 F9000 X115.86 Y104.829
G1 F1200 X117.669 Y106.638 E29.48046
G0 F9000 X117.669 Y105.79
G1 F1200 X116.709 Y104.829 E29.56178
G0 F9000 X117.557 Y104.829
G1 F1200 X117.669 Y104.941 E29.57126
G0 F9000 X118.79 Y104.941
;MESH:NONMESH
G0 F300 X118.79 Y104.941 Z0.44
G0 F9000 X118.218 Y115.718
G0 X102.38 Y116
;TIME_ELAPSED:32.963413
;LAYER:1
M140 S40
M106 S31.9
;TYPE:WALL-INNER
;MESH:HauntedHouse_Wall_Support_x8.stl
G1 F1200 X102.38 Y115.701 E29.58618
G1 X102.381 Y104 E30.16994
G1 X118.5 Y104 E30.97412
G1 X118.5 Y116 E31.57281
G1 X102.679 Y116 E32.36212
G1 X102.38 Y116 E32.37177
G0 F9000 X102.079 Y116.6
G1 F1200 X101.78 Y116.6 E32.38669
G1 X101.78 Y116.301 E32.39634
G1 X101.781 Y103.4 E33.03998
G1 X119.1 Y103.4 E33.90403
G1 X119.1 Y116.6 E34.56258
G1 X102.079 Y116.6 E35.41176
G0 F9000 X101.55 Y116.83
G0 X101.181 Y117.2
;TYPE:WALL-OUTER
G1 F1200 X101.18 Y116.84 E35.42972
G1 X101.181 Y102.8 E36.13018
G1 X119.7 Y102.8 E37.05409
G1 X119.7 Y117.2 E37.77251
G1 X101.181 Y117.2 E38.69643
G0 F9000 X101.55 Y116.83
G0 X102.591 Y115.409
G0 X102.97 Y115.41
;TYPE:SKIN
G1 F1200 X102.971 Y104.59 E39.23624
G1 X117.91 Y104.59 E39.98155
G1 X117.91 Y115.41 E40.52136
G1 X102.97 Y115.41 E41.26672
G0 F9000 X102.591 Y115.409
G0 X102.591 Y105.525
G0 X103.211 Y105.526
G1 F1200 X103.908 Y104.829 E41.3159
G0 F9000 X104.757 Y104.829
G1 F1200 X103.211 Y106.375 E41.42498
G0 F9000 X103.211 Y107.223
G1 F1200 X105.605 Y104.829 E41.59389
G0 F9000 X106.454 Y104.829
G1 F1200 X103.211 Y108.072 E41.8227
G0 F9000 X103.211 Y108.92
G1 F1200 X107.302 Y104.829 E42.11134
G0 F9000 X108.151 Y104.829
G1 F1200 X103.211 Y109.769 E42.45988
G0 F9000 X103.21 Y110.618
G1 F1200 X108.999 Y104.829 E42.86833
G0 F9000 X109.848 Y104.829
G1 F1200 X103.21 Y111.466 E43.33664
G0 F9000 X103.21 Y112.315
G1 F1200 X110.696 Y104.829 E43.86482
G0 F9000 X111.545 Y104.829
G1 F1200 X103.21 Y113.163 E44.45286
G0 F9000 X103.21 Y114.012
G1 F1200 X112.393 Y104.829 E45.10077
G0 F9000 X113.242 Y104.829
G1 F1200 X103.21 Y114.861 E45.80858
G0 F9000 X103.75 Y115.169
G1 F1200 X114.09 Y104.829 E46.53813
G0 F9000 X114.939 Y104.829
G1 F1200 X104.599 Y115.169 E47.26767
G0 F9000 X105.448 Y115.169
G1 F1200 X115.788 Y104.829 E47.99721
G0 F9000 X116.636 Y104.829
G1 F1200 X106.296 Y115.169 E48.72676
G0 F9000 X107.145 Y115.169
G1 F1200 X117.485 Y104.829 E49.4563
G0 F9000 X117.668 Y105.493
G1 F1200 X107.993 Y115.169 E50.13896
G0 F9000 X108.842 Y115.169
G1 F1200 X117.668 Y106.342 E50.76171
G0 F9000 X117.668 Y107.191
G1 F1200 X109.69 Y115.169 E51.32461
G0 F9000 X110.538 Y115.17
G1 F1200 X117.668 Y108.039 E51.8277
G0 F9000 X117.668 Y108.888
G1 F1200 X111.386 Y115.17 E52.27093
G0 F9000 X112.235 Y115.17
G1 F1200 X117.668 Y109.736 E52.65429
G0 F9000 X117.668 Y110.585
G1 F1200 X113.084 Y115.17 E52.97775
G0 F9000 X113.932 Y115.17
G1 F1200 X117.668 Y111.433 E53.24138
G0 F9000 X117.668 Y112.282
G1 F1200 X114.781 Y115.17 E53.44511
G0 F9000 X115.629 Y115.17
G1 F1200 X117.668 Y113.13 E53.58901
G0 F9000 X117.668 Y113.979
G1 F1200 X116.478 Y115.17 E53.67301
G0 F9000 X117.326 Y115.17
G1 F1200 X117.668 Y114.827 E53.69717
G0 F9000 X118.79 Y114.827
;MESH:NONMESH
G0 F300 X118.79 Y114.827 Z0.64
G0 F9000 X118.218 Y115.718
G0 X102.78 Y116
;TIME_ELAPSED:61.030794
;LAYER:2
M106 S63.8
;TYPE:WALL-INNER
;MESH:HauntedHouse_Wall_Support_x8.stl
G1 F1200 X102.78 Y115.701 E53.71209
G1 X102.781 Y104 E54.29585
G1 X118.5 Y104 E55.08008
G1 X118.5 Y116 E55.67876
G1 X103.079 Y116 E56.44812
G1 X102.78 Y116 E56.45777
G0 F9000 X102.18 Y116.27
G1 F1200 X102.181 Y103.4 E57.09986
G1 X119.1 Y103.4 E57.94395
G1 X119.1 Y116.6 E58.6025
G1 X102.449 Y116.6 E59.43322
G1 X102.18 Y116.6 E59.44664
G1 X102.18 Y116.539 E59.44969
G1 X102.18 Y116.27 E59.45885
G0 F9000 X101.951 Y116.83
G0 X101.581 Y117.2
;TYPE:WALL-OUTER
G1 F1200 X101.58 Y116.54 E59.49178
G1 X101.581 Y102.8 E60.17727
G1 X119.7 Y102.8 E61.08123
G1 X119.7 Y117.2 E61.79965
G1 X101.581 Y117.2 E62.70361
G0 F9000 X101.951 Y116.83
G0 X102.991 Y115.409
G0 X103.37 Y115.41
;TYPE:SKIN
G1 F1200 X103.371 Y104.59 E63.24342
G1 X117.91 Y104.59 E63.96878
G1 X117.91 Y115.41 E64.50859
G1 X103.37 Y115.41 E65.23399
G0 F9000 X104.138 Y115.169
G1 F1200 X103.609 Y114.64 E65.27131
G0 F9000 X103.609 Y113.791
G1 F1200 X104.986 Y115.169 E65.3685
G0 F9000 X105.835 Y115.169
G1 F1200 X103.609 Y112.943 E65.52556
G0 F9000 X103.609 Y112.094
G1 F1200 X106.684 Y115.169 E65.74252
G0 F9000 X107.532 Y115.169
G1 F1200 X103.61 Y111.246 E66.01927
G0 F9000 X103.61 Y110.398
G1 F1200 X108.381 Y115.169 E66.35589
G0 F9000 X109.229 Y115.169
G1 F1200 X103.61 Y109.549 E66.75238
G0 F9000 X103.61 Y108.701
G1 F1200 X110.078 Y115.169 E67.20873
G0 F9000 X110.926 Y115.169
G1 F1200 X103.61 Y107.853 E67.72491
G0 F9000 X103.61 Y107.005
G1 F1200 X111.775 Y115.169 E68.30096
G0 F9000 X112.623 Y115.169
G1 F1200 X103.61 Y106.156 E68.93688
G0 F9000 X103.61 Y105.307
G1 F1200 X113.472 Y115.169 E69.6327
G0 F9000 X114.32 Y115.169
G1 F1200 X103.981 Y104.829 E70.3622
G0 F9000 X104.829 Y104.829
G1 F1200 X115.169 Y115.169 E71.09175
G0 F9000 X116.017 Y115.169
G1 F1200 X105.678 Y104.829 E71.82125
G0 F9000 X106.527 Y104.829
G1 F1200 X116.866 Y115.169 E72.55076
G0 F9000 X117.669 Y115.124
G1 F1200 X107.375 Y104.829 E73.27709
G0 F9000 X108.224 Y104.829
G1 F1200 X117.669 Y114.275 E73.94353
G0 F9000 X117.669 Y113.426
G1 F1200 X109.072 Y104.829 E74.55009
G0 F9000 X109.921 Y104.829
G1 F1200 X117.669 Y112.578 E75.09679
G0 F9000 X117.669 Y111.729
G1 F1200 X110.769 Y104.829 E75.58362
G0 F9000 X111.618 Y104.829
G1 F1200 X117.669 Y110.881 E76.01059
G0 F9000 X117.669 Y110.032
G1 F1200 X112.466 Y104.829 E76.37769
G0 F9000 X113.315 Y104.829
G1 F1200 X117.669 Y109.184 E76.68492
G0 F9000 X117.669 Y108.335
G1 F1200 X114.163 Y104.829 E76.93229
G0 F9000 X115.012 Y104.829
G1 F1200 X117.669 Y107.487 E77.11979
G0 F9000 X117.669 Y106.638
G1 F1200 X115.86 Y104.829 E77.24742
G0 F9000 X116.709 Y104.829
G1 F1200 X117.669 Y105.79 E77.31519
G0 F9000 X117.669 Y104.941
G1 F1200 X117.557 Y104.829 E77.32309
G0 F9000 X117.557 Y103.71
;MESH:NONMESH
G0 F300 X117.557 Y103.71 Z0.84
G0 F9000 X103.063 Y104.282
G0 X103.062 Y115.718
G0 X103.18 Y116
;TIME_ELAPSED:88.550353
;LAYER:3
M106 S95.6
;TYPE:WALL-INNER
;MESH:HauntedHouse_Wall_Support_x8.stl
G1 F1200 X103.18 Y115.701 E77.33801
G1 X103.181 Y104 E77.92178
G1 X118.5 Y104 E78.68604
G1 X118.5 Y116 E79.28473
G1 X103.479 Y116 E80.03413
G1 X103.18 Y116 E80.04378
G0 F9000 X102.58 Y116.12
G1 F1200 X102.581 Y103.4 E80.67839
G1 X119.1 Y103.4 E81.50252
G1 X119.1 Y116.6 E82.16107
G1 X102.699 Y116.6 E82.97932
G1 X102.58 Y116.6 E82.98526
G1 X102.58 Y116.239 E83.00327
G1 X102.58 Y116.12 E83.00837
G0 F9000 X102.351 Y116.83
G0 X101.981 Y117.2
;TYPE:WALL-OUTER
G1 F1200 X101.98 Y116.24 E83.05627
G1 X101.981 Y102.8 E83.72679
G1 X119.7 Y102.8 E84.6108
G1 X119.7 Y117.2 E85.32922
G1 X101.981 Y117.2 E86.21322
G0 F9000 X102.881 Y116.477
;MESH:NONMESH
G0 F300 X102.881 Y116.477 Z1.04
G0 F9000 X103.58 Y116
;TIME_ELAPSED:98.046649
;LAYER:4
M106 S127.5
;TYPE:WALL-INNER
;MESH:HauntedHouse_Wall_Support_x8.stl
G1 F1200 X103.58 Y115.939 E86.21626
G1 X103.58 Y115.67 E86.22968
G1 X103.581 Y104 E86.8119
G1 X118.5 Y104 E87.55621
G1 X118.5 Y116 E88.1549
G1 X103.849 Y116 E88.88584
G1 X103.58 Y116 E88.895
G0 F9000 X102.98 Y115.94
G1 F1200 X102.981 Y103.4 E89.52062
G1 X119.1 Y103.4 E90.3248
G1 X119.1 Y116.6 E90.98336
G1 X102.981 Y116.6 E91.78754
G1 X102.98 Y115.94 E91.82046
G0 F9000 X102.751 Y116.83
G0 X102.381 Y117.2
;TYPE:WALL-OUTER
G1 F1200 X102.38 Y115.94 E91.88333
G1 X102.381 Y102.8 E92.53888
G1 X119.7 Y102.8 E93.40293
G1 X119.7 Y117.2 E94.12135
G1 X102.381 Y117.2 E94.9854
G0 F9000 X103.105 Y116.3
;MESH:NONMESH
G0 F300 X103.105 Y116.3 Z1.24
G0 F9000 X103.98 Y116
;TIME_ELAPSED:107.434290
;LAYER:5
M106 S159.4
;TYPE:WALL-INNER
;MESH:HauntedHouse_Wall_Support_x8.stl
G1 F1200 X103.98 Y115.639 E95.00341
G1 X103.98 Y115.52 E95.00935
G1 X103.981 Y104 E95.58408
G1 X118.5 Y104 E96.30844
G1 X118.5 Y116 E96.90712
G1 X104.099 Y116 E97.62559
G1 X103.98 Y116 E97.63069
G0 F9000 X103.38 Y115.64
G1 F1200 X103.381 Y103.4 E98.24135
G1 X119.1 Y103.4 E99.02557
G1 X119.1 Y116.6 E99.68412
G1 X103.381 Y116.6 E100.46835
G1 X103.38 Y115.64 E100.51624
G1 F1800 E97.51624
G0 F9000 X103.151 Y116.83
G0 X102.781 Y117.2
;TYPE:WALL-OUTER
G1 F1800 E100.51624
G1 F1200 X102.78 Y115.64 E100.59407
G1 X102.781 Y102.8 E101.23466
G1 X119.7 Y102.8 E102.07875
G1 X119.7 Y117.2 E102.79717
G1 X102.781 Y117.2 E103.64126
G0 F9000 X103.505 Y116.3
;MESH:NONMESH
G0 F300 X103.505 Y116.3 Z1.44
G0 F9000 X104.381 Y116
;TIME_ELAPSED:116.995793
;LAYER:6
M106 S191.3
;TYPE:WALL-INNER
;MESH:HauntedHouse_Wall_Support_x8.stl
G1 F1200 X104.38 Y115.34 E103.67419
G1 X104.381 Y104 E104.23995
G1 X118.5 Y104 E104.94435
G1 X118.5 Y116 E105.54303
G1 X104.381 Y116 E106.24743
G0 F9000 X103.781 Y116.6
G1 F1200 X103.78 Y115.34 E106.31029
G1 X103.781 Y103.4 E106.90598
G1 X119.1 Y103.4 E107.67025
G1 X119.1 Y116.6 E108.3288
G1 X103.781 Y116.6 E109.09307
G0 F9000 X103.181 Y117.2
;TYPE:WALL-OUTER
G1 F1200 X103.18 Y115.34 E109.18586
G1 X103.181 Y102.8 E109.81148
G1 X119.7 Y102.8 E110.63562
G1 X119.7 Y117.2 E111.35404
G1 X103.181 Y117.2 E112.17818
G0 F9000 X103.905 Y116.3
;MESH:NONMESH
G0 F300 X103.905 Y116.3 Z1.64
G0 F9000 X104.781 Y116
;TIME_ELAPSED:126.109348
;LAYER:7
M106 S223.1
;TYPE:WALL-INNER
;MESH:HauntedHouse_Wall_Support_x8.stl
G1 F1200 X104.78 Y115.04 E112.22607
G1 X104.781 Y104 E112.77686
G1 X118.5 Y104 E113.4613
G1 X118.5 Y116 E114.05998
G1 X104.781 Y116 E114.74443
G0 F9000 X104.181 Y116.6
G1 F1200 X104.18 Y115.04 E114.82226
G1 X104.181 Y103.4 E115.40298
G1 X119.1 Y103.4 E116.14729
G1 X119.1 Y116.6 E116.80584
G1 X104.181 Y116.6 E117.55015
G0 F9000 X103.581 Y117.2
;TYPE:WALL-OUTER
G1 F1200 X103.58 Y115.04 E117.65792
G1 X103.581 Y102.8 E118.26857
G1 X119.7 Y102.8 E119.07275
G1 X119.7 Y117.2 E119.79117
G1 X103.581 Y117.2 E120.59535
G0 F9000 X104.305 Y116.3
;MESH:NONMESH
G0 F300 X104.305 Y116.3 Z1.84
G0 F9000 X105.181 Y116
;TIME_ELAPSED:135.102903
;LAYER:8
M106 S255
;TYPE:WALL-INNER
;MESH:HauntedHouse_Wall_Support_x8.stl
G1 F1200 X105.18 Y114.74 E120.65821
G1 X105.181 Y104 E121.19403
G1 X118.5 Y104 E121.85852
G1 X118.5 Y116 E122.4572
G1 X105.181 Y116 E123.12169
G0 F9000 X104.581 Y116.6
G1 F1200 X104.58 Y114.74 E123.21449
G1 X104.581 Y103.4 E123.78024
G1 X119.1 Y103.4 E124.5046
G1 X119.1 Y116.6 E125.16315
G1 X104.581 Y116.6 E125.88751
G0 F9000 X103.981 Y117.2
;TYPE:WALL-OUTER
G1 F1200 X103.98 Y114.74 E126.01024
G1 X103.981 Y102.8 E126.60592
G1 X119.7 Y102.8 E127.39015
G1 X119.7 Y117.2 E128.10857
G1 X103.981 Y117.2 E128.89279
G0 F9000 X104.705 Y116.3
;MESH:NONMESH
G0 F300 X104.705 Y116.3 Z2.04
G0 F9000 X105.581 Y116
;TIME_ELAPSED:143.976458
;LAYER:9
;TYPE:WALL-INNER
;MESH:HauntedHouse_Wall_Support_x8.stl
G1 F1200 X105.58 Y114.44 E128.97062
G1 X105.581 Y104 E129.49147
G1 X118.5 Y104 E130.13601
G1 X118.5 Y116 E130.73469
G1 X105.581 Y116 E131.37922
G0 F9000 X104.981 Y116.6
G1 F1200 X104.98 Y114.44 E131.48698
G1 X104.981 Y103.4 E132.03777
G1 X119.1 Y103.4 E132.74217
G1 X119.1 Y116.6 E133.40072
G1 X104.981 Y116.6 E134.10512
G0 F9000 X104.381 Y117.2
;TYPE:WALL-OUTER
G1 F1200 X104.38 Y114.44 E134.24282
G1 X104.381 Y102.8 E134.82354
G1 X119.7 Y102.8 E135.58781
G1 X119.7 Y117.2 E136.30623
G1 X104.381 Y117.2 E137.07049
G0 F9000 X105.105 Y116.3
;MESH:NONMESH
G0 F300 X105.105 Y116.3 Z2.24
G0 F9000 X105.981 Y116
;TIME_ELAPSED:152.730013
;LAYER:10
;TYPE:WALL-INNER
;MESH:HauntedHouse_Wall_Support_x8.stl
G1 F1200 X105.98 Y114.14 E137.16329
G1 X105.981 Y104 E137.66918
G1 X118.5 Y104 E138.29375
G1 X118.5 Y116 E138.89243
G1 X105.981 Y116 E139.51701
G0 F9000 X105.381 Y116.6
G1 F1200 X105.38 Y114.14 E139.63974
G1 X105.381 Y103.4 E140.17556
G1 X119.1 Y103.4 E140.86
G1 X119.1 Y116.6 E141.51855
G1 X105.381 Y116.6 E142.203
G0 F9000 X104.781 Y117.2
;TYPE:WALL-OUTER
G1 F1200 X104.78 Y114.14 E142.35566
G1 X104.781 Y102.8 E142.92142
G1 X119.7 Y102.8 E143.66573
G1 X119.7 Y117.2 E144.38415
G1 X104.781 Y117.2 E145.12846
G0 F9000 X105.505 Y116.3
;MESH:NONMESH
G0 F300 X105.505 Y116.3 Z2.44
G0 F9000 X106.381 Y116
;TIME_ELAPSED:161.363568
;LAYER:11
;TYPE:WALL-INNER
;MESH:HauntedHouse_Wall_Support_x8.stl
G1 F1200 X106.38 Y113.84 E145.23622
G1 X106.381 Y104 E145.72714
G1 X118.5 Y104 E146.33176
G1 X118.5 Y116 E146.93044
G1 X106.381 Y116 E147.53506
G0 F9000 X105.781 Y116.6
G1 F1200 X105.78 Y113.84 E147.67276
G1 X105.781 Y103.4 E148.19361
G1 X119.1 Y103.4 E148.8581
G1 X119.1 Y116.6 E149.51665
G1 X105.781 Y116.6 E150.18114
G0 F9000 X105.181 Y117.2
;TYPE:WALL-OUTER
G1 F1200 X105.18 Y113.84 E150.34877
G1 X105.181 Y102.8 E150.89956
G1 X119.7 Y102.8 E151.62392
G1 X119.7 Y117.2 E152.34233
G1 X105.181 Y117.2 E153.06669
G0 F9000 X105.905 Y116.3
;MESH:NONMESH
G0 F300 X105.905 Y116.3 Z2.64
G0 F9000 X106.78 Y116
