;FLAVOR:Marlin
;TIME:20159
;Filament used: 19.2077m
;Layer height: 0.2
;MINX:23.922
;MINY:4.217
;MINZ:0.24
;MAXX:195.883
;MAXY:215.548
;MAXZ:10.8
;Generated with Cura_SteamEngine 4.5.0
M140 S50
M105
M190 S50
M104 S215
M105
M109 S215
M82 ;absolute extrusion mode
M201 X500.00 Y500.00 Z100.00 E5000.00 ;Setup machine max acceleration
M203 X500.00 Y500.00 Z10.00 E50.00 ;Setup machine max feedrate
M204 P500.00 R1000.00 T500.00 ;Setup Print/Retract/Travel acceleration
M205 X8.00 Y8.00 Z0.40 E5.00 ;Setup Jerk
M220 S100 ;Reset Feedrate
M221 S100 ;Reset Flowrate

G28 ;Home

G92 E0 ;Reset Extruder
G1 Z2.0 F3000 ;Move Z Axis up
G1 X10.1 Y20 Z0.28 F5000.0 ;Move to start position
G1 X10.1 Y200.0 Z0.28 F1500.0 E15 ;Draw the first line
G1 X10.4 Y200.0 Z0.28 F5000.0 ;Move to side a little
G1 X10.4 Y20 Z0.28 F1500.0 E30 ;Draw the second line
G92 E0 ;Reset Extruder
G1 Z2.0 F3000 ;Move Z Axis up

G92 E0
G92 E0
G1 F1800 E-3
;LAYER_COUNT:69
;LAYER:0
M106 S63.8
M204 S500
M205 X6 Y6
G0 F9000 X158.433 Y204.445 Z0.24
;TYPE:SKIRT
G1 F1800 E0
G1 X159.371 Y204.444 E0.03744
G1 X159.921 Y204.404 E0.05945
G1 X160.459 Y204.284 E0.08145
G1 X160.522 Y204.262 E0.08411
G1 X161.67 Y204.446 E0.13052
G1 X162.711 Y204.446 E0.17206
G1 X162.53 Y205.324 E0.20784
G1 X162.523 Y205.551 E0.21691
G1 X161.461 Y207.381 E0.30136
G1 X160.561 Y207.578 E0.33813
G1 X159.666 Y207.382 E0.37469
G1 X158.616 Y205.579 E0.45797
G1 X158.501 Y204.709 E0.493
G1 X158.433 Y204.445 E0.50388
G0 F9000 X158.114 Y204.809
G1 F1800 X157.916 Y204.045 E0.53538
G1 X159.371 Y204.044 E0.59345
G1 X159.891 Y204.004 E0.61426
G1 X160.398 Y203.885 E0.63505
G1 X160.518 Y203.841 E0.64015
G1 X161.076 Y203.994 E0.66324
G1 X161.67 Y204.046 E0.68704
G1 X163.225 Y204.046 E0.74911
G1 X163.014 Y204.88 E0.78344
G1 X162.925 Y205.393 E0.80422
G1 X162.92 Y205.662 E0.81496
G1 X161.736 Y207.703 E0.90914
G1 X161.721 Y207.734 E0.91051
G1 X160.562 Y207.988 E0.95787
G1 X159.396 Y207.733 E1.0055
G1 X158.212 Y205.68 E1.10009
G1 X158.216 Y205.455 E1.10907
G1 X158.114 Y204.809 E1.13518
G0 F9000 X157.727 Y204.909
G1 F1800 X157.4 Y203.645 E1.18729
G1 X159.371 Y203.644 E1.26595
G1 X159.859 Y203.604 E1.2855
G1 X160.528 Y203.411 E1.31329
G1 X161.205 Y203.61 E1.34145
G1 X161.67 Y203.646 E1.36007
G1 X163.739 Y203.646 E1.44264
G1 X163.402 Y204.978 E1.49748
G1 X163.321 Y205.461 E1.51703
G1 X163.32 Y205.771 E1.5294
G1 X162.082 Y207.904 E1.62783
G1 X161.997 Y208.082 E1.63571
G1 X160.561 Y208.397 E1.69438
G1 X159.117 Y208.081 E1.75338
G1 X157.812 Y205.789 E1.85865
G1 X157.812 Y205.42 E1.87338
G1 X157.727 Y204.909 E1.89405
G0 F9000 X157.408 Y205.389
G1 F1800 X156.883 Y203.245 E1.98215
G1 X159.371 Y203.244 E2.08145
G1 X159.824 Y203.204 E2.0996
G1 X160.374 Y203.042 E2.12249
G1 X160.53 Y202.977 E2.12923
G1 X161.329 Y203.224 E2.16261
G1 X164.254 Y203.246 E2.27936
G1 X163.79 Y205.076 E2.35471
G1 X163.717 Y205.526 E2.3729
G1 X163.722 Y205.875 E2.38683
G1 X162.428 Y208.105 E2.48974
G1 X162.276 Y208.431 E2.50409
G1 X160.562 Y208.806 E2.57412
G1 X158.841 Y208.43 E2.64443
G1 X158.662 Y208.041 E2.66152
G1 X157.408 Y205.889 E2.76093
G1 X157.408 Y205.389 E2.78089
G0 F9000 X156.952 Y205.109
G1 F1800 X156.4 Y202.973 E2.86894
G1 X156.425 Y202.846 E2.87411
G1 X159.37 Y202.844 E2.99165
G1 X159.787 Y202.804 E3.00837
G1 X160.541 Y202.538 E3.04028
G1 X161.038 Y202.753 E3.06189
G1 X161.67 Y202.846 E3.08739
G1 X164.703 Y202.846 E3.20844
G1 X164.731 Y202.988 E3.21422
G1 X164.177 Y205.175 E3.30426
G1 X164.114 Y205.589 E3.32098
G1 X164.129 Y205.972 E3.33627
G1 X162.774 Y208.306 E3.44399
G1 X162.578 Y208.774 E3.46424
G1 X160.561 Y209.216 E3.54665
G1 X158.527 Y208.771 E3.62976
G1 X158.316 Y208.243 E3.65245
G1 X156.99 Y205.968 E3.75755
G1 X157.019 Y205.783 E3.76502
G1 X156.952 Y205.109 E3.79205
G0 F9000 X156.565 Y205.21
G1 F1800 X155.99 Y202.986 E3.88374
G1 X156.096 Y202.446 E3.9057
G1 X159.37 Y202.444 E4.03637
G1 X159.747 Y202.404 E4.05151
G1 X160.434 Y202.149 E4.08075
G1 X160.544 Y202.089 E4.08575
G1 X161.187 Y202.38 E4.11392
G1 X161.67 Y202.446 E4.13338
G1 X165.032 Y202.446 E4.26756
G1 X165.141 Y202.998 E4.29002
G1 X164.565 Y205.273 E4.38369
G1 X164.511 Y205.648 E4.39881
G1 X164.553 Y206.037 E4.41442
G1 X163.12 Y208.506 E4.52836
G1 X162.966 Y208.852 E4.54348
G1 X162.901 Y209.136 E4.55511
G1 X160.562 Y209.626 E4.65049
G1 X158.415 Y209.156 E4.73821
G1 X158.204 Y209.132 E4.74668
G1 X158.09 Y208.69 E4.7649
G1 X156.575 Y206.05 E4.88639
G1 X156.621 Y205.724 E4.89953
G1 X156.565 Y205.21 E4.92016
G0 F9000 X156.177 Y205.31
G1 F1800 X155.58 Y202.999 E5.01543
G1 X155.724 Y202.261 E5.04544
G1 X155.739 Y202.029 E5.05472
G1 X159.37 Y202.044 E5.19964
G1 X159.701 Y202.004 E5.21295
G1 X160.28 Y201.78 E5.23773
G1 X160.545 Y201.629 E5.2499
G1 X161.333 Y202.005 E5.28475
G1 X161.67 Y202.046 E5.2983
G1 X165.179 Y202.046 E5.43835
G1 X165.391 Y202.02 E5.44687
G1 X165.409 Y202.294 E5.45783
G1 X165.551 Y203.01 E5.48697
G1 X164.953 Y205.371 E5.58417
G1 X164.91 Y205.702 E5.5975
G1 X164.968 Y206.119 E5.6143
G1 X163.466 Y208.707 E5.73373
G1 X163.334 Y209.014 E5.74707
G1 X163.247 Y209.531 E5.76799
G1 X162.796 Y209.545 E5.786
G1 X160.561 Y210.034 E5.87731
G1 X158.329 Y209.546 E5.9685
G1 X157.864 Y209.533 E5.98707
G1 X157.702 Y208.8 E6.01703
G1 X156.151 Y206.116 E6.14075
G1 X156.222 Y205.67 E6.15878
G1 X156.177 Y205.31 E6.17326
G0 F9000 X155.821 Y205.623
G1 F1800 X155.17 Y203.01 E6.28074
G1 X155.331 Y202.184 E6.31433
G1 X155.319 Y201.463 E6.34311
G1 X155.563 Y201.567 E6.35369
G1 X155.955 Y201.646 E6.36965
G1 X159.37 Y201.644 E6.50595
G1 X159.755 Y201.566 E6.52163
G1 X160.125 Y201.411 E6.53764
G1 X160.531 Y201.109 E6.55784
G1 X161.206 Y201.532 E6.58963
G1 X161.472 Y201.626 E6.60089
G1 X165.179 Y201.646 E6.74885
G1 X165.573 Y201.565 E6.7649
G1 X165.815 Y201.461 E6.77542
G1 X165.801 Y202.216 E6.80555
G1 X165.961 Y203.021 E6.83831
G1 X165.341 Y205.469 E6.9391
G1 X165.311 Y205.75 E6.95038
G1 X165.397 Y206.177 E6.96777
G1 X163.812 Y208.908 E7.09379
G1 X163.686 Y209.274 E7.10924
G1 X163.582 Y210.036 E7.13994
G1 X163.25 Y209.925 E7.15391
G1 X162.882 Y209.936 E7.1686
G1 X160.562 Y210.444 E7.26339
G1 X158.244 Y209.937 E7.3581
G1 X157.962 Y209.916 E7.36938
G1 X157.542 Y210.036 E7.38682
G1 X157.401 Y209.186 E7.42121
G1 X157.279 Y208.847 E7.43559
G1 X155.724 Y206.178 E7.55887
G1 X155.821 Y205.623 E7.58136
G0 F9000 X155.403 Y205.51
G1 F1800 X154.76 Y203.023 E7.68389
G1 X154.939 Y202.107 E7.72114
G1 X154.865 Y200.609 E7.781
G1 X155.144 Y200.901 E7.79712
G1 X155.343 Y201.038 E7.80676
G1 X155.72 Y201.198 E7.82311
G1 X155.954 Y201.246 E7.83264
G1 X159.369 Y201.244 E7.96894
G1 X159.601 Y201.197 E7.97839
G1 X159.971 Y201.042 E7.9944
G1 X160.167 Y200.91 E8.00383
G1 X160.563 Y200.508 E8.02635
G1 X160.968 Y200.956 E8.05046
G1 X161.392 Y201.178 E8.06956
G1 X161.67 Y201.246 E8.08098
G1 X165.179 Y201.246 E8.22103
G1 X165.415 Y201.198 E8.23064
G1 X165.791 Y201.037 E8.24697
G1 X165.989 Y200.899 E8.2566
G1 X166.269 Y200.605 E8.27281
G1 X166.183 Y201.983 E8.32791
G1 X166.371 Y203.029 E8.37033
G1 X165.728 Y205.568 E8.47486
G1 X165.729 Y205.865 E8.48672
G1 X165.831 Y206.262 E8.50308
G1 X164.158 Y209.109 E8.63488
G1 X164.083 Y209.328 E8.64411
G1 X163.949 Y210.306 E8.68351
G1 X163.886 Y210.415 E8.68854
G1 X163.59 Y210.483 E8.70066
G1 X163.139 Y210.315 E8.71987
G1 X160.562 Y210.854 E8.82495
G1 X158.158 Y210.328 E8.92317
G1 X157.94 Y210.321 E8.93187
G1 X157.533 Y210.479 E8.9493
G1 X157.247 Y210.415 E8.96099
G1 X157.181 Y210.302 E8.96622
G1 X157.007 Y209.252 E9.0087
G1 X156.933 Y209.048 E9.01736
G1 X155.378 Y206.379 E9.14064
G1 X155.287 Y206.273 E9.14622
G1 X155.404 Y205.806 E9.16544
G1 X155.403 Y205.51 E9.17725
G0 F9000 X155.016 Y205.709
G1 F1800 X154.35 Y203.033 E9.28731
G1 X154.546 Y202.03 E9.3281
G1 X154.385 Y199.347 E9.43538
G1 X154.903 Y200.068 E9.47081
G1 X155.433 Y200.624 E9.50147
G1 X155.876 Y200.83 E9.52097
G1 X159.369 Y200.844 E9.66038
G1 X159.816 Y200.673 E9.67949
G1 X160.49 Y200.011 E9.71719
G1 X160.573 Y199.844 E9.72463
G1 X161.085 Y200.542 E9.75918
G1 X161.577 Y200.823 E9.7818
G1 X165.179 Y200.846 E9.92557
G1 X165.634 Y200.669 E9.94505
G1 X166.223 Y200.075 E9.97844
G1 X166.749 Y199.343 E10.01441
G1 X166.582 Y202.008 E10.12099
G1 X166.781 Y203.041 E10.16298
G1 X166.116 Y205.666 E10.27106
G1 X166.292 Y206.446 E10.30297
G1 X166.089 Y206.579 E10.31266
G1 X164.504 Y209.31 E10.43868
G1 X164.334 Y210.438 E10.48421
G1 X164.171 Y210.722 E10.49728
G1 X164.021 Y210.795 E10.50394
G1 X163.542 Y210.901 E10.52352
G1 X163.181 Y210.732 E10.53943
G1 X163.053 Y210.718 E10.54457
G1 X160.562 Y211.264 E10.64635
G1 X158.073 Y210.719 E10.74805
G1 X157.948 Y210.731 E10.75306
G1 X157.578 Y210.899 E10.76928
G1 X157.092 Y210.791 E10.78915
G1 X156.964 Y210.727 E10.79486
G1 X156.798 Y210.438 E10.80816
G1 X156.612 Y209.317 E10.85351
G1 X155.033 Y206.58 E10.97963
G1 X154.83 Y206.449 E10.98927
G1 X155.016 Y205.709 E11.01972
G1 F1800 E8.01972
G0 F9000 X160.231 Y199.795
G0 X160.336 Y199.529
G0 X160.556 Y197.542
G1 F1800 E11.01972
G1 X160.149 Y196.964 E11.04794
G1 X159.477 Y196.487 E11.08083
G1 X159.103 Y195.939 E11.10731
G1 X159.009 Y195.646 E11.11959
G1 X158.981 Y195.348 E11.13154
G1 X159.066 Y194.882 E11.15044
G1 X162.056 Y194.882 E11.26978
G1 X162.152 Y195.34 E11.28846
G1 X162.119 Y195.663 E11.30142
G1 X162.037 Y195.928 E11.31249
G1 X161.835 Y196.275 E11.32851
G1 X161.544 Y196.576 E11.34522
G1 X161.053 Y196.891 E11.36851
G1 X160.858 Y197.166 E11.38196
G1 X160.631 Y197.379 E11.39439
G1 X160.556 Y197.542 E11.40155
G0 F9000 X160.572 Y196.87
G1 F1800 X160.303 Y196.57 E11.41763
G1 X159.766 Y196.202 E11.44361
G1 X159.467 Y195.762 E11.46484
G1 X159.383 Y195.35 E11.48163
G1 X159.389 Y195.282 E11.48435
G1 X161.745 Y195.282 E11.57838
G1 X161.667 Y195.769 E11.59807
G1 X161.514 Y196.032 E11.61021
G1 X161.291 Y196.262 E11.623
G1 X160.837 Y196.554 E11.64454
G1 X160.572 Y196.87 E11.661
G0 F9000 X160.558 Y196.272
G1 F1800 X160.059 Y195.921 E11.68535
G1 X159.897 Y195.682 E11.69688
G1 X161.255 Y195.682 E11.75108
G1 X161.035 Y195.951 E11.76495
G1 X160.558 Y196.272 E11.7879
G1 F1800 E8.7879
G0 F9000 X160.113 Y203.95
G0 X160.446 Y204.746
;TYPE:SUPPORT
G1 F1800 E11.7879
G1 X160.637 Y204.846 E11.7965
G1 X162.197 Y204.846 E11.85876
G1 X161.987 Y205.678 E11.89301
G1 X161.203 Y207.029 E11.95535
G1 X160.563 Y207.169 E11.9815
G1 X159.924 Y207.029 E12.00761
G1 X159.145 Y205.691 E12.06941
G1 X159.156 Y205.647 E12.07122
G1 X158.949 Y204.845 E12.10427
G1 X160.214 Y204.844 E12.15476
G1 X160.446 Y204.746 E12.16481
G0 F9000 X160.428 Y205.188
G1 F1800 X160.539 Y205.246 E12.16981
G1 X161.683 Y205.246 E12.21547
G1 X161.613 Y205.526 E12.22699
G1 X160.945 Y206.676 E12.28007
G1 X160.564 Y206.759 E12.29564
G1 X160.181 Y206.676 E12.31128
G1 X159.559 Y205.607 E12.36064
G1 X159.465 Y205.245 E12.37557
G1 X160.295 Y205.244 E12.40869
G1 X160.428 Y205.188 E12.41445
G0 F9000 X160 Y205.324
G1 F1800 X160 Y206.205 E12.44962
G1 F1800 E9.44962
;MESH:HauntedHouse_Front.stl
G0 F9000 X158.838 Y206.883
G0 X68.768 Y205.934
G0 X67.862 Y205.553
G0 X65.973 Y209.965
G0 X65.966 Y210.367
;TYPE:WALL-OUTER
G1 F1800 E12.44962
G1 X39.767 Y148.082 E15.14651
G1 X45.166 Y148.082 E15.362
G1 X45.169 Y145.984 E15.44573
G1 X45.169 Y125.78 E16.25212
G1 X32.846 Y125.78 E16.74396
G1 X32.139 Y122.95 E16.86038
G1 X23.922 Y90.082 E18.21259
G1 X33.666 Y90.082 E18.60149
G1 X33.666 Y5.082 E21.99402
G1 X188.266 Y5.082 E28.16444
G1 X188.266 Y93.306 E31.68565
G1 X195.882 Y97.114 E32.0255
G1 X195.714 Y97.196 E32.03297
G1 X193.916 Y98.44 E32.12023
G1 X192.096 Y100.091 E32.2183
G1 X190.241 Y102.242 E32.33167
G1 X188.794 Y104.374 E32.43451
G1 X187.23 Y107.171 E32.56241
G1 X186.06 Y109.797 E32.67715
G1 X184.945 Y112.864 E32.8074
G1 X184.011 Y116.125 E32.94279
G1 X183.27 Y119.546 E33.0825
G1 X182.729 Y123.088 E33.2255
G1 X182.396 Y126.71 E33.37068
G1 X182.274 Y130.375 E33.51704
G1 X182.273 Y130.987 E33.54146
G1 X182.369 Y134.353 E33.67586
G1 X182.659 Y137.682 E33.80923
G1 X174.266 Y137.682 E34.14421
G1 X174.266 Y149.017 E34.59662
G1 X183.214 Y152.597 E34.98128
G1 X181.737 Y154.771 E35.08618
G1 X180.264 Y157.431 E35.20753
G1 X178.929 Y160.368 E35.3363
G1 X177.744 Y163.549 E35.47178
G1 X177.561 Y164.102 E35.49503
G1 X176.632 Y167.238 E35.62557
G1 X175.86 Y170.543 E35.76103
G1 X175.183 Y174.284 E35.91277
G1 X174.689 Y178.14 E36.06793
G1 X174.385 Y182.075 E36.22545
G1 X174.307 Y184.612 E36.32675
G1 X174.27 Y184.862 E36.33684
G1 X174.266 Y187.563 E36.44464
G1 X146.666 Y187.563 E37.54622
G1 X146.666 Y184.976 E37.64947
G1 X146.631 Y184.808 E37.65632
G1 X146.578 Y182.604 E37.74431
G1 X146.308 Y178.786 E37.89708
G1 X145.845 Y174.915 E38.05268
G1 X145.198 Y171.153 E38.20503
G1 X144.371 Y167.539 E38.353
G1 X144.217 Y166.953 E38.37719
G1 X143.287 Y163.817 E38.50774
G1 X142.212 Y160.878 E38.63264
G1 X140.901 Y157.901 E38.76247
G1 X140.667 Y157.43 E38.78346
G1 X139.326 Y154.97 E38.89529
G1 X137.873 Y152.787 E38.99995
G1 X137.728 Y152.592 E39.00965
G1 X146.666 Y149.017 E39.39386
G1 X146.666 Y137.682 E39.84627
G1 X86.766 Y137.682 E42.237
G1 X86.766 Y148.082 E42.65209
G1 X92.165 Y148.082 E42.86758
G1 X67.972 Y205.599 E45.35801
G1 X65.966 Y210.367 E45.56447
G1 F1800 E42.56447
G0 F9000 X65.966 Y210.009
G0 X41.254 Y149.07
G0 X46.146 Y149.064
G0 X46.153 Y124.798
G0 X33.61 Y124.801
G0 X25.184 Y91.068
G0 X34.648 Y91.064
G0 X34.648 Y6.064
G0 X95.281 Y6.064
G0 X95.281 Y47.207
G0 X126.797 Y46.353
G0 X129.948 Y5.884
G0 X126.839 Y5.839
G0 X126.669 Y6.009
G1 F1800 E45.56447
G1 X126.669 Y5.82 E45.57201
G1 X96.263 Y5.82 E46.78558
G1 X96.263 Y46.225 E48.39823
G1 X126.669 Y46.225 E49.6118
G1 X126.669 Y37.402 E49.96395
G1 X129.809 Y6.01 E51.22312
G1 X126.669 Y6.009 E51.34845
G1 F1800 E48.34845
G0 F9000 X126.869 Y5.839
G0 X129.948 Y5.884
G0 X127.492 Y30.221
G0 X127.679 Y37.453
G0 X125.804 Y37.453
G0 X149.642 Y85.018
G0 X149.482 Y83.19
G0 X155.972 Y83.468
G0 X158.679 Y99.815
G0 X158.878 Y99.8
G1 F1800 E51.34845
G1 X159.804 Y99.718 E51.38555
G1 X168.071 Y98.995 E51.71676
G1 X166.642 Y82.663 E52.3711
G1 X157.449 Y83.467 E52.73941
G1 X158.878 Y99.8 E53.39379
G0 F9000 X158.497 Y100.036
;TYPE:WALL-INNER
G1 F1800 X158.514 Y100.234 E53.40172
G1 X158.712 Y100.217 E53.40684
G1 X159.839 Y100.116 E53.452
G1 X168.504 Y99.358 E53.79916
G1 X167.006 Y82.23 E54.48538
G1 X157.214 Y83.086 E54.87769
G1 X157.016 Y83.103 E54.88563
G1 X157.033 Y83.301 E54.89074
G1 X158.497 Y100.036 E55.56123
G1 F1800 E52.56123
G0 F9000 X155.972 Y83.468
G0 X146.177 Y84.326
G0 X147.753 Y103.172
G0 X147.981 Y103.153
;TYPE:WALL-OUTER
G1 F1800 E55.56123
G1 X147.994 Y103.548 E55.577
G1 X148.224 Y105.764 E55.66592
G1 X148.618 Y108.08 E55.75968
G1 X149.17 Y110.319 E55.85172
G1 X149.868 Y112.444 E55.94099
G1 X150.771 Y114.585 E56.03374
G1 X151.657 Y116.22 E56.10796
G1 X152.719 Y117.807 E56.18417
G1 X153.875 Y119.159 E56.25517
G1 X155.105 Y120.255 E56.32092
G1 X156.498 Y121.141 E56.38681
G1 X157.716 Y121.601 E56.43878
G1 X159.05 Y121.821 E56.49274
G1 X160.375 Y121.733 E56.54574
G1 X161.661 Y121.335 E56.59947
G1 X162.884 Y120.634 E56.65573
G1 X164.118 Y119.567 E56.72084
G1 X165.065 Y118.398 E56.78089
G1 X166.063 Y116.779 E56.8568
G1 X166.781 Y115.188 E56.92646
G1 X167.434 Y113.282 E57.00688
G1 X167.937 Y111.214 E57.09182
G1 X168.282 Y109.017 E57.18058
G1 X168.463 Y106.729 E57.27219
G1 X168.478 Y104.384 E57.36578
G1 X168.329 Y102.023 E57.4602
G1 X168.249 Y101.38 E57.48606
G1 X168.28 Y101.378 E57.4873
G1 X168.211 Y100.588 E57.51895
G1 X167.285 Y100.67 E57.55606
G1 X159.017 Y101.393 E57.88731
G1 X160.674 Y120.321 E58.64566
G1 X159.08 Y120.461 E58.70952
G1 X157.424 Y101.532 E59.46791
G1 X148.458 Y102.318 E59.82713
G1 X148.319 Y100.724 E59.89099
G1 X157.285 Y99.939 E60.25021
G1 X155.856 Y83.606 E60.90459
G1 X146.315 Y84.442 E61.28685
G1 X147.952 Y103.156 E62.03662
G1 X147.981 Y103.153 E62.03778
G0 F9000 X147.597 Y103.595
;TYPE:WALL-INNER
G1 F1800 X147.827 Y105.818 E62.12698
G1 X148.226 Y108.162 E62.22188
G1 X148.785 Y110.429 E62.31507
G1 X149.493 Y112.584 E62.4056
G1 X150.41 Y114.758 E62.49978
G1 X151.314 Y116.427 E62.57553
G1 X152.4 Y118.049 E62.65344
G1 X153.589 Y119.44 E62.72648
G1 X154.863 Y120.575 E62.79458
G1 X156.318 Y121.501 E62.86341
G1 X157.612 Y121.989 E62.91861
G1 X159.03 Y122.223 E62.97597
