;FLAVOR:Marlin
;TIME:15261
;Filament used: 27.4576m
;Layer height: 0.24
;MINX:33.335
;MINY:12.835
;MINZ:0.24
;MAXX:186.665
;MAXY:207.165
;MAXZ:4.84
;Generated with Cura_SteamEngine 4.5.0
M140 S50
M105
M190 S50
M104 S215
M105
M109 S215
M82 ;absolute extrusion mode
M201 X500.00 Y500.00 Z100.00 E5000.00 ;Setup machine max acceleration
M203 X500.00 Y500.00 Z10.00 E50.00 ;Setup machine max feedrate
M204 P500.00 R1000.00 T500.00 ;Setup Print/Retract/Travel acceleration
M205 X8.00 Y8.00 Z0.40 E5.00 ;Setup Jerk
M220 S100 ;Reset Feedrate
M221 S100 ;Reset Flowrate

G28 ;Home

G92 E0 ;Reset Extruder
G1 Z2.0 F3000 ;Move Z Axis up
G1 X10.1 Y20 Z0.28 F5000.0 ;Move to start position
G1 X10.1 Y200.0 Z0.28 F1500.0 E15 ;Draw the first line
G1 X10.4 Y200.0 Z0.28 F5000.0 ;Move to side a little
G1 X10.4 Y20 Z0.28 F1500.0 E30 ;Draw the second line
G92 E0 ;Reset Extruder
G1 Z2.0 F3000 ;Move Z Axis up

G92 E0
G92 E0
G1 F1800 E-3
;LAYER_COUNT:19
;LAYER:0
M106 S63.8
M204 S500
M205 X6 Y6
;MESH:HauntedHouse_Roof.stl
G0 F9000 X34.24 Y206.26 Z0.24
;TYPE:WALL-OUTER
G1 F1800 E0
G1 X34.24 Y13.74 E9.22067
G1 X185.76 Y13.74 E16.47766
G1 X185.76 Y206.26 E25.69832
G1 X34.24 Y206.26 E32.95531
G1 F1800 E29.95531
G0 F9000 X34.58 Y205.95
G0 X35.45 Y56.782
G0 X33.335 Y56.782
G0 X58.434 Y59.208
G0 X57.818 Y57.227
G0 X62.048 Y56.782
G0 X62.312 Y57.056
G1 F1800 E32.95531
G1 X56.616 Y58.826 E33.24099
G1 X56.57 Y59.121 E33.25529
G1 X61.439 Y62.564 E33.5409
G1 X61.363 Y68.528 E33.82657
G1 X61.629 Y68.664 E33.84087
G1 X66.409 Y65.097 E34.12653
G1 X72.056 Y67.011 E34.4121
G1 X72.267 Y66.8 E34.42639
G1 X70.352 Y61.153 E34.71198
G1 X73.92 Y56.373 E34.99767
G1 X73.784 Y56.107 E35.01197
G1 X67.82 Y56.183 E35.29764
G1 X64.377 Y51.315 E35.58321
G1 X64.082 Y51.361 E35.59751
G1 X62.312 Y57.056 E35.88314
G0 F9000 X61.929 Y56.673
;TYPE:WALL-INNER
G1 F1800 X61.689 Y56.747 E35.89517
G1 X56.188 Y58.456 E36.17106
G1 X56.05 Y59.341 E36.21396
G1 X60.956 Y62.81 E36.50174
G1 X60.879 Y68.82 E36.78961
G1 X61.677 Y69.227 E36.83251
G1 X66.494 Y65.633 E37.12036
G1 X72.184 Y67.561 E37.4081
G1 X72.817 Y66.928 E37.45097
G1 X70.888 Y61.238 E37.73873
G1 X74.483 Y56.421 E38.02661
G1 X74.076 Y55.623 E38.06951
G1 X68.066 Y55.7 E38.35738
G1 X64.597 Y50.795 E38.64512
G1 X63.712 Y50.933 E38.68802
G1 X61.929 Y56.673 E38.97589
G0 F9000 X61.546 Y56.29
G1 F1800 X55.76 Y58.086 E39.26605
G1 X55.53 Y59.561 E39.33755
G1 X60.473 Y63.056 E39.62749
G1 X60.395 Y69.112 E39.91757
G1 X61.725 Y69.79 E39.98907
G1 X66.579 Y66.169 E40.27911
G1 X72.312 Y68.111 E40.56901
G1 X73.367 Y67.056 E40.64047
G1 X71.424 Y61.323 E40.93039
G1 X75.046 Y56.469 E41.22046
G1 X74.368 Y55.139 E41.29196
G1 X68.312 Y55.217 E41.58203
G1 X64.817 Y50.275 E41.87194
G1 X63.342 Y50.505 E41.94344
G1 X61.546 Y56.29 E42.23355
G1 F1800 E39.23355
G0 F9000 X63.871 Y51.117
G0 X64.502 Y51.019
G0 X68.431 Y54.982
G0 X68.457 Y57.079
G0 X108.836 Y43.207
G0 X108.22 Y41.227
G0 X112.45 Y40.782
G0 X112.714 Y41.056
;TYPE:WALL-OUTER
G1 F1800 E42.23355
G1 X107.018 Y42.826 E42.51923
G1 X106.972 Y43.121 E42.53353
G1 X111.841 Y46.564 E42.81914
G1 X111.765 Y52.528 E43.10481
G1 X112.031 Y52.664 E43.11911
G1 X116.811 Y49.097 E43.40477
G1 X122.458 Y51.011 E43.69034
G1 X122.669 Y50.8 E43.70463
G1 X120.754 Y45.153 E43.99022
G1 X124.321 Y40.373 E44.27588
G1 X124.185 Y40.107 E44.29018
G1 X118.222 Y40.183 E44.5758
G1 X114.779 Y35.315 E44.86138
G1 X114.484 Y35.361 E44.87568
G1 X112.714 Y41.056 E45.16131
G0 F9000 X112.331 Y40.673
;TYPE:WALL-INNER
G1 F1800 X112.091 Y40.747 E45.17333
G1 X106.59 Y42.456 E45.44922
G1 X106.452 Y43.341 E45.49212
G1 X111.358 Y46.81 E45.7799
G1 X111.281 Y52.82 E46.06777
G1 X112.079 Y53.227 E46.11067
G1 X116.896 Y49.633 E46.39852
G1 X122.586 Y51.561 E46.68626
G1 X123.219 Y50.928 E46.72914
G1 X121.29 Y45.238 E47.01689
G1 X124.884 Y40.421 E47.30474
G1 X124.477 Y39.623 E47.34764
G1 X118.468 Y39.7 E47.63547
G1 X114.999 Y34.795 E47.9232
G1 X114.114 Y34.933 E47.9661
G1 X112.331 Y40.673 E48.25398
G0 F9000 X111.948 Y40.29
G1 F1800 X106.162 Y42.086 E48.54414
G1 X105.932 Y43.561 E48.61563
G1 X110.875 Y47.056 E48.90558
G1 X110.797 Y53.112 E49.19565
G1 X112.127 Y53.79 E49.26715
G1 X116.981 Y50.169 E49.55719
G1 X122.714 Y52.111 E49.8471
G1 X123.769 Y51.056 E49.91856
G1 X121.826 Y45.323 E50.20848
G1 X125.447 Y40.469 E50.49852
G1 X124.769 Y39.139 E50.57002
G1 X118.714 Y39.217 E50.86004
G1 X115.219 Y34.275 E51.14995
G1 X113.744 Y34.505 E51.22145
G1 X111.948 Y40.29 E51.51156
G1 F1800 E48.51156
G0 F9000 X114.273 Y35.117
G0 X114.904 Y35.019
G0 X118.363 Y39.906
G0 X124.351 Y39.831
G0 X124.642 Y40.4
G0 X122.066 Y45.36
G0 X120.103 Y46.045
G0 X153.16 Y67.661
G0 X153.51 Y65.615
G0 X157.466 Y67.142
G0 X157.589 Y67.502
;TYPE:WALL-OUTER
G1 F1800 E51.51156
G1 X152.14 Y66.568 E51.77634
G1 X151.711 Y66.494 E51.7972
G1 X151.535 Y66.736 E51.81153
G1 X154.311 Y72.015 E52.09719
G1 X151.535 Y77.293 E52.38281
G1 X151.71 Y77.535 E52.39711
G1 X157.589 Y76.528 E52.68279
G1 X161.752 Y80.798 E52.96841
G1 X162.036 Y80.706 E52.9827
G1 X162.894 Y74.803 E53.2684
G1 X168.242 Y72.164 E53.55402
G1 X168.242 Y71.866 E53.5683
G1 X162.895 Y69.226 E53.8539
G1 X162.036 Y63.324 E54.13955
G1 X161.752 Y63.232 E54.15385
G1 X157.701 Y67.387 E54.43178
G1 X157.589 Y67.502 E54.43947
G0 F9000 X157.421 Y66.986
;TYPE:WALL-INNER
G1 F1800 X151.498 Y65.971 E54.72729
G1 X150.971 Y66.695 E54.77018
G1 X153.769 Y72.015 E55.05807
G1 X150.972 Y77.333 E55.34585
G1 X151.496 Y78.059 E55.38873
G1 X157.421 Y77.044 E55.67664
G1 X161.616 Y81.346 E55.96443
G1 X162.468 Y81.071 E56.00731
G1 X163.333 Y75.121 E56.29528
G1 X163.559 Y75.01 E56.30734
G1 X168.722 Y72.462 E56.58309
G1 X168.722 Y71.568 E56.62591
G1 X163.334 Y68.907 E56.91372
G1 X162.468 Y62.959 E57.2016
G1 X161.616 Y62.684 E57.24448
G1 X157.421 Y66.986 E57.53227
G0 F9000 X157.253 Y66.47
G1 F1800 X151.579 Y65.499 E57.80797
G1 X151.285 Y65.448 E57.82226
G1 X150.407 Y66.654 E57.89371
G1 X153.227 Y72.015 E58.18383
G1 X150.409 Y77.373 E58.47378
G1 X151.282 Y78.583 E58.54524
G1 X157.253 Y77.56 E58.83538
G1 X161.48 Y81.894 E59.12534
G1 X162.9 Y81.436 E59.1968
G1 X163.772 Y75.439 E59.48704
G1 X169.202 Y72.76 E59.77704
G1 X169.202 Y71.27 E59.8484
G1 X163.773 Y68.588 E60.13842
G1 X162.9 Y62.594 E60.42853
G1 X161.48 Y62.136 E60.49999
G1 X157.253 Y66.47 E60.78995
G1 F1800 E57.78995
G0 F9000 X151.59 Y66.195
G0 X151.214 Y66.714
G0 X154 Y72.015
G0 X151.214 Y77.315
G0 X151.588 Y77.834
G0 X157.177 Y77.79
G0 X156.808 Y75.744
G0 X159.429 Y173.977
G0 X157.942 Y172.528
G0 X156.556 Y175.142
G0 X156.679 Y175.502
;TYPE:WALL-OUTER
G1 F1800 E60.78995
G1 X150.801 Y174.494 E61.07558
G1 X150.625 Y174.736 E61.08991
G1 X153.401 Y180.015 E61.37557
G1 X150.625 Y185.293 E61.66119
G1 X150.8 Y185.535 E61.6755
G1 X156.679 Y184.528 E61.96117
G1 X160.842 Y188.798 E62.24679
G1 X161.126 Y188.706 E62.26109
G1 X161.984 Y182.803 E62.54678
G1 X167.333 Y180.164 E62.83245
G1 X167.333 Y179.866 E62.84672
G1 X161.985 Y177.226 E63.13237
G1 X161.126 Y171.324 E63.41802
G1 X160.842 Y171.232 E63.43232
G1 X156.791 Y175.387 E63.71025
G1 X156.679 Y175.502 E63.71794
G0 F9000 X156.511 Y174.986
;TYPE:WALL-INNER
G1 F1800 X150.588 Y173.971 E64.00576
G1 X150.061 Y174.695 E64.04865
G1 X152.859 Y180.015 E64.33654
G1 X150.062 Y185.333 E64.62432
G1 X150.586 Y186.059 E64.6672
G1 X156.511 Y185.044 E64.95511
G1 X160.706 Y189.346 E65.2429
G1 X161.558 Y189.071 E65.28578
G1 X162.423 Y183.121 E65.57375
G1 X162.649 Y183.01 E65.58581
G1 X167.813 Y180.462 E65.8616
G1 X167.813 Y179.568 E65.90442
G1 X162.424 Y176.908 E66.19225
G1 X161.558 Y170.959 E66.48018
G1 X160.706 Y170.684 E66.52306
G1 X156.511 Y174.986 E66.81085
G0 F9000 X156.343 Y174.47
G1 F1800 X150.669 Y173.499 E67.08655
G1 X150.375 Y173.448 E67.10085
G1 X149.497 Y174.654 E67.17229
G1 X152.317 Y180.015 E67.46241
G1 X149.499 Y185.373 E67.75236
G1 X150.372 Y186.583 E67.82382
G1 X156.343 Y185.56 E68.11397
G1 X160.57 Y189.894 E68.40392
G1 X161.99 Y189.436 E68.47538
G1 X162.862 Y183.439 E68.76562
G1 X168.293 Y180.76 E69.05567
G1 X168.293 Y179.27 E69.12703
G1 X162.863 Y176.59 E69.41705
G1 X161.99 Y170.594 E69.70725
G1 X160.57 Y170.136 E69.77871
G1 X156.343 Y174.47 E70.06867
G1 F1800 E67.06867
G0 F9000 X156.267 Y174.24
G0 X155.899 Y176.287
G0 X141.161 Y156.753
G0 X142.42 Y158.409
G0 X137.46 Y160.985
G0 X136.891 Y160.694
G0 X136.965 Y154.705
G0 X132.078 Y151.246
G0 X132.176 Y150.615
G0 X137.852 Y148.782
G0 X138.116 Y149.056
;TYPE:WALL-OUTER
G1 F1800 E70.06867
G1 X132.42 Y150.826 E70.35434
G1 X132.374 Y151.121 E70.36864
G1 X137.242 Y154.564 E70.65421
G1 X137.167 Y160.528 E70.93988
G1 X137.433 Y160.664 E70.95419
G1 X142.213 Y157.097 E71.23984
G1 X147.86 Y159.011 E71.52542
G1 X148.071 Y158.8 E71.53971
G1 X146.156 Y153.153 E71.8253
G1 X149.723 Y148.373 E72.11095
G1 X149.587 Y148.107 E72.12526
G1 X143.624 Y148.183 E72.41088
G1 X140.181 Y143.315 E72.69645
G1 X139.886 Y143.361 E72.71075
G1 X138.116 Y149.056 E72.99638
G0 F9000 X137.733 Y148.673
;TYPE:WALL-INNER
G1 F1800 X137.493 Y148.747 E73.00841
G1 X131.992 Y150.456 E73.2843
G1 X131.854 Y151.341 E73.3272
G1 X136.759 Y154.81 E73.61494
G1 X136.683 Y160.82 E73.90281
G1 X137.481 Y161.227 E73.94571
G1 X142.298 Y157.633 E74.23356
G1 X147.988 Y159.561 E74.5213
G1 X148.621 Y158.928 E74.56417
G1 X146.692 Y153.238 E74.85193
G1 X150.286 Y148.421 E75.13977
G1 X149.879 Y147.623 E75.18268
G1 X143.87 Y147.7 E75.4705
G1 X140.401 Y142.795 E75.75824
G1 X139.516 Y142.933 E75.80114
G1 X137.733 Y148.673 E76.08901
G0 F9000 X137.35 Y148.29
G1 F1800 X131.564 Y150.086 E76.37917
G1 X131.334 Y151.561 E76.45067
G1 X136.276 Y155.056 E76.74057
G1 X136.199 Y161.112 E77.03065
G1 X137.529 Y161.79 E77.10215
G1 X142.383 Y158.169 E77.39219
G1 X148.116 Y160.111 E77.68209
G1 X149.171 Y159.056 E77.75355
G1 X147.228 Y153.323 E78.04347
G1 X150.849 Y148.469 E78.33351
G1 X150.171 Y147.139 E78.40501
G1 X144.116 Y147.217 E78.69504
G1 X140.621 Y142.275 E78.98494
G1 X139.146 Y142.505 E79.05644
G1 X137.35 Y148.29 E79.34656
G1 F1800 E76.34656
G0 F9000 X137.892 Y145.831
G0 X139.874 Y146.447
G0 X124.745 Y114.654
G0 X126.8 Y114.952
G0 X126.326 Y111.985
G0 X131.696 Y109.334
G0 X131.696 Y108.696
G0 X126.327 Y106.044
G0 X125.463 Y100.117
G0 X124.856 Y99.92
G0 X120.646 Y104.142
G0 X120.769 Y104.502
;TYPE:WALL-OUTER
G1 F1800 E79.34656
G1 X115.321 Y103.568 E79.61129
G1 X114.892 Y103.494 E79.63214
G1 X114.716 Y103.736 E79.64647
G1 X117.491 Y109.015 E79.93211
G1 X114.716 Y114.293 E80.21771
G1 X114.892 Y114.535 E80.23204
G1 X120.769 Y113.528 E80.51762
G1 X124.933 Y117.798 E80.80328
G1 X125.217 Y117.706 E80.81757
G1 X126.074 Y111.803 E81.10326
G1 X131.423 Y109.164 E81.38893
G1 X131.423 Y108.866 E81.4032
G1 X126.075 Y106.226 E81.68885
G1 X125.217 Y100.324 E81.9745
G1 X124.933 Y100.232 E81.98879
G1 X120.881 Y104.387 E82.26676
G1 X120.769 Y104.502 E82.27445
G0 F9000 X120.601 Y103.986
;TYPE:WALL-INNER
G1 F1800 X114.679 Y102.971 E82.56222
G1 X114.152 Y103.695 E82.60511
G1 X116.949 Y109.015 E82.89297
G1 X114.152 Y114.334 E83.1808
G1 X114.679 Y115.058 E83.22369
G1 X120.601 Y114.044 E83.51145
G1 X124.797 Y118.346 E83.79927
G1 X125.649 Y118.071 E83.84215
G1 X126.513 Y112.121 E84.13011
G1 X126.739 Y112.01 E84.14217
G1 X131.903 Y109.462 E84.41797
G1 X131.903 Y108.568 E84.46078
G1 X126.514 Y105.908 E84.74862
G1 X125.649 Y99.959 E85.03654
G1 X124.797 Y99.684 E85.07942
G1 X120.601 Y103.986 E85.36724
G0 F9000 X120.433 Y103.47
G1 F1800 X114.76 Y102.499 E85.6429
G1 X114.466 Y102.448 E85.65719
G1 X113.588 Y103.654 E85.72863
G1 X116.407 Y109.015 E86.01873
G1 X113.588 Y114.375 E86.30878
G1 X114.466 Y115.581 E86.38023
G1 X120.433 Y114.56 E86.67017
G1 X124.661 Y118.894 E86.96016
G1 X126.081 Y118.436 E87.03162
G1 X126.123 Y118.14 E87.04594
G1 X126.952 Y112.439 E87.32186
G1 X132.383 Y109.76 E87.6119
G1 X132.383 Y108.27 E87.68326
G1 X126.953 Y105.59 E87.97328
G1 X126.081 Y99.594 E88.26348
G1 X124.661 Y99.136 E88.33494
G1 X120.433 Y103.47 E88.62493
G1 F1800 E85.62493
G0 F9000 X114.771 Y103.195
G0 X114.395 Y103.714
G0 X115.054 Y106.894
G0 X116.89 Y105.929
G0 X85.859 Y123.079
G0 X85.833 Y120.982
G0 X81.904 Y117.019
G0 X81.273 Y117.117
G0 X79.45 Y122.782
G0 X79.714 Y123.056
;TYPE:WALL-OUTER
G1 F1800 E88.62493
G1 X74.018 Y124.826 E88.9106
G1 X73.972 Y125.121 E88.9249
G1 X78.841 Y128.564 E89.21051
G1 X78.765 Y134.528 E89.49618
G1 X79.031 Y134.664 E89.51049
G1 X83.811 Y131.097 E89.79614
G1 X89.458 Y133.011 E90.08172
G1 X89.669 Y132.8 E90.09601
G1 X87.754 Y127.153 E90.3816
G1 X91.321 Y122.373 E90.66725
G1 X91.185 Y122.107 E90.68156
G1 X85.222 Y122.183 E90.96718
G1 X81.779 Y117.315 E91.25275
G1 X81.484 Y117.361 E91.26705
G1 X79.714 Y123.056 E91.55268
G0 F9000 X79.331 Y122.673
;TYPE:WALL-INNER
G1 F1800 X79.091 Y122.747 E91.56471
G1 X73.59 Y124.456 E91.8406
G1 X73.452 Y125.341 E91.8835
G1 X78.358 Y128.81 E92.17127
G1 X78.281 Y134.82 E92.45914
G1 X79.079 Y135.227 E92.50205
G1 X83.896 Y131.633 E92.7899
G1 X89.586 Y133.561 E93.07764
G1 X90.219 Y132.928 E93.12051
G1 X88.29 Y127.238 E93.40827
G1 X91.884 Y122.421 E93.69611
G1 X91.477 Y121.623 E93.73902
G1 X85.468 Y121.7 E94.02684
G1 X81.999 Y116.795 E94.31458
G1 X81.114 Y116.933 E94.35748
G1 X79.331 Y122.673 E94.64535
G0 F9000 X78.948 Y122.29
G1 F1800 X73.162 Y124.086 E94.93551
G1 X72.932 Y125.561 E95.00701
G1 X77.875 Y129.056 E95.29695
G1 X77.797 Y135.112 E95.58703
G1 X79.127 Y135.79 E95.65853
G1 X83.981 Y132.169 E95.94857
G1 X89.714 Y134.111 E96.23847
G1 X90.769 Y133.056 E96.30993
G1 X88.826 Y127.323 E96.59985
G1 X92.447 Y122.469 E96.88989
G1 X91.769 Y121.139 E96.96139
G1 X85.714 Y121.217 E97.25142
G1 X82.219 Y116.275 E97.54132
G1 X80.744 Y116.505 E97.61282
G1 X78.948 Y122.29 E97.90293
G1 F1800 E94.90293
G0 F9000 X73.774 Y124.615
G0 X73.676 Y125.246
G0 X77.658 Y129.166
G0 X78.843 Y127.457
G0 X80.61 Y158.977
G0 X79.123 Y157.528
G0 X77.737 Y160.142
G0 X77.86 Y160.502
;TYPE:WALL-OUTER
G1 F1800 E97.90293
G1 X71.982 Y159.494 E98.18857
G1 X71.806 Y159.736 E98.2029
G1 X74.581 Y165.015 E98.48854
G1 X71.806 Y170.293 E98.77414
G1 X71.981 Y170.535 E98.78844
G1 X77.86 Y169.528 E99.07411
G1 X82.023 Y173.798 E99.35973
G1 X82.307 Y173.706 E99.37403
G1 X83.164 Y167.803 E99.65972
G1 X88.513 Y165.164 E99.94539
G1 X88.513 Y164.866 E99.95966
G1 X83.165 Y162.226 E100.24531
G1 X82.307 Y156.324 E100.53096
G1 X82.023 Y156.232 E100.54525
G1 X77.972 Y160.387 E100.82319
G1 X77.86 Y160.502 E100.83087
G0 F9000 X77.692 Y159.986
;TYPE:WALL-INNER
G1 F1800 X71.769 Y158.971 E101.11869
G1 X71.242 Y159.695 E101.16158
G1 X74.039 Y165.015 E101.44945
G1 X71.243 Y170.333 E101.73721
G1 X71.767 Y171.059 E101.78009
G1 X77.692 Y170.044 E102.068
G1 X81.887 Y174.346 E102.35579
G1 X82.739 Y174.071 E102.39867
G1 X83.603 Y168.121 E102.68663
G1 X83.829 Y168.01 E102.69869
G1 X88.993 Y165.462 E102.97448
G1 X88.993 Y164.568 E103.0173
G1 X83.604 Y161.908 E103.30513
G1 X82.739 Y155.959 E103.59306
G1 X81.887 Y155.684 E103.63594
G1 X77.692 Y159.986 E103.92372
G0 F9000 X77.524 Y159.47
G1 F1800 X71.85 Y158.499 E104.19943
G1 X71.556 Y158.448 E104.21372
G1 X70.678 Y159.654 E104.28516
G1 X73.497 Y165.015 E104.57526
G1 X70.68 Y170.373 E104.86519
G1 X71.553 Y171.583 E104.93665
G1 X77.524 Y170.56 E105.22679
G1 X81.751 Y174.894 E105.51675
G1 X83.171 Y174.436 E105.58821
G1 X83.213 Y174.14 E105.60253
G1 X84.042 Y168.439 E105.87845
G1 X89.473 Y165.76 E106.16849
G1 X89.473 Y164.27 E106.23985
G1 X84.043 Y161.59 E106.52987
G1 X83.171 Y155.594 E106.82007
G1 X81.751 Y155.136 E106.89153
G1 X77.524 Y159.47 E107.18148
G1 F1800 E104.18148
G0 F9000 X77.448 Y159.24
G0 X77.08 Y161.287
G0 X70.406 Y207.165
G0 X70.406 Y205.05
G0 X34.72 Y205.78
G1 F1800 E107.18148
G1 X34.72 Y14.22 E116.35617
G1 X185.28 Y14.22 E123.56718
G1 X185.28 Y205.78 E132.74187
G1 X34.72 Y205.78 E139.95288
G0 F9000 X35.2 Y205.3
G1 F1800 X35.2 Y14.7 E149.08159
G1 X184.8 Y14.7 E156.24662
G1 X184.8 Y205.3 E165.37533
G1 X35.2 Y205.3 E172.54036
G0 F9000 X35.67 Y204.83
;TYPE:SKIN
G1 F1800 X35.67 Y15.17 E181.62405
G1 X184.33 Y15.17 E188.74406
G1 X184.33 Y204.83 E197.82775
G1 X35.67 Y204.83 E204.94776
G1 F1800 E201.94776
G0 F9000 X35.35 Y204.83
G0 X35.422 Y205.078
G0 X67.847 Y205.052
G0 X71.493 Y205.05
G0 X71.493 Y207.165
G0 X73.364 Y169.273
G0 X71.528 Y168.309
G0 X71.493 Y171.756
G0 X71.343 Y172.096
