;FLAVOR:Marlin
;TIME:10526
;Filament used: 16.6782m
;Layer height: 0.2
;MINX:31.847
;MINY:65.335
;MINZ:0.24
;MAXX:188.165
;MAXY:154.665
;MAXZ:6
;Generated with Cura_SteamEngine 4.5.0
M140 S50
M105
M190 S50
M104 S215
M105
M109 S215
M82 ;absolute extrusion mode
M201 X500.00 Y500.00 Z100.00 E5000.00 ;Setup machine max acceleration
M203 X500.00 Y500.00 Z10.00 E50.00 ;Setup machine max feedrate
M204 P500.00 R1000.00 T500.00 ;Setup Print/Retract/Travel acceleration
M205 X8.00 Y8.00 Z0.40 E5.00 ;Setup Jerk
M220 S100 ;Reset Feedrate
M221 S100 ;Reset Flowrate

G28 ;Home

G92 E0 ;Reset Extruder
G1 Z2.0 F3000 ;Move Z Axis up
G1 X10.1 Y20 Z0.28 F5000.0 ;Move to start position
G1 X10.1 Y200.0 Z0.28 F1500.0 E15 ;Draw the first line
G1 X10.4 Y200.0 Z0.28 F5000.0 ;Move to side a little
G1 X10.4 Y20 Z0.28 F1500.0 E30 ;Draw the second line
G92 E0 ;Reset Extruder
G1 Z2.0 F3000 ;Move Z Axis up

G92 E0
G92 E0
G1 F1800 E-3
;LAYER_COUNT:26
;LAYER:0
M106 S63.8
M204 S500
M205 X6 Y6
;MESH:Object 1
G0 F9000 X32.7 Y153.8 Z0.24
;TYPE:WALL-OUTER
G1 F1800 E0
G1 X32.7 Y66.2 E3.49631
G1 X187.3 Y66.2 E9.66673
G1 X187.3 Y153.8 E13.16303
G1 X32.7 Y153.8 E19.33345
G0 F9000 X33.1 Y153.4
;TYPE:WALL-INNER
G1 F1800 X33.1 Y66.6 E22.79783
G1 X186.9 Y66.6 E28.93632
G1 X186.9 Y153.4 E32.40069
G1 X33.1 Y153.4 E38.53918
G0 F9000 X33.5 Y153
G1 F1800 X33.5 Y67 E41.97163
G1 X186.5 Y67 E48.07819
G1 X186.5 Y153 E51.51064
G1 X33.5 Y153 E57.6172
G0 F9000 X33.89 Y152.61
;TYPE:SKIN
G1 F1800 X33.89 Y67.39 E61.01851
G1 X186.11 Y67.39 E67.09394
G1 X186.11 Y152.61 E70.49526
G1 X33.89 Y152.61 E76.57068
G0 F9000 X34.29 Y152.21
G1 F1800 X34.29 Y67.79 E79.94007
G1 X185.71 Y67.79 E85.98357
G1 X185.71 Y152.21 E89.35295
G1 X34.29 Y152.21 E95.39645
G0 F9000 X34.952 Y152.049
G1 F1800 X34.449 Y151.546 E95.42484
G0 F9000 X34.449 Y150.98
G1 F1800 X35.517 Y152.049 E95.48516
G0 F9000 X36.083 Y152.049
G1 F1800 X34.449 Y150.415 E95.57739
G0 F9000 X34.449 Y149.849
G1 F1800 X36.649 Y152.049 E95.70156
G0 F9000 X37.215 Y152.049
G1 F1800 X34.449 Y149.283 E95.85769
G0 F9000 X34.449 Y148.717
G1 F1800 X37.78 Y152.049 E96.04573
G0 F9000 X38.346 Y152.049
G1 F1800 X34.449 Y148.152 E96.2657
G0 F9000 X34.449 Y147.586
G1 F1800 X38.912 Y152.049 E96.51761
G0 F9000 X39.477 Y152.049
G1 F1800 X34.449 Y147.02 E96.80144
G0 F9000 X34.449 Y146.455
G1 F1800 X40.043 Y152.049 E97.11719
G0 F9000 X40.609 Y152.049
G1 F1800 X34.449 Y145.889 E97.46488
G0 F9000 X34.449 Y145.323
G1 F1800 X41.174 Y152.049 E97.8445
G0 F9000 X41.74 Y152.049
G1 F1800 X34.449 Y144.758 E98.25604
G0 F9000 X34.449 Y144.192
G1 F1800 X42.306 Y152.049 E98.69952
G0 F9000 X42.871 Y152.049
G1 F1800 X34.449 Y143.626 E99.17492
G0 F9000 X34.449 Y143.061
G1 F1800 X43.437 Y152.049 E99.68224
G0 F9000 X44.003 Y152.049
G1 F1800 X34.449 Y142.495 E100.22151
G0 F9000 X34.449 Y141.929
G1 F1800 X44.568 Y152.049 E100.7927
G0 F9000 X45.134 Y152.049
G1 F1800 X34.449 Y141.364 E101.39581
G0 F9000 X34.449 Y140.798
G1 F1800 X45.7 Y152.049 E102.03086
G0 F9000 X46.265 Y152.049
G1 F1800 X34.449 Y140.232 E102.69784
G0 F9000 X34.449 Y139.667
G1 F1800 X46.831 Y152.049 E103.39673
G0 F9000 X47.397 Y152.049
G1 F1800 X34.449 Y139.101 E104.12757
G0 F9000 X34.449 Y138.535
G1 F1800 X47.963 Y152.049 E104.89036
G0 F9000 X48.528 Y152.049
G1 F1800 X34.449 Y137.969 E105.68507
G0 F9000 X34.449 Y137.404
G1 F1800 X49.094 Y152.049 E106.51169
G0 F9000 X49.66 Y152.049
G1 F1800 X34.449 Y136.838 E107.37027
G0 F9000 X34.449 Y136.272
G1 F1800 X50.225 Y152.049 E108.26076
G0 F9000 X50.791 Y152.049
G1 F1800 X34.449 Y135.707 E109.18318
G0 F9000 X34.449 Y135.141
G1 F1800 X51.357 Y152.049 E110.13754
G0 F9000 X51.922 Y152.049
G1 F1800 X34.449 Y134.575 E111.12382
G0 F9000 X34.449 Y134.01
G1 F1800 X52.488 Y152.049 E112.14202
G0 F9000 X53.054 Y152.049
G1 F1800 X34.449 Y133.444 E113.19216
G0 F9000 X34.449 Y132.878
G1 F1800 X53.619 Y152.049 E114.27423
G0 F9000 X54.185 Y152.049
G1 F1800 X34.449 Y132.313 E115.38821
G0 F9000 X34.449 Y131.747
G1 F1800 X54.751 Y152.049 E116.53415
G0 F9000 X55.316 Y152.049
G1 F1800 X34.449 Y131.181 E117.712
G0 F9000 X34.449 Y130.616
G1 F1800 X55.882 Y152.049 E118.92177
G0 F9000 X56.448 Y152.049
G1 F1800 X34.449 Y130.05 E120.16349
G0 F9000 X34.449 Y129.484
G1 F1800 X57.014 Y152.049 E121.43715
G0 F9000 X57.579 Y152.049
G1 F1800 X34.449 Y128.919 E122.74271
G0 F9000 X34.449 Y128.353
G1 F1800 X58.145 Y152.049 E124.08022
G0 F9000 X58.711 Y152.049
G1 F1800 X34.449 Y127.787 E125.44967
G0 F9000 X34.449 Y127.221
G1 F1800 X59.276 Y152.049 E126.85104
G0 F9000 X59.842 Y152.049
G1 F1800 X34.449 Y126.656 E128.28433
G0 F9000 X34.449 Y126.09
G1 F1800 X60.408 Y152.049 E129.74957
G0 F9000 X60.973 Y152.049
G1 F1800 X34.449 Y125.524 E131.24673
G0 F9000 X34.449 Y124.959
G1 F1800 X61.539 Y152.049 E132.7758
G0 F9000 X62.105 Y152.049
G1 F1800 X34.449 Y124.393 E134.33683
G0 F9000 X34.449 Y123.827
G1 F1800 X62.67 Y152.049 E135.92977
G0 F9000 X63.236 Y152.049
G1 F1800 X34.449 Y123.262 E137.55463
G0 F9000 X34.449 Y122.696
G1 F1800 X63.802 Y152.049 E139.21144
G0 F9000 X64.367 Y152.049
G1 F1800 X34.449 Y122.13 E140.90017
G0 F9000 X34.449 Y121.565
G1 F1800 X64.933 Y152.049 E142.62082
G0 F9000 X65.499 Y152.049
G1 F1800 X34.449 Y120.999 E144.37342
G0 F9000 X34.449 Y120.433
G1 F1800 X66.064 Y152.049 E146.15793
G0 F9000 X66.63 Y152.049
G1 F1800 X34.449 Y119.868 E147.97437
G0 F9000 X34.449 Y119.302
G1 F1800 X67.196 Y152.049 E149.82275
G0 F9000 X67.762 Y152.049
G1 F1800 X34.449 Y118.736 E151.70308
G0 F9000 X34.449 Y118.17
G1 F1800 X68.327 Y152.049 E153.61533
G0 F9000 X68.893 Y152.049
G1 F1800 X34.449 Y117.605 E155.5595
G0 F9000 X34.449 Y117.039
G1 F1800 X69.459 Y152.049 E157.53561
G0 F9000 X70.024 Y152.049
G1 F1800 X34.449 Y116.473 E159.54365
G0 F9000 X34.449 Y115.908
G1 F1800 X70.59 Y152.049 E161.5836
G0 F9000 X71.156 Y152.049
G1 F1800 X34.449 Y115.342 E163.6555
G0 F9000 X34.449 Y114.776
G1 F1800 X71.721 Y152.049 E165.75932
G0 F9000 X72.287 Y152.049
G1 F1800 X34.449 Y114.211 E167.89506
G0 F9000 X34.449 Y113.645
G1 F1800 X72.853 Y152.049 E170.06275
G0 F9000 X73.418 Y152.049
G1 F1800 X34.449 Y113.079 E172.26236
G0 F9000 X34.449 Y112.514
G1 F1800 X73.984 Y152.049 E174.49388
G0 F9000 X74.55 Y152.049
G1 F1800 X34.449 Y111.948 E176.75736
G0 F9000 X34.449 Y111.382
G1 F1800 X75.115 Y152.049 E179.05275
G0 F9000 X75.681 Y152.049
G1 F1800 X34.449 Y110.817 E181.38006
G0 F9000 X34.449 Y110.251
G1 F1800 X76.247 Y152.049 E183.73932
G0 F9000 X76.813 Y152.049
G1 F1800 X34.449 Y109.685 E186.13053
G0 F9000 X34.449 Y109.12
G1 F1800 X77.378 Y152.049 E188.55363
G0 F9000 X77.944 Y152.049
G1 F1800 X34.449 Y108.554 E191.00867
G0 F9000 X34.449 Y107.988
G1 F1800 X78.51 Y152.049 E193.49567
G0 F9000 X79.075 Y152.049
G1 F1800 X34.449 Y107.422 E196.01458
G0 F9000 X34.449 Y106.857
G1 F1800 X79.641 Y152.049 E198.56541
G0 F9000 X80.207 Y152.049
G1 F1800 X34.449 Y106.291 E201.14819
G0 F9000 X34.449 Y105.725
G1 F1800 X80.772 Y152.049 E203.76289
G0 F9000 X81.338 Y152.049
G1 F1800 X34.449 Y105.16 E206.40951
G0 F9000 X34.449 Y104.594
G1 F1800 X81.904 Y152.049 E209.08807
G0 F9000 X82.469 Y152.049
G1 F1800 X34.449 Y104.028 E211.79856
G0 F9000 X34.449 Y103.463
G1 F1800 X83.035 Y152.049 E214.54096
G0 F9000 X83.601 Y152.049
G1 F1800 X34.449 Y102.897 E217.31531
G0 F9000 X34.449 Y102.331
G1 F1800 X84.166 Y152.049 E220.12158
G0 F9000 X84.732 Y152.049
G1 F1800 X34.449 Y101.766 E222.95977
G0 F9000 X34.449 Y101.2
G1 F1800 X85.298 Y152.049 E225.82991
G0 F9000 X85.863 Y152.049
G1 F1800 X34.449 Y100.634 E228.73197
G0 F9000 X34.449 Y100.069
G1 F1800 X86.429 Y152.049 E231.66594
G0 F9000 X86.995 Y152.049
G1 F1800 X34.449 Y99.503 E234.63186
G0 F9000 X34.449 Y98.937
G1 F1800 X87.561 Y152.049 E237.62974
G0 F9000 X88.126 Y152.049
G1 F1800 X34.449 Y98.371 E240.65953
G0 F9000 X34.449 Y97.806
G1 F1800 X88.692 Y152.049 E243.72123
G0 F9000 X89.258 Y152.049
G1 F1800 X34.449 Y97.24 E246.81489
G0 F9000 X34.449 Y96.674
G1 F1800 X89.823 Y152.049 E249.94047
G0 F9000 X90.389 Y152.049
G1 F1800 X34.449 Y96.109 E253.09796
G0 F9000 X34.449 Y95.543
G1 F1800 X90.955 Y152.049 E256.28741
G0 F9000 X91.52 Y152.049
G1 F1800 X34.449 Y94.977 E259.50877
G0 F9000 X34.449 Y94.412
G1 F1800 X92.086 Y152.049 E262.76205
G0 F9000 X92.652 Y152.049
G1 F1800 X34.449 Y93.846 E266.04728
G0 F9000 X34.449 Y93.28
G1 F1800 X93.217 Y152.049 E269.36443
G0 F9000 X93.783 Y152.049
G1 F1800 X34.449 Y92.715 E272.71349
G0 F9000 X34.449 Y92.149
G1 F1800 X94.349 Y152.049 E276.09451
G0 F9000 X94.914 Y152.049
G1 F1800 X34.449 Y91.583 E279.50744
G0 F9000 X34.449 Y91.018
G1 F1800 X95.48 Y152.049 E282.9523
G0 F9000 X96.046 Y152.049
G1 F1800 X34.449 Y90.452 E286.4291
G0 F9000 X34.449 Y89.886
G1 F1800 X96.611 Y152.049 E289.93782
G0 F9000 X97.177 Y152.049
G1 F1800 X34.449 Y89.321 E293.47846
G0 F9000 X34.449 Y88.755
G1 F1800 X97.743 Y152.049 E297.05104
G0 F9000 X98.309 Y152.049
G1 F1800 X34.449 Y88.189 E300.65558
G0 F9000 X34.449 Y87.623
G1 F1800 X98.874 Y152.049 E304.29203
G0 F9000 X99.44 Y152.049
G1 F1800 X34.449 Y87.058 E307.9604
G0 F9000 X34.449 Y86.492
G1 F1800 X100.006 Y152.049 E311.66072
G0 F9000 X100.571 Y152.049
G1 F1800 X34.449 Y85.926 E315.39296
G0 F9000 X34.449 Y85.361
G1 F1800 X101.137 Y152.049 E319.15712
G0 F9000 X101.703 Y152.049
G1 F1800 X34.449 Y84.795 E322.95323
G0 F9000 X34.449 Y84.229
G1 F1800 X102.268 Y152.049 E326.78125
G0 F9000 X102.834 Y152.049
G1 F1800 X34.449 Y83.664 E330.6412
G0 F9000 X34.449 Y83.098
G1 F1800 X103.4 Y152.049 E334.53309
G0 F9000 X103.965 Y152.049
G1 F1800 X34.449 Y82.532 E338.4569
G0 F9000 X34.449 Y81.967
G1 F1800 X104.531 Y152.049 E342.41263
G0 F9000 X105.097 Y152.049
G1 F1800 X34.449 Y81.401 E346.40031
G0 F9000 X34.449 Y80.835
G1 F1800 X105.662 Y152.049 E350.41991
G0 F9000 X106.228 Y152.049
G1 F1800 X34.449 Y80.27 E354.47143
G0 F9000 X34.449 Y79.704
G1 F1800 X106.794 Y152.049 E358.55489
G0 F9000 X107.36 Y152.049
G1 F1800 X34.449 Y79.138 E362.6703
G0 F9000 X34.449 Y78.572
G1 F1800 X107.925 Y152.049 E366.81763
G0 F9000 X108.491 Y152.049
G1 F1800 X34.449 Y78.007 E370.99688
G0 F9000 X34.449 Y77.441
G1 F1800 X109.057 Y152.049 E375.20808
G0 F9000 X109.622 Y152.049
G1 F1800 X34.449 Y76.875 E379.4512
G0 F9000 X34.449 Y76.31
G1 F1800 X110.188 Y152.049 E383.72624
G0 F9000 X110.754 Y152.049
G1 F1800 X34.449 Y75.744 E388.03322
G0 F9000 X34.449 Y75.178
G1 F1800 X111.319 Y152.049 E392.37212
G0 F9000 X111.885 Y152.049
G1 F1800 X34.449 Y74.613 E396.74295
G0 F9000 X34.449 Y74.047
G1 F1800 X112.451 Y152.049 E401.14572
G0 F9000 X113.016 Y152.049
G1 F1800 X34.449 Y73.481 E405.5804
G0 F9000 X34.449 Y72.916
G1 F1800 X113.582 Y152.049 E410.04701
G0 F9000 X114.148 Y152.049
G1 F1800 X34.449 Y72.35 E414.54557
G0 F9000 X34.449 Y71.784
G1 F1800 X114.713 Y152.049 E419.07604
G0 F9000 X115.279 Y152.049
G1 F1800 X34.449 Y71.219 E423.63844
G0 F9000 X34.449 Y70.653
G1 F1800 X115.845 Y152.049 E428.23278
G0 F9000 X116.41 Y152.049
G1 F1800 X34.449 Y70.087 E432.85904
G0 F9000 X34.449 Y69.522
G1 F1800 X116.976 Y152.049 E437.51722
G0 F9000 X117.542 Y152.049
G1 F1800 X34.449 Y68.956 E442.20735
G0 F9000 X34.449 Y68.39
G1 F1800 X118.108 Y152.049 E446.92943
G0 F9000 X118.673 Y152.049
G1 F1800 X34.574 Y67.95 E451.67634
G0 F9000 X35.14 Y67.95
G1 F1800 X119.239 Y152.049 E456.42325
G0 F9000 X119.805 Y152.049
G1 F1800 X35.706 Y67.95 E461.17016
G0 F9000 X36.271 Y67.95
G1 F1800 X120.37 Y152.049 E465.91707
G0 F9000 X120.936 Y152.049
G1 F1800 X36.837 Y67.95 E470.66398
G0 F9000 X37.403 Y67.95
G1 F1800 X121.502 Y152.049 E475.41089
G0 F9000 X122.067 Y152.049
G1 F1800 X37.968 Y67.95 E480.1578
G0 F9000 X38.534 Y67.95
G1 F1800 X122.633 Y152.049 E484.90471
G0 F9000 X123.199 Y152.049
G1 F1800 X39.1 Y67.95 E489.65162
G0 F9000 X39.665 Y67.95
G1 F1800 X123.764 Y152.049 E494.39854
G0 F9000 X124.33 Y152.049
G1 F1800 X40.231 Y67.95 E499.14545
G0 F9000 X40.797 Y67.95
G1 F1800 X124.896 Y152.049 E503.89236
G0 F9000 X125.461 Y152.049
G1 F1800 X41.362 Y67.95 E508.63927
G0 F9000 X41.928 Y67.95
G1 F1800 X126.027 Y152.049 E513.38618
G0 F9000 X126.593 Y152.049
G1 F1800 X42.494 Y67.95 E518.13309
G0 F9000 X43.059 Y67.95
G1 F1800 X127.159 Y152.049 E522.88003
G0 F9000 X127.724 Y152.049
G1 F1800 X43.625 Y67.95 E527.62694
G0 F9000 X44.191 Y67.95
G1 F1800 X128.29 Y152.049 E532.37385
G0 F9000 X128.856 Y152.049
G1 F1800 X44.757 Y67.95 E537.12076
G0 F9000 X45.322 Y67.95
G1 F1800 X129.421 Y152.049 E541.86767
G0 F9000 X129.987 Y152.049
G1 F1800 X45.888 Y67.95 E546.61458
G0 F9000 X46.454 Y67.95
G1 F1800 X130.553 Y152.049 E551.36149
G0 F9000 X131.118 Y152.049
G1 F1800 X47.019 Y67.95 E556.10841
G0 F9000 X47.585 Y67.95
G1 F1800 X131.684 Y152.049 E560.85532
G0 F9000 X132.25 Y152.049
G1 F1800 X48.151 Y67.95 E565.60223
G0 F9000 X48.716 Y67.95
G1 F1800 X132.815 Y152.049 E570.34914
G0 F9000 X133.381 Y152.049
G1 F1800 X49.282 Y67.95 E575.09605
G0 F9000 X49.848 Y67.95
G1 F1800 X133.947 Y152.049 E579.84296
G0 F9000 X134.512 Y152.049
G1 F1800 X50.413 Y67.95 E584.58987
G0 F9000 X50.979 Y67.95
G1 F1800 X135.078 Y152.049 E589.33678
G0 F9000 X135.644 Y152.049
G1 F1800 X51.545 Y67.95 E594.08369
G0 F9000 X52.11 Y67.95
G1 F1800 X136.209 Y152.049 E598.8306
G0 F9000 X136.775 Y152.049
G1 F1800 X52.676 Y67.95 E603.57752
G0 F9000 X53.242 Y67.95
G1 F1800 X137.341 Y152.049 E608.32443
G0 F9000 X137.907 Y152.049
G1 F1800 X53.807 Y67.95 E613.07137
G0 F9000 X54.373 Y67.95
G1 F1800 X138.472 Y152.049 E617.81828
G0 F9000 X139.038 Y152.049
G1 F1800 X54.939 Y67.95 E622.56519
G0 F9000 X55.505 Y67.95
G1 F1800 X139.604 Y152.049 E627.3121
G0 F9000 X140.169 Y152.049
G1 F1800 X56.07 Y67.95 E632.05901
G0 F9000 X56.636 Y67.95
G1 F1800 X140.735 Y152.049 E636.80592
G0 F9000 X141.301 Y152.049
G1 F1800 X57.202 Y67.95 E641.55283
G0 F9000 X57.767 Y67.95
G1 F1800 X141.866 Y152.049 E646.29974
G0 F9000 X142.432 Y152.049
G1 F1800 X58.333 Y67.95 E651.04665
G0 F9000 X58.899 Y67.95
G1 F1800 X142.998 Y152.049 E655.79356
G0 F9000 X143.563 Y152.049
G1 F1800 X59.464 Y67.95 E660.54047
G0 F9000 X60.03 Y67.95
G1 F1800 X144.129 Y152.049 E665.28739
G0 F9000 X144.695 Y152.049
G1 F1800 X60.596 Y67.95 E670.0343
G0 F9000 X61.161 Y67.95
G1 F1800 X145.26 Y152.049 E674.78121
G0 F9000 X145.826 Y152.049
G1 F1800 X61.727 Y67.95 E679.52812
G0 F9000 X62.293 Y67.95
G1 F1800 X146.392 Y152.049 E684.27503
G0 F9000 X146.958 Y152.049
G1 F1800 X62.858 Y67.95 E689.02197
G0 F9000 X63.424 Y67.95
G1 F1800 X147.523 Y152.049 E693.76888
G0 F9000 X148.089 Y152.049
G1 F1800 X63.99 Y67.95 E698.51579
G0 F9000 X64.556 Y67.95
G1 F1800 X148.655 Y152.049 E703.2627
G0 F9000 X149.22 Y152.049
G1 F1800 X65.121 Y67.95 E708.00961
G0 F9000 X65.687 Y67.95
G1 F1800 X149.786 Y152.049 E712.75652
G0 F9000 X150.352 Y152.049
G1 F1800 X66.253 Y67.95 E717.50343
G0 F9000 X66.818 Y67.95
G1 F1800 X150.917 Y152.049 E722.25035
G0 F9000 X151.483 Y152.049
G1 F1800 X67.384 Y67.95 E726.99726
G0 F9000 X67.95 Y67.95
G1 F1800 X152.049 Y152.049 E731.74417
G0 F9000 X152.614 Y152.049
G1 F1800 X68.515 Y67.95 E736.49108
G0 F9000 X69.081 Y67.95
G1 F1800 X153.18 Y152.049 E741.23799
G0 F9000 X153.746 Y152.049
G1 F1800 X69.647 Y67.95 E745.9849
G0 F9000 X70.212 Y67.95
G1 F1800 X154.311 Y152.049 E750.73181
G0 F9000 X154.877 Y152.049
G1 F1800 X70.778 Y67.95 E755.47872
G0 F9000 X71.344 Y67.95
G1 F1800 X155.443 Y152.049 E760.22563
G0 F9000 X156.008 Y152.049
G1 F1800 X71.909 Y67.95 E764.97254
G0 F9000 X72.475 Y67.95
G1 F1800 X156.574 Y152.049 E769.71945
G0 F9000 X157.14 Y152.049
G1 F1800 X73.041 Y67.95 E774.46637
G0 F9000 X73.606 Y67.95
G1 F1800 X157.706 Y152.049 E779.2133
G0 F9000 X158.271 Y152.049
G1 F1800 X74.172 Y67.95 E783.96022
G0 F9000 X74.738 Y67.95
G1 F1800 X158.837 Y152.049 E788.70713
G0 F9000 X159.403 Y152.049
G1 F1800 X75.304 Y67.95 E793.45404
G0 F9000 X75.869 Y67.95
G1 F1800 X159.968 Y152.049 E798.20095
G0 F9000 X160.534 Y152.049
G1 F1800 X76.435 Y67.95 E802.94786
G0 F9000 X77.001 Y67.95
G1 F1800 X161.1 Y152.049 E807.69477
G0 F9000 X161.665 Y152.049
G1 F1800 X77.566 Y67.95 E812.44168
G0 F9000 X78.132 Y67.95
G1 F1800 X162.231 Y152.049 E817.18859
G0 F9000 X162.797 Y152.049
G1 F1800 X78.698 Y67.95 E821.9355
G0 F9000 X79.263 Y67.95
G1 F1800 X163.362 Y152.049 E826.68241
G0 F9000 X163.928 Y152.049
G1 F1800 X79.829 Y67.95 E831.42933
G0 F9000 X80.395 Y67.95
