;FLAVOR:Marlin
;TIME:18607
;Filament used: 16.434m
;Layer height: 0.24
;MINX:22.3
;MINY:80.3
;MINZ:0.28
;MAXX:197.7
;MAXY:139.7
;MAXZ:38.08
;Generated with Cura_SteamEngine 4.5.0
M140 S110
M105
M190 S110
M104 S240
M105
M109 S240
M82 ;absolute extrusion mode
M201 X500.00 Y500.00 Z100.00 E5000.00 ;Setup machine max acceleration
M203 X500.00 Y500.00 Z10.00 E50.00 ;Setup machine max feedrate
M204 P500.00 R1000.00 T500.00 ;Setup Print/Retract/Travel acceleration
M205 X8.00 Y8.00 Z0.40 E5.00 ;Setup Jerk
M220 S100 ;Reset Feedrate
M221 S100 ;Reset Flowrate

G28 ;Home

G92 E0 ;Reset Extruder
G1 Z2.0 F3000 ;Move Z Axis up
G1 X10.1 Y20 Z0.28 F5000.0 ;Move to start position
G1 X10.1 Y200.0 Z0.28 F1500.0 E15 ;Draw the first line
G1 X10.4 Y200.0 Z0.28 F5000.0 ;Move to side a little
G1 X10.4 Y20 Z0.28 F1500.0 E30 ;Draw the second line
G92 E0 ;Reset Extruder
G1 Z2.0 F3000 ;Move Z Axis up

G92 E0
G92 E0
G1 F1800 E-3
;LAYER_COUNT:137
;LAYER:0
M107
M205 X6 Y6
G0 F9000 X29.488 Y80.762 Z0.28
;TYPE:SKIRT
G1 F1800 E0
G1 F2400 X30.395 Y80.526 E0.04364
G1 X31.328 Y80.374 E0.08766
G1 X32.268 Y80.31 E0.13153
G1 X34.594 Y80.3 E0.23984
G1 X187.5 Y80.3 E7.35978
G1 X188.23 Y80.33 E7.3938
G1 X189.143 Y80.438 E7.43661
G1 X190.064 Y80.633 E7.48045
G1 X190.962 Y80.91 E7.52421
G1 X191.833 Y81.272 E7.56813
G1 X192.669 Y81.714 E7.61216
G1 X193.452 Y82.224 E7.65567
G1 X194.194 Y82.813 E7.69979
G1 X194.87 Y83.456 E7.74323
G1 X195.493 Y84.172 E7.78742
G1 X196.041 Y84.936 E7.8312
G1 X196.517 Y85.745 E7.87491
G1 X196.918 Y86.6 E7.91888
G1 X197.238 Y87.488 E7.96284
G1 X197.474 Y88.395 E8.00648
G1 X197.626 Y89.325 E8.05036
G1 X197.69 Y90.267 E8.09432
G1 X197.7 Y94.977 E8.31364
G1 X197.7 Y137.5 E10.29369
G1 X197.66 Y137.917 E10.31319
G1 X197.542 Y138.319 E10.3327
G1 X197.349 Y138.691 E10.35222
G1 X197.09 Y139.02 E10.37171
G1 X196.773 Y139.294 E10.39122
G1 X196.41 Y139.503 E10.41073
G1 X196.013 Y139.639 E10.43027
G1 X195.5 Y139.7 E10.45432
G1 X24.5 Y139.7 E18.4168
G1 X24.083 Y139.66 E18.43631
G1 X23.681 Y139.542 E18.45582
G1 X23.309 Y139.349 E18.47533
G1 X22.98 Y139.09 E18.49483
G1 X22.706 Y138.773 E18.51434
G1 X22.497 Y138.41 E18.53384
G1 X22.361 Y138.013 E18.55338
G1 X22.3 Y137.5 E18.57744
G1 X22.3 Y90.5 E20.76596
G1 X22.33 Y89.771 E20.79993
G1 X22.438 Y88.857 E20.84278
G1 X22.633 Y87.936 E20.88662
G1 X22.909 Y87.041 E20.93023
G1 X23.272 Y86.167 E20.9743
G1 X23.712 Y85.333 E21.01821
G1 X24.224 Y84.548 E21.06185
G1 X24.813 Y83.806 E21.10596
G1 X25.456 Y83.13 E21.1494
G1 X26.172 Y82.507 E21.1936
G1 X26.939 Y81.957 E21.23755
G1 X27.745 Y81.483 E21.28109
G1 X28.6 Y81.082 E21.32506
G1 X29.488 Y80.762 E21.36901
G0 F9000 X29.62 Y81.14
G1 F2400 X30.492 Y80.914 E21.41096
G1 X31.388 Y80.77 E21.45321
G1 X32.291 Y80.709 E21.49536
G1 X34.595 Y80.7 E21.60264
G1 X187.5 Y80.7 E28.72254
G1 X188.213 Y80.73 E28.75577
G1 X189.093 Y80.835 E28.79704
G1 X189.977 Y81.024 E28.83913
G1 X190.84 Y81.291 E28.88119
G1 X191.676 Y81.64 E28.92338
G1 X192.478 Y82.066 E28.96566
G1 X193.23 Y82.557 E29.00748
G1 X193.942 Y83.124 E29.04986
G1 X194.591 Y83.743 E29.09163
G1 X195.188 Y84.432 E29.13408
G1 X195.714 Y85.166 E29.17612
G1 X196.17 Y85.945 E29.21816
G1 X196.554 Y86.766 E29.26036
G1 X196.86 Y87.62 E29.3026
G1 X197.086 Y88.492 E29.34455
G1 X197.23 Y89.385 E29.38667
G1 X197.291 Y90.29 E29.4289
G1 X197.3 Y94.978 E29.6472
G1 X197.3 Y137.5 E31.6272
G1 X197.26 Y137.877 E31.64485
G1 X197.142 Y138.237 E31.66249
G1 X196.952 Y138.564 E31.6801
G1 X196.697 Y138.845 E31.69777
G1 X196.388 Y139.065 E31.71543
G1 X196.041 Y139.217 E31.73307
G1 X195.5 Y139.3 E31.75856
G1 X24.5 Y139.3 E39.72104
G1 X24.123 Y139.26 E39.73869
G1 X23.763 Y139.142 E39.75633
G1 X23.436 Y138.952 E39.77394
G1 X23.155 Y138.697 E39.79161
G1 X22.935 Y138.388 E39.80927
G1 X22.783 Y138.041 E39.82691
G1 X22.7 Y137.5 E39.8524
G1 X22.7 Y90.5 E42.04091
G1 X22.73 Y89.788 E42.0741
G1 X22.835 Y88.908 E42.11536
G1 X23.024 Y88.023 E42.1575
G1 X23.29 Y87.163 E42.19942
G1 X23.64 Y86.324 E42.24175
G1 X24.064 Y85.524 E42.28391
G1 X24.557 Y84.769 E42.3259
G1 X25.124 Y84.058 E42.36824
G1 X25.743 Y83.409 E42.41
G1 X26.432 Y82.812 E42.45246
G1 X27.169 Y82.284 E42.49467
G1 X27.944 Y81.83 E42.53649
G1 X28.766 Y81.446 E42.57874
G1 X29.62 Y81.14 E42.62098
G0 F9000 X29.752 Y81.517
G1 F2400 X30.588 Y81.303 E42.66117
G1 X31.449 Y81.165 E42.70177
G1 X32.314 Y81.108 E42.74213
G1 X34.596 Y81.1 E42.84839
G1 X187.5 Y81.1 E49.96825
G1 X188.195 Y81.129 E50.00064
G1 X189.042 Y81.232 E50.04037
G1 X189.891 Y81.414 E50.0808
G1 X190.718 Y81.672 E50.12114
G1 X191.519 Y82.007 E50.16156
G1 X192.287 Y82.417 E50.2021
G1 X193.009 Y82.89 E50.24229
G1 X193.69 Y83.434 E50.28288
G1 X194.313 Y84.03 E50.32303
G1 X194.883 Y84.691 E50.36367
G1 X195.387 Y85.396 E50.40402
G1 X195.824 Y86.144 E50.44436
G1 X196.19 Y86.932 E50.48482
G1 X196.483 Y87.752 E50.52537
G1 X196.697 Y88.588 E50.56555
G1 X196.835 Y89.446 E50.60601
G1 X196.892 Y90.313 E50.64647
G1 X196.9 Y94.978 E50.86369
G1 X196.9 Y137.5 E52.8437
G1 X196.86 Y137.832 E52.85927
G1 X196.743 Y138.144 E52.87478
G1 X196.555 Y138.421 E52.89037
G1 X196.307 Y138.644 E52.9059
G1 X196.013 Y138.803 E52.92147
G1 X195.5 Y138.9 E52.94578
G1 X24.5 Y138.9 E60.90825
G1 X24.168 Y138.86 E60.92382
G1 X23.856 Y138.743 E60.93934
G1 X23.579 Y138.555 E60.95493
G1 X23.356 Y138.307 E60.97046
G1 X23.197 Y138.013 E60.98602
G1 X23.1 Y137.5 E61.01033
G1 X23.1 Y90.5 E63.19885
G1 X23.129 Y89.806 E63.23119
G1 X23.232 Y88.958 E63.27097
G1 X23.414 Y88.109 E63.3114
G1 X23.671 Y87.284 E63.35164
G1 X24.008 Y86.481 E63.39219
G1 X24.416 Y85.714 E63.43264
G1 X24.89 Y84.991 E63.4729
G1 X25.434 Y84.31 E63.51348
G1 X26.03 Y83.687 E63.55363
G1 X26.691 Y83.117 E63.59427
G1 X27.399 Y82.612 E63.63477
G1 X28.144 Y82.176 E63.67496
G1 X28.932 Y81.81 E63.71542
G1 X29.752 Y81.517 E63.75596
G0 F9000 X29.883 Y81.895
G1 F2400 X30.685 Y81.691 E63.7945
G1 X31.509 Y81.56 E63.83335
G1 X32.338 Y81.508 E63.87203
G1 X34.597 Y81.5 E63.97722
G1 X187.5 Y81.5 E71.09702
G1 X188.177 Y81.529 E71.12857
G1 X188.992 Y81.629 E71.16681
G1 X189.804 Y81.805 E71.20549
G1 X190.596 Y82.053 E71.24414
G1 X191.362 Y82.375 E71.28283
G1 X192.097 Y82.769 E71.32166
G1 X192.787 Y83.223 E71.36012
G1 X193.439 Y83.745 E71.39901
G1 X194.034 Y84.317 E71.43745
G1 X194.579 Y84.95 E71.47634
G1 X195.06 Y85.627 E71.51501
G1 X195.477 Y86.344 E71.55363
G1 X195.827 Y87.098 E71.59234
G1 X196.105 Y87.883 E71.63112
G1 X196.309 Y88.685 E71.66965
G1 X196.439 Y89.507 E71.7084
G1 X196.492 Y90.337 E71.74713
G1 X196.5 Y94.979 E71.96328
G1 X196.5 Y137.5 E73.94324
G1 X196.46 Y137.779 E73.95636
G1 X196.344 Y138.036 E73.96949
G1 X196.161 Y138.251 E73.98264
G1 X195.925 Y138.405 E73.99576
G1 X195.5 Y138.5 E74.01604
G1 X24.5 Y138.5 E81.97851
G1 X24.221 Y138.46 E81.99164
G1 X23.964 Y138.344 E82.00477
G1 X23.749 Y138.161 E82.01792
G1 X23.595 Y137.925 E82.03104
G1 X23.5 Y137.5 E82.05132
G1 X23.5 Y90.5 E84.23983
G1 X23.529 Y89.824 E84.27134
G1 X23.629 Y89.008 E84.30962
G1 X23.805 Y88.196 E84.34831
G1 X24.052 Y87.406 E84.38685
G1 X24.375 Y86.638 E84.42564
G1 X24.768 Y85.905 E84.46437
G1 X25.223 Y85.212 E84.50297
G1 X25.745 Y84.561 E84.54183
G1 X26.317 Y83.966 E84.58026
G1 X26.95 Y83.421 E84.61916
G1 X27.629 Y82.939 E84.65793
G1 X28.343 Y82.523 E84.69641
G1 X29.098 Y82.173 E84.73516
G1 X29.883 Y81.895 E84.77394
G0 F9000 X30.015 Y82.273
G1 F2400 X30.782 Y82.079 E84.81077
G1 X31.569 Y81.956 E84.84787
G1 X32.361 Y81.907 E84.88481
G1 X34.598 Y81.9 E84.98898
G1 X187.5 Y81.9 E92.10874
G1 X188.16 Y81.929 E92.1395
G1 X188.942 Y82.026 E92.17619
G1 X189.718 Y82.195 E92.21317
G1 X190.475 Y82.434 E92.25014
G1 X191.205 Y82.743 E92.28705
G1 X191.906 Y83.121 E92.32413
G1 X192.566 Y83.556 E92.36094
G1 X193.187 Y84.056 E92.39806
G1 X193.756 Y84.604 E92.43485
G1 X194.274 Y85.209 E92.47194
G1 X194.733 Y85.857 E92.50891
G1 X195.13 Y86.543 E92.54582
G1 X195.463 Y87.265 E92.58284
G1 X195.727 Y88.015 E92.61986
G1 X195.921 Y88.782 E92.6567
G1 X196.044 Y89.567 E92.6937
G1 X196.093 Y90.36 E92.7307
G1 X196.1 Y94.979 E92.94578
G1 X196.1 Y137.499 E94.92569
G1 X196.061 Y137.714 E94.93586
G1 X195.947 Y137.9 E94.94602
G1 X195.774 Y138.034 E94.95621
G1 X195.5 Y138.1 E94.96933
G1 X24.5 Y138.1 E102.93181
G1 X24.285 Y138.06 E102.94199
G1 X24.099 Y137.947 E102.95213
G1 X23.966 Y137.774 E102.96229
G1 X23.9 Y137.5 E102.97541
G1 X23.9 Y90.5 E105.16393
G1 X23.929 Y89.841 E105.19464
G1 X24.026 Y89.059 E105.23134
G1 X24.195 Y88.282 E105.26836
G1 X24.433 Y87.528 E105.30518
G1 X24.743 Y86.795 E105.34224
G1 X25.119 Y86.095 E105.37924
G1 X25.556 Y85.434 E105.41614
G1 X26.056 Y84.813 E105.45326
G1 X26.604 Y84.244 E105.49004
G1 X27.209 Y83.726 E105.52713
G1 X27.859 Y83.266 E105.56421
G1 X28.543 Y82.87 E105.60101
G1 X29.265 Y82.537 E105.63804
G1 X30.015 Y82.273 E105.67506
G0 F9000 X30.147 Y82.65
G1 F2400 X30.879 Y82.467 E105.71019
G1 X31.63 Y82.351 E105.74558
G1 X32.384 Y82.306 E105.78075
G1 X34.599 Y82.3 E105.88389
G1 X187.509 Y82.3 E113.00402
G1 X188.142 Y82.328 E113.03352
G1 X188.891 Y82.423 E113.06868
G1 X189.631 Y82.586 E113.10396
G1 X190.353 Y82.815 E113.13923
G1 X191.048 Y83.111 E113.17441
G1 X191.715 Y83.472 E113.20972
G1 X192.345 Y83.889 E113.2449
G1 X192.935 Y84.367 E113.28026
G1 X193.477 Y84.891 E113.31536
G1 X193.969 Y85.468 E113.35067
G1 X194.406 Y86.087 E113.38596
G1 X194.783 Y86.742 E113.42115
G1 X195.099 Y87.431 E113.45644
G1 X195.35 Y88.147 E113.49177
G1 X195.533 Y88.879 E113.52691
G1 X195.649 Y89.628 E113.5622
G1 X195.694 Y90.383 E113.59742
G1 X195.7 Y94.98 E113.81147
G1 X195.7 Y137.5 E115.79138
G1 X195.661 Y137.618 E115.79717
G1 X195.5 Y137.7 E115.80558
G1 X24.5 Y137.7 E123.76806
G1 X24.381 Y137.661 E123.77389
G1 X24.3 Y137.5 E123.78228
G1 X24.3 Y90.491 E125.97122
G1 X24.328 Y89.859 E126.00067
G1 X24.423 Y89.109 E126.03588
G1 X24.586 Y88.369 E126.07116
G1 X24.814 Y87.649 E126.10633
G1 X25.111 Y86.952 E126.14161
G1 X25.471 Y86.286 E126.17686
G1 X25.889 Y85.655 E126.2121
G1 X26.367 Y85.065 E126.24746
G1 X26.891 Y84.523 E126.28256
G1 X27.468 Y84.031 E126.31787
G1 X28.089 Y83.593 E126.35326
G1 X28.742 Y83.217 E126.38834
G1 X29.431 Y82.901 E126.42364
G1 X30.147 Y82.65 E126.45897
G1 F1800 E123.45897
;MESH:Object 1
G0 F9000 X32.434 Y83.716
G0 X188.05 Y83.697
G0 X189.287 Y83.914
G0 X190.463 Y84.353
G0 X191.543 Y85.003
G0 X192.488 Y85.843
G0 X193.261 Y86.844
G0 X193.834 Y87.963
G0 X194.19 Y89.156
G0 X194.297 Y90.181
G0 X195 Y137.03
G0 X195.3 Y137.3
;TYPE:WALL-OUTER
G1 F1800 E126.45897
G1 F2400 X24.7 Y137.3 E134.40282
G1 X24.7 Y90.509 E136.58161
G1 X24.728 Y89.875 E136.61116
G1 X24.818 Y89.168 E136.64434
G1 X24.973 Y88.464 E136.67791
G1 X25.19 Y87.788 E136.71097
G1 X25.478 Y87.115 E136.74506
G1 X25.814 Y86.491 E136.77806
G1 X26.223 Y85.876 E136.81245
G1 X26.668 Y85.327 E136.84535
G1 X27.174 Y84.807 E136.87914
G1 X27.718 Y84.343 E136.91243
G1 X28.315 Y83.924 E136.9464
G1 X28.933 Y83.569 E136.97958
G1 X29.587 Y83.269 E137.01309
G1 X30.273 Y83.03 E137.04691
G1 X30.963 Y82.858 E137.08002
G1 X31.679 Y82.749 E137.11375
G1 X32.408 Y82.706 E137.14775
G1 X34.601 Y82.7 E137.24987
G1 X187.491 Y82.7 E144.36907
G1 X188.125 Y82.728 E144.39862
G1 X188.832 Y82.818 E144.4318
G1 X189.536 Y82.973 E144.46537
G1 X190.214 Y83.191 E144.49853
G1 X190.885 Y83.478 E144.53252
G1 X191.512 Y83.816 E144.56568
G1 X192.124 Y84.223 E144.59991
G1 X192.673 Y84.668 E144.63281
G1 X193.193 Y85.174 E144.6666
G1 X193.657 Y85.718 E144.69989
G1 X194.078 Y86.318 E144.73402
G1 X194.431 Y86.933 E144.76704
G1 X194.731 Y87.587 E144.80055
G1 X194.97 Y88.273 E144.83437
G1 X195.141 Y88.958 E144.86725
G1 X195.251 Y89.679 E144.90121
G1 X195.294 Y90.408 E144.93521
G1 X195.3 Y94.98 E145.1481
G1 X195.3 Y137.3 E147.1187
G0 F9000 X194.9 Y136.9
;TYPE:WALL-INNER
G1 F2400 X25.1 Y136.9 E155.0253
G1 X25.1 Y90.527 E157.18462
G1 X25.127 Y89.907 E157.21352
G1 X25.213 Y89.237 E157.24497
G1 X25.361 Y88.565 E157.27701
G1 X25.565 Y87.928 E157.30816
G1 X25.839 Y87.288 E157.34058
G1 X26.156 Y86.699 E157.37172
G1 X26.545 Y86.114 E157.40443
G1 X26.968 Y85.593 E157.43568
G1 X27.45 Y85.098 E157.46786
G1 X27.965 Y84.658 E157.4994
G1 X28.528 Y84.263 E157.53142
G1 X29.112 Y83.928 E157.56277
G1 X29.738 Y83.641 E157.59484
G1 X30.392 Y83.412 E157.6271
G1 X31.028 Y83.255 E157.65761
G1 X31.046 Y83.25 E157.65848
G1 X31.064 Y83.248 E157.65932
G1 X31.719 Y83.147 E157.69018
G1 X32.415 Y83.106 E157.72265
G1 X34.602 Y83.1 E157.82448
G1 X187.473 Y83.1 E164.9428
G1 X188.093 Y83.127 E164.97169
G1 X188.763 Y83.213 E165.00315
G1 X189.434 Y83.361 E165.03514
G1 X190.073 Y83.566 E165.06639
G1 X190.712 Y83.839 E165.09875
G1 X191.304 Y84.158 E165.13006
G1 X191.886 Y84.545 E165.1626
G1 X192.407 Y84.968 E165.19385
G1 X192.902 Y85.45 E165.22603
G1 X193.342 Y85.965 E165.25757
G1 X193.739 Y86.531 E165.28976
G1 X194.072 Y87.112 E165.32094
G1 X194.359 Y87.738 E165.35301
G1 X194.588 Y88.392 E165.38527
G1 X194.593 Y88.414 E165.38632
G1 X194.75 Y89.041 E165.41642
G1 X194.849 Y89.698 E165.44736
G1 X194.853 Y89.719 E165.44835
G1 X194.853 Y89.735 E165.4491
G1 X194.892 Y90.385 E165.47942
G1 X194.894 Y90.409 E165.48054
G1 X194.9 Y94.981 E165.69343
G1 X194.9 Y136.9 E167.64536
G0 F9000 X194.5 Y136.5
G1 F2400 X25.5 Y136.5 E175.51471
G1 X25.5 Y90.544 E177.65461
G1 X25.526 Y89.94 E177.68276
G1 X25.608 Y89.307 E177.71248
G1 X25.749 Y88.666 E177.74304
G1 X25.94 Y88.068 E177.77227
G1 X26.2 Y87.461 E177.80302
G1 X26.501 Y86.902 E177.83259
G1 X26.864 Y86.357 E177.86308
G1 X27.268 Y85.859 E177.89294
G1 X27.726 Y85.388 E177.92353
G1 X28.212 Y84.973 E177.95329
G1 X28.741 Y84.602 E177.98337
G1 X29.291 Y84.287 E178.01289
G1 X29.889 Y84.012 E178.04353
G1 X30.513 Y83.794 E178.07431
G1 X31.125 Y83.642 E178.10368
G1 X31.761 Y83.545 E178.13363
G1 X32.422 Y83.506 E178.16447
G1 X34.603 Y83.5 E178.26602
G1 X187.456 Y83.5 E185.3835
G1 X188.06 Y83.526 E185.41165
G1 X188.693 Y83.608 E185.44137
G1 X189.333 Y83.749 E185.47189
G1 X189.933 Y83.941 E185.50122
G1 X190.539 Y84.2 E185.53191
G1 X191.101 Y84.503 E185.56164
G1 X191.643 Y84.864 E185.59196
G1 X192.141 Y85.268 E185.62182
G1 X192.612 Y85.726 E185.65241
G1 X193.027 Y86.212 E185.68217
G1 X193.4 Y86.744 E185.71242
G1 X193.712 Y87.288 E185.74163
G1 X193.988 Y87.889 E185.77242
G1 X194.206 Y88.511 E185.80311
G1 X194.358 Y89.124 E185.83252
G1 X194.455 Y89.759 E185.86243
G1 X194.494 Y90.41 E185.8928
G1 X194.5 Y94.982 E186.10569
G1 X194.5 Y136.5 E188.03894
G0 F9000 X194.11 Y136.11
;TYPE:SKIN
G1 F2400 X25.89 Y136.11 E195.87197
G1 X25.89 Y90.561 E197.99292
G1 X25.916 Y89.957 E198.02107
G1 X25.991 Y89.382 E198.04807
G1 X26.126 Y88.768 E198.07735
G1 X26.306 Y88.206 E198.10483
G1 X26.557 Y87.621 E198.13447
G1 X26.837 Y87.1 E198.16201
G1 X27.173 Y86.596 E198.19021
G1 X27.568 Y86.109 E198.21941
G1 X27.987 Y85.677 E198.24744
G1 X28.441 Y85.289 E198.27524
G1 X28.955 Y84.929 E198.30446
G1 X29.464 Y84.638 E198.33177
G1 X30.042 Y84.372 E198.36139
G1 X30.629 Y84.167 E198.39035
G1 X31.193 Y84.026 E198.41742
G1 X31.798 Y83.935 E198.4459
G1 X32.445 Y83.896 E198.47609
G1 X34.605 Y83.89 E198.57666
G1 X187.439 Y83.89 E205.69326
G1 X188.04 Y83.916 E205.72127
G1 X188.618 Y83.991 E205.74841
G1 X189.237 Y84.127 E205.77792
G1 X189.786 Y84.303 E205.80476
G1 X190.379 Y84.557 E205.8348
G1 X190.903 Y84.839 E205.86251
G1 X191.404 Y85.173 E205.89055
G1 X191.891 Y85.568 E205.91975
G1 X192.323 Y85.987 E205.94777
G1 X192.711 Y86.441 E205.97558
G1 X193.08 Y86.968 E206.00554
G1 X193.362 Y87.462 E206.03202
G1 X193.629 Y88.041 E206.06171
G1 X193.833 Y88.627 E206.0906
G1 X193.972 Y89.183 E206.11729
G1 X194.065 Y89.797 E206.14621
G1 X194.104 Y90.434 E206.17592
G1 X194.11 Y94.982 E206.3877
G1 X194.11 Y136.11 E208.30279
G1 F1800 E205.30279
G0 F9000 X194.39 Y136.11
G0 X194.285 Y89.778
G0 X194.065 Y88.674
G0 X193.468 Y87.084
G0 X193.085 Y87.302
G1 F1800 E208.30279
G1 F2400 X190.689 Y84.906 E208.46057
G0 F9000 X190.898 Y84.519
G0 X189.775 Y84.007
G0 X189.641 Y84.424
G1 F2400 X193.564 Y88.347 E208.71891
G0 F9000 X193.796 Y89.144
G1 F2400 X188.859 Y84.207 E209.04402
G0 F9000 X188.182 Y84.096
G1 F2400 X193.904 Y89.818 E209.42082
G0 F9000 X193.941 Y90.421
G1 F2400 X187.577 Y84.057 E209.8399
G0 F9000 X187.004 Y84.05
G1 F2400 X193.943 Y90.989 E210.29685
G0 F9000 X193.944 Y91.555
G1 F2400 X186.439 Y84.05 E210.79106
