;FLAVOR:Marlin
;TIME:9709
;Filament used: 7.69462m
;Layer height: 0.16
;MINX:69.335
;MINY:69.4
;MINZ:0.24
;MAXX:150.665
;MAXY:151.465
;MAXZ:14.76
;Generated with Cura_SteamEngine 4.5.0
M140 S50
M105
M190 S50
M104 S220
M105
M109 S220
M82 ;absolute extrusion mode
M201 X500.00 Y500.00 Z100.00 E5000.00 ;Setup machine max acceleration
M203 X500.00 Y500.00 Z10.00 E50.00 ;Setup machine max feedrate
M204 P500.00 R1000.00 T500.00 ;Setup Print/Retract/Travel acceleration
M205 X8.00 Y8.00 Z0.40 E5.00 ;Setup Jerk
M220 S100 ;Reset Feedrate
M221 S100 ;Reset Flowrate

G28 ;Home

G92 E0 ;Reset Extruder
G1 Z2.0 F3000 ;Move Z Axis up
G1 X10.1 Y20 Z0.28 F5000.0 ;Move to start position
G1 X10.1 Y200.0 Z0.28 F1500.0 E15 ;Draw the first line
G1 X10.4 Y200.0 Z0.28 F5000.0 ;Move to side a little
G1 X10.4 Y20 Z0.28 F1500.0 E30 ;Draw the second line
G92 E0 ;Reset Extruder
G1 Z2.0 F3000 ;Move Z Axis up

G92 E0
G92 E0
G1 F1800 E-3
;LAYER_COUNT:111
;LAYER:0
M107
;MESH:Object 1
G0 F9000 X141.959 Y145.402 Z0.24
;TYPE:WALL-INNER
G1 F1800 E0
G1 F3000 X78.041 Y145.402 E2.55111
G1 X77.48 Y145.357 E2.57357
G1 X76.99 Y145.24 E2.59367
G1 X76.5 Y145.037 E2.61484
G1 X76.058 Y144.767 E2.63552
G1 X75.668 Y144.432 E2.65604
G1 X75.34 Y144.05 E2.67613
G1 X74.999 Y143.444 E2.70388
G1 X74.827 Y142.962 E2.72431
G1 X74.724 Y142.423 E2.74621
G1 X74.698 Y142.067 E2.76046
G1 X74.697 Y78.141 E5.31188
G1 X74.743 Y77.583 E5.33423
G1 X74.863 Y77.082 E5.35479
G1 X75.062 Y76.599 E5.37564
G1 X75.33 Y76.16 E5.39617
G1 X75.666 Y75.768 E5.41678
G1 X76.058 Y75.433 E5.43736
G1 X76.5 Y75.163 E5.45803
G1 X76.99 Y74.96 E5.4792
G1 X77.48 Y74.843 E5.4993
G1 X78.041 Y74.798 E5.52177
G1 X141.956 Y74.797 E8.07275
G1 X142.518 Y74.843 E8.09526
G1 X143.014 Y74.961 E8.11561
G1 X143.498 Y75.162 E8.13652
G1 X143.942 Y75.433 E8.15729
G1 X144.332 Y75.768 E8.17781
G1 X144.667 Y76.158 E8.19833
G1 X144.938 Y76.602 E8.21909
G1 X145.139 Y77.086 E8.24
G1 X145.257 Y77.582 E8.26035
G1 X145.302 Y78.139 E8.28266
G1 X145.303 Y142.059 E10.83384
G1 X145.257 Y142.618 E10.85623
G1 X145.139 Y143.114 E10.87658
G1 X144.938 Y143.598 E10.89749
G1 X144.667 Y144.042 E10.91825
G1 X144.332 Y144.432 E10.93877
G1 X143.942 Y144.767 E10.95929
G1 X143.498 Y145.038 E10.98006
G1 X143.013 Y145.239 E11.00101
G1 X142.519 Y145.357 E11.02128
G1 X141.959 Y145.402 E11.0437
G0 F9000 X141.978 Y145.802
G1 F3000 X78.022 Y145.802 E13.59633
G1 X77.419 Y145.754 E13.62047
G1 X76.864 Y145.621 E13.64325
G1 X76.32 Y145.396 E13.66674
G1 X75.822 Y145.091 E13.69005
G1 X75.384 Y144.716 E13.71306
G1 X75.01 Y144.28 E13.73599
G1 X74.633 Y143.61 E13.76668
G1 X74.44 Y143.07 E13.78956
G1 X74.327 Y142.475 E13.81374
G1 X74.298 Y142.083 E13.82942
G1 X74.297 Y78.12 E16.38233
G1 X74.346 Y77.521 E16.40631
G1 X74.481 Y76.96 E16.42934
G1 X74.704 Y76.418 E16.45273
G1 X75.006 Y75.924 E16.47584
G1 X75.383 Y75.484 E16.49897
G1 X75.822 Y75.109 E16.52201
G1 X76.32 Y74.804 E16.54532
G1 X76.864 Y74.579 E16.56882
G1 X77.419 Y74.446 E16.5916
G1 X78.022 Y74.398 E16.61574
G1 X141.976 Y74.397 E19.16828
G1 X142.579 Y74.446 E19.19243
G1 X143.14 Y74.58 E19.21545
G1 X143.678 Y74.803 E19.23869
G1 X144.178 Y75.109 E19.26209
G1 X144.616 Y75.484 E19.2851
G1 X144.991 Y75.922 E19.30812
G1 X145.297 Y76.422 E19.33151
G1 X145.52 Y76.96 E19.35476
G1 X145.527 Y76.993 E19.3561
G1 X145.654 Y77.521 E19.37778
G1 X145.702 Y78.119 E19.40172
G1 X145.703 Y142.08 E21.95454
G1 X145.654 Y142.679 E21.97853
G1 X145.52 Y143.24 E22.00155
G1 X145.297 Y143.778 E22.0248
G1 X144.991 Y144.278 E22.04819
G1 X144.616 Y144.716 E22.07121
G1 X144.178 Y145.091 E22.09422
G1 X143.678 Y145.397 E22.11762
G1 X143.14 Y145.62 E22.14086
G1 X142.58 Y145.754 E22.16384
G1 X141.978 Y145.802 E22.18795
G0 F9000 X141.997 Y146.202
;TYPE:WALL-OUTER
G1 F3000 X78.003 Y146.202 E24.74208
G1 X77.358 Y146.151 E24.76791
G1 X76.737 Y146.002 E24.7934
G1 X76.14 Y145.755 E24.81918
G1 X75.586 Y145.415 E24.84513
G1 X75.1 Y145 E24.87063
G1 X74.683 Y144.513 E24.89622
G1 X74.266 Y143.773 E24.93012
G1 X74.053 Y143.176 E24.95542
G1 X73.93 Y142.525 E24.98187
G1 X73.898 Y142.1 E24.99888
G1 X73.897 Y78.1 E27.55326
G1 X73.949 Y77.458 E27.57896
G1 X74.099 Y76.835 E27.60454
G1 X74.345 Y76.239 E27.63027
G1 X74.682 Y75.688 E27.65605
G1 X75.1 Y75.2 E27.6817
G1 X75.586 Y74.785 E27.7072
G1 X76.14 Y74.445 E27.73315
G1 X76.737 Y74.198 E27.75893
G1 X77.358 Y74.049 E27.78442
G1 X78.003 Y73.998 E27.81025
G1 X141.996 Y73.997 E30.36435
G1 X142.642 Y74.049 E30.39021
G1 X143.265 Y74.199 E30.41579
G1 X143.858 Y74.444 E30.4414
G1 X144.414 Y74.785 E30.46743
G1 X144.9 Y75.2 E30.49294
G1 X145.315 Y75.686 E30.51844
G1 X145.656 Y76.242 E30.54447
G1 X145.901 Y76.835 E30.57008
G1 X146.051 Y77.458 E30.59566
G1 X146.102 Y78.1 E30.62136
G1 X146.103 Y142.1 E33.17574
G1 X146.051 Y142.742 E33.20145
G1 X145.901 Y143.365 E33.22703
G1 X145.656 Y143.958 E33.25263
G1 X145.315 Y144.514 E33.27867
G1 X144.9 Y145 E33.30417
G1 X144.414 Y145.415 E33.32968
G1 X143.858 Y145.756 E33.35571
G1 X143.265 Y146.001 E33.38132
G1 X142.642 Y146.151 E33.4069
G1 X141.997 Y146.202 E33.43272
G0 F9000 X141.98 Y145.763
G0 X141.953 Y145.012
;TYPE:SKIN
G1 F3000 X78.047 Y145.012 E35.98335
G1 X77.549 Y144.972 E36.00329
G1 X77.108 Y144.867 E36.02138
G1 X76.678 Y144.688 E36.03997
G1 X76.288 Y144.451 E36.05818
G1 X75.945 Y144.155 E36.07627
G1 X75.661 Y143.824 E36.09367
G1 X75.354 Y143.28 E36.11861
G1 X75.205 Y142.862 E36.13632
G1 X75.109 Y142.36 E36.15672
G1 X75.088 Y142.067 E36.16844
G1 X75.087 Y78.141 E38.71987
G1 X75.129 Y77.647 E38.73965
G1 X75.234 Y77.207 E38.75771
G1 X75.413 Y76.773 E38.77644
G1 X75.647 Y76.39 E38.79436
G1 X75.943 Y76.045 E38.8125
G1 X76.288 Y75.75 E38.83062
G1 X76.678 Y75.512 E38.84885
G1 X77.108 Y75.333 E38.86744
G1 X77.549 Y75.228 E38.88554
G1 X78.047 Y75.188 E38.90548
G1 X141.949 Y75.187 E41.45594
G1 X142.448 Y75.227 E41.47592
G1 X142.896 Y75.334 E41.49431
G1 X143.32 Y75.511 E41.51265
G1 X143.712 Y75.749 E41.53095
G1 X144.055 Y76.045 E41.54903
G1 X144.351 Y76.388 E41.56711
G1 X144.589 Y76.78 E41.58542
G1 X144.766 Y77.204 E41.60376
G1 X144.872 Y77.651 E41.62209
G1 X144.912 Y78.139 E41.64163
G1 X144.913 Y142.059 E44.19282
G1 X144.872 Y142.549 E44.21245
G1 X144.766 Y142.996 E44.23078
G1 X144.589 Y143.42 E44.24912
G1 X144.351 Y143.812 E44.26742
G1 X144.055 Y144.155 E44.2855
G1 X143.712 Y144.451 E44.30359
G1 X143.32 Y144.689 E44.32189
G1 X142.895 Y144.866 E44.34027
G1 X142.45 Y144.972 E44.35852
G1 X141.953 Y145.012 E44.37842
G1 F1800 E41.37842
G0 F9000 X141.975 Y145.29
G0 X78.045 Y145.231
G0 X77.043 Y145.078
G0 X76.16 Y144.63
G0 X75.335 Y143.816
G0 X75.719 Y143.601
G1 F1800 E44.37842
G1 F3000 X76.523 Y144.406 E44.42383
G0 F9000 X76.293 Y144.782
G0 X77.37 Y145.217
G0 X77.472 Y144.788
G1 F3000 X75.324 Y142.641 E44.54505
G0 F9000 X75.247 Y141.998
G1 F3000 X78.099 Y144.85 E44.70603
G0 F9000 X78.665 Y144.85
G1 F3000 X75.247 Y141.432 E44.89895
G0 F9000 X75.247 Y140.866
G1 F3000 X79.231 Y144.85 E45.12383
G0 F9000 X79.797 Y144.85
G1 F3000 X75.247 Y140.301 E45.38062
G0 F9000 X75.247 Y139.735
G1 F3000 X80.362 Y144.85 E45.66933
G0 F9000 X80.928 Y144.85
G1 F3000 X75.247 Y139.169 E45.98999
G0 F9000 X75.247 Y138.604
G1 F3000 X81.494 Y144.85 E46.34257
G0 F9000 X82.059 Y144.85
G1 F3000 X75.247 Y138.038 E46.72707
G0 F9000 X75.247 Y137.472
G1 F3000 X82.625 Y144.85 E47.14352
G0 F9000 X83.191 Y144.85
G1 F3000 X75.247 Y136.907 E47.59188
G0 F9000 X75.247 Y136.341
G1 F3000 X83.756 Y144.85 E48.07217
G0 F9000 X84.322 Y144.85
G1 F3000 X75.247 Y135.775 E48.5844
G0 F9000 X75.247 Y135.21
G1 F3000 X84.888 Y144.85 E49.12855
G0 F9000 X85.453 Y144.85
G1 F3000 X75.247 Y134.644 E49.70462
G0 F9000 X75.247 Y134.078
G1 F3000 X86.019 Y144.85 E50.31264
G0 F9000 X86.585 Y144.85
G1 F3000 X75.247 Y133.513 E50.95258
G0 F9000 X75.247 Y132.947
G1 F3000 X87.15 Y144.85 E51.62444
G0 F9000 X87.716 Y144.85
G1 F3000 X75.247 Y132.381 E52.32824
G0 F9000 X75.247 Y131.816
G1 F3000 X88.282 Y144.85 E53.06396
G0 F9000 X88.847 Y144.85
G1 F3000 X75.247 Y131.25 E53.83161
G0 F9000 X75.247 Y130.684
G1 F3000 X89.413 Y144.85 E54.6312
G0 F9000 X89.979 Y144.85
G1 F3000 X75.247 Y130.118 E55.46273
G0 F9000 X75.247 Y129.553
G1 F3000 X90.545 Y144.85 E56.32619
G0 F9000 X91.11 Y144.85
G1 F3000 X75.247 Y128.987 E57.22157
G0 F9000 X75.247 Y128.421
G1 F3000 X91.676 Y144.85 E58.14889
G0 F9000 X92.242 Y144.85
G1 F3000 X75.247 Y127.856 E59.10813
G0 F9000 X75.247 Y127.29
G1 F3000 X92.807 Y144.85 E60.0993
G0 F9000 X93.373 Y144.85
G1 F3000 X75.247 Y126.724 E61.12241
G0 F9000 X75.247 Y126.159
G1 F3000 X93.939 Y144.85 E62.17744
G0 F9000 X94.504 Y144.85
G1 F3000 X75.247 Y125.593 E63.26438
G0 F9000 X75.247 Y125.027
G1 F3000 X95.07 Y144.85 E64.38328
G0 F9000 X95.636 Y144.85
G1 F3000 X75.247 Y124.462 E65.53409
G0 F9000 X75.247 Y123.896
G1 F3000 X96.201 Y144.85 E66.71683
G0 F9000 X96.767 Y144.85
G1 F3000 X75.247 Y123.33 E67.93151
G0 F9000 X75.247 Y122.765
G1 F3000 X97.333 Y144.85 E69.17811
G0 F9000 X97.898 Y144.85
G1 F3000 X75.247 Y122.199 E70.45663
G0 F9000 X75.247 Y121.633
G1 F3000 X98.464 Y144.85 E71.7671
G0 F9000 X99.03 Y144.85
G1 F3000 X75.247 Y121.067 E73.10951
G0 F9000 X75.247 Y120.502
G1 F3000 X99.595 Y144.85 E74.48382
G0 F9000 X100.161 Y144.85
G1 F3000 X75.247 Y119.936 E75.89008
G0 F9000 X75.247 Y119.37
G1 F3000 X100.727 Y144.85 E77.32828
G0 F9000 X101.293 Y144.85
G1 F3000 X75.247 Y118.805 E78.7984
G0 F9000 X75.247 Y118.239
G1 F3000 X101.858 Y144.85 E80.30044
G0 F9000 X102.424 Y144.85
G1 F3000 X75.247 Y117.673 E81.83442
G0 F9000 X75.247 Y117.108
G1 F3000 X102.99 Y144.85 E83.40033
G0 F9000 X103.555 Y144.85
G1 F3000 X75.247 Y116.542 E84.99816
G0 F9000 X75.247 Y115.976
G1 F3000 X104.121 Y144.85 E86.62793
G0 F9000 X104.687 Y144.85
G1 F3000 X75.247 Y115.411 E88.28962
G0 F9000 X75.247 Y114.845
G1 F3000 X105.252 Y144.85 E89.98323
G0 F9000 X105.818 Y144.85
G1 F3000 X75.247 Y114.279 E91.70879
G0 F9000 X75.247 Y113.714
G1 F3000 X106.384 Y144.85 E93.46627
G0 F9000 X106.949 Y144.85
G1 F3000 X75.247 Y113.148 E95.25567
G0 F9000 X75.247 Y112.582
G1 F3000 X107.515 Y144.85 E97.07702
G0 F9000 X108.081 Y144.85
G1 F3000 X75.247 Y112.017 E98.93028
G0 F9000 X75.247 Y111.451
G1 F3000 X108.646 Y144.85 E100.81546
G0 F9000 X109.212 Y144.85
G1 F3000 X75.247 Y110.885 E102.7326
G0 F9000 X75.247 Y110.319
G1 F3000 X109.778 Y144.85 E104.68167
G0 F9000 X110.344 Y144.85
G1 F3000 X75.247 Y109.754 E106.66267
G0 F9000 X75.247 Y109.188
G1 F3000 X110.909 Y144.85 E108.67559
G0 F9000 X111.475 Y144.85
G1 F3000 X75.247 Y108.622 E110.72045
G0 F9000 X75.247 Y108.057
G1 F3000 X112.041 Y144.85 E112.79724
G0 F9000 X112.606 Y144.85
G1 F3000 X75.247 Y107.491 E114.90594
G0 F9000 X75.247 Y106.925
G1 F3000 X113.172 Y144.85 E117.04659
G0 F9000 X113.738 Y144.85
G1 F3000 X75.247 Y106.36 E119.21916
G0 F9000 X75.247 Y105.794
G1 F3000 X114.303 Y144.85 E121.42365
G0 F9000 X114.869 Y144.85
G1 F3000 X75.247 Y105.228 E123.66009
G0 F9000 X75.247 Y104.663
G1 F3000 X115.435 Y144.85 E125.92845
G0 F9000 X116 Y144.85
G1 F3000 X75.247 Y104.097 E128.22872
G0 F9000 X75.247 Y103.531
G1 F3000 X116.566 Y144.85 E130.56094
G0 F9000 X117.132 Y144.85
G1 F3000 X75.247 Y102.966 E132.92509
G0 F9000 X75.247 Y102.4
G1 F3000 X117.697 Y144.85 E135.32115
G0 F9000 X118.263 Y144.85
G1 F3000 X75.247 Y101.834 E137.74916
G0 F9000 X75.247 Y101.269
G1 F3000 X118.829 Y144.85 E140.20908
G0 F9000 X119.394 Y144.85
G1 F3000 X75.247 Y100.703 E142.70093
G0 F9000 X75.247 Y100.137
G1 F3000 X119.96 Y144.85 E145.22473
G0 F9000 X120.526 Y144.85
G1 F3000 X75.247 Y99.571 E147.78047
G0 F9000 X75.247 Y99.006
G1 F3000 X121.092 Y144.85 E150.36813
G0 F9000 X121.657 Y144.85
G1 F3000 X75.247 Y98.44 E152.98771
G0 F9000 X75.247 Y97.874
G1 F3000 X122.223 Y144.85 E155.63924
G0 F9000 X122.789 Y144.85
G1 F3000 X75.247 Y97.309 E158.32269
G0 F9000 X75.247 Y96.743
G1 F3000 X123.354 Y144.85 E161.03805
G0 F9000 X123.92 Y144.85
G1 F3000 X75.247 Y96.177 E163.78537
G0 F9000 X75.247 Y95.612
G1 F3000 X124.486 Y144.85 E166.5646
G0 F9000 X125.051 Y144.85
G1 F3000 X75.247 Y95.046 E169.37576
G0 F9000 X75.247 Y94.48
G1 F3000 X125.617 Y144.85 E172.21886
G0 F9000 X126.183 Y144.85
G1 F3000 X75.247 Y93.915 E175.09388
G0 F9000 X75.247 Y93.349
G1 F3000 X126.748 Y144.85 E178.00081
G0 F9000 X127.314 Y144.85
G1 F3000 X75.247 Y92.783 E180.9397
G0 F9000 X75.247 Y92.218
G1 F3000 X127.88 Y144.85 E183.91051
G0 F9000 X128.445 Y144.85
G1 F3000 X75.247 Y91.652 E186.91323
G0 F9000 X75.247 Y91.086
G1 F3000 X129.011 Y144.85 E189.9479
G0 F9000 X129.577 Y144.85
G1 F3000 X75.247 Y90.52 E193.01452
G0 F9000 X75.247 Y89.955
G1 F3000 X130.143 Y144.85 E196.11306
G0 F9000 X130.708 Y144.85
G1 F3000 X75.247 Y89.389 E199.24352
G0 F9000 X75.247 Y88.823
G1 F3000 X131.274 Y144.85 E202.40593
G0 F9000 X131.84 Y144.85
G1 F3000 X75.247 Y88.258 E205.60025
G0 F9000 X75.247 Y87.692
G1 F3000 X132.405 Y144.85 E208.8265
G0 F9000 X132.971 Y144.85
G1 F3000 X75.247 Y87.126 E212.08469
G0 F9000 X75.247 Y86.561
G1 F3000 X133.537 Y144.85 E215.3748
G0 F9000 X134.102 Y144.85
G1 F3000 X75.247 Y85.995 E218.69683
G0 F9000 X75.247 Y85.429
G1 F3000 X134.668 Y144.85 E222.05081
G0 F9000 X135.234 Y144.85
G1 F3000 X75.247 Y84.864 E225.43671
G0 F9000 X75.247 Y84.298
G1 F3000 X135.799 Y144.85 E228.85452
G0 F9000 X136.365 Y144.85
G1 F3000 X75.247 Y83.732 E232.30429
G0 F9000 X75.247 Y83.167
G1 F3000 X136.931 Y144.85 E235.78597
G0 F9000 X137.496 Y144.85
G1 F3000 X75.247 Y82.601 E239.29957
G0 F9000 X75.247 Y82.035
G1 F3000 X138.062 Y144.85 E242.84512
G0 F9000 X138.628 Y144.85
G1 F3000 X75.247 Y81.47 E246.42259
G0 F9000 X75.247 Y80.904
G1 F3000 X139.193 Y144.85 E250.03198
G0 F9000 X139.759 Y144.85
G1 F3000 X75.247 Y80.338 E253.67332
G0 F9000 X75.247 Y79.772
G1 F3000 X140.325 Y144.85 E257.3466
G0 F9000 X140.891 Y144.85
G1 F3000 X75.247 Y79.207 E261.0518
G0 F9000 X75.247 Y78.641
G1 F3000 X141.456 Y144.85 E264.78893
G0 F9000 X142.017 Y144.845
G1 F3000 X75.251 Y78.08 E268.55746
G0 F9000 X75.31 Y77.573
G1 F3000 X142.525 Y144.788 E272.35136
G0 F9000 X142.964 Y144.662
G1 F3000 X75.436 Y77.134 E276.16294
G0 F9000 X75.615 Y76.747
G1 F3000 X143.35 Y144.481 E279.98616
G0 F9000 X143.69 Y144.256
G1 F3000 X75.841 Y76.407 E283.81585
G0 F9000 X76.111 Y76.111
G1 F3000 X143.987 Y143.987 E287.64707
G0 F9000 X144.244 Y143.678
G1 F3000 X76.421 Y75.856 E291.47526
G0 F9000 X76.776 Y75.645
G1 F3000 X144.454 Y143.323 E295.2953
G0 F9000 X144.618 Y142.921
G1 F3000 X77.178 Y75.481 E299.10191
G0 F9000 X77.643 Y75.38
G1 F3000 X144.72 Y142.457 E302.88802
G0 F9000 X144.752 Y141.924
G1 F3000 X78.177 Y75.348 E306.64583
G0 F9000 X78.742 Y75.348
G1 F3000 X144.752 Y141.358 E310.37172
G0 F9000 X144.752 Y140.792
G1 F3000 X79.308 Y75.348 E314.06566
G0 F9000 X79.874 Y75.348
G1 F3000 X144.752 Y140.227 E317.72769
G0 F9000 X144.752 Y139.661
G1 F3000 X80.439 Y75.348 E321.35779
G0 F9000 X81.005 Y75.348
G1 F3000 X144.752 Y139.095 E324.95595
G0 F9000 X144.752 Y138.529
G1 F3000 X81.571 Y75.348 E328.52216
G0 F9000 X82.136 Y75.348
G1 F3000 X144.752 Y137.964 E332.05647
G0 F9000 X144.752 Y137.398
G1 F3000 X82.702 Y75.348 E335.55884
G0 F9000 X83.268 Y75.348
G1 F3000 X144.752 Y136.832 E339.02927
G0 F9000 X144.752 Y136.267
G1 F3000 X83.833 Y75.348 E342.4678
G0 F9000 X84.399 Y75.348
G1 F3000 X144.752 Y135.701 E345.87438
G0 F9000 X144.752 Y135.135
G1 F3000 X84.965 Y75.348 E349.24902
G0 F9000 X85.53 Y75.348
G1 F3000 X144.752 Y134.57 E352.59176
G0 F9000 X144.752 Y134.004
G1 F3000 X86.096 Y75.348 E355.90256
G0 F9000 X86.662 Y75.348
G1 F3000 X144.752 Y133.438 E359.18141
G0 F9000 X144.752 Y132.873
G1 F3000 X87.227 Y75.348 E362.42837
G0 F9000 X87.793 Y75.348
G1 F3000 X144.752 Y132.307 E365.64338
G0 F9000 X144.752 Y131.741
G1 F3000 X88.359 Y75.348 E368.82645
G0 F9000 X88.925 Y75.348
G1 F3000 X144.752 Y131.176 E371.97759
G0 F9000 X144.752 Y130.61
G1 F3000 X89.49 Y75.348 E375.09682
G0 F9000 X90.056 Y75.348
G1 F3000 X144.752 Y130.044 E378.1841
G0 F9000 X144.752 Y129.479
G1 F3000 X90.622 Y75.348 E381.23946
G0 F9000 X91.187 Y75.348
G1 F3000 X144.752 Y128.913 E384.2629
G0 F9000 X144.752 Y128.347
G1 F3000 X91.753 Y75.348 E387.25439
G0 F9000 X92.319 Y75.348
G1 F3000 X144.752 Y127.781 E390.21394
G0 F9000 X144.752 Y127.216
G1 F3000 X92.884 Y75.348 E393.14159
G0 F9000 X93.45 Y75.348
G1 F3000 X144.752 Y126.65 E396.0373
