;FLAVOR:Marlin
;TIME:1772
;Filament used: 2.2291m
;Layer height: 0.2
;MINX:63.4
;MINY:63.4
;MINZ:0.2
;MAXX:156.6
;MAXY:156.6
;MAXZ:1.64
;Generated with Cura_SteamEngine 4.5.0
M140 S50
M105
M190 S50
M104 S215
M105
M109 S215
M82 ;absolute extrusion mode
M201 X500.00 Y500.00 Z100.00 E5000.00 ;Setup machine max acceleration
M203 X500.00 Y500.00 Z10.00 E50.00 ;Setup machine max feedrate
M204 P500.00 R1000.00 T500.00 ;Setup Print/Retract/Travel acceleration
M205 X8.00 Y8.00 Z0.40 E5.00 ;Setup Jerk
M220 S100 ;Reset Feedrate
M221 S100 ;Reset Flowrate

G28 ;Home

G92 E0 ;Reset Extruder
G1 Z2.0 F3000 ;Move Z Axis up
G1 X10.1 Y20 Z0.28 F5000.0 ;Move to start position
G1 X10.1 Y200.0 Z0.28 F1500.0 E15 ;Draw the first line
G1 X10.4 Y200.0 Z0.28 F5000.0 ;Move to side a little
G1 X10.4 Y20 Z0.28 F1500.0 E30 ;Draw the second line
G92 E0 ;Reset Extruder
G1 Z2.0 F3000 ;Move Z Axis up

G92 E0
G92 E0
G1 F1800 E-3
;LAYER_COUNT:9
;LAYER:0
M107
G0 F9000 X68.832 Y68.437 Z0.2
;TYPE:SKIRT
G1 F1800 E0
G1 F3600 X69.248 Y68.054 E0.01881
G1 X69.963 Y67.432 E0.05033
G1 X70.822 Y66.769 E0.08642
G1 X71.37 Y66.397 E0.10845
G1 X72.342 Y65.789 E0.14658
G1 X73.146 Y65.34 E0.17721
G1 X73.702 Y65.08 E0.19762
G1 X74.317 Y64.814 E0.21991
G1 X75.037 Y64.522 E0.24575
G1 X76.22 Y64.127 E0.28723
G1 X76.91 Y63.949 E0.31093
G1 X77.71 Y63.766 E0.33823
G1 X78.922 Y63.562 E0.37911
G1 X79.713 Y63.486 E0.40554
G1 X80.406 Y63.442 E0.42863
G1 X81.376 Y63.414 E0.46091
G1 X138.133 Y63.4 E2.34865
G1 X138.926 Y63.41 E2.37503
G1 X139.893 Y63.456 E2.40723
G1 X140.91 Y63.545 E2.44119
G1 X142.085 Y63.722 E2.48071
G1 X142.906 Y63.904 E2.50868
G1 X143.646 Y64.093 E2.53408
G1 X144.705 Y64.423 E2.57097
G1 X145.43 Y64.705 E2.59685
G1 X146.233 Y65.048 E2.62589
G1 X147.343 Y65.601 E2.66714
G1 X147.999 Y65.988 E2.69247
G1 X148.685 Y66.421 E2.71945
G1 X149.637 Y67.098 E2.7583
G1 X150.272 Y67.62 E2.78564
G1 X150.747 Y68.037 E2.80667
G1 X151.551 Y68.822 E2.84404
G1 X151.994 Y69.303 E2.86579
G1 X152.634 Y70.038 E2.8982
G1 X153.203 Y70.762 E2.92883
G1 X153.534 Y71.252 E2.9485
G1 X153.872 Y71.783 E2.96943
G1 X154.26 Y72.429 E2.9945
G1 X154.753 Y73.37 E3.02983
G1 X155.1 Y74.137 E3.05783
G1 X155.349 Y74.726 E3.0791
G1 X155.76 Y75.879 E3.11981
G1 X155.947 Y76.548 E3.14292
G1 X156.152 Y77.37 E3.17109
G1 X156.381 Y78.586 E3.21225
G1 X156.471 Y79.355 E3.238
G1 X156.525 Y79.973 E3.25863
G1 X156.562 Y80.665 E3.28168
G1 X156.587 Y81.814 E3.31991
G1 X156.6 Y88.22 E3.53297
G1 X156.6 Y138.093 E5.19175
G1 X156.589 Y138.948 E5.22019
G1 X156.549 Y139.81 E5.2489
G1 X156.468 Y140.751 E5.28031
G1 X156.298 Y141.904 E5.31907
G1 X156.168 Y142.539 E5.34063
G1 X155.969 Y143.4 E5.37002
G1 X155.72 Y144.286 E5.40063
G1 X155.525 Y144.827 E5.41976
G1 X155.289 Y145.431 E5.44133
G1 X155.002 Y146.114 E5.46597
G1 X154.498 Y147.133 E5.50378
G1 X154.245 Y147.582 E5.52092
G1 X153.76 Y148.393 E5.55235
G1 X153.087 Y149.377 E5.592
G1 X152.652 Y149.928 E5.61535
G1 X151.998 Y150.705 E5.64913
G1 X151.374 Y151.381 E5.67973
G1 X150.931 Y151.798 E5.69996
G1 X150.494 Y152.185 E5.71938
G1 X149.891 Y152.691 E5.74556
G1 X149.007 Y153.347 E5.78217
G1 X148.574 Y153.635 E5.79947
G1 X147.791 Y154.129 E5.83026
G1 X146.699 Y154.723 E5.87161
G1 X146.071 Y155.01 E5.89457
G1 X145.301 Y155.338 E5.92241
G1 X144.126 Y155.759 E5.96392
G1 X143.64 Y155.897 E5.98073
G1 X143.074 Y156.045 E6.00018
G1 X142.46 Y156.194 E6.0212
G1 X141.556 Y156.372 E6.05184
G1 X140.959 Y156.446 E6.07185
G1 X140.336 Y156.505 E6.09266
G1 X139.61 Y156.557 E6.11687
G1 X138.624 Y156.586 E6.14968
G1 X81.867 Y156.6 E8.03743
G1 X81.074 Y156.59 E8.06381
G1 X80.108 Y156.544 E8.09597
G1 X79.182 Y156.463 E8.12689
G1 X77.941 Y156.271 E8.16865
G1 X77.098 Y156.089 E8.19734
G1 X76.499 Y155.944 E8.21784
G1 X75.385 Y155.592 E8.25669
G1 X74.728 Y155.344 E8.28005
G1 X73.926 Y155.019 E8.30883
G1 X73.09 Y154.632 E8.33947
G1 X72.557 Y154.337 E8.35973
G1 X71.998 Y154.006 E8.38134
G1 X71.296 Y153.567 E8.40888
G1 X70.377 Y152.912 E8.44642
G1 X69.728 Y152.38 E8.47433
G1 X69.253 Y151.963 E8.49535
G1 X68.468 Y151.199 E8.53178
G1 X68.08 Y150.78 E8.55078
G1 X67.44 Y150.046 E8.58317
G1 X66.745 Y149.144 E8.62104
G1 X66.278 Y148.444 E8.64903
G1 X65.865 Y147.779 E8.67506
G1 X65.285 Y146.714 E8.7154
G1 X64.991 Y146.072 E8.73888
G1 X64.662 Y145.3 E8.76679
G1 X64.231 Y144.092 E8.80945
G1 X64.054 Y143.453 E8.83151
G1 X63.849 Y142.632 E8.85965
G1 X63.618 Y141.401 E8.90131
G1 X63.529 Y140.637 E8.92689
G1 X63.478 Y140.051 E8.94646
G1 X63.44 Y139.355 E8.96964
G1 X63.414 Y138.117 E9.01083
G1 X63.4 Y81.867 E10.88171
G1 X63.41 Y81.074 E10.90809
G1 X63.456 Y80.106 E10.94032
G1 X63.537 Y79.184 E10.9711
G1 X63.729 Y77.941 E11.01293
G1 X63.911 Y77.098 E11.04162
G1 X64.052 Y76.513 E11.06163
G1 X64.406 Y75.389 E11.10083
G1 X64.655 Y74.729 E11.12429
G1 X64.981 Y73.926 E11.15311
G1 X65.368 Y73.09 E11.18375
G1 X65.663 Y72.557 E11.20402
G1 X65.994 Y71.998 E11.22562
G1 X66.421 Y71.313 E11.25247
G1 X67.126 Y70.327 E11.29279
G1 X67.608 Y69.743 E11.31797
G1 X68.034 Y69.256 E11.33949
G1 X68.832 Y68.437 E11.37752
G0 F9000 X69.103 Y68.731
G1 F3600 X69.519 Y68.348 E11.39633
G1 X70.223 Y67.736 E11.42736
G1 X71.05 Y67.098 E11.4621
G1 X71.586 Y66.734 E11.48365
G1 X72.553 Y66.129 E11.52159
G1 X73.341 Y65.689 E11.5516
G1 X73.861 Y65.447 E11.57068
G1 X74.476 Y65.181 E11.59297
G1 X75.185 Y64.893 E11.61842
G1 X76.324 Y64.513 E11.65836
G1 X76.999 Y64.339 E11.68154
G1 X77.799 Y64.156 E11.70884
G1 X78.965 Y63.959 E11.74817
G1 X79.739 Y63.885 E11.77403
G1 X80.432 Y63.841 E11.79712
G1 X81.383 Y63.814 E11.82877
G1 X138.133 Y63.8 E13.71628
G1 X138.921 Y63.81 E13.74249
G1 X139.87 Y63.856 E13.77409
G1 X140.873 Y63.943 E13.80758
G1 X142.003 Y64.113 E13.84558
G1 X142.807 Y64.291 E13.87297
G1 X143.547 Y64.48 E13.89837
G1 X144.566 Y64.798 E13.93388
G1 X145.273 Y65.073 E13.95911
G1 X146.076 Y65.416 E13.98815
G1 X147.144 Y65.948 E14.02784
G1 X147.785 Y66.327 E14.0526
G1 X148.471 Y66.76 E14.07959
G1 X149.387 Y67.411 E14.11696
G1 X150.008 Y67.921 E14.14369
G1 X150.483 Y68.338 E14.16471
G1 X151.257 Y69.093 E14.20067
G1 X151.7 Y69.574 E14.22242
G1 X152.33 Y70.299 E14.25437
G1 X152.888 Y71.01 E14.28443
G1 X153.197 Y71.467 E14.30278
G1 X153.535 Y71.998 E14.32371
G1 X153.916 Y72.633 E14.34834
G1 X154.39 Y73.538 E14.38232
G1 X154.732 Y74.292 E14.40986
G1 X154.981 Y74.881 E14.43113
G1 X155.376 Y75.991 E14.47032
G1 X155.559 Y76.645 E14.4929
G1 X155.764 Y77.467 E14.52108
G1 X155.984 Y78.637 E14.56068
G1 X156.072 Y79.39 E14.58589
G1 X156.126 Y80.008 E14.60653
G1 X156.163 Y80.674 E14.62871
G1 X156.188 Y81.823 E14.66694
G1 X156.2 Y88.221 E14.87974
G1 X156.2 Y138.093 E16.53848
G1 X156.189 Y138.943 E16.56676
G1 X156.15 Y139.786 E16.59483
G1 X156.07 Y140.714 E16.62581
G1 X155.906 Y141.824 E16.66313
G1 X155.776 Y142.459 E16.68468
G1 X155.58 Y143.308 E16.71366
G1 X155.334 Y144.177 E16.7437
G1 X155.153 Y144.681 E16.76151
G1 X154.917 Y145.285 E16.78308
G1 X154.634 Y145.957 E16.80733
G1 X154.149 Y146.936 E16.84367
G1 X153.896 Y147.385 E16.86081
G1 X153.418 Y148.186 E16.89184
G1 X152.77 Y149.133 E16.93
G1 X152.341 Y149.676 E16.95302
G1 X151.693 Y150.447 E16.98652
G1 X151.08 Y151.11 E17.01655
G1 X150.665 Y151.498 E17.03545
G1 X150.228 Y151.885 E17.05486
G1 X149.636 Y152.382 E17.08057
G1 X148.786 Y153.014 E17.1158
G1 X148.353 Y153.302 E17.1331
G1 X147.579 Y153.789 E17.16351
G1 X146.528 Y154.361 E17.20331
G1 X145.914 Y154.642 E17.22577
G1 X145.144 Y154.97 E17.25361
G1 X144.013 Y155.375 E17.29356
G1 X143.186 Y155.604 E17.3221
G1 X142.365 Y155.805 E17.35022
G1 X141.479 Y155.979 E17.38025
G1 X140.922 Y156.048 E17.39892
G1 X140.299 Y156.107 E17.41973
G1 X139.584 Y156.157 E17.44357
G1 X138.617 Y156.186 E17.47575
G1 X81.867 Y156.2 E19.36326
G1 X81.08 Y156.19 E19.38944
G1 X80.131 Y156.144 E19.42104
G1 X79.22 Y156.065 E19.45145
G1 X78.025 Y155.88 E19.49167
G1 X77.182 Y155.698 E19.52035
G1 X76.598 Y155.556 E19.54034
G1 X75.526 Y155.218 E19.57773
G1 X74.869 Y154.97 E19.60109
G1 X74.078 Y154.649 E19.62948
G1 X73.259 Y154.269 E19.65951
G1 X72.761 Y153.993 E19.67845
G1 X72.202 Y153.662 E19.70005
G1 X71.511 Y153.229 E19.72718
G1 X70.626 Y152.599 E19.76331
G1 X69.992 Y152.079 E19.79058
G1 X69.517 Y151.662 E19.8116
G1 X68.762 Y150.927 E19.84665
G1 X68.374 Y150.508 E19.86564
G1 X67.743 Y149.785 E19.89756
G1 X67.075 Y148.917 E19.93399
G1 X66.618 Y148.233 E19.96135
G1 X66.205 Y147.568 E19.98738
G1 X65.647 Y146.543 E20.0262
G1 X65.359 Y145.915 E20.04918
G1 X65.03 Y145.143 E20.07709
G1 X64.616 Y143.981 E20.11812
G1 X64.442 Y143.356 E20.1397
G1 X64.237 Y142.535 E20.16784
G1 X64.014 Y141.351 E20.20791
G1 X63.927 Y140.602 E20.23299
G1 X63.876 Y140.016 E20.25256
G1 X63.84 Y139.346 E20.27487
G1 X63.814 Y138.108 E20.31606
G1 X63.8 Y81.867 E22.18664
G1 X63.81 Y81.079 E22.21285
G1 X63.856 Y80.13 E22.24445
G1 X63.935 Y79.221 E22.2748
G1 X64.12 Y78.025 E22.31505
G1 X64.302 Y77.182 E22.34374
G1 X64.44 Y76.612 E22.36324
G1 X64.781 Y75.531 E22.40095
G1 X65.03 Y74.871 E22.42441
G1 X65.351 Y74.078 E22.45286
G1 X65.731 Y73.259 E22.48289
G1 X66.007 Y72.761 E22.50183
G1 X66.338 Y72.202 E22.52344
G1 X66.76 Y71.527 E22.54991
G1 X67.438 Y70.578 E22.5887
G1 X67.909 Y70.006 E22.61335
G1 X68.335 Y69.519 E22.63487
G1 X69.103 Y68.731 E22.67147
G1 F1800 E19.67147
;MESH:Peashooter_Base_Top.stl
G0 F9000 X73.34 Y81.115
G0 X74.419 Y81.2
G0 X75.183 Y138.884
G0 X75.279 Y139.857
G0 X75.518 Y140.777
G0 X75.891 Y141.628
G0 X76.407 Y142.434
G0 X77.038 Y143.146
G0 X77.657 Y143.675
G0 X78.459 Y144.166
G0 X79.272 Y144.487
G0 X81.24 Y145
;TYPE:WALL-INNER
G1 F1800 E22.67147
G1 F3000 X80.23 Y144.92 E22.70516
G1 X79.413 Y144.726 E22.73309
G1 X78.38 Y144.318 E22.77003
G1 X77.557 Y143.814 E22.80213
G1 X76.92 Y143.27 E22.82999
G1 X76.269 Y142.535 E22.86265
G1 X75.742 Y141.712 E22.89515
G1 X75.356 Y140.832 E22.92712
G1 X75.11 Y139.885 E22.95966
G1 X75.012 Y138.894 E22.99278
G1 X75 Y81.237 E24.91046
G1 X75.08 Y80.23 E24.94406
G1 X75.274 Y79.413 E24.97199
G1 X75.682 Y78.38 E25.00893
G1 X76.186 Y77.557 E25.04103
G1 X76.734 Y76.916 E25.06907
G1 X77.463 Y76.271 E25.10145
G1 X78.389 Y75.679 E25.138
G1 X79.29 Y75.306 E25.17044
G1 X80.233 Y75.08 E25.20269
G1 X81.097 Y75.012 E25.23152
G1 X138.76 Y75 E27.14939
G1 X139.767 Y75.08 E27.18299
G1 X140.722 Y75.308 E27.21565
G1 X141.609 Y75.677 E27.2476
G1 X142.443 Y76.186 E27.2801
G1 X143.074 Y76.727 E27.30774
G1 X143.82 Y77.569 E27.34516
G1 X144.258 Y78.283 E27.37302
G1 X144.642 Y79.162 E27.40492
G1 X144.89 Y80.115 E27.43768
G1 X144.988 Y81.106 E27.4708
G1 X145 Y88.402 E27.71346
G1 X145 Y138.764 E29.38851
G1 X144.931 Y139.634 E29.41754
G1 X144.691 Y140.724 E29.45466
G1 X144.371 Y141.494 E29.48239
G1 X143.878 Y142.336 E29.51485
G1 X143.173 Y143.19 E29.55168
G1 X142.546 Y143.725 E29.57909
G1 X141.715 Y144.256 E29.61189
G1 X140.831 Y144.644 E29.644
G1 X139.761 Y144.922 E29.68077
G1 X138.903 Y144.988 E29.70939
G1 X81.24 Y145 E31.62727
G0 F9000 X81.221 Y145.4
G1 F3000 X80.171 Y145.317 E31.6623
G1 X79.291 Y145.108 E31.69239
G1 X78.201 Y144.677 E31.73137
G1 X77.321 Y144.138 E31.76569
G1 X76.642 Y143.558 E31.7954
G1 X76.622 Y143.535 E31.79641
G1 X75.946 Y142.773 E31.83029
G1 X75.39 Y141.904 E31.8646
G1 X75.377 Y141.873 E31.86572
G1 X74.991 Y140.993 E31.89768
G1 X74.977 Y140.963 E31.89878
G1 X74.97 Y140.933 E31.89981
G1 X74.715 Y139.956 E31.93339
G1 X74.612 Y138.913 E31.96825
G1 X74.6 Y81.218 E33.88719
G1 X74.683 Y80.171 E33.92213
G1 X74.892 Y79.291 E33.95221
G1 X75.323 Y78.201 E33.99119
G1 X75.862 Y77.321 E34.02552
G1 X76.446 Y76.638 E34.05541
G1 X76.469 Y76.618 E34.05642
G1 X77.222 Y75.95 E34.0899
G1 X78.207 Y75.321 E34.12877
G1 X79.163 Y74.925 E34.16319
G1 X80.172 Y74.683 E34.1977
G1 X81.079 Y74.612 E34.22796
G1 X138.779 Y74.6 E36.14707
G1 X139.828 Y74.683 E36.18207
G1 X140.843 Y74.926 E36.21678
G1 X141.794 Y75.321 E36.25103
G1 X142.679 Y75.862 E36.28553
G1 X143.357 Y76.442 E36.3152
G1 X144.142 Y77.329 E36.3546
G1 X144.611 Y78.094 E36.38445
G1 X144.623 Y78.123 E36.38549
G1 X145.007 Y79.001 E36.41736
G1 X145.022 Y79.034 E36.41857
G1 X145.285 Y80.044 E36.45328
G1 X145.388 Y81.087 E36.48814
G1 X145.4 Y88.401 E36.73141
G1 X145.4 Y138.782 E38.40708
G1 X145.328 Y139.694 E38.43751
G1 X145.075 Y140.84 E38.47655
G1 X144.729 Y141.674 E38.50658
G1 X144.207 Y142.566 E38.54095
G1 X143.459 Y143.472 E38.58003
G1 X142.786 Y144.046 E38.60945
G1 X141.904 Y144.61 E38.64427
G1 X140.962 Y145.023 E38.67848
G1 X140.932 Y145.03 E38.6795
G1 X139.862 Y145.308 E38.71627
G1 X139.826 Y145.318 E38.71752
G1 X138.921 Y145.388 E38.74771
G1 X81.221 Y145.4 E40.66682
G0 F9000 X81.203 Y145.8
;TYPE:WALL-OUTER
G1 F3000 X80.11 Y145.714 E40.70328
G1 X79.17 Y145.49 E40.73542
G1 X78.022 Y145.036 E40.77648
G1 X77.085 Y144.462 E40.81303
G1 X76.36 Y143.843 E40.84474
G1 X75.625 Y143.015 E40.88156
G1 X75.037 Y142.096 E40.91785
G1 X74.598 Y141.094 E40.95423
G1 X74.32 Y140.027 E40.99091
G1 X74.212 Y138.932 E41.0275
G1 X74.2 Y81.2 E42.94768
G1 X74.286 Y80.11 E42.98404
G1 X74.51 Y79.17 E43.01618
G1 X74.964 Y78.022 E43.05724
G1 X75.538 Y77.085 E43.09379
G1 X76.157 Y76.36 E43.1255
G1 X76.981 Y75.629 E43.16213
G1 X78.025 Y74.963 E43.20332
G1 X79.036 Y74.544 E43.23972
G1 X80.111 Y74.286 E43.27649
G1 X81.061 Y74.212 E43.30818
G1 X138.797 Y74.2 E45.22849
G1 X139.889 Y74.286 E45.26492
G1 X140.964 Y74.544 E45.30169
G1 X141.979 Y74.965 E45.33824
G1 X142.915 Y75.538 E45.37474
G1 X143.64 Y76.157 E45.40645
G1 X144.464 Y77.089 E45.44783
G1 X144.964 Y77.905 E45.47966
G1 X145.402 Y78.906 E45.516
G1 X145.68 Y79.973 E45.55267
G1 X145.788 Y81.068 E45.58927
G1 X145.8 Y88.4 E45.83313
G1 X145.8 Y138.8 E47.50944
G1 X145.725 Y139.754 E47.54127
G1 X145.458 Y140.961 E47.58239
G1 X145.09 Y141.849 E47.61436
G1 X144.533 Y142.8 E47.65101
G1 X143.75 Y143.749 E47.69193
G1 X143.019 Y144.372 E47.72388
G1 X142.096 Y144.963 E47.76033
G1 X141.094 Y145.402 E47.79672
G1 X139.889 Y145.714 E47.83812
G1 X138.939 Y145.788 E47.86981
G1 X81.203 Y145.8 E49.79012
G0 F9000 X81.22 Y145.361
G0 X81.245 Y144.61
;TYPE:SKIN
G1 F3000 X80.299 Y144.535 E49.82168
G1 X79.528 Y144.352 E49.84803
G1 X78.554 Y143.967 E49.88287
G1 X77.783 Y143.495 E49.91294
G1 X77.199 Y142.996 E49.93849
G1 X76.578 Y142.295 E49.96963
G1 X76.087 Y141.528 E49.99992
G1 X75.728 Y140.709 E50.02967
G1 X75.494 Y139.813 E50.06047
G1 X75.402 Y138.875 E50.09181
G1 X75.39 Y81.237 E52.00886
G1 X75.465 Y80.299 E52.04016
G1 X75.648 Y79.528 E52.06652
G1 X76.033 Y78.554 E52.10135
G1 X76.505 Y77.783 E52.13142
G1 X77.008 Y77.195 E52.15715
G1 X77.699 Y76.584 E52.18783
G1 X78.567 Y76.028 E52.22212
G1 X79.418 Y75.676 E52.25275
G1 X80.297 Y75.466 E52.28281
G1 X81.102 Y75.402 E52.30966
G1 X138.755 Y75.39 E54.22721
G1 X139.698 Y75.465 E54.25867
G1 X140.604 Y75.681 E54.28965
G1 X141.431 Y76.026 E54.31946
G1 X142.213 Y76.503 E54.34992
G1 X142.798 Y77.005 E54.37556
G1 X143.508 Y77.805 E54.41114
G1 X143.912 Y78.464 E54.43685
G1 X144.27 Y79.285 E54.46664
G1 X144.506 Y80.187 E54.49765
G1 X144.598 Y81.125 E54.52899
G1 X144.61 Y88.402 E54.77103
G1 X144.61 Y138.764 E56.44608
G1 X144.546 Y139.57 E56.47297
G1 X144.318 Y140.607 E56.50828
G1 X144.022 Y141.317 E56.53387
G1 X143.556 Y142.114 E56.56457
G1 X142.895 Y142.915 E56.59912
G1 X142.314 Y143.41 E56.6245
G1 X141.527 Y143.914 E56.65559
G1 X140.708 Y144.272 E56.68531
G1 X139.689 Y144.537 E56.72033
G1 X138.899 Y144.598 E56.74669
G1 X81.245 Y144.61 E58.66427
G0 F9000 X81.223 Y144.887
G0 X80.441 Y144.778
G0 X78.699 Y144.326
G0 X78.861 Y143.915
G1 F3000 X76.095 Y141.149 E58.79437
G0 F9000 X75.777 Y140.265
G1 F3000 X79.751 Y144.239 E58.9813
G0 F9000 X80.465 Y144.387
G1 F3000 X75.628 Y139.551 E59.20879
G0 F9000 X75.567 Y138.923
G1 F3000 X81.078 Y144.435 E59.46803
G0 F9000 X81.657 Y144.448
G1 F3000 X75.561 Y138.352 E59.75477
G0 F9000 X75.561 Y137.786
G1 F3000 X82.223 Y144.448 E60.06813
G0 F9000 X82.788 Y144.448
G1 F3000 X75.561 Y137.221 E60.40807
G0 F9000 X75.561 Y136.655
G1 F3000 X83.354 Y144.448 E60.77463
G0 F9000 X83.92 Y144.448
G1 F3000 X75.561 Y136.089 E61.16781
G0 F9000 X75.561 Y135.524
G1 F3000 X84.485 Y144.448 E61.58757
G0 F9000 X85.05 Y144.447
G1 F3000 X75.56 Y134.957 E62.03395
G0 F9000 X75.56 Y134.392
G1 F3000 X85.616 Y144.447 E62.50693
G0 F9000 X86.182 Y144.447
G1 F3000 X75.56 Y133.826 E63.00653
