;FLAVOR:Marlin
;TIME:5952
;Filament used: 4.02255m
;Layer height: 0.2
;MINX:78.12
;MINY:74.304
;MINZ:0.24
;MAXX:140.625
;MAXY:145.7
;MAXZ:49.08
;Generated with Cura_SteamEngine 4.7.1
M140 S50
M105
M190 S50
M104 S215
M105
M109 S215
M82 ;absolute extrusion mode
M201 X500.00 Y500.00 Z100.00 E5000.00 ;Setup machine max acceleration
M203 X500.00 Y500.00 Z10.00 E50.00 ;Setup machine max feedrate
M204 P500.00 R1000.00 T500.00 ;Setup Print/Retract/Travel acceleration
M205 X8.00 Y8.00 Z0.40 E5.00 ;Setup Jerk
M220 S100 ;Reset Feedrate
M221 S100 ;Reset Flowrate

G28 ;Home

G92 E0 ;Reset Extruder
G1 Z2.0 F3000 ;Move Z Axis up
G1 X10.1 Y20 Z0.28 F5000.0 ;Move to start position
G1 X10.1 Y200.0 Z0.28 F1500.0 E15 ;Draw the first line
G1 X10.4 Y200.0 Z0.28 F5000.0 ;Move to side a little
G1 X10.4 Y20 Z0.28 F1500.0 E30 ;Draw the second line
G92 E0 ;Reset Extruder
G1 Z2.0 F3000 ;Move Z Axis up

G92 E0
G92 E0
G1 F1800 E-3
;LAYER_COUNT:286
;LAYER:0
M106 S63.8
M204 S500
M205 X6 Y6
G0 F9000 X117.387 Y76.903 Z0.24
;TYPE:SKIRT
G1 F1800 E0
G1 X117.646 Y76.573 E0.01674
G1 X117.864 Y76.374 E0.02852
G1 X118.344 Y75.991 E0.05303
G1 X118.524 Y75.862 E0.06187
G1 X119.081 Y75.503 E0.08832
G1 X119.362 Y75.35 E0.10109
G1 X120.518 Y74.824 E0.15178
G1 X120.851 Y74.703 E0.16592
G1 X121.556 Y74.511 E0.19508
G1 X121.882 Y74.448 E0.20834
G1 X123.037 Y74.315 E0.25474
G1 X123.4 Y74.304 E0.26923
G1 X124.569 Y74.363 E0.31595
G1 X124.996 Y74.427 E0.33318
G1 X126.165 Y74.722 E0.3813
G1 X126.51 Y74.84 E0.39586
G1 X127.533 Y75.288 E0.44043
G1 X127.742 Y75.393 E0.44977
G1 X136.375 Y80.327 E0.84663
G1 X136.572 Y80.454 E0.85599
G1 X137.55 Y81.161 E0.90415
G1 X137.841 Y81.415 E0.91957
G1 X138.527 Y82.11 E0.95854
G1 X138.791 Y82.434 E0.97523
G1 X139.523 Y83.531 E1.02786
G1 X139.697 Y83.845 E1.04219
G1 X140.017 Y84.552 E1.07316
G1 X140.104 Y84.776 E1.08275
G1 X140.304 Y85.388 E1.10845
G1 X140.38 Y85.693 E1.121
G1 X140.563 Y86.742 E1.1635
G1 X140.596 Y87.095 E1.17765
G1 X140.625 Y89.698 E1.28155
G1 X140.622 Y89.845 E1.28741
G1 X140.589 Y90.438 E1.31112
G1 X140.563 Y90.672 E1.32052
G1 X140.479 Y91.184 E1.34122
G1 X140.395 Y91.524 E1.3552
G1 X140.233 Y92.01 E1.37565
G1 X139.828 Y92.779 E1.41034
G1 X139.405 Y93.283 E1.4366
G1 X138.75 Y93.806 E1.47005
G1 X137.962 Y94.124 E1.50397
G1 X137.368 Y94.242 E1.52814
G1 X136.611 Y94.241 E1.55835
G1 X135.824 Y94.089 E1.59034
G1 X135.116 Y93.849 E1.62018
G1 X134.835 Y93.731 E1.63234
G1 X134.361 Y93.493 E1.65351
G1 X134.158 Y93.377 E1.66285
G1 X133.721 Y93.096 E1.68358
G1 X133.039 Y92.491 E1.71997
G1 X132.692 Y92.05 E1.74237
G1 X132.251 Y91.223 E1.77977
G1 X132.053 Y90.529 E1.80858
G1 X131.963 Y89.746 E1.84003
G1 X131.96 Y87.793 E1.91798
G1 X131.882 Y87.696 E1.92295
G1 X123.571 Y82.95 E2.30494
G1 X123.567 Y83.179 E2.31408
G1 X123.568 Y138.409 E4.51843
G1 X123.567 Y140.335 E4.5953
G1 X123.558 Y140.536 E4.60333
G1 X123.508 Y141.079 E4.62509
G1 X123.426 Y141.504 E4.64237
G1 X123.22 Y142.197 E4.67122
G1 X122.855 Y142.988 E4.70599
G1 X122.641 Y143.323 E4.72186
G1 X122.228 Y143.858 E4.74883
G1 X121.615 Y144.459 E4.7831
G1 X121.344 Y144.667 E4.79673
G1 X120.921 Y144.943 E4.81689
G1 X120.61 Y145.113 E4.83104
G1 X120.138 Y145.322 E4.85164
G1 X119.795 Y145.441 E4.86613
G1 X119.231 Y145.586 E4.88937
G1 X118.875 Y145.647 E4.90379
G1 X118.36 Y145.692 E4.92442
G1 X118.168 Y145.7 E4.93209
G1 X83.52 Y145.7 E6.31497
G1 X83.325 Y145.691 E6.32276
G1 X82.752 Y145.64 E6.34572
G1 X82.247 Y145.535 E6.3663
G1 X81.368 Y145.24 E6.40331
G1 X80.771 Y144.931 E6.43014
G1 X79.934 Y144.32 E6.4715
G1 X79.463 Y143.853 E6.49797
G1 X78.931 Y143.135 E6.53364
G1 X78.632 Y142.579 E6.55884
G1 X78.322 Y141.729 E6.59495
G1 X78.201 Y141.209 E6.61626
G1 X78.133 Y140.572 E6.64182
G1 X78.121 Y140.338 E6.65118
G1 X78.12 Y132.097 E6.98009
G1 X78.16 Y131.68 E6.99681
G1 X78.278 Y131.278 E7.01353
G1 X78.47 Y130.906 E7.03024
G1 X78.73 Y130.577 E7.04698
G1 X79.047 Y130.303 E7.0637
G1 X79.41 Y130.094 E7.08042
G1 X79.807 Y129.958 E7.09717
G1 X80.342 Y129.897 E7.11866
G1 X81.542 Y129.909 E7.16656
G1 X82.495 Y129.927 E7.2046
G1 X82.911 Y129.975 E7.22131
G1 X83.311 Y130.101 E7.23805
G1 X83.679 Y130.3 E7.25475
G1 X84.003 Y130.566 E7.27148
G1 X84.271 Y130.888 E7.2882
G1 X84.473 Y131.255 E7.30492
G1 X84.602 Y131.654 E7.32166
G1 X84.653 Y132.127 E7.34065
G1 X84.652 Y139.19 E7.62255
G1 X117.035 Y139.189 E8.91502
G1 X117.036 Y78.651 E11.33122
G1 X117.036 Y78.094 E11.35345
G1 X117.076 Y77.677 E11.37017
G1 X117.194 Y77.275 E11.3869
G1 X117.387 Y76.903 E11.40362
G0 F9000 X117.784 Y77.03
G1 F1800 X118.113 Y76.687 E11.42259
G1 X118.593 Y76.304 E11.4471
G1 X118.741 Y76.198 E11.45437
G1 X119.298 Y75.839 E11.48082
G1 X119.528 Y75.714 E11.49126
G1 X120.684 Y75.188 E11.54195
G1 X120.956 Y75.089 E11.55351
G1 X121.661 Y74.897 E11.58267
G1 X121.928 Y74.846 E11.59352
G1 X123.083 Y74.713 E11.63992
G1 X123.38 Y74.703 E11.65178
G1 X124.549 Y74.762 E11.6985
G1 X124.898 Y74.815 E11.71259
G1 X126.067 Y75.11 E11.76071
G1 X126.349 Y75.206 E11.7726
G1 X127.372 Y75.654 E11.81717
G1 X127.543 Y75.74 E11.82481
G1 X136.176 Y80.674 E12.22168
G1 X136.338 Y80.778 E12.22936
G1 X137.316 Y81.485 E12.27753
G1 X137.556 Y81.696 E12.29028
G1 X138.242 Y82.391 E12.32926
G1 X138.458 Y82.656 E12.3429
G1 X139.19 Y83.753 E12.39554
G1 X139.333 Y84.01 E12.40728
G1 X139.653 Y84.717 E12.43825
G1 X139.724 Y84.9 E12.44608
G1 X139.924 Y85.512 E12.47178
G1 X139.986 Y85.762 E12.48206
G1 X140.169 Y86.811 E12.52456
G1 X140.196 Y87.1 E12.53615
G1 X140.225 Y89.703 E12.64004
G1 X140.222 Y89.823 E12.64484
G1 X140.189 Y90.416 E12.66854
G1 X140.168 Y90.607 E12.67621
G1 X140.084 Y91.119 E12.69692
G1 X140.016 Y91.397 E12.70834
G1 X139.854 Y91.883 E12.72879
G1 X139.487 Y92.571 E12.75991
G1 X139.141 Y92.983 E12.78138
G1 X138.516 Y93.479 E12.81323
G1 X137.831 Y93.746 E12.84257
G1 X137.345 Y93.843 E12.86235
G1 X136.669 Y93.845 E12.88933
G1 X135.952 Y93.71 E12.91845
G1 X135.244 Y93.47 E12.94829
G1 X135.014 Y93.374 E12.95824
G1 X134.54 Y93.136 E12.97941
G1 X134.374 Y93.041 E12.98704
G1 X133.937 Y92.76 E13.00778
G1 X133.319 Y92.205 E13.04093
G1 X133.035 Y91.845 E13.05923
G1 X132.629 Y91.092 E13.09337
G1 X132.449 Y90.473 E13.1191
G1 X132.363 Y89.746 E13.14832
G1 X132.36 Y87.739 E13.22842
G1 X132.261 Y87.485 E13.2393
G1 X132.11 Y87.366 E13.24698
G1 X123.739 Y82.586 E13.63172
G1 X123.559 Y82.521 E13.63935
G1 X123.378 Y82.559 E13.64674
G1 X123.235 Y82.65 E13.6535
G1 X123.174 Y82.831 E13.66112
G1 X123.167 Y83.171 E13.6747
G1 X123.168 Y138.409 E15.87936
G1 X123.167 Y140.334 E15.9562
G1 X123.159 Y140.499 E15.96279
G1 X123.109 Y141.042 E15.98455
G1 X123.042 Y141.39 E15.9987
G1 X122.836 Y142.083 E16.02755
G1 X122.5 Y142.804 E16.0593
G1 X122.325 Y143.079 E16.07231
G1 X121.912 Y143.614 E16.09929
G1 X121.347 Y144.162 E16.1307
G1 X121.126 Y144.332 E16.14183
G1 X120.703 Y144.608 E16.16199
G1 X120.448 Y144.747 E16.17358
G1 X119.976 Y144.956 E16.19418
G1 X119.695 Y145.053 E16.20605
G1 X119.131 Y145.198 E16.22929
G1 X118.84 Y145.248 E16.24107
G1 X118.325 Y145.293 E16.26171
G1 X118.168 Y145.3 E16.26798
G1 X83.52 Y145.3 E17.65086
G1 X83.36 Y145.293 E17.65725
G1 X82.787 Y145.242 E17.68021
G1 X82.374 Y145.155 E17.69705
G1 X81.495 Y144.86 E17.73406
G1 X81.007 Y144.608 E17.75598
G1 X80.17 Y143.997 E17.79734
G1 X79.785 Y143.615 E17.81899
G1 X79.253 Y142.897 E17.85465
G1 X79.008 Y142.442 E17.87528
G1 X78.698 Y141.592 E17.91139
G1 X78.599 Y141.166 E17.92885
G1 X78.531 Y140.529 E17.95441
G1 X78.521 Y140.338 E17.96205
G1 X78.52 Y132.097 E18.29096
G1 X78.56 Y131.72 E18.3061
G1 X78.678 Y131.36 E18.32122
G1 X78.868 Y131.033 E18.33631
G1 X79.123 Y130.752 E18.35146
G1 X79.431 Y130.532 E18.36656
G1 X79.779 Y130.38 E18.38172
G1 X80.338 Y130.297 E18.40427
G1 X81.534 Y130.309 E18.45201
G1 X82.487 Y130.327 E18.49005
G1 X82.863 Y130.374 E18.50518
G1 X83.221 Y130.499 E18.52031
G1 X83.545 Y130.696 E18.53545
G1 X83.82 Y130.956 E18.55055
G1 X84.035 Y131.268 E18.56567
G1 X84.18 Y131.618 E18.5808
G1 X84.253 Y132.127 E18.60132
G1 X84.252 Y139.59 E18.89918
G1 X117.435 Y139.589 E20.22359
G1 X117.436 Y78.651 E22.65576
G1 X117.436 Y78.094 E22.67799
G1 X117.476 Y77.717 E22.69312
G1 X117.594 Y77.357 E22.70824
G1 X117.784 Y77.03 E22.72333
G0 F9000 X117.993 Y77.45
G1 F1800 X118.181 Y77.173 E22.73669
G1 X118.363 Y77 E22.74672
G1 X118.843 Y76.617 E22.77123
G1 X118.958 Y76.534 E22.77689
G1 X119.515 Y76.175 E22.80333
G1 X119.693 Y76.078 E22.81143
G1 X120.849 Y75.552 E22.86212
G1 X121.061 Y75.475 E22.87112
G1 X121.766 Y75.283 E22.90028
G1 X121.974 Y75.243 E22.90873
G1 X123.129 Y75.11 E22.95514
G1 X123.36 Y75.103 E22.96436
G1 X124.529 Y75.162 E23.01108
G1 X124.801 Y75.203 E23.02206
G1 X125.97 Y75.498 E23.07018
G1 X126.189 Y75.573 E23.07942
G1 X127.212 Y76.021 E23.12399
G1 X127.345 Y76.088 E23.12993
G1 X135.978 Y81.022 E23.5268
G1 X136.103 Y81.102 E23.53272
G1 X137.081 Y81.809 E23.58089
G1 X137.271 Y81.977 E23.59101
G1 X137.957 Y82.672 E23.62999
G1 X138.126 Y82.878 E23.64062
G1 X138.858 Y83.975 E23.69326
G1 X138.968 Y84.175 E23.70237
G1 X139.288 Y84.882 E23.73334
G1 X139.344 Y85.024 E23.73943
G1 X139.544 Y85.636 E23.76513
G1 X139.592 Y85.83 E23.77311
G1 X139.775 Y86.879 E23.81561
G1 X139.796 Y87.104 E23.82463
G1 X139.825 Y89.707 E23.92853
G1 X139.823 Y89.801 E23.93228
G1 X139.79 Y90.394 E23.95598
G1 X139.774 Y90.543 E23.96196
G1 X139.69 Y91.055 E23.98267
G1 X139.636 Y91.271 E23.99156
G1 X139.474 Y91.757 E24.012
G1 X139.146 Y92.362 E24.03947
G1 X138.877 Y92.682 E24.05616
G1 X138.286 Y93.148 E24.0862
G1 X137.7 Y93.368 E24.11118
G1 X137.012 Y93.462 E24.13889
G1 X136.326 Y93.39 E24.16642
G1 X136.081 Y93.331 E24.17648
G1 X135.373 Y93.091 E24.20632
G1 X135.194 Y93.016 E24.21406
G1 X134.72 Y92.778 E24.23523
G1 X134.591 Y92.705 E24.24115
G1 X134.154 Y92.424 E24.26189
G1 X133.599 Y91.92 E24.29181
G1 X133.378 Y91.64 E24.30604
G1 X133.007 Y90.961 E24.33693
G1 X132.845 Y90.416 E24.35962
G1 X132.763 Y89.745 E24.3866
G1 X132.76 Y87.714 E24.46766
G1 X132.636 Y87.318 E24.48422
G1 X132.331 Y87.032 E24.50091
G1 X123.921 Y82.229 E24.88746
G1 X123.667 Y82.128 E24.89837
G1 X123.529 Y82.119 E24.90388
G1 X123.227 Y82.181 E24.91619
G1 X122.902 Y82.423 E24.93236
G1 X122.774 Y82.782 E24.94757
G1 X122.767 Y83.163 E24.96278
G1 X122.768 Y138.409 E27.16777
G1 X122.767 Y140.334 E27.2446
G1 X122.761 Y140.462 E27.24972
G1 X122.711 Y141.005 E27.27148
G1 X122.659 Y141.276 E27.28249
G1 X122.453 Y141.969 E27.31135
G1 X122.144 Y142.621 E27.34015
G1 X122.008 Y142.834 E27.35023
G1 X121.595 Y143.369 E27.37721
G1 X121.079 Y143.865 E27.40577
G1 X120.907 Y143.997 E27.41443
G1 X120.484 Y144.273 E27.43459
G1 X120.286 Y144.381 E27.44359
G1 X119.814 Y144.59 E27.46419
G1 X119.596 Y144.666 E27.47341
G1 X119.032 Y144.811 E27.49665
G1 X118.805 Y144.85 E27.50584
G1 X118.29 Y144.895 E27.52647
G1 X118.168 Y144.9 E27.53135
G1 X83.52 Y144.9 E28.91422
G1 X83.396 Y144.894 E28.91918
G1 X82.823 Y144.843 E28.94214
G1 X82.502 Y144.776 E28.95523
G1 X81.623 Y144.481 E28.99223
G1 X81.243 Y144.285 E29.0093
G1 X80.406 Y143.674 E29.05066
G1 X80.106 Y143.376 E29.06753
G1 X79.574 Y142.658 E29.1032
G1 X79.384 Y142.305 E29.1192
G1 X79.074 Y141.455 E29.15531
G1 X78.997 Y141.124 E29.16888
G1 X78.929 Y140.487 E29.19444
G1 X78.921 Y140.338 E29.2004
G1 X78.92 Y132.097 E29.52932
G1 X78.96 Y131.765 E29.54266
G1 X79.077 Y131.453 E29.55596
G1 X79.265 Y131.177 E29.56929
G1 X79.513 Y130.953 E29.58263
G1 X79.807 Y130.794 E29.59597
G1 X80.334 Y130.697 E29.61736
G1 X81.526 Y130.709 E29.66493
G1 X82.479 Y130.727 E29.70298
G1 X82.81 Y130.773 E29.71631
G1 X83.121 Y130.897 E29.72968
G1 X83.393 Y131.09 E29.74299
G1 X83.612 Y131.342 E29.75631
G1 X83.765 Y131.639 E29.76965
G1 X83.853 Y132.127 E29.78944
G1 X83.852 Y139.99 E30.10327
G1 X117.835 Y139.989 E31.4596
G1 X117.836 Y78.651 E33.90774
G1 X117.836 Y78.094 E33.92997
G1 X117.876 Y77.762 E33.94331
G1 X117.993 Y77.45 E33.95661
G0 F9000 X118.392 Y77.558
G1 F1800 X118.612 Y77.312 E33.96979
G1 X119.092 Y76.929 E33.99429
G1 X119.174 Y76.87 E33.99833
G1 X119.731 Y76.511 E34.02478
G1 X119.859 Y76.442 E34.03058
G1 X121.015 Y75.916 E34.08127
G1 X121.166 Y75.861 E34.08768
G1 X121.871 Y75.669 E34.11685
G1 X122.02 Y75.641 E34.1229
G1 X123.175 Y75.508 E34.1693
G1 X123.339 Y75.502 E34.17585
G1 X124.508 Y75.561 E34.22257
G1 X124.703 Y75.59 E34.23044
G1 X125.872 Y75.885 E34.27856
G1 X126.028 Y75.939 E34.28514
G1 X127.051 Y76.387 E34.32972
G1 X127.146 Y76.435 E34.33397
G1 X135.779 Y81.369 E34.73083
G1 X135.869 Y81.427 E34.73511
G1 X136.847 Y82.134 E34.78327
G1 X136.987 Y82.258 E34.79074
G1 X137.673 Y82.953 E34.82971
G1 X137.793 Y83.1 E34.83728
G1 X138.525 Y84.197 E34.88992
G1 X138.604 Y84.34 E34.89644
G1 X138.924 Y85.047 E34.92742
G1 X138.964 Y85.148 E34.93175
G1 X139.164 Y85.76 E34.95745
G1 X139.198 Y85.899 E34.96316
G1 X139.381 Y86.948 E35.00566
G1 X139.396 Y87.109 E35.01211
G1 X139.425 Y89.712 E35.11601
G1 X139.423 Y89.779 E35.11869
G1 X139.39 Y90.372 E35.14239
G1 X139.379 Y90.478 E35.14664
G1 X139.295 Y90.99 E35.16735
G1 X139.257 Y91.144 E35.17368
G1 X139.095 Y91.63 E35.19413
G1 X138.805 Y92.153 E35.218
G1 X138.612 Y92.382 E35.22995
G1 X138.297 Y92.659 E35.24669
G1 X137.965 Y92.853 E35.26204
G1 X137.298 Y93.044 E35.28973
G1 X136.785 Y93.053 E35.31021
G1 X136.209 Y92.952 E35.33355
G1 X135.501 Y92.712 E35.36339
G1 X135.373 Y92.659 E35.36892
G1 X134.899 Y92.421 E35.39009
G1 X134.807 Y92.368 E35.39432
G1 X134.37 Y92.087 E35.41506
G1 X133.879 Y91.635 E35.4417
G1 X133.472 Y91.016 E35.47126
G1 X133.286 Y90.544 E35.49151
G1 X133.173 Y89.885 E35.5182
G1 X133.163 Y89.744 E35.52384
G1 X133.16 Y87.689 E35.60586
G1 X133.139 Y87.516 E35.61282
G1 X132.989 Y87.12 E35.62972
G1 X132.839 Y86.923 E35.6396
G1 X132.554 Y86.698 E35.65409
G1 X124.104 Y81.873 E36.04246
G1 X123.731 Y81.731 E36.05839
G1 X123.499 Y81.716 E36.06767
G1 X123.073 Y81.804 E36.08503
G1 X122.713 Y82.034 E36.10208
G1 X122.568 Y82.196 E36.11076
G1 X122.438 Y82.452 E36.12222
G1 X122.375 Y82.739 E36.13394
G1 X122.367 Y83.155 E36.15055
G1 X122.368 Y138.409 E38.35586
G1 X122.367 Y140.334 E38.43269
G1 X122.363 Y140.426 E38.43636
G1 X122.313 Y140.969 E38.45813
G1 X122.276 Y141.162 E38.46597
G1 X122.07 Y141.855 E38.49482
G1 X121.789 Y142.437 E38.52062
G1 X121.692 Y142.59 E38.52785
G1 X121.279 Y143.125 E38.55483
G1 X120.812 Y143.568 E38.58052
G1 X120.688 Y143.662 E38.58673
G1 X120.265 Y143.938 E38.60689
G1 X120.124 Y144.015 E38.6133
G1 X119.652 Y144.224 E38.6339
G1 X119.496 Y144.279 E38.6405
G1 X118.932 Y144.424 E38.66374
G1 X118.77 Y144.451 E38.6703
G1 X118.255 Y144.496 E38.69093
G1 X118.168 Y144.5 E38.69441
G1 X83.52 Y144.5 E40.07729
G1 X83.431 Y144.496 E40.08084
G1 X82.858 Y144.445 E40.1038
G1 X82.629 Y144.397 E40.11314
G1 X81.75 Y144.102 E40.15015
G1 X81.478 Y143.962 E40.16236
G1 X80.641 Y143.351 E40.20372
G1 X80.428 Y143.138 E40.21574
G1 X79.896 Y142.42 E40.2514
G1 X79.76 Y142.168 E40.26283
G1 X79.45 Y141.318 E40.29894
G1 X79.395 Y141.081 E40.30866
G1 X79.327 Y140.444 E40.33422
G1 X79.321 Y140.338 E40.33846
G1 X79.32 Y132.097 E40.66738
G1 X79.36 Y131.818 E40.67863
G1 X79.476 Y131.561 E40.68988
G1 X79.659 Y131.346 E40.70115
G1 X79.895 Y131.192 E40.7124
G1 X80.33 Y131.097 E40.73017
G1 X81.519 Y131.109 E40.77763
G1 X82.472 Y131.127 E40.81567
G1 X82.75 Y131.172 E40.82691
G1 X83.005 Y131.293 E40.83817
G1 X83.216 Y131.481 E40.84945
G1 X83.366 Y131.72 E40.86072
G1 X83.453 Y132.127 E40.87733
G1 X83.452 Y140.249 E41.20149
G1 X83.474 Y140.352 E41.2057
G1 X83.6 Y140.39 E41.21095
G1 X118.084 Y140.389 E42.58728
G1 X118.215 Y140.333 E42.59297
G1 X118.235 Y140.234 E42.597
G1 X118.236 Y78.651 E45.05491
G1 X118.236 Y78.094 E45.07714
G1 X118.276 Y77.815 E45.08839
G1 X118.392 Y77.558 E45.09964
G0 F9000 X118.676 Y77.879
G1 F1800 X118.862 Y77.625 E45.11221
G1 X119.342 Y77.242 E45.13672
G1 X119.391 Y77.207 E45.13912
G1 X119.948 Y76.848 E45.16557
G1 X120.025 Y76.806 E45.16907
G1 X121.181 Y76.28 E45.21976
G1 X121.271 Y76.247 E45.22359
G1 X121.976 Y76.055 E45.25275
G1 X122.065 Y76.038 E45.25637
G1 X123.22 Y75.905 E45.30277
G1 X123.319 Y75.902 E45.30672
G1 X124.488 Y75.961 E45.35344
G1 X124.605 Y75.978 E45.35816
G1 X125.774 Y76.273 E45.40628
G1 X125.868 Y76.305 E45.41024
G1 X126.891 Y76.753 E45.45481
G1 X126.948 Y76.782 E45.45737
