;FLAVOR:Marlin
;TIME:3573
;Filament used: 2.22422m
;Layer height: 0.2
;MINX:76.45
;MINY:74.632
;MINZ:0.28
;MAXX:142.312
;MAXY:145.373
;MAXZ:24.48
;Generated with Cura_SteamEngine 4.5.0
M140 S115
M105
M190 S115
M104 S240
M105
M109 S240
M82 ;absolute extrusion mode
M201 X500.00 Y500.00 Z100.00 E5000.00 ;Setup machine max acceleration
M203 X500.00 Y500.00 Z10.00 E50.00 ;Setup machine max feedrate
M204 P500.00 R1000.00 T500.00 ;Setup Print/Retract/Travel acceleration
M205 X8.00 Y8.00 Z0.40 E5.00 ;Setup Jerk
M220 S100 ;Reset Feedrate
M221 S100 ;Reset Flowrate

G28 ;Home

G92 E0 ;Reset Extruder
G1 Z2.0 F3000 ;Move Z Axis up
G1 X10.1 Y20 Z0.28 F5000.0 ;Move to start position
G1 X10.1 Y200.0 Z0.28 F1500.0 E15 ;Draw the first line
G1 X10.4 Y200.0 Z0.28 F5000.0 ;Move to side a little
G1 X10.4 Y20 Z0.28 F1500.0 E30 ;Draw the second line
G92 E0 ;Reset Extruder
G1 Z2.0 F3000 ;Move Z Axis up

G92 E0
G92 E0
G1 F1800 E-3
;LAYER_COUNT:148
;LAYER:0
M107
M205 X6 Y6
G0 F9000 X117.488 Y77.595 Z0.28
;TYPE:SKIRT
G1 F1800 E0
G1 F2400 X117.789 Y77.253 E0.02121
G1 X118.465 Y76.726 E0.06113
G1 X119.253 Y76.232 E0.10443
G1 X120.758 Y75.562 E0.18114
G1 X121.829 Y75.252 E0.23306
G1 X123.415 Y75.045 E0.30754
G1 X125.042 Y75.089 E0.38333
G1 X125.513 Y75.154 E0.40547
G1 X126.705 Y75.433 E0.46247
G1 X128.171 Y76.001 E0.53568
G1 X137.069 Y80.753 E1.00539
G1 X138.482 Y81.663 E1.08365
G1 X138.852 Y81.956 E1.10563
G1 X139.59 Y82.657 E1.15302
G1 X139.914 Y83.029 E1.17599
G1 X140.663 Y84.076 E1.23594
G1 X141.225 Y85.149 E1.29234
G1 X141.543 Y86.008 E1.33499
G1 X141.835 Y87.411 E1.40172
G1 X141.879 Y87.852 E1.42236
G1 X141.912 Y90.273 E1.5351
G1 X141.872 Y91.109 E1.57407
G1 X141.757 Y91.892 E1.61092
G1 X141.458 Y92.843 E1.65734
G1 X141.178 Y93.398 E1.68629
G1 X140.691 Y94.058 E1.72448
G1 X140.073 Y94.575 E1.762
G1 X139.691 Y94.823 E1.7832
G1 X138.864 Y95.13 E1.82428
G1 X138.201 Y95.248 E1.85564
G1 X137.383 Y95.239 E1.89373
G1 X136.559 Y95.085 E1.93276
G1 X135.855 Y94.862 E1.96715
G1 X135.051 Y94.511 E2.008
G1 X134.382 Y94.125 E2.04396
G1 X133.963 Y93.811 E2.06835
G1 X133.584 Y93.463 E2.0923
G1 X133.15 Y92.947 E2.1237
G1 X132.896 Y92.549 E2.14569
G1 X132.637 Y92.017 E2.17324
G1 X132.42 Y91.267 E2.20959
G1 X132.32 Y90.42 E2.24931
G1 X132.318 Y88.814 E2.32409
G1 X124.336 Y84.538 E2.74574
G1 X124.337 Y85.907 E2.80948
G1 X124.701 Y86.201 E2.83127
G1 X125 Y86.545 E2.85249
G1 X125.234 Y86.936 E2.87371
G1 X125.417 Y87.481 E2.90048
G1 X125.773 Y87.877 E2.92528
G1 X126.009 Y88.267 E2.9465
G1 X126.173 Y88.692 E2.96771
G1 X126.261 Y89.139 E2.98893
G1 X126.238 Y90.283 E3.04221
G1 X126.398 Y90.71 E3.06344
G1 X126.489 Y91.275 E3.09009
G1 X126.527 Y92.03 E3.12529
G1 X126.474 Y92.482 E3.14648
G1 X126.343 Y92.919 E3.16772
G1 X126.137 Y93.326 E3.18896
G1 X125.896 Y93.648 E3.20769
G1 X125.738 Y95.321 E3.28594
G1 X125.856 Y95.502 E3.296
G1 X126.035 Y95.921 E3.31722
G1 X126.158 Y96.518 E3.3456
G1 X126.18 Y96.973 E3.36681
G1 X126.122 Y97.425 E3.38803
G1 X125.985 Y97.86 E3.40927
G1 X125.861 Y98.099 E3.42181
G1 X126.114 Y98.697 E3.45204
G1 X126.202 Y99.337 E3.48212
G1 X126.214 Y100.449 E3.53391
G1 X126.334 Y101.084 E3.564
G1 X126.379 Y101.538 E3.58524
G1 X126.34 Y102.012 E3.60739
G1 X126.205 Y102.784 E3.64388
G1 X126.215 Y103.793 E3.69087
G1 X126.179 Y104.247 E3.71207
G1 X126.065 Y104.688 E3.73328
G1 X125.875 Y105.103 E3.75453
G1 X125.574 Y105.524 E3.77863
G1 X125.585 Y105.904 E3.79633
G1 X125.491 Y107.409 E3.86655
G1 X125.423 Y107.86 E3.88779
G1 X125.277 Y108.291 E3.90898
G1 X125.087 Y108.638 E3.9274
G1 X125.351 Y109.215 E3.95695
G1 X125.46 Y109.922 E3.99026
G1 X125.477 Y111.053 E4.04293
G1 X125.465 Y112.074 E4.09047
G1 X125.755 Y112.435 E4.11203
G1 X125.972 Y112.835 E4.13322
G1 X126.117 Y113.268 E4.15449
G1 X126.183 Y113.718 E4.17566
G1 X126.147 Y114.629 E4.21812
G1 X126.08 Y115.08 E4.23935
G1 X125.936 Y115.512 E4.26055
G1 X125.718 Y115.912 E4.28176
G1 X125.468 Y116.21 E4.29988
G1 X125.476 Y117.598 E4.36451
G1 X125.627 Y117.884 E4.37957
G1 X125.925 Y118.229 E4.4008
G1 X126.158 Y118.621 E4.42203
G1 X126.318 Y119.047 E4.44322
G1 X126.413 Y119.641 E4.47123
G1 X126.435 Y120.165 E4.49565
G1 X126.415 Y120.771 E4.52388
G1 X126.301 Y121.213 E4.54514
G1 X126.112 Y121.627 E4.56633
G1 X125.844 Y122.011 E4.58813
G1 X125.817 Y122.429 E4.60764
G1 X125.561 Y123.3 E4.64991
G1 X125.928 Y123.713 E4.67564
G1 X126.161 Y124.105 E4.69687
G1 X126.322 Y124.531 E4.71808
G1 X126.416 Y125.114 E4.74558
G1 X126.55 Y126.22 E4.79745
G1 X126.551 Y126.95 E4.83144
G1 X126.429 Y127.818 E4.87226
G1 X126.427 Y128.581 E4.90779
G1 X126.462 Y129.13 E4.9334
G1 X126.404 Y129.582 E4.95462
G1 X126.268 Y130.017 E4.97585
G1 X126.058 Y130.421 E4.99705
G1 X125.709 Y130.848 E5.02273
G1 X126.061 Y131.279 E5.04864
G1 X126.27 Y131.684 E5.06986
G1 X126.406 Y132.119 E5.09108
G1 X126.463 Y132.571 E5.1123
G1 X126.426 Y133.167 E5.1401
G1 X126.356 Y133.833 E5.17128
G1 X126.217 Y134.267 E5.1925
G1 X126.005 Y134.67 E5.21371
G1 X125.619 Y135.138 E5.24196
G1 X125.153 Y135.585 E5.27202
G1 X124.798 Y135.871 E5.29325
G1 X124.336 Y136.111 E5.31749
G1 X124.336 Y139.033 E5.45355
G1 X124.284 Y139.972 E5.49734
G1 X124.169 Y140.595 E5.52684
G1 X123.955 Y141.276 E5.56008
G1 X123.759 Y141.739 E5.58349
G1 X123.262 Y142.557 E5.62806
G1 X122.858 Y143.05 E5.65774
G1 X122.142 Y143.713 E5.70318
G1 X121.394 Y144.207 E5.74492
G1 X120.548 Y144.589 E5.78814
G1 X119.614 Y144.848 E5.83328
G1 X118.683 Y144.962 E5.87695
G1 X82.739 Y144.973 E7.55065
G1 X81.966 Y144.918 E7.58674
G1 X81.414 Y144.812 E7.61291
G1 X80.508 Y144.533 E7.65706
G1 X80.086 Y144.361 E7.67827
G1 X78.95 Y143.615 E7.74156
G1 X78.596 Y143.328 E7.76278
G1 X77.823 Y142.391 E7.81934
G1 X77.572 Y142.011 E7.84055
G1 X77.117 Y140.924 E7.89542
G1 X76.949 Y140.269 E7.9269
G1 X76.872 Y139.636 E7.9566
G1 X76.85 Y137.607 E8.05108
G1 X76.851 Y131.242 E8.34746
G1 X76.891 Y130.788 E8.36868
G1 X77.01 Y130.348 E8.38991
G1 X77.203 Y129.935 E8.41113
G1 X77.636 Y129.381 E8.44388
G1 X78.11 Y128.974 E8.47297
G1 X78.507 Y128.752 E8.49415
G1 X78.938 Y128.603 E8.51538
G1 X79.612 Y128.524 E8.54698
G1 X81.573 Y128.554 E8.6383
G1 X82.026 Y128.601 E8.65951
G1 X82.464 Y128.726 E8.68072
G1 X82.874 Y128.926 E8.70196
G1 X83.395 Y129.34 E8.73295
G1 X83.797 Y129.809 E8.76171
G1 X84.019 Y130.207 E8.78293
G1 X84.169 Y130.638 E8.80418
G1 X84.247 Y131.271 E8.83388
G1 X84.247 Y137.734 E9.13482
G1 X116.94 Y137.733 E10.65715
G1 X116.941 Y80.421 E13.32583
G1 X116.94 Y79.223 E13.38162
G1 X116.98 Y78.769 E13.40284
G1 X117.209 Y78.069 E13.43713
G1 X117.488 Y77.595 E13.46275
G0 F9000 X117.83 Y77.805
G1 F2400 X118.266 Y77.373 E13.49133
G1 X118.704 Y77.046 E13.51678
G1 X119.461 Y76.574 E13.55832
G1 X120.915 Y75.93 E13.63237
G1 X121.931 Y75.639 E13.68158
G1 X123.459 Y75.443 E13.75331
G1 X125.023 Y75.488 E13.82617
G1 X125.421 Y75.544 E13.84488
G1 X126.613 Y75.823 E13.90189
G1 X128.018 Y76.371 E13.97211
G1 X136.88 Y81.106 E14.43997
G1 X138.263 Y81.998 E14.5166
G1 X138.576 Y82.246 E14.5352
G1 X139.314 Y82.947 E14.58259
G1 X139.588 Y83.262 E14.60203
G1 X140.337 Y84.309 E14.66198
G1 X140.865 Y85.324 E14.71525
G1 X141.166 Y86.14 E14.75575
G1 X141.442 Y87.485 E14.81968
G1 X141.479 Y87.857 E14.83709
G1 X141.512 Y90.278 E14.94983
G1 X141.473 Y91.087 E14.98755
G1 X141.363 Y91.826 E15.02234
G1 X141.082 Y92.706 E15.06535
G1 X140.845 Y93.176 E15.08986
G1 X140.378 Y93.806 E15.12638
G1 X139.827 Y94.26 E15.15962
G1 X139.474 Y94.486 E15.17914
G1 X138.744 Y94.749 E15.21527
G1 X138.182 Y94.849 E15.24185
G1 X137.441 Y94.843 E15.27636
G1 X136.68 Y94.703 E15.31239
G1 X135.976 Y94.48 E15.34677
G1 X135.221 Y94.148 E15.38518
G1 X134.588 Y93.782 E15.41922
G1 X133.854 Y93.168 E15.46378
G1 X133.487 Y92.732 E15.49032
G1 X133.233 Y92.334 E15.51231
G1 X133.014 Y91.884 E15.53561
G1 X132.815 Y91.206 E15.56851
G1 X132.72 Y90.419 E15.60542
G1 X132.717 Y88.584 E15.69087
G1 X124.305 Y84.067 E16.13547
G1 X123.939 Y83.921 E16.15381
G1 X123.937 Y86.12 E16.25621
G1 X124.447 Y86.512 E16.28616
G1 X124.715 Y86.835 E16.3057
G1 X124.916 Y87.202 E16.32519
G1 X125.056 Y87.689 E16.34878
G1 X125.47 Y88.141 E16.37733
G1 X125.678 Y88.504 E16.39681
G1 X125.814 Y88.9 E16.4163
G1 X125.873 Y89.514 E16.44503
G1 X125.833 Y90.388 E16.48576
G1 X126.037 Y90.915 E16.51208
G1 X126.112 Y91.758 E16.55149
G1 X126.126 Y92.052 E16.56519
G1 X126.068 Y92.467 E16.5847
G1 X125.932 Y92.863 E16.6042
G1 X125.723 Y93.227 E16.62375
G1 X125.498 Y93.487 E16.63976
G1 X125.326 Y95.421 E16.73017
G1 X125.577 Y95.842 E16.75299
G1 X125.743 Y96.432 E16.78153
G1 X125.779 Y96.991 E16.80761
G1 X125.715 Y97.405 E16.82712
G1 X125.575 Y97.8 E16.84663
G1 X125.398 Y98.101 E16.86289
G1 X125.624 Y98.499 E16.8842
G1 X125.752 Y98.898 E16.90372
G1 X125.802 Y99.341 E16.92448
G1 X125.815 Y100.488 E16.97789
G1 X125.941 Y101.158 E17.00963
G1 X125.979 Y101.576 E17.02918
G1 X125.805 Y102.751 E17.08449
G1 X125.815 Y103.797 E17.13319
G1 X125.779 Y104.214 E17.15268
G1 X125.665 Y104.617 E17.17219
G1 X125.476 Y104.992 E17.19174
G1 X125.152 Y105.392 E17.21571
G1 X125.186 Y105.879 E17.23844
G1 X125.092 Y107.384 E17.30866
G1 X125.026 Y107.798 E17.32818
G1 X124.883 Y108.192 E17.3477
G1 X124.602 Y108.625 E17.37173
G1 X124.854 Y109.032 E17.39402
G1 X124.994 Y109.427 E17.41354
G1 X125.06 Y109.928 E17.43707
G1 X125.077 Y111.059 E17.48974
G1 X125.067 Y112.257 E17.54552
G1 X125.227 Y112.404 E17.55564
G1 X125.475 Y112.741 E17.57512
G1 X125.655 Y113.12 E17.59466
G1 X125.761 Y113.526 E17.6142
G1 X125.784 Y114.003 E17.63643
G1 X125.748 Y114.605 E17.66452
G1 X125.683 Y115.019 E17.68403
G1 X125.541 Y115.414 E17.70358
G1 X125.327 Y115.774 E17.72308
G1 X125.067 Y116.069 E17.74139
G1 X125.077 Y117.672 E17.81603
G1 X125.235 Y118.061 E17.83558
G1 X125.62 Y118.491 E17.86246
G1 X125.825 Y118.856 E17.88195
G1 X125.958 Y119.253 E17.90145
G1 X126.035 Y120.184 E17.94494
G1 X126.008 Y120.772 E17.97235
G1 X125.888 Y121.173 E17.99184
G1 X125.694 Y121.545 E18.01138
G1 X125.443 Y121.86 E18.03013
G1 X125.417 Y122.402 E18.0554
G1 X125.099 Y123.41 E18.10462
G1 X125.623 Y123.974 E18.14047
G1 X125.829 Y124.339 E18.15998
G1 X125.962 Y124.737 E18.17952
G1 X126.029 Y125.401 E18.2106
G1 X126.154 Y126.276 E18.25175
G1 X126.154 Y126.894 E18.28053
G1 X126.03 Y127.776 E18.322
G1 X126.028 Y128.608 E18.36075
G1 X126.061 Y129.147 E18.38589
G1 X125.998 Y129.562 E18.40544
G1 X125.857 Y129.957 E18.42497
G1 X125.645 Y130.318 E18.44446
G1 X125.368 Y130.632 E18.46396
G1 X125.07 Y130.842 E18.48093
G1 X125.232 Y130.947 E18.48992
G1 X125.534 Y131.237 E18.50942
G1 X125.775 Y131.58 E18.52894
G1 X125.948 Y131.962 E18.54847
G1 X126.044 Y132.37 E18.56798
G1 X126.051 Y132.916 E18.59341
G1 X125.958 Y133.778 E18.63378
G1 X125.821 Y134.174 E18.65329
G1 X125.612 Y134.537 E18.6728
G1 X124.876 Y135.297 E18.72206
G1 X124.547 Y135.557 E18.74158
G1 X124.175 Y135.75 E18.7611
G1 X123.936 Y135.82 E18.7727
G1 X123.936 Y139.033 E18.92231
G1 X123.885 Y139.948 E18.96498
G1 X123.788 Y140.476 E18.98998
G1 X123.574 Y141.157 E19.02322
G1 X123.184 Y141.96 E19.06478
G1 X122.549 Y142.796 E19.11367
G1 X121.883 Y143.408 E19.15578
G1 X121.185 Y143.866 E19.19466
G1 X120.397 Y144.219 E19.23486
G1 X119.518 Y144.46 E19.2773
G1 X118.647 Y144.564 E19.31815
G1 X82.739 Y144.573 E20.99018
G1 X81.999 Y144.52 E21.02472
G1 X81.532 Y144.43 E21.04687
G1 X80.626 Y144.151 E21.09101
G1 X80.04 Y143.87 E21.12127
G1 X79.174 Y143.284 E21.16996
G1 X78.685 Y142.832 E21.20097
G1 X78.136 Y142.142 E21.24203
G1 X77.816 Y141.592 E21.27166
G1 X77.488 Y140.775 E21.31265
G1 X77.346 Y140.221 E21.33928
G1 X77.269 Y139.588 E21.36897
G1 X77.25 Y137.606 E21.46127
G1 X77.251 Y131.242 E21.7576
G1 X77.291 Y130.825 E21.77711
G1 X77.409 Y130.423 E21.79662
G1 X77.602 Y130.05 E21.81617
G1 X78.036 Y129.549 E21.84704
G1 X78.363 Y129.286 E21.86658
G1 X78.733 Y129.09 E21.88607
G1 X79.134 Y128.968 E21.90559
G1 X79.606 Y128.924 E21.92767
G1 X81.567 Y128.954 E22.01899
G1 X81.983 Y129.001 E22.03848
G1 X82.383 Y129.125 E22.05798
G1 X82.753 Y129.323 E22.07752
G1 X83.223 Y129.736 E22.10666
G1 X83.485 Y130.062 E22.12613
G1 X83.681 Y130.433 E22.14567
G1 X83.803 Y130.834 E22.16519
G1 X83.847 Y131.271 E22.18564
G1 X83.847 Y138.134 E22.50521
G1 X117.34 Y138.133 E24.06478
G1 X117.341 Y80.421 E26.7521
G1 X117.34 Y79.223 E26.80788
G1 X117.38 Y78.806 E26.82739
G1 X117.568 Y78.246 E26.85489
G1 X117.83 Y77.805 E26.87878
G0 F9000 X118.171 Y78.018
G1 F2400 X118.505 Y77.694 E26.90044
G1 X118.943 Y77.367 E26.9259
G1 X119.669 Y76.915 E26.96572
G1 X121.072 Y76.298 E27.03709
G1 X122.033 Y76.025 E27.08361
G1 X123.504 Y75.84 E27.15264
G1 X125.004 Y75.888 E27.22252
G1 X126.522 Y76.212 E27.2948
G1 X127.866 Y76.74 E27.36204
G1 X136.691 Y81.458 E27.82801
G1 X138.045 Y82.333 E27.90307
G1 X139.039 Y83.237 E27.96564
G1 X139.263 Y83.495 E27.98155
G1 X140.012 Y84.542 E28.04149
G1 X140.505 Y85.499 E28.09162
G1 X140.788 Y86.272 E28.12995
G1 X141.049 Y87.558 E28.19105
G1 X141.112 Y90.283 E28.31797
G1 X141.073 Y91.065 E28.35443
G1 X140.968 Y91.76 E28.38716
G1 X140.706 Y92.57 E28.4268
G1 X140.309 Y93.259 E28.46383
G1 X139.92 Y93.68 E28.49052
G1 X139.259 Y94.146 E28.52818
G1 X138.623 Y94.367 E28.55953
G1 X137.841 Y94.464 E28.59622
G1 X137.085 Y94.387 E28.63161
G1 X136.096 Y94.099 E28.67957
G1 X135.39 Y93.786 E28.71553
G1 X134.794 Y93.439 E28.74764
G1 X134.125 Y92.874 E28.78842
G1 X133.825 Y92.516 E28.81017
G1 X133.391 Y91.75 E28.85116
G1 X133.211 Y91.146 E28.88051
G1 X133.12 Y90.419 E28.91463
G1 X133.117 Y88.55 E29.00166
G1 X133.037 Y88.323 E29.01286
G1 X132.881 Y88.208 E29.02189
G1 X124.475 Y83.705 E29.46593
G1 X123.982 Y83.506 E29.49069
G1 X123.757 Y83.549 E29.50135
G1 X123.564 Y83.683 E29.51229
G1 X123.536 Y84.018 E29.52795
G1 X123.537 Y86.335 E29.63584
G1 X124.191 Y86.821 E29.67378
G1 X124.423 Y87.12 E29.6914
G1 X124.589 Y87.461 E29.70906
G1 X124.675 Y87.879 E29.72893
G1 X125.164 Y88.402 E29.76227
G1 X125.343 Y88.736 E29.77991
G1 X125.448 Y89.1 E29.79755
G1 X125.473 Y89.495 E29.81598
G1 X125.428 Y90.478 E29.86181
G1 X125.567 Y90.745 E29.87582
G1 X125.69 Y91.315 E29.90297
G1 X125.724 Y92.071 E29.93821
G1 X125.66 Y92.444 E29.95583
G1 X125.52 Y92.796 E29.97347
G1 X125.308 Y93.11 E29.99112
G1 X125.098 Y93.314 E30.00475
G1 X125.089 Y93.785 E30.02668
G1 X124.912 Y95.539 E30.10877
G1 X125.121 Y95.826 E30.1253
G1 X125.275 Y96.172 E30.14294
G1 X125.366 Y96.626 E30.1645
G1 X125.377 Y97.005 E30.18216
G1 X125.308 Y97.377 E30.19977
G1 X125.163 Y97.728 E30.21746
G1 X124.882 Y98.102 E30.23924
G1 X125.112 Y98.386 E30.25626
G1 X125.283 Y98.724 E30.27389
G1 X125.381 Y99.09 E30.29154
G1 X125.415 Y100.526 E30.35842
G1 X125.548 Y101.232 E30.39187
G1 X125.578 Y101.61 E30.40953
G1 X125.405 Y102.719 E30.4618
G1 X125.415 Y103.801 E30.51218
G1 X125.379 Y104.178 E30.52981
G1 X125.264 Y104.539 E30.54746
G1 X125.077 Y104.868 E30.56508
G1 X124.715 Y105.263 E30.59003
G1 X124.76 Y105.415 E30.59741
G1 X124.786 Y105.854 E30.61789
G1 X124.692 Y107.359 E30.6881
G1 X124.629 Y107.733 E30.70576
G1 X124.489 Y108.085 E30.7234
G1 X124.278 Y108.4 E30.74106
G1 X124.051 Y108.61 E30.75545
G1 X124.339 Y108.935 E30.77567
G1 X124.521 Y109.268 E30.79335
G1 X124.629 Y109.631 E30.81098
G1 X124.677 Y111.065 E30.87779
G1 X124.669 Y112.438 E30.94172
G1 X124.976 Y112.726 E30.96133
G1 X125.185 Y113.042 E30.97897
G1 X125.324 Y113.395 E30.99663
G1 X125.385 Y113.979 E31.02397
G1 X125.349 Y114.581 E31.05206
G1 X125.286 Y114.955 E31.06972
G1 X125.147 Y115.308 E31.08738
G1 X124.795 Y115.776 E31.11465
G1 X124.666 Y115.899 E31.12295
G1 X124.678 Y117.793 E31.21114
G1 X124.876 Y118.27 E31.23519
G1 X125.312 Y118.749 E31.26535
G1 X125.488 Y119.085 E31.28301
G1 X125.613 Y119.674 E31.31105
G1 X125.635 Y120.201 E31.33561
G1 X125.649 Y120.389 E31.34439
G1 X125.6 Y120.765 E31.36205
G1 X125.474 Y121.122 E31.37968
G1 X125.275 Y121.445 E31.39734
G1 X125.039 Y121.692 E31.41325
G1 X125.016 Y122.372 E31.44493
G1 X124.638 Y123.519 E31.50116
G1 X125.073 Y123.942 E31.52942
G1 X125.316 Y124.233 E31.54707
G1 X125.492 Y124.569 E31.56473
G1 X125.617 Y125.151 E31.59245
G1 X125.758 Y126.333 E31.64788
G1 X125.758 Y126.838 E31.6714
G1 X125.63 Y127.744 E31.714
G1 X125.628 Y128.647 E31.75605
G1 X125.659 Y129.162 E31.78007
G1 X125.591 Y129.534 E31.79768
G1 X125.446 Y129.885 E31.81537
