;FLAVOR:Marlin
;TIME:3196
;Filament used: 2.07669m
;Layer height: 0.16
;MINX:69.44
;MINY:65.613
;MINZ:0.24
;MAXX:149.335
;MAXY:154.4
;MAXZ:24.44
;Generated with Cura_SteamEngine 4.5.0
M140 S50
M105
M190 S50
M104 S215
M105
M109 S215
M82 ;absolute extrusion mode
M201 X500.00 Y500.00 Z100.00 E5000.00 ;Setup machine max acceleration
M203 X500.00 Y500.00 Z10.00 E50.00 ;Setup machine max feedrate
M204 P500.00 R1000.00 T500.00 ;Setup Print/Retract/Travel acceleration
M205 X8.00 Y8.00 Z0.40 E5.00 ;Setup Jerk
M220 S100 ;Reset Feedrate
M221 S100 ;Reset Flowrate

G28 ;Home

G92 E0 ;Reset Extruder
G1 Z2.0 F3000 ;Move Z Axis up
G1 X10.1 Y20 Z0.28 F5000.0 ;Move to start position
G1 X10.1 Y200.0 Z0.28 F1500.0 E15 ;Draw the first line
G1 X10.4 Y200.0 Z0.28 F5000.0 ;Move to side a little
G1 X10.4 Y20 Z0.28 F1500.0 E30 ;Draw the second line
G92 E0 ;Reset Extruder
G1 Z2.0 F3000 ;Move Z Axis up

G92 E0
G92 E0
G1 F1800 E-3
;LAYER_COUNT:190
;LAYER:0
M106 S63.8
M204 S500
M205 X6 Y6
G0 F9000 X109.993 Y72.369 Z0.24
;TYPE:SKIRT
G1 F1800 E0
G1 X110.518 Y71.597 E0.05589
G1 X111.107 Y70.873 E0.11177
G1 X111.756 Y70.201 E0.1677
G1 X112.297 Y69.717 E0.21116
G1 X112.835 Y69.281 E0.25262
G1 X113.487 Y68.806 E0.30091
G1 X114.103 Y68.389 E0.34545
G1 X114.897 Y67.899 E0.4013
G1 X115.455 Y67.608 E0.43898
G1 X116.199 Y67.247 E0.48849
G1 X117.042 Y66.868 E0.54382
G1 X118.235 Y66.425 E0.62001
G1 X118.889 Y66.234 E0.6608
G1 X120.564 Y65.873 E0.76338
G1 X121.4 Y65.757 E0.81391
G1 X122.16 Y65.671 E0.8597
G1 X123.092 Y65.613 E0.91561
G1 X123.709 Y65.618 E0.95255
G1 X124.302 Y65.64 E0.98807
G1 X125.173 Y65.693 E1.04032
G1 X126.102 Y65.793 E1.09625
G1 X126.951 Y65.956 E1.14801
G1 X127.516 Y66.088 E1.18275
G1 X128.432 Y66.326 E1.23941
G1 X129.323 Y66.605 E1.2953
G1 X129.828 Y66.801 E1.32774
G1 X130.3 Y66.998 E1.35836
G1 X131.179 Y67.392 E1.41602
G1 X131.883 Y67.744 E1.46315
G1 X132.365 Y68.007 E1.49602
G1 X139.89 Y72.304 E2.0148
G1 X140.578 Y72.709 E2.0626
G1 X141.118 Y73.049 E2.1008
G1 X141.854 Y73.544 E2.1539
G1 X142.609 Y74.08 E2.20934
G1 X143.344 Y74.657 E2.26528
G1 X143.751 Y75.024 E2.29809
G1 X144.385 Y75.643 E2.35114
G1 X144.851 Y76.131 E2.39153
G1 X145.466 Y76.833 E2.44741
G1 X145.776 Y77.238 E2.47794
G1 X146.146 Y77.758 E2.51615
G1 X146.45 Y78.21 E2.54876
G1 X146.834 Y78.801 E2.59096
G1 X147.519 Y80.019 E2.67462
G1 X147.841 Y80.71 E2.72026
G1 X148.3 Y81.831 E2.79278
G1 X148.518 Y82.471 E2.83325
G1 X148.921 Y83.999 E2.92786
G1 X149.028 Y84.556 E2.96182
G1 X149.167 Y85.387 E3.01226
G1 X149.295 Y86.628 E3.08695
G1 X149.319 Y87.381 E3.13205
G1 X149.335 Y88.77 E3.21522
G1 X149.335 Y89.557 E3.26233
G1 X149.312 Y90.416 E3.31378
G1 X149.283 Y90.965 E3.34669
G1 X149.182 Y91.924 E3.40442
G1 X149.094 Y92.48 E3.43812
G1 X148.838 Y93.674 E3.51123
G1 X148.659 Y94.27 E3.54849
G1 X148.17 Y95.615 E3.63417
G1 X147.764 Y96.456 E3.69008
G1 X147.435 Y97.026 E3.72948
G1 X147.124 Y97.53 E3.76493
G1 X145.746 Y99.656 E3.91661
G1 X144.426 Y101.821 E4.06842
G1 X143.174 Y104.011 E4.21944
G1 X141.997 Y106.212 E4.36887
G1 X140.868 Y108.474 E4.52022
G1 X139.807 Y110.759 E4.67105
G1 X138.794 Y113.112 E4.82442
G1 X137.872 Y115.429 E4.97371
G1 X137.012 Y117.793 E5.12432
G1 X136.218 Y120.178 E5.27481
G1 X135.487 Y122.6 E5.42627
G1 X134.832 Y125.012 E5.5759
G1 X134.242 Y127.458 E5.72654
G1 X133.711 Y129.967 E5.88007
G1 X133.261 Y132.446 E6.03091
G1 X132.886 Y134.893 E6.17912
G1 X132.576 Y137.391 E6.32982
G1 X132.332 Y139.95 E6.48372
G1 X132.193 Y141.727 E6.59043
G1 X132.079 Y142.653 E6.64628
G1 X131.841 Y143.739 E6.71284
G1 X131.654 Y144.4 E6.75397
G1 X131.215 Y145.678 E6.83487
G1 X130.841 Y146.497 E6.88877
G1 X130.214 Y147.644 E6.96703
G1 X129.712 Y148.383 E7.02052
G1 X129.287 Y148.957 E7.06327
G1 X128.7 Y149.683 E7.11917
G1 X128.017 Y150.39 E7.17802
G1 X126.95 Y151.331 E7.26319
G1 X125.876 Y152.105 E7.34245
G1 X124.776 Y152.756 E7.41897
G1 X124.168 Y153.05 E7.4594
G1 X123.705 Y153.256 E7.48974
G1 X122.836 Y153.598 E7.54565
G1 X122.221 Y153.791 E7.58424
G1 X121.665 Y153.941 E7.61872
G1 X120.398 Y154.21 E7.69626
G1 X119.765 Y154.29 E7.73446
G1 X118.48 Y154.38 E7.81158
G1 X117.481 Y154.398 E7.8714
G1 X84.245 Y154.4 E9.86118
G1 X83.402 Y154.389 E9.91165
G1 X82.773 Y154.361 E9.94935
G1 X82.145 Y154.312 E9.98706
G1 X81.001 Y154.157 E10.05617
G1 X79.755 Y153.847 E10.13304
G1 X79.135 Y153.653 E10.17194
G1 X78.55 Y153.456 E10.20889
G1 X77.682 Y153.114 E10.26475
G1 X76.846 Y152.699 E10.32062
G1 X75.854 Y152.081 E10.39059
G1 X75.162 Y151.589 E10.44143
G1 X74.727 Y151.263 E10.47397
G1 X74.005 Y150.672 E10.52983
G1 X73.336 Y150.021 E10.58572
G1 X72.674 Y149.25 E10.64655
G1 X72.198 Y148.628 E10.69345
G1 X71.889 Y148.198 E10.72515
G1 X71.378 Y147.417 E10.78102
G1 X70.934 Y146.595 E10.83695
G1 X70.578 Y145.776 E10.89042
G1 X70.385 Y145.278 E10.92239
G1 X70.143 Y144.606 E10.96515
G1 X69.872 Y143.712 E11.02108
G1 X69.654 Y142.648 E11.0861
G1 X69.543 Y141.816 E11.13636
G1 X69.452 Y140.518 E11.21426
G1 X69.442 Y139.905 E11.25096
G1 X69.44 Y132.809 E11.67578
G1 X69.45 Y131.805 E11.7359
G1 X69.499 Y130.873 E11.79177
G1 X69.628 Y129.948 E11.84768
G1 X69.836 Y129.038 E11.90357
G1 X70.12 Y128.149 E11.95944
G1 X70.48 Y127.287 E12.01537
G1 X70.912 Y126.46 E12.07123
G1 X71.414 Y125.672 E12.12716
G1 X71.981 Y124.931 E12.18302
G1 X72.609 Y124.24 E12.23892
G1 X73.294 Y123.606 E12.2948
G1 X73.936 Y123.101 E12.3437
G1 X74.439 Y122.735 E12.38095
G1 X75.68 Y121.86 E12.47185
G1 X77.698 Y120.353 E12.62264
G1 X79.667 Y118.793 E12.77303
G1 X81.6 Y117.171 E12.9241
G1 X83.468 Y115.511 E13.07371
G1 X85.325 Y113.765 E13.22631
G1 X87.123 Y111.975 E13.3782
G1 X88.822 Y110.188 E13.52582
G1 X90.519 Y108.294 E13.67807
G1 X92.162 Y106.355 E13.83023
G1 X93.708 Y104.422 E13.97841
G1 X95.25 Y102.378 E14.1317
G1 X96.702 Y100.337 E14.28166
G1 X98.106 Y98.239 E14.43279
G1 X99.441 Y96.116 E14.58293
G1 X100.73 Y93.934 E14.73466
G1 X101.952 Y91.722 E14.88595
G1 X103.105 Y89.488 E15.03646
G1 X104.198 Y87.216 E15.1874
G1 X105.222 Y84.924 E15.33769
G1 X106.187 Y82.588 E15.489
G1 X107.094 Y80.208 E15.64149
G1 X107.904 Y77.878 E15.78917
G1 X108.624 Y75.619 E15.93111
G1 X108.84 Y74.914 E15.97526
G1 X109.151 Y74.034 E16.03114
G1 X109.536 Y73.183 E16.08705
G1 X109.993 Y72.369 E16.14294
G0 F9000 X110.544 Y72.62
G1 F1800 X111.06 Y71.874 E16.19725
G1 X111.641 Y71.176 E16.25162
G1 X112.518 Y70.32 E16.32499
G1 X113.198 Y69.758 E16.3778
G1 X113.823 Y69.303 E16.42408
G1 X114.439 Y68.886 E16.46862
G1 X115.212 Y68.41 E16.52297
G1 X115.717 Y68.148 E16.55703
G1 X116.461 Y67.787 E16.60653
G1 X117.284 Y67.417 E16.66056
G1 X118.411 Y66.999 E16.73252
G1 X119.042 Y66.814 E16.77189
G1 X120.646 Y66.468 E16.87012
G1 X121.482 Y66.352 E16.92065
G1 X122.223 Y66.268 E16.9653
G1 X123.129 Y66.213 E17.01964
G1 X123.687 Y66.218 E17.05305
G1 X124.28 Y66.24 E17.08857
G1 X125.135 Y66.291 E17.13985
G1 X126.037 Y66.39 E17.19418
G1 X126.814 Y66.54 E17.24155
G1 X127.379 Y66.672 E17.27629
G1 X128.278 Y66.906 E17.33191
G1 X129.144 Y67.178 E17.38625
G1 X130.069 Y67.552 E17.44598
G1 X130.93 Y67.938 E17.50247
G1 X131.595 Y68.27 E17.54697
G1 X132.077 Y68.533 E17.57984
G1 X139.593 Y72.825 E18.09801
G1 X140.273 Y73.225 E18.14524
G1 X140.783 Y73.547 E18.18135
G1 X141.519 Y74.042 E18.23445
G1 X142.259 Y74.568 E18.28881
G1 X142.973 Y75.129 E18.34317
G1 X143.587 Y75.695 E18.39316
G1 X143.951 Y76.058 E18.42394
G1 X144.417 Y76.546 E18.46434
G1 X145.014 Y77.229 E18.51865
G1 X145.439 Y77.794 E18.56097
G1 X145.843 Y78.381 E18.60363
G1 X146.331 Y79.128 E18.65705
G1 X146.978 Y80.279 E18.7361
G1 X147.291 Y80.948 E18.78032
G1 X147.735 Y82.032 E18.85045
G1 X147.945 Y82.649 E18.88947
G1 X148.332 Y84.112 E18.98007
G1 X148.439 Y84.669 E19.01403
G1 X148.575 Y85.483 E19.06344
G1 X148.695 Y86.655 E19.13397
G1 X148.719 Y87.393 E19.17817
G1 X148.735 Y88.777 E19.26104
G1 X148.735 Y89.556 E19.30767
G1 X148.712 Y90.396 E19.35798
G1 X148.684 Y90.929 E19.38994
G1 X148.589 Y91.835 E19.44447
G1 X148.504 Y92.374 E19.47714
G1 X148.253 Y93.542 E19.54866
G1 X148.09 Y94.081 E19.58238
G1 X147.608 Y95.401 E19.66651
G1 X147.211 Y96.216 E19.72078
G1 X146.925 Y96.711 E19.75501
G1 X146.614 Y97.215 E19.79046
G1 X145.233 Y99.345 E19.94244
G1 X143.913 Y101.509 E20.09419
G1 X142.653 Y103.713 E20.24618
G1 X141.46 Y105.943 E20.39759
G1 X140.331 Y108.207 E20.54905
G1 X139.262 Y110.509 E20.70101
G1 X138.248 Y112.864 E20.85451
G1 X137.301 Y115.243 E21.0078
G1 X136.448 Y117.588 E21.1572
G1 X135.65 Y119.984 E21.30839
G1 X134.909 Y122.439 E21.46191
G1 X134.252 Y124.86 E21.6121
G1 X133.656 Y127.33 E21.76421
G1 X133.117 Y129.873 E21.91984
G1 X132.673 Y132.318 E22.06861
G1 X132.293 Y134.804 E22.21917
G1 X131.975 Y137.369 E22.37391
G1 X131.734 Y139.891 E22.52559
G1 X131.595 Y141.679 E22.63295
G1 X131.483 Y142.58 E22.68731
G1 X131.263 Y143.581 E22.74867
G1 X131.081 Y144.222 E22.78856
G1 X130.65 Y145.475 E22.86789
G1 X130.306 Y146.225 E22.91729
G1 X129.691 Y147.349 E22.994
G1 X129.23 Y148.026 E23.04303
G1 X128.805 Y148.6 E23.08579
G1 X128.233 Y149.305 E23.14014
G1 X127.605 Y149.954 E23.19421
G1 X126.581 Y150.857 E23.27595
G1 X125.554 Y151.598 E23.35176
G1 X124.476 Y152.236 E23.42676
G1 X123.924 Y152.502 E23.46344
G1 X123.461 Y152.708 E23.49378
G1 X122.616 Y153.04 E23.54813
G1 X122.058 Y153.213 E23.58311
G1 X121.522 Y153.358 E23.61635
G1 X120.281 Y153.621 E23.6923
G1 X119.708 Y153.693 E23.72687
G1 X118.47 Y153.78 E23.80117
G1 X117.471 Y153.798 E23.86099
G1 X84.245 Y153.8 E25.85017
G1 X83.41 Y153.789 E25.90017
G1 X82.816 Y153.763 E25.93576
G1 X82.205 Y153.715 E25.97245
G1 X81.087 Y153.563 E26.04
G1 X79.934 Y153.274 E26.11117
G1 X79.314 Y153.08 E26.15006
G1 X78.746 Y152.889 E26.18594
G1 X77.902 Y152.555 E26.24028
G1 X77.091 Y152.149 E26.29457
G1 X76.198 Y151.589 E26.35768
G1 X75.522 Y151.109 E26.40732
G1 X75.087 Y150.783 E26.43986
G1 X74.385 Y150.208 E26.49419
G1 X73.737 Y149.572 E26.54854
G1 X73.146 Y148.881 E26.60298
G1 X72.686 Y148.278 E26.64839
G1 X72.377 Y147.848 E26.68009
G1 X71.88 Y147.088 E26.73445
G1 X71.452 Y146.288 E26.78877
G1 X71.137 Y145.559 E26.83631
G1 X70.944 Y145.061 E26.86829
G1 X70.709 Y144.407 E26.90989
G1 X70.446 Y143.538 E26.96425
G1 X70.247 Y142.557 E27.02418
G1 X70.14 Y141.758 E27.07244
G1 X70.052 Y140.508 E27.14746
G1 X70.042 Y139.895 E27.18416
G1 X70.04 Y132.808 E27.60845
G1 X70.05 Y131.811 E27.66814
G1 X70.099 Y130.905 E27.72246
G1 X70.227 Y130.007 E27.77677
G1 X70.435 Y129.123 E27.83113
G1 X70.719 Y128.261 E27.88547
G1 X71.078 Y127.428 E27.93977
G1 X71.509 Y126.629 E27.99412
G1 X72.008 Y125.871 E28.04846
G1 X72.573 Y125.161 E28.10278
G1 X73.198 Y124.502 E28.15715
G1 X73.878 Y123.902 E28.21145
G1 X74.289 Y123.586 E28.24248
G1 X74.792 Y123.22 E28.27973
G1 X76.036 Y122.344 E28.37081
G1 X78.059 Y120.832 E28.52202
G1 X80.038 Y119.264 E28.67318
G1 X81.997 Y117.621 E28.82625
G1 X83.892 Y115.936 E28.97806
G1 X85.717 Y114.221 E29.12799
G1 X87.557 Y112.389 E29.28344
G1 X89.278 Y110.578 E29.43301
G1 X90.966 Y108.695 E29.58441
G1 X92.613 Y106.751 E29.73695
G1 X94.197 Y104.771 E29.88875
G1 X95.73 Y102.739 E30.04114
G1 X97.19 Y100.686 E30.19196
G1 X98.608 Y98.567 E30.34461
G1 X99.961 Y96.416 E30.49674
G1 X101.242 Y94.246 E30.6476
G1 X102.488 Y91.991 E30.80184
G1 X103.643 Y89.756 E30.95246
G1 X104.744 Y87.468 E31.10447
G1 X105.767 Y85.175 E31.25479
G1 X106.74 Y82.822 E31.40723
G1 X107.655 Y80.42 E31.56111
G1 X108.489 Y78.022 E31.71311
G1 X109.162 Y75.909 E31.84588
G1 X109.413 Y75.089 E31.89722
G1 X109.717 Y74.234 E31.95154
G1 X110.095 Y73.409 E32.00587
G1 X110.544 Y72.62 E32.06022
G1 F1800 E29.06022
;MESH:DoorHook_36mm.stl
G0 F9000 X119.075 Y77.389
G0 X119.872 Y78.393
G0 X121.046 Y79.797
G0 X124.009 Y80.104
G0 X124.426 Y80.214
G0 X125.085 Y80.536
G0 X133.496 Y85.338
G0 X134.036 Y85.764
G0 X134.465 Y86.332
G0 X134.76 Y87.118
G0 X134.82 Y87.651
G0 X134.819 Y88.093
G0 X136.42 Y90.377
;TYPE:WALL-INNER
G1 F1800 E32.06022
G1 X136.386 Y90.36 E32.0625
G1 X136.117 Y90.226 E32.08049
G1 X135.876 Y90.071 E32.09764
G1 X135.785 Y89.982 E32.10526
G1 X135.716 Y89.866 E32.11334
G1 X135.682 Y89.632 E32.1275
G1 X135.681 Y87.602 E32.24903
G1 X135.604 Y86.916 E32.29036
G1 X135.226 Y85.913 E32.35453
G1 X134.656 Y85.157 E32.41121
G1 X133.978 Y84.623 E32.46288
G1 X125.488 Y79.774 E33.04823
G1 X124.728 Y79.404 E33.09883
G1 X124.147 Y79.251 E33.1348
G1 X123.338 Y79.2 E33.18333
G1 X122.156 Y79.444 E33.25559
G1 X121.298 Y79.982 E33.31622
G1 X121.12 Y80.094 E33.32881
G1 X120.755 Y80.49 E33.36105
G1 X120.755 Y80.095 E33.36657
G1 X120.755 Y79.884 E33.37705
G1 X120.754 Y78.842 E33.43943
G1 X121.023 Y78.668 E33.45861
G1 X121.946 Y78.249 E33.5193
G1 X122.414 Y78.119 E33.54838
G1 X123.361 Y78.006 E33.60547
G1 X124.255 Y78.052 E33.65907
G1 X125.152 Y78.278 E33.71445
G1 X125.999 Y78.649 E33.76981
G1 X134.311 Y83.397 E34.34289
G1 X135.306 Y84.091 E34.41552
G1 X135.811 Y84.606 E34.4587
G1 X136.395 Y85.48 E34.52164
G1 X136.636 Y86.012 E34.5566
G1 X136.772 Y86.43 E34.58292
G1 X136.918 Y87.261 E34.63343
G1 X136.945 Y89.619 E34.77461
G1 X136.92 Y90.111 E34.8041
G1 X136.919 Y90.15 E34.80644
G1 X136.87 Y90.451 E34.82469
G1 X136.867 Y90.465 E34.82555
G1 X136.848 Y90.521 E34.82909
G1 X136.8 Y90.505
G1 X136.42 Y90.377 E34.84548
G0 F9000 X136.192 Y90.934
G1 F1800 X135.823 Y90.75 E34.87017
G1 X135.497 Y90.54 E34.89338
G1 X135.311 Y90.358 E34.90896
G1 X135.169 Y90.121 E34.9255
G1 X135.13 Y90.009 E34.9326
G1 X135.082 Y89.675 E34.95281
G1 X135.081 Y87.636 E35.07488
G1 X135.016 Y87.057 E35.10976
G1 X134.695 Y86.205 E35.16427
G1 X134.224 Y85.58 E35.21112
G1 X133.642 Y85.122 E35.25546
G1 X125.208 Y80.305 E35.83694
G1 X124.518 Y79.969 E35.88288
G1 X124.051 Y79.846 E35.9118
G1 X123.381 Y79.804 E35.95199
G1 X122.383 Y80.01 E36.01299
G1 X121.507 Y80.56 E36.07492
G1 X121.03 Y81.077 E36.11703
G1 X120.748 Y81.609 E36.15308
G1 X120.683 Y81.732 E36.16141
G1 X120.506 Y82.429 E36.20446
G1 X120.486 Y83.058 E36.24214
G1 X120.486 Y140.088 E39.65642
G1 X120.464 Y140.442 E39.67766
G1 X120.446 Y140.706 E39.6935
G1 X120.311 Y141.164 E39.72209
G1 X120.29 Y141.234 E39.72646
G1 X120.154 Y141.498 E39.74424
G1 X119.851 Y141.891 E39.77395
G1 X119.771 Y141.964 E39.78043
G1 X119.604 Y142.116 E39.79395
G1 X119.311 Y142.307 E39.81489
G1 X118.982 Y142.452 E39.83642
G1 X118.937 Y142.463 E39.83919
G1 X118.552 Y142.563 E39.863
G1 X118.298 Y142.586 E39.87827
G1 X118.148 Y142.6 E39.88729
G1 X83.582 Y142.6 E41.9567
G1 X83.438 Y142.588 E41.96535
G1 X83.158 Y142.563 E41.98218
G1 X82.86 Y142.464 E42.00098
G1 X82.511 Y142.347 E42.02302
G1 X82.202 Y142.123 E42.04586
G1 X81.896 Y141.901 E42.0685
G1 X81.698 Y141.634 E42.0884
G1 X81.525 Y141.4 E42.10582
G1 X81.381 Y141.008 E42.13082
G1 X81.295 Y140.774 E42.14575
G1 X81.246 Y140.328 E42.17261
G1 X81.241 Y140.291 E42.17484
G1 X81.24 Y132.832 E42.6214
G1 X81.572 Y132.837 E42.64128
G1 X81.571 Y140.291 E42.88781
G1 X81.627 Y140.731 E42.90238
G1 X81.65 Y140.909 E42.90696
G1 X81.82 Y141.253 E42.91825
G1 X81.925 Y141.465 E42.92471
G1 X82.128 Y141.672 E42.9329
G1 X82.358 Y141.907 E42.94188
G1 X82.656 Y142.058 E42.95103
G1 X82.946 Y142.204 E42.96005
G1 X83.21 Y142.247 E42.9673
G1 X83.463 Y142.29 E42.97487
G1 X83.582 Y142.29 E42.97742
G1 X118.147 Y142.29 E44.04835
G1 X118.27 Y142.289 E44.05169
G1 X118.497 Y142.25 E44.05842
G1 X118.865 Y142.186 E44.06932
G1 X119.132 Y142.02 E44.07856
G1 X119.429 Y141.835 E44.09024
G1 X119.572 Y141.746 E44.09471
G1 X119.592 Y141.716
G1 X119.871 Y141.306 E44.11117
G1 X120.025 Y141.08 E44.11969
G1 X120.111 Y140.641 E44.13357
G1 X120.154 Y140.422 E44.14029
G1 X120.154 Y140.088 E44.15072
G1 X120.154 Y83.058 E46.04312
G1 X120.154 Y82.429 E46.06462
G1 X120.154 Y81.732 E46.09521
G1 X120.154 Y81.592 E46.10312
G1 X120.155 Y79.206 E46.24597
G1 X120.154 Y78.53 E46.28644
G1 X120.252 Y78.452 E46.29394
G1 X120.731 Y78.142 E46.3281
G1 X121.741 Y77.683 E46.39452
G1 X122.254 Y77.542 E46.42637
G1 X122.301 Y77.528 E46.4293
G1 X123.338 Y77.404 E46.49183
G1 X124.347 Y77.456 E46.55232
G1 X125.346 Y77.708 E46.614
G1 X126.27 Y78.112 E46.67437
G1 X134.628 Y82.887 E47.25066
G1 X135.694 Y83.631 E47.32848
G1 X135.733 Y83.671 E47.33183
G1 X136.279 Y84.227 E47.37848
G1 X136.922 Y85.189 E47.44775
G1 X137.195 Y85.792 E47.48738
G1 X137.205 Y85.825 E47.48945
