;FLAVOR:Marlin
;TIME:17545
;Filament used: 17.2357m
;Layer height: 0.28
;MINX:46.444
;MINY:65.806
;MINZ:0.3
;MAXX:173.556
;MAXY:154.186
;MAXZ:56.1
;Generated with Cura_SteamEngine 4.10.0
M82 ;absolute extrusion mode
M201 X500.00 Y500.00 Z100.00 E5000.00 ;Setup machine max acceleration
M203 X500.00 Y500.00 Z10.00 E50.00 ;Setup machine max feedrate
M204 P500.00 R1000.00 T500.00 ;Setup Print/Retract/Travel acceleration
M205 X8.00 Y8.00 Z0.40 E5.00 ;Setup Jerk
M220 S100 ;Reset Feedrate
M221 S100 ;Reset Flowrate

;*** Start Dual Nozzle/Bed Preheating ***
M140 S50 ; start preheating the bed
M104 S200 ?T0 ; start preheating hotend
M190 S50 ; heat to Cura Bed setting and WAIT
M109 S200 ?T0 ; heat to Cura Hotend and WAIT
;*** End Preheating ***

;*** Single Print Start Tone
M300 S1000 P500 ; chirp to indicate starting to print
;*** End Single Start Tone

G28 ;Home

G92 E0 ;Reset Extruder
G1 Z2.0 F3000 ;Move Z Axis up

G1 X10.1 Y20 Z0.28 F5000.0 ;Move to start position
G1 X10.1 Y200.0 Z0.28 F1500.0 E15 ;Draw the first line
G1 X10.4 Y200.0 Z0.28 F5000.0 ;Move to side a little
G1 X10.4 Y20 Z0.28 F1500.0 E30 ;Draw the second line
G92 E0 ;Reset Extruder
G1 Z2.0 F3000 ;Move Z Axis up
G92 E0
G92 E0
G1 F2400 E-3.2
;LAYER_COUNT:206
;LAYER:0
M106 S63.8
M204 S500
M205 X6 Y6
G0 F9000 X52.183 Y81.792 Z0.3
;TYPE:SKIRT
G1 F1440 E0
G1 F1800 X52.981 Y81.369 E0.04506
G1 X53.813 Y81.018 E0.09011
G1 X54.673 Y80.743 E0.13516
G1 X55.554 Y80.544 E0.18022
G1 X56.449 Y80.424 E0.22527
G1 X57.031 Y80.389 E0.25436
G1 X57.672 Y80.374 E0.28635
G1 X62.119 Y80.375 E0.50821
G1 X64.264 Y80.389 E0.61522
G1 X71.711 Y80.426 E0.98676
G1 X74.503 Y80.399 E1.12606
G1 X75.09 Y80.384 E1.15536
G1 X75.367 Y80.381 E1.16918
G1 X76.13 Y80.383 E1.20724
G1 X78.451 Y80.365 E1.32304
G1 X80.989 Y80.278 E1.44974
G1 X83.514 Y80.12 E1.57596
G1 X86.051 Y79.888 E1.70306
G1 X88.586 Y79.585 E1.83043
G1 X91.088 Y79.213 E1.95663
G1 X93.599 Y78.767 E2.08386
G1 X96.026 Y78.266 E2.2075
G1 X98.561 Y77.666 E2.33746
G1 X101.011 Y77.012 E2.46397
G1 X103.43 Y76.294 E2.58986
G1 X105.85 Y75.5 E2.71693
G1 X108.24 Y74.64 E2.84365
G1 X110.576 Y73.723 E2.96885
G1 X112.94 Y72.719 E3.09699
G1 X115.251 Y71.658 E3.22386
G1 X117.544 Y70.526 E3.35143
G1 X119.808 Y69.328 E3.47922
G1 X120.947 Y68.692 E3.54431
G1 X122.115 Y68.03 E3.61129
G1 X122.373 Y67.889 E3.62596
G1 X123.193 Y67.455 E3.67224
G1 X123.469 Y67.314 E3.68771
G1 X124.127 Y66.991 E3.72428
G1 X124.955 Y66.629 E3.76936
G1 X125.811 Y66.342 E3.8144
G1 X126.689 Y66.132 E3.85944
G1 X127.583 Y66 E3.90453
G1 X128.273 Y65.953 E3.93903
G1 X129.144 Y65.938 E3.98249
G1 X137.338 Y65.966 E4.3913
G1 X138.782 Y65.961 E4.46334
G1 X152.132 Y65.809 E5.12941
G1 X152.814 Y65.806 E5.16344
G1 X162.095 Y65.808 E5.62647
G1 X162.787 Y65.818 E5.661
G1 X163.689 Y65.871 E5.70608
G1 X164.582 Y66.004 E5.75112
G1 X165.46 Y66.215 E5.79617
G1 X166.316 Y66.503 E5.84123
G1 X167.144 Y66.865 E5.88631
G1 X167.935 Y67.299 E5.93133
G1 X168.686 Y67.802 E5.97642
G1 X169.389 Y68.369 E6.02148
G1 X170.039 Y68.996 E6.06654
G1 X170.766 Y69.852 E6.12257
G1 X171.238 Y70.488 E6.16208
G1 X171.404 Y70.727 E6.1766
G1 X171.885 Y71.491 E6.22164
G1 X172.353 Y72.416 E6.27336
G1 X172.442 Y72.617 E6.28433
G1 X172.77 Y73.458 E6.32936
G1 X173.059 Y74.478 E6.38225
G1 X173.208 Y75.131 E6.41567
G1 X173.326 Y75.724 E6.44583
G1 X173.413 Y76.353 E6.47751
G1 X173.457 Y76.763 E6.49809
G1 X173.513 Y77.667 E6.54327
G1 X173.518 Y78.06 E6.56288
G1 X173.514 Y79.014 E6.61048
G1 X173.531 Y83.837 E6.8511
G1 X173.556 Y97.044 E7.51
G1 X173.556 Y132.171 E9.26249
G1 X173.515 Y140.989 E9.70243
G1 X173.515 Y142.207 E9.7632
G1 X173.464 Y143.23 E9.8143
G1 X173.44 Y143.468 E9.82623
G1 X173.31 Y144.357 E9.87105
G1 X173.218 Y144.816 E9.89441
G1 X173.078 Y145.444 E9.92651
G1 X172.842 Y146.316 E9.97158
G1 X172.546 Y147.127 E10.01465
G1 X172.428 Y147.412 E10.03004
G1 X172.046 Y148.23 E10.07508
G1 X171.483 Y149.18 E10.13017
G1 X171.374 Y149.343 E10.13996
G1 X170.904 Y149.99 E10.17985
G1 X170.665 Y150.293 E10.19911
G1 X170.074 Y150.977 E10.24421
G1 X169.426 Y151.605 E10.28923
G1 X168.725 Y152.174 E10.33427
G1 X167.976 Y152.679 E10.37934
G1 X167.185 Y153.115 E10.4244
G1 X166.359 Y153.48 E10.46945
G1 X165.504 Y153.77 E10.5145
G1 X164.626 Y153.984 E10.55958
G1 X163.733 Y154.119 E10.60464
G1 X162.859 Y154.174 E10.64833
G1 X162.307 Y154.185 E10.67587
G1 X161.999 Y154.186 E10.69124
G1 X159.249 Y154.158 E10.82845
G1 X128.355 Y154.071 E12.36976
G1 X127.653 Y154.059 E12.40479
G1 X126.751 Y154.003 E12.44988
G1 X125.858 Y153.868 E12.49493
G1 X124.981 Y153.655 E12.53996
G1 X124.126 Y153.365 E12.585
G1 X123.299 Y153 E12.6301
G1 X122.716 Y152.687 E12.66311
G1 X121.682 Y152.087 E12.72276
G1 X121.187 Y151.79 E12.75156
G1 X118.955 Y150.533 E12.87936
G1 X116.731 Y149.364 E13.00471
G1 X114.416 Y148.227 E13.13338
G1 X112.137 Y147.189 E13.25832
G1 X109.797 Y146.201 E13.38504
G1 X107.391 Y145.263 E13.51388
G1 X105.035 Y144.424 E13.63865
G1 X102.594 Y143.63 E13.76671
G1 X100.188 Y142.921 E13.89185
G1 X97.726 Y142.272 E14.01888
G1 X95.248 Y141.693 E14.14583
G1 X92.737 Y141.179 E14.27371
G1 X90.265 Y140.749 E14.39889
G1 X87.743 Y140.38 E14.52605
G1 X85.202 Y140.082 E14.65369
G1 X82.722 Y139.863 E14.7779
G1 X80.147 Y139.708 E14.9066
G1 X77.609 Y139.627 E15.03328
G1 X75.324 Y139.616 E15.14728
G1 X74.734 Y139.614 E15.17672
G1 X74.561 Y139.609 E15.18535
G1 X70.716 Y139.533 E15.37722
G1 X69.327 Y139.54 E15.44652
G1 X62.698 Y139.619 E15.77726
G1 X61.766 Y139.623 E15.82376
G1 X57.811 Y139.623 E16.02108
G1 X57.172 Y139.613 E16.05296
G1 X56.271 Y139.558 E16.098
G1 X55.378 Y139.423 E16.14305
G1 X54.501 Y139.209 E16.18809
G1 X53.645 Y138.919 E16.23318
G1 X52.486 Y138.381 E16.29693
G1 X52.368 Y138.317 E16.30363
G1 X51.806 Y137.989 E16.33609
G1 X51.599 Y137.859 E16.34829
G1 X50.856 Y137.345 E16.39336
G1 X50.162 Y136.768 E16.43839
G1 X49.521 Y136.131 E16.48347
G1 X48.94 Y135.441 E16.52848
G1 X48.319 Y134.538 E16.58315
G1 X48.195 Y134.335 E16.59502
G1 X47.759 Y133.544 E16.64008
G1 X47.403 Y132.738 E16.68404
G1 X47.224 Y132.281 E16.70853
G1 X46.932 Y131.426 E16.7536
G1 X46.719 Y130.561 E16.79804
G1 X46.683 Y130.381 E16.8072
G1 X46.545 Y129.489 E16.85223
G1 X46.485 Y128.463 E16.90351
G1 X46.477 Y127.306 E16.96123
G1 X46.481 Y126.858 E16.98359
G1 X46.469 Y124.951 E17.07873
G1 X46.444 Y117.012 E17.47481
G1 X46.444 Y97.281 E18.45919
G1 X46.481 Y92.77 E18.68425
G1 X46.48 Y91.841 E18.7306
G1 X46.486 Y91.427 E18.75126
G1 X46.543 Y90.525 E18.79635
G1 X46.679 Y89.633 E18.84137
G1 X46.82 Y89.022 E18.87265
G1 X46.909 Y88.684 E18.89009
G1 X47.282 Y87.543 E18.94998
G1 X47.384 Y87.284 E18.96386
G1 X47.752 Y86.46 E19.00889
G1 X48.192 Y85.671 E19.05396
G1 X48.651 Y84.988 E19.09501
G1 X48.786 Y84.804 E19.1064
G1 X49.352 Y84.1 E19.15146
G1 X49.978 Y83.449 E19.19652
G1 X50.84 Y82.715 E19.25301
G1 X51.264 Y82.399 E19.27939
G1 X51.425 Y82.284 E19.28926
G1 X52.183 Y81.792 E19.33434
G1 F2400 E16.13434
G0 F9000 X90.504 Y90.02
G0 X108.32 Y95.519
G1 F1440 E19.33434
G1 F1800 X108.673 Y95.44 E19.35239
G1 X108.549 Y95.753 E19.36919
G1 X108.32 Y95.519 E19.38552
G0 F9000 X108.345 Y95.114
G1 F1800 X108.785 Y94.996 E19.40825
G1 X109.197 Y94.802 E19.43097
G1 X109.729 Y94.392 E19.46448
G1 X110.098 Y94.006 E19.49112
G1 X110.573 Y94.006 E19.51482
G1 X110.573 Y94.063 E19.51766
G1 X110.371 Y94.158 E19.5288
G1 X109.839 Y94.568 E19.56231
G1 X109.264 Y95.199 E19.6049
G1 X109.037 Y95.594 E19.62763
G1 X108.882 Y96.022 E19.65034
G1 X108.795 Y96.688 E19.68385
G1 X108.795 Y96.853 E19.69208
G1 X108.643 Y96.53 E19.70989
G1 X108.233 Y95.998 E19.7434
G1 X107.602 Y95.423 E19.78599
G1 X107.091 Y95.154 E19.8148
G1 X107.891 Y95.154 E19.85471
G1 X108.345 Y95.114 E19.87745
G0 F9000 X108.308 Y94.714
G1 F1800 X108.71 Y94.596 E19.89835
G1 X109.082 Y94.403 E19.91926
G1 X109.729 Y93.828 E19.96244
G1 X109.911 Y93.606 E19.97676
G1 X110.973 Y93.606 E20.02975
G1 X110.973 Y94.33 E20.06587
G1 X110.486 Y94.557 E20.09267
G1 X109.839 Y95.132 E20.13586
G1 X109.573 Y95.456 E20.15677
G1 X109.372 Y95.823 E20.17765
G1 X109.245 Y96.223 E20.19859
G1 X109.195 Y96.688 E20.22192
G1 X109.195 Y104.372 E20.60528
G1 X108.595 Y104.372 E20.63521
G1 X108.595 Y97.836 E20.96129
G1 X108.555 Y97.419 E20.98219
G1 X108.437 Y97.017 E21.00309
G1 X108.244 Y96.645 E21.024
G1 X107.669 Y95.998 E21.06719
G1 X107.345 Y95.732 E21.0881
G1 X106.978 Y95.531 E21.10898
G1 X106.578 Y95.404 E21.12991
G1 X106.113 Y95.354 E21.15325
G1 X101.931 Y95.354 E21.36189
G1 X101.383 Y95.298 E21.38937
G1 X98.166 Y95.298 E21.54987
G1 X98.166 Y94.698 E21.5798
G1 X100.814 Y94.698 E21.71191
G1 X101.362 Y94.754 E21.73939
G1 X107.891 Y94.754 E22.06513
G1 X108.308 Y94.714 E22.08602
G0 F9000 X108.223 Y93.914
G1 F1800 X108.535 Y93.797 E22.10265
G1 X108.881 Y93.544 E22.12403
G1 X109.369 Y92.999 E22.16053
G1 X109.457 Y92.806 E22.17111
G1 X111.773 Y92.806 E22.28666
G1 X111.773 Y95.006 E22.39642
G1 X111.345 Y95.046 E22.41786
G1 X111.033 Y95.163 E22.43449
G1 X110.687 Y95.416 E22.45587
G1 X110.199 Y95.961 E22.49237
G1 X110.06 Y96.265 E22.50905
G1 X109.995 Y96.688 E22.5304
G1 X109.995 Y105.172 E22.95367
G1 X107.795 Y105.172 E23.06342
G1 X107.795 Y97.836 E23.42942
G1 X107.755 Y97.504 E23.4461
G1 X107.638 Y97.192 E23.46273
G1 X107.385 Y96.846 E23.48411
G1 X106.84 Y96.358 E23.52061
G1 X106.536 Y96.219 E23.53729
G1 X106.113 Y96.154 E23.55864
G1 X101.876 Y96.154 E23.77002
G1 X101.383 Y96.098 E23.79478
G1 X97.521 Y96.098 E23.98745
G1 X97.366 Y96.117 E23.99524
G1 X97.366 Y93.898 E24.10595
G1 X100.869 Y93.898 E24.28071
G1 X101.362 Y93.954 E24.30547
G1 X107.891 Y93.954 E24.6312
G1 X108.223 Y93.914 E24.64788
G0 F9000 X107.891 Y92.754
G1 F1800 X108.032 Y92.695 E24.65551
G1 X108.314 Y92.413 E24.67541
G1 X108.373 Y92.272 E24.68303
G1 X108.373 Y91.606 E24.71626
G1 X112.973 Y91.606 E24.94575
G1 X112.973 Y96.206 E25.17525
G1 X111.677 Y96.206 E25.23991
G1 X111.536 Y96.265 E25.24753
G1 X111.254 Y96.547 E25.26743
G1 X111.195 Y96.688 E25.27505
G1 X111.195 Y106.372 E25.75819
G1 X106.595 Y106.372 E25.98769
G1 X106.595 Y97.836 E26.41355
G1 X106.536 Y97.695 E26.42117
G1 X106.254 Y97.413 E26.44107
G1 X106.113 Y97.354 E26.4487
G1 X101.793 Y97.354 E26.66422
G1 X101.383 Y97.298 E26.68487
G1 X97.521 Y97.298 E26.87754
G1 X97.38 Y97.357 E26.88517
G1 X97.098 Y97.639 E26.90507
G1 X97.039 Y97.78 E26.91269
G1 X97.039 Y107.277 E27.3865
G1 X92.439 Y107.277 E27.61599
G1 X92.439 Y97.677 E28.09494
G1 X95.684 Y97.677 E28.25683
G1 X95.825 Y97.618 E28.26446
G1 X96.107 Y97.336 E28.28435
G1 X96.166 Y97.195 E28.29198
G1 X96.166 Y92.698 E28.51634
G1 X100.952 Y92.698 E28.75511
G1 X101.362 Y92.754 E28.77576
G1 X107.891 Y92.754 E29.10149
G0 F9000 X107.386 Y96.281
G1 F1800 X107.091 Y96.043 E29.1204
G1 X106.753 Y95.872 E29.1393
G1 X106.387 Y95.775 E29.15819
G1 X106.113 Y95.754 E29.1719
G1 X101.904 Y95.754 E29.38189
G1 X101.383 Y95.698 E29.40803
G1 X97.766 Y95.698 E29.58848
G1 X97.766 Y94.298 E29.65833
G1 X100.841 Y94.298 E29.81174
G1 X101.362 Y94.354 E29.83788
G1 X107.891 Y94.354 E30.16362
G1 X108.268 Y94.314 E30.18253
G1 X108.628 Y94.196 E30.20143
G1 X108.955 Y94.006 E30.2203
G1 X109.446 Y93.545 E30.2539
G1 X109.706 Y93.206 E30.27521
G1 X111.373 Y93.206 E30.35838
G1 X111.373 Y94.638 E30.42982
G1 X110.94 Y94.764 E30.45232
G1 X110.613 Y94.954 E30.47119
G1 X110.122 Y95.415 E30.50479
G1 X109.884 Y95.71 E30.5237
G1 X109.713 Y96.048 E30.5426
G1 X109.616 Y96.414 E30.56149
G1 X109.595 Y96.688 E30.5752
G1 X109.595 Y104.772 E30.97851
G1 X108.195 Y104.772 E31.04836
G1 X108.195 Y97.836 E31.3944
G1 X108.155 Y97.459 E31.41331
G1 X108.037 Y97.099 E31.43221
G1 X107.847 Y96.772 E31.45108
G1 X107.386 Y96.281 E31.48468
G0 F9000 X106.82 Y96.847
G1 F1800 X106.594 Y96.678 E31.49876
G1 X106.33 Y96.578 E31.51284
G1 X106.113 Y96.554 E31.52374
G1 X101.848 Y96.554 E31.73652
G1 X101.383 Y96.498 E31.75988
G1 X97.521 Y96.498 E31.95256
G1 X97.242 Y96.538 E31.96662
G1 X96.966 Y96.669 E31.98186
G1 X96.966 Y93.498 E32.14007
G1 X100.897 Y93.498 E32.33618
G1 X101.362 Y93.554 E32.35955
G1 X107.891 Y93.554 E32.68528
G1 X108.17 Y93.514 E32.69935
G1 X108.427 Y93.398 E32.71341
G1 X108.88 Y92.979 E32.7442
G1 X109.049 Y92.753 E32.75828
G1 X109.158 Y92.406 E32.77642
G1 X112.173 Y92.406 E32.92684
G1 X112.173 Y95.406 E33.07651
G1 X111.677 Y95.406 E33.10126
G1 X111.398 Y95.446 E33.11532
G1 X111.141 Y95.562 E33.12939
G1 X110.688 Y95.981 E33.16017
G1 X110.519 Y96.207 E33.17425
G1 X110.419 Y96.471 E33.18834
G1 X110.395 Y96.688 E33.19923
G1 X110.395 Y105.572 E33.64245
G1 X107.395 Y105.572 E33.79212
G1 X107.395 Y97.836 E34.17807
G1 X107.355 Y97.557 E34.19214
G1 X107.239 Y97.3 E34.2062
G1 X106.82 Y96.847 E34.23699
G0 F9000 X106.537 Y97.13
G1 F1800 X106.358 Y97.006 E34.24785
G1 X106.113 Y96.954 E34.26035
G1 X101.821 Y96.954 E34.47448
G1 X101.383 Y96.898 E34.49651
G1 X97.521 Y96.898 E34.68918
G1 X97.306 Y96.938 E34.70009
G1 X97.097 Y97.074 E34.71253
G1 X96.815 Y97.356 E34.73243
G1 X96.691 Y97.535 E34.74329
G1 X96.639 Y97.78 E34.75579
G1 X96.639 Y106.877 E35.20964
G1 X92.839 Y106.877 E35.39922
G1 X92.839 Y98.077 E35.83826
G1 X95.684 Y98.077 E35.98019
G1 X95.899 Y98.037 E35.9911
G1 X96.108 Y97.901 E36.00355
G1 X96.39 Y97.619 E36.02344
G1 X96.514 Y97.44 E36.03431
G1 X96.566 Y97.195 E36.0468
G1 X96.566 Y93.098 E36.2512
G1 X100.924 Y93.098 E36.46862
G1 X101.362 Y93.154 E36.49065
G1 X107.891 Y93.154 E36.81639
G1 X108.106 Y93.114 E36.8273
G1 X108.315 Y92.978 E36.83974
G1 X108.597 Y92.696 E36.85963
G1 X108.721 Y92.517 E36.8705
G1 X108.773 Y92.272 E36.88299
G1 X108.773 Y92.006 E36.89626
G1 X112.573 Y92.006 E37.08585
G1 X112.573 Y95.806 E37.27543
G1 X111.677 Y95.806 E37.32013
G1 X111.462 Y95.846 E37.33104
G1 X111.253 Y95.982 E37.34348
G1 X110.971 Y96.264 E37.36338
G1 X110.847 Y96.443 E37.37424
G1 X110.795 Y96.688 E37.38674
G1 X110.795 Y105.972 E37.84992
G1 X106.995 Y105.972 E38.0395
G1 X106.995 Y97.836 E38.44541
G1 X106.955 Y97.621 E38.45632
G1 X106.819 Y97.412 E38.46876
G1 X106.537 Y97.13 E38.48865
G0 F9000 X96.239 Y98.306
G1 F1800 X96.239 Y106.477 E38.89631
G1 X93.239 Y106.477 E39.04598
G1 X93.239 Y98.477 E39.4451
G1 X95.684 Y98.477 E39.56708
G1 X95.963 Y98.437 E39.58114
G1 X96.239 Y98.306 E39.59638
G0 F9000 X95.839 Y98.858
G1 F1800 X95.839 Y106.077 E39.95654
G1 X93.639 Y106.077 E40.0663
G1 X93.639 Y98.877 E40.42551
G1 X95.684 Y98.877 E40.52754
G1 X95.839 Y98.858 E40.53533
G0 F9000 X95.439 Y99.277
G1 F1800 X95.439 Y105.677 E40.85462
G1 X94.039 Y105.677 E40.92447
G1 X94.039 Y99.277 E41.24377
G1 X95.439 Y99.277 E41.31361
G0 F9000 X95.039 Y99.677
G1 F1800 X95.039 Y105.277 E41.593
G1 X94.439 Y105.277 E41.62293
G1 X94.439 Y99.677 E41.90232
G1 X95.039 Y99.677 E41.93225
G0 F9000 X104.329 Y108.953
G1 F1800 X104.329 Y111.584 E42.06351
G1 X104.369 Y111.863 E42.07757
G1 X104.485 Y112.12 E42.09164
G1 X104.904 Y112.573 E42.12243
G1 X105.13 Y112.742 E42.13651
G1 X105.394 Y112.842 E42.15059
G1 X105.611 Y112.866 E42.16148
G1 X112.392 Y112.866 E42.49979
G1 X112.392 Y116.68 E42.69007
G1 X112.248 Y117.239 E42.71887
G1 X112.248 Y126.448 E43.17831
G1 X108.673 Y126.447 E43.35666
G1 X108.447 Y126.278 E43.37074
G1 X108.183 Y126.178 E43.38483
G1 X107.966 Y126.154 E43.39572
G1 X98.48 Y126.154 E43.86898
G1 X98.201 Y126.194 E43.88304
G1 X97.944 Y126.31 E43.89711
G1 X97.491 Y126.729 E43.92789
G1 X97.401 Y126.85 E43.93542
G1 X94.198 Y126.85 E44.09522
G1 X94.198 Y118.85 E44.49434
G1 X97.198 Y118.85 E44.64401
G1 X97.198 Y121.872 E44.79478
G1 X97.238 Y122.151 E44.80884
G1 X97.354 Y122.408 E44.8229
G1 X97.773 Y122.861 E44.85369
G1 X97.999 Y123.03 E44.86777
G1 X98.263 Y123.13 E44.88185
G1 X98.48 Y123.154 E44.89275
G1 X107.966 Y123.154 E45.366
G1 X108.245 Y123.114 E45.38007
G1 X108.502 Y122.998 E45.39413
G1 X108.955 Y122.579 E45.42492
G1 X109.124 Y122.353 E45.439
G1 X109.224 Y122.089 E45.45308
G1 X109.248 Y121.872 E45.46397
G1 X109.248 Y118.235 E45.64542
G1 X109.208 Y117.956 E45.65949
G1 X109.092 Y117.699 E45.67355
G1 X108.673 Y117.246 E45.70434
G1 X108.447 Y117.077 E45.71842
G1 X108.183 Y116.977 E45.7325
G1 X107.966 Y116.953 E45.74339
G1 X101.329 Y116.953 E46.07452
G1 X101.329 Y108.953 E46.47364
G1 X104.329 Y108.953 E46.62331
G0 F9000 X104.729 Y108.553
G1 F1800 X104.729 Y111.584 E46.77453
G1 X104.769 Y111.799 E46.78544
