;FLAVOR:Marlin
;TIME:5183
;Filament used: 6.73138m
;Layer height: 0.24
;MINX:32.391
;MINY:51.859
;MINZ:0.24
;MAXX:187.638
;MAXY:168.141
;MAXZ:12.4
;Generated with Cura_SteamEngine 4.10.0
M82 ;absolute extrusion mode
M201 X500.00 Y500.00 Z100.00 E5000.00 ;Setup machine max acceleration
M203 X500.00 Y500.00 Z10.00 E50.00 ;Setup machine max feedrate
M204 P500.00 R1000.00 T500.00 ;Setup Print/Retract/Travel acceleration
M205 X8.00 Y8.00 Z0.40 E5.00 ;Setup Jerk
M220 S100 ;Reset Feedrate
M221 S100 ;Reset Flowrate

;*** Start Dual Nozzle/Bed Preheating ***
M140 S50 ; start preheating the bed
M104 S200 ?T0 ; start preheating hotend
M190 S50 ; heat to Cura Bed setting and WAIT
M109 S200 ?T0 ; heat to Cura Hotend and WAIT
;*** End Preheating ***

;*** Single Print Start Tone
M300 S1000 P500 ; chirp to indicate starting to print
;*** End Single Start Tone

G28 ;Home

G92 E0 ;Reset Extruder
G1 Z2.0 F3000 ;Move Z Axis up

G1 X10.1 Y20 Z0.28 F5000.0 ;Move to start position
G1 X10.1 Y200.0 Z0.28 F1500.0 E15 ;Draw the first line
G1 X10.4 Y200.0 Z0.28 F5000.0 ;Move to side a little
G1 X10.4 Y20 Z0.28 F1500.0 E30 ;Draw the second line
G92 E0 ;Reset Extruder
G1 Z2.0 F3000 ;Move Z Axis up
G92 E0
G92 E0
G1 F2400 E-3.2
;LAYER_COUNT:49
;LAYER:0
M106 S63.8
M204 S500
M205 X6 Y6
G0 F9000 X50.953 Y105.873 Z0.24
;TYPE:SKIRT
G1 F1440 E0
G1 F1800 X51.701 Y105.551 E0.0325
G1 X52.676 Y105.146 E0.07464
G1 X53.511 Y104.814 E0.11051
G1 X54.309 Y104.536 E0.14423
G1 X55.106 Y104.295 E0.17747
G1 X56.229 Y103.972 E0.2241
G1 X57.675 Y103.579 E0.28391
G1 X59.019 Y103.234 E0.33929
G1 X61.5 Y102.522 E0.44231
G1 X63.89 Y101.763 E0.5424
G1 X66.272 Y100.93 E0.64311
G1 X68.66 Y100.019 E0.74512
G1 X70.999 Y99.052 E0.84614
G1 X73.327 Y98.009 E0.94795
G1 X75.603 Y96.912 E1.0488
G1 X77.883 Y95.733 E1.15124
G1 X80.067 Y94.523 E1.25089
G1 X82.3 Y93.202 E1.35445
G1 X84.409 Y91.873 E1.45394
G1 X86.525 Y90.455 E1.5556
G1 X88.614 Y88.967 E1.65797
G1 X90.64 Y87.435 E1.75935
G1 X92.613 Y85.855 E1.86023
G1 X94.532 Y84.228 E1.96065
G1 X96.445 Y82.507 E2.06335
G1 X98.271 Y80.771 E2.16391
G1 X100.069 Y78.961 E2.26573
G1 X101.808 Y77.11 E2.3671
G1 X103.48 Y75.225 E2.46767
G1 X105.137 Y73.248 E2.57062
G1 X106.691 Y71.282 E2.67064
G1 X108.231 Y69.217 E2.77346
G1 X109.672 Y67.168 E2.87344
G1 X111.084 Y65.031 E2.97566
G1 X112.411 Y62.893 E3.0761
G1 X114.082 Y60 E3.20944
G1 X114.286 Y59.631 E3.22627
G1 X114.748 Y58.877 E3.26156
G1 X115.079 Y58.386 E3.2852
G1 X115.431 Y57.889 E3.3095
G1 X115.991 Y57.181 E3.34553
G1 X116.392 Y56.744 E3.3692
G1 X116.744 Y56.382 E3.38936
G1 X117.152 Y55.977 E3.4123
G1 X117.821 Y55.371 E3.44833
G1 X118.463 Y54.875 E3.48071
G1 X118.871 Y54.586 E3.50066
G1 X119.31 Y54.29 E3.5218
G1 X120.08 Y53.819 E3.55782
G1 X120.55 Y53.575 E3.57896
G1 X121.031 Y53.341 E3.60031
G1 X121.639 Y53.063 E3.62699
G1 X122.718 Y52.65 E3.6731
G1 X122.925 Y52.584 E3.68177
G1 X123.514 Y52.415 E3.70623
G1 X124.117 Y52.262 E3.73106
G1 X125.002 Y52.079 E3.76713
G1 X125.585 Y52.002 E3.7906
G1 X126.386 Y51.925 E3.82272
G1 X126.745 Y51.899 E3.83708
G1 X127.322 Y51.873 E3.86014
G1 X128.245 Y51.86 E3.89698
G1 X146.79 Y51.859 E4.63715
G1 X147.832 Y51.873 E4.67874
G1 X148.412 Y51.892 E4.7019
G1 X150.26 Y51.982 E4.77575
G1 X150.893 Y52.022 E4.80106
G1 X151.523 Y52.082 E4.82632
G1 X152.754 Y52.238 E4.87585
G1 X152.965 Y52.267 E4.88435
G1 X154.26 Y52.459 E4.9366
G1 X154.764 Y52.54 E4.95697
G1 X155.428 Y52.67 E4.98398
G1 X156.669 Y52.955 E5.0348
G1 X156.864 Y53.002 E5.0428
G1 X158.158 Y53.327 E5.09605
G1 X158.654 Y53.46 E5.11655
G1 X159.24 Y53.636 E5.14097
G1 X160.391 Y54.02 E5.1894
G1 X160.598 Y54.092 E5.19815
G1 X161.889 Y54.555 E5.25289
G1 X162.359 Y54.731 E5.27292
G1 X162.952 Y54.974 E5.2985
G1 X164.077 Y55.478 E5.3477
G1 X164.266 Y55.565 E5.356
G1 X165.345 Y56.075 E5.40363
G1 X166.087 Y56.438 E5.4366
G1 X166.605 Y56.71 E5.45995
G1 X167.164 Y57.029 E5.48564
G1 X168.804 Y58.014 E5.562
G1 X169.477 Y58.428 E5.59353
G1 X169.95 Y58.737 E5.61608
G1 X170.457 Y59.095 E5.64086
G1 X172.106 Y60.321 E5.72287
G1 X172.538 Y60.651 E5.74456
G1 X173.039 Y61.06 E5.77038
G1 X173.951 Y61.853 E5.81861
G1 X174.106 Y61.991 E5.8269
G1 X174.989 Y62.791 E5.87445
G1 X175.506 Y63.274 E5.90269
G1 X175.937 Y63.702 E5.92693
G1 X176.783 Y64.596 E5.97606
G1 X177.744 Y65.654 E6.0331
G1 X178.167 Y66.133 E6.05861
G1 X178.565 Y66.616 E6.08359
G1 X179.342 Y67.618 E6.1342
G1 X179.474 Y67.791 E6.14288
G1 X180.26 Y68.852 E6.19558
G1 X180.564 Y69.275 E6.21637
G1 X180.912 Y69.793 E6.24128
G1 X181.553 Y70.811 E6.28929
G1 X181.67 Y71.001 E6.2982
G1 X182.344 Y72.127 E6.35058
G1 X182.732 Y72.795 E6.38141
G1 X183.006 Y73.299 E6.40431
G1 X183.263 Y73.813 E6.42724
G1 X184.085 Y75.553 E6.50405
G1 X184.369 Y76.178 E6.53145
G1 X184.602 Y76.739 E6.55569
G1 X185.034 Y77.869 E6.60398
G1 X185.111 Y78.077 E6.61283
G1 X185.572 Y79.368 E6.66754
G1 X185.736 Y79.848 E6.68779
G1 X185.925 Y80.462 E6.71343
G1 X186.237 Y81.606 E6.76076
G1 X186.289 Y81.806 E6.769
G1 X186.619 Y83.126 E6.82331
G1 X186.736 Y83.62 E6.84357
G1 X186.868 Y84.269 E6.87001
G1 X187.077 Y85.504 E6.92
G1 X187.109 Y85.703 E6.92804
G1 X187.295 Y86.961 E6.9788
G1 X187.37 Y87.519 E7.00127
G1 X187.436 Y88.165 E7.02719
G1 X187.523 Y89.406 E7.07684
G1 X187.536 Y89.621 E7.08544
G1 X187.599 Y90.932 E7.13782
G1 X187.631 Y91.853 E7.1746
G1 X187.638 Y92.499 E7.20039
G1 X187.626 Y93.343 E7.23408
G1 X187.609 Y93.871 E7.25516
G1 X187.519 Y95.735 E7.32964
G1 X187.479 Y96.386 E7.35568
G1 X187.418 Y97.026 E7.38133
G1 X187.261 Y98.264 E7.43114
G1 X187.232 Y98.477 E7.43972
G1 X187.04 Y99.766 E7.49174
G1 X186.958 Y100.274 E7.51227
G1 X186.83 Y100.93 E7.53895
G1 X186.551 Y102.146 E7.58874
G1 X186.24 Y103.392 E7.64
G1 X186.037 Y104.158 E7.67163
G1 X185.856 Y104.763 E7.69683
G1 X185.484 Y105.877 E7.74371
G1 X184.99 Y107.262 E7.8024
G1 X184.78 Y107.83 E7.82657
G1 X184.529 Y108.444 E7.85304
G1 X184.025 Y109.569 E7.90224
G1 X183.939 Y109.755 E7.91042
G1 X183.363 Y110.973 E7.9642
G1 X183.053 Y111.605 E7.99229
G1 X182.786 Y112.112 E8.01516
G1 X182.463 Y112.677 E8.04114
G1 X181.434 Y114.39 E8.12089
G1 X181.15 Y114.849 E8.14244
G1 X180.791 Y115.389 E8.16832
G1 X180.109 Y116.349 E8.21532
G1 X179.989 Y116.515 E8.22349
G1 X179.176 Y117.611 E8.27796
G1 X178.857 Y118.029 E8.29895
G1 X178.449 Y118.529 E8.3247
G1 X177.509 Y119.609 E8.38185
G1 X176.711 Y120.49 E8.42929
G1 X176.234 Y120.999 E8.45713
G1 X175.81 Y121.426 E8.48115
G1 X174.894 Y122.293 E8.53149
G1 X174.731 Y122.443 E8.54033
G1 X173.758 Y123.323 E8.59269
G1 X173.332 Y123.697 E8.61532
G1 X172.852 Y124.093 E8.64015
G1 X171.949 Y124.793 E8.68575
G1 X171.781 Y124.921 E8.69418
G1 X170.692 Y125.728 E8.74828
G1 X170.08 Y126.169 E8.77839
G1 X169.614 Y126.486 E8.80088
G1 X169.152 Y126.776 E8.82265
G1 X167.34 Y127.862 E8.90697
G1 X166.901 Y128.117 E8.92723
G1 X166.333 Y128.423 E8.95298
G1 X164.989 Y129.092 E9.0129
G1 X163.891 Y129.609 E9.06134
G1 X163.332 Y129.863 E9.08585
G1 X162.758 Y130.103 E9.11068
G1 X161.624 Y130.537 E9.15914
G1 X161.412 Y130.616 E9.16817
G1 X160.132 Y131.072 E9.2224
G1 X159.652 Y131.236 E9.24265
G1 X159.038 Y131.425 E9.26829
G1 X157.894 Y131.737 E9.31562
G1 X157.694 Y131.789 E9.32386
G1 X156.374 Y132.119 E9.37817
G1 X155.88 Y132.236 E9.39843
G1 X155.233 Y132.368 E9.42479
G1 X153.759 Y132.617 E9.48445
G1 X151.421 Y132.997 E9.57899
G1 X148.92 Y133.476 E9.68063
G1 X146.466 Y134.017 E9.78092
G1 X143.953 Y134.648 E9.88433
G1 X141.542 Y135.326 E9.98429
G1 X139.099 Y136.087 E10.08642
G1 X136.714 Y136.905 E10.18706
G1 X134.316 Y137.805 E10.28928
G1 X131.982 Y138.756 E10.38987
G1 X129.659 Y139.781 E10.49121
G1 X127.378 Y140.865 E10.59201
G1 X125.084 Y142.037 E10.69483
G1 X122.868 Y143.247 E10.7956
G1 X120.675 Y144.528 E10.89696
G1 X118.53 Y145.863 E10.9978
G1 X116.377 Y147.289 E11.10087
G1 X114.338 Y148.725 E11.20041
G1 X112.285 Y150.259 E11.3027
G1 X110.304 Y151.829 E11.40358
G1 X108.35 Y153.469 E11.5054
G1 X106.459 Y155.15 E11.60638
G1 X104.61 Y156.889 E11.70769
G1 X102.799 Y158.692 E11.80969
G1 X101.077 Y160.505 E11.90949
G1 X99.108 Y162.72 E12.02777
G1 X98.749 Y163.105 E12.04878
G1 X98.087 Y163.787 E12.08672
G1 X97.842 Y164.029 E12.10046
G1 X97.172 Y164.634 E12.13649
G1 X96.59 Y165.085 E12.16588
G1 X96.169 Y165.385 E12.18651
G1 X95.769 Y165.657 E12.20582
G1 X95.005 Y166.139 E12.24187
G1 X94.519 Y166.398 E12.26385
G1 X93.886 Y166.703 E12.2919
G1 X93.329 Y166.951 E12.31623
G1 X92.488 Y167.282 E12.3523
G1 X91.989 Y167.439 E12.37318
G1 X91.324 Y167.625 E12.40074
G1 X90.942 Y167.723 E12.41648
G1 X90.058 Y167.909 E12.45254
G1 X89.457 Y167.989 E12.47674
G1 X88.829 Y168.054 E12.50193
G1 X88.518 Y168.082 E12.5144
G1 X87.879 Y168.115 E12.53993
G1 X86.701 Y168.139 E12.58696
G1 X86.493 Y168.141 E12.59526
G1 X65.067 Y168.139 E13.45042
G1 X64.328 Y168.129 E13.47992
G1 X64.026 Y168.121 E13.49198
G1 X63.296 Y168.088 E13.52114
G1 X61.987 Y168.014 E13.57347
G1 X61.304 Y167.965 E13.6008
G1 X60.458 Y167.869 E13.63478
G1 X59.654 Y167.742 E13.66727
G1 X58.455 Y167.537 E13.71582
G1 X57.788 Y167.415 E13.74288
G1 X56.932 Y167.22 E13.77792
G1 X56.131 Y167 E13.81108
G1 X55.124 Y166.71 E13.8529
G1 X54.306 Y166.463 E13.88701
G1 X53.479 Y166.174 E13.92197
G1 X52.66 Y165.847 E13.95717
G1 X51.714 Y165.454 E13.99805
G1 X50.991 Y165.144 E14.02945
G1 X50.226 Y164.777 E14.06331
G1 X49.337 Y164.303 E14.10352
G1 X48.394 Y163.781 E14.14654
G1 X47.765 Y163.421 E14.17547
G1 X47.055 Y162.975 E14.20893
G1 X46.486 Y162.584 E14.23649
G1 X45.389 Y161.805 E14.29019
G1 X44.828 Y161.397 E14.31788
G1 X44.131 Y160.842 E14.35344
G1 X43.496 Y160.289 E14.38704
G1 X42.598 Y159.484 E14.43518
G1 X42.046 Y158.974 E14.46517
G1 X41.461 Y158.387 E14.49825
G1 X40.931 Y157.809 E14.52955
G1 X40.116 Y156.894 E14.57845
G1 X39.626 Y156.328 E14.60833
G1 X39.097 Y155.662 E14.64228
G1 X38.637 Y155.03 E14.67348
G1 X37.954 Y154.068 E14.72057
G1 X37.54 Y153.469 E14.74963
G1 X37.069 Y152.72 E14.78494
G1 X36.64 Y151.965 E14.8196
G1 X36.158 Y151.088 E14.85954
G1 X35.779 Y150.386 E14.89138
G1 X35.39 Y149.585 E14.92692
G1 X35.063 Y148.828 E14.95984
G1 X34.588 Y147.681 E15.00939
G1 X34.317 Y146.998 E15.03871
G1 X34.037 Y146.197 E15.07258
G1 X33.831 Y145.518 E15.1009
G1 X33.473 Y144.27 E15.15272
G1 X33.273 Y143.532 E15.18324
G1 X33.14 Y142.98 E15.2059
G1 X33.07 Y142.635 E15.21995
G1 X32.956 Y142.005 E15.2455
G1 X32.738 Y140.721 E15.29748
G1 X32.628 Y140.012 E15.32612
G1 X32.531 Y139.15 E15.36074
G1 X32.475 Y138.323 E15.39382
G1 X32.434 Y137.594 E15.42297
G1 X32.404 Y136.883 E15.45137
G1 X32.391 Y136.203 E15.47851
G1 X32.398 Y135.454 E15.50841
G1 X32.406 Y135.187 E15.51907
G1 X32.443 Y134.294 E15.55474
G1 X32.484 Y132.901 E15.61036
G1 X32.516 Y132.124 E15.6414
G1 X32.627 Y130.984 E15.68712
G1 X32.759 Y130.141 E15.72117
G1 X32.966 Y128.934 E15.77005
G1 X33.09 Y128.263 E15.79728
G1 X33.279 Y127.435 E15.83118
G1 X33.482 Y126.694 E15.86185
G1 X33.844 Y125.443 E15.91383
G1 X34.049 Y124.771 E15.94187
G1 X34.23 Y124.231 E15.9646
G1 X34.349 Y123.918 E15.97796
G1 X34.598 Y123.297 E16.00467
G1 X35.106 Y122.068 E16.05774
G1 X35.372 Y121.451 E16.08456
G1 X35.743 Y120.681 E16.11867
G1 X36.158 Y119.908 E16.15369
G1 X36.647 Y119.026 E16.19394
G1 X37.046 Y118.322 E16.22624
G1 X37.51 Y117.58 E16.26117
G1 X38.059 Y116.781 E16.29986
G1 X38.692 Y115.891 E16.34345
G1 X39.125 Y115.299 E16.37272
G1 X39.668 Y114.62 E16.40742
G1 X40.217 Y113.991 E16.44075
G1 X40.896 Y113.232 E16.48139
G1 X41.498 Y112.578 E16.51687
G1 X42.098 Y111.978 E16.55074
G1 X42.678 Y111.446 E16.58215
G1 X43.6 Y110.622 E16.6315
G1 X44.144 Y110.15 E16.66025
G1 X44.809 Y109.62 E16.69419
G1 X45.517 Y109.104 E16.72915
G1 X46.481 Y108.42 E16.77633
G1 X47.058 Y108.023 E16.80428
G1 X47.797 Y107.56 E16.83909
G1 X48.51 Y107.155 E16.87182
G1 X49.523 Y106.597 E16.91798
G1 X50.173 Y106.249 E16.9474
G1 X50.953 Y105.873 E16.98196
G1 F2400 E13.78196
;MESH:S-Hook.stl
G0 F9000 X54.743 Y114.613
G0 X55.159 Y115.615
G0 X49.815 Y120.315
G0 X48.264 Y122.05
G0 X46.917 Y123.946
G0 X45.788 Y125.991
G0 X44.894 Y128.152
G0 X44.252 Y130.382
G0 X43.868 Y132.637
G0 X43.757 Y136.441
G0 X43.865 Y138.331
G0 X44.252 Y140.617
G0 X44.892 Y142.845
G0 X45.794 Y145.019
G0 X46.91 Y147.044
G0 X48.271 Y148.958
G0 X49.806 Y150.678
G0 X51.563 Y152.247
G0 X53.433 Y153.574
G0 X55.489 Y154.712
G0 X57.648 Y155.605
G0 X59.88 Y156.247
G0 X62.169 Y156.635
G0 X64.532 Y156.769
G0 X87.441 Y156.77
G0 X88.153 Y156.709
G0 X88.789 Y156.537
G0 X89.383 Y156.262
G0 X89.919 Y155.886
G0 X90.382 Y155.424
G0 X90.761 Y154.881
G0 X91.037 Y154.286
G0 X91.21 Y153.646
G0 X91.266 Y153.011
G0 X91.209 Y152.347
G0 X91.036 Y151.705
G0 X90.768 Y151.128
G0 X90.377 Y150.573
G0 X89.924 Y150.12
G0 X89.381 Y149.738
G0 X88.787 Y149.463
G0 X88.145 Y149.29
G0 X62.513 Y148.4
G0 X62.583 Y148.109
;TYPE:WALL-OUTER
G1 F1440 E16.98196
G1 F1800 X64.492 Y148.259 E17.05839
G1 X87.493 Y148.259 E17.97641
G1 X88.322 Y148.332 E18.00963
G1 X89.122 Y148.548 E18.0427
G1 X89.867 Y148.893 E18.07547
G1 X90.55 Y149.373 E18.10879
G1 X91.127 Y149.95 E18.14135
G1 X91.605 Y150.632 E18.17459
G1 X91.954 Y151.379 E18.2075
G1 X92.131 Y152.045 E18.23501
G1 X92.169 Y152.181 E18.24064
G1 X92.24 Y153 E18.27345
G1 X92.168 Y153.822 E18.30639
G1 X91.952 Y154.622 E18.33946
G1 X91.606 Y155.366 E18.37221
G1 X91.13 Y156.048 E18.4054
G1 X90.643 Y156.533 E18.43283
G1 X90.545 Y156.633 E18.43842
G1 X89.868 Y157.107 E18.47141
G1 X89.122 Y157.452 E18.50421
G1 X88.322 Y157.669 E18.5373
G1 X87.491 Y157.741 E18.57059
G1 X64.511 Y157.74 E19.48777
G1 X62.063 Y157.602 E19.58563
G1 X59.662 Y157.194 E19.68283
G1 X57.325 Y156.522 E19.77989
G1 X55.486 Y155.759 E19.85935
G1 X55.064 Y155.586 E19.87755
G1 X52.933 Y154.407 E19.97476
G1 X50.942 Y152.996 E20.07215
G1 X49.127 Y151.373 E20.16933
G1 X47.505 Y149.557 E20.26651
G1 X46.092 Y147.568 E20.36389
G1 X45.133 Y145.828 E20.44319
G1 X44.914 Y145.435 E20.46115
G1 X43.978 Y143.175 E20.55878
G1 X43.306 Y140.838 E20.65583
G1 X42.898 Y138.437 E20.75303
G1 X42.786 Y136.452 E20.83239
G1 X42.786 Y135.664 E20.86384
G1 X42.898 Y133.665 E20.94375
G1 X42.897 Y132.559 E20.98789
G1 X43.305 Y130.161 E21.08497
G1 X43.98 Y127.822 E21.18214
G1 X44.912 Y125.568 E21.27949
G1 X45.874 Y123.83 E21.35877
G1 X46.092 Y123.432 E21.37688
G1 X47.504 Y121.443 E21.47424
G1 X49.128 Y119.628 E21.57144
G1 X50.944 Y118.005 E21.66865
G1 X52.933 Y116.593 E21.76601
G1 X55.066 Y115.415 E21.86326
G1 X57.325 Y114.478 E21.96087
G1 X59.661 Y113.805 E22.0579
G1 X62.062 Y113.397 E22.1551
G1 X64.511 Y113.259 E22.253
G1 X147.506 Y113.26 E25.56551
G1 X149.941 Y113.112 E25.66288
G1 X152.348 Y112.672 E25.76054
G1 X154.684 Y111.943 E25.85821
G1 X156.914 Y110.939 E25.95582
G1 X159.009 Y109.674 E26.05349
G1 X160.934 Y108.164 E26.15114
G1 X162.665 Y106.435 E26.24879
G1 X164.175 Y104.51 E26.34644
G1 X165.439 Y102.414 E26.44413
G1 X166.444 Y100.185 E26.54172
G1 X167.173 Y97.849 E26.63939
G1 X167.612 Y95.441 E26.73708
G1 X167.76 Y93.006 E26.83444
G1 X167.759 Y91.994 E26.87483
G1 X167.612 Y89.559 E26.9722
G1 X167.173 Y87.151 E27.06989
G1 X166.443 Y84.816 E27.16753
G1 X165.439 Y82.586 E27.26514
G1 X164.174 Y80.491 E27.36282
G1 X162.664 Y78.566 E27.46047
G1 X161.275 Y77.175 E27.53892
G1 X160.934 Y76.836 E27.55812
G1 X159.009 Y75.326 E27.65576
G1 X156.915 Y74.06 E27.75343
G1 X154.685 Y73.056 E27.85104
G1 X152.349 Y72.327 E27.94871
G1 X149.942 Y71.887 E28.04637
G1 X147.506 Y71.74 E28.14377
G1 X127.507 Y71.74 E28.94197
G1 X126.814 Y71.679 E28.96974
G1 X126.678 Y71.669 E28.97518
G1 X125.879 Y71.454 E29.00821
G1 X125.132 Y71.105 E29.04111
G1 X124.452 Y70.63 E29.07422
G1 X123.871 Y70.047 E29.10707
G1 X123.394 Y69.366 E29.14025
G1 X123.046 Y68.619 E29.17315
G1 X122.833 Y67.823 E29.20603
G1 X122.76 Y67 E29.23901
G1 X122.832 Y66.178 E29.27194
G1 X123.047 Y65.377 E29.30504
G1 X123.393 Y64.633 E29.33779
G1 X123.87 Y63.953 E29.37094
G1 X124.453 Y63.369 E29.40388
G1 X125.134 Y62.894 E29.43702
G1 X125.881 Y62.546 E29.46991
G1 X126.677 Y62.333 E29.5028
G1 X127.506 Y62.26 E29.53601
G1 X147.49 Y62.259 E30.33362
G1 X150.418 Y62.403 E30.45062
G1 X153.303 Y62.831 E30.56703
G1 X156.139 Y63.542 E30.68372
G1 X158.879 Y64.522 E30.79987
G1 X161.523 Y65.772 E30.91659
G1 X163.554 Y66.992 E31.01115
G1 X164.018 Y67.268 E31.0327
