;FLAVOR:Marlin
;TIME:7170
;Filament used: 6.66698m
;Layer height: 0.2
;MINX:41.7
;MINY:61.2
;MINZ:0.24
;MAXX:178.3
;MAXY:158.8
;MAXZ:12.56
;Generated with Cura_SteamEngine 4.7.1
M140 S50
M105
M190 S50
M104 S220
M105
M109 S220
M82 ;absolute extrusion mode
M201 X500.00 Y500.00 Z100.00 E5000.00 ;Setup machine max acceleration
M203 X500.00 Y500.00 Z10.00 E50.00 ;Setup machine max feedrate
M204 P500.00 R1000.00 T500.00 ;Setup Print/Retract/Travel acceleration
M205 X8.00 Y8.00 Z0.40 E5.00 ;Setup Jerk
M220 S100 ;Reset Feedrate
M221 S100 ;Reset Flowrate

G28 ;Home

G92 E0 ;Reset Extruder
G1 Z2.0 F3000 ;Move Z Axis up
G1 X10.1 Y20 Z0.28 F5000.0 ;Move to start position
G1 X10.1 Y200.0 Z0.28 F1500.0 E15 ;Draw the first line
G1 X10.4 Y200.0 Z0.28 F5000.0 ;Move to side a little
G1 X10.4 Y20 Z0.28 F1500.0 E30 ;Draw the second line
G92 E0 ;Reset Extruder
G1 Z2.0 F3000 ;Move Z Axis up

G92 E0
G92 E0
G1 F2400 E-3
;LAYER_COUNT:58
;LAYER:0
M106 S63.8
M204 S500
M205 X6 Y6
G1 F300 Z0.44
G0 F9000 X54.752 Y114.678 Z0.44
;TYPE:SKIRT
G1 F300 Z0.24
G1 F2400 E0
G1 F1800 X57.022 Y113.737 E0.09808
G1 X57.086 Y113.714 E0.10079
G1 X59.448 Y113.034 E0.19889
G1 X59.516 Y113.018 E0.20168
G1 X61.487 Y112.685 E0.28146
G1 X62.011 Y112.598 E0.30266
G1 X64.003 Y112.487 E0.38229
G1 X64.5 Y112.459 E0.40216
G1 X147.48 Y112.46 E3.71407
G1 X149.845 Y112.316 E3.80864
G1 X151.729 Y111.972 E3.88507
G1 X152.159 Y111.89 E3.90255
G1 X154.399 Y111.194 E3.99617
G1 X156.148 Y110.407 E4.07271
G1 X156.551 Y110.224 E4.09038
G1 X158.544 Y109.02 E4.18331
G1 X160.064 Y107.83 E4.26036
G1 X160.399 Y107.568 E4.27733
G1 X160.708 Y107.261 E4.29472
G1 X162.066 Y105.903 E4.37137
G1 X163.517 Y104.05 E4.4653
G1 X164.507 Y102.414 E4.54162
G1 X164.731 Y102.038 E4.55909
G1 X165.695 Y99.897 E4.65281
G1 X166.392 Y97.657 E4.74644
G1 X166.74 Y95.769 E4.82306
G1 X166.816 Y95.341 E4.84041
G1 X166.96 Y92.981 E4.93478
G1 X166.959 Y92.019 E4.97317
G1 X166.816 Y89.657 E5.06762
G1 X166.74 Y89.228 E5.08501
G1 X166.393 Y87.346 E5.16139
G1 X165.691 Y85.096 E5.25546
G1 X164.907 Y83.352 E5.33178
G1 X164.724 Y82.949 E5.34944
G1 X163.52 Y80.956 E5.44238
G1 X162.33 Y79.436 E5.51942
G1 X162.068 Y79.102 E5.53637
G1 X160.707 Y77.739 E5.61324
G1 X160.4 Y77.434 E5.63052
G1 X158.893 Y76.251 E5.70698
G1 X158.552 Y75.986 E5.72422
G1 X156.541 Y74.769 E5.81804
G1 X154.403 Y73.807 E5.91161
G1 X152.155 Y73.107 E6.00558
G1 X149.846 Y72.683 E6.09928
G1 X147.481 Y72.54 E6.19384
G1 X127.501 Y72.54 E6.99129
G1 X127.448 Y72.538 E6.9934
G1 X126.744 Y72.475 E7.02161
G1 X126.482 Y72.445 E7.03214
G1 X125.805 Y72.261 E7.06014
G1 X125.416 Y72.121 E7.07664
G1 X124.774 Y71.821 E7.10492
G1 X124.684 Y71.768 E7.10909
G1 X124.109 Y71.365 E7.13712
G1 X123.79 Y71.099 E7.1537
G1 X123.29 Y70.598 E7.18195
G1 X123.224 Y70.518 E7.18609
G1 X122.732 Y69.816 E7.2203
G1 X122.679 Y69.726 E7.22447
G1 X122.313 Y68.942 E7.259
G1 X122.277 Y68.843 E7.26321
G1 X122.055 Y68.014 E7.29746
G1 X122.037 Y67.911 E7.30163
G1 X121.976 Y67.208 E7.3298
G1 X121.975 Y66.795 E7.34628
G1 X122.037 Y66.089 E7.37457
G1 X122.056 Y65.985 E7.37879
G1 X122.236 Y65.314 E7.40651
G1 X122.313 Y65.056 E7.41726
G1 X122.613 Y64.416 E7.44547
G1 X122.729 Y64.186 E7.45575
G1 X123.136 Y63.607 E7.484
G1 X123.292 Y63.398 E7.49441
G1 X123.79 Y62.901 E7.52249
G1 X124.107 Y62.636 E7.53898
G1 X124.683 Y62.232 E7.56706
G1 X124.774 Y62.179 E7.57126
G1 X125.557 Y61.813 E7.60576
G1 X125.656 Y61.777 E7.60996
G1 X126.486 Y61.555 E7.64426
G1 X126.589 Y61.537 E7.64843
G1 X127.449 Y61.462 E7.68288
G1 X127.501 Y61.46 E7.68496
G1 X147.53 Y61.46 E8.48436
G1 X149.911 Y61.578 E8.57951
G1 X150.463 Y61.604 E8.60157
G1 X150.523 Y61.61 E8.60397
G1 X152.878 Y61.96 E8.699
G1 X153.429 Y62.04 E8.72122
G1 X153.489 Y62.052 E8.72366
G1 X156.336 Y62.767 E8.84082
G1 X156.393 Y62.784 E8.84319
G1 X159.162 Y63.775 E8.96058
G1 X159.217 Y63.798 E8.96296
G1 X161.367 Y64.815 E9.05788
G1 X161.87 Y65.051 E9.08006
G1 X161.924 Y65.08 E9.0825
G1 X163.965 Y66.305 E9.17751
G1 X164.441 Y66.588 E9.19961
G1 X164.493 Y66.623 E9.20212
G1 X164.937 Y66.955 E9.22424
G1 X166.851 Y68.374 E9.31934
G1 X166.897 Y68.411 E9.3217
G1 X169.073 Y70.383 E9.4389
G1 X169.115 Y70.426 E9.4413
G1 X169.486 Y70.837 E9.4634
G1 X171.087 Y72.602 E9.55851
G1 X171.125 Y72.647 E9.56086
G1 X172.876 Y75.007 E9.67815
G1 X172.908 Y75.056 E9.68048
G1 X174.42 Y77.575 E9.79774
G1 X174.45 Y77.63 E9.80024
G1 X174.685 Y78.133 E9.8224
G1 X175.702 Y80.284 E9.91736
G1 X175.725 Y80.339 E9.91974
G1 X176.715 Y83.108 E10.03711
G1 X176.732 Y83.164 E10.03945
G1 X177.447 Y86.012 E10.15664
G1 X177.459 Y86.071 E10.15905
G1 X177.538 Y86.62 E10.18119
G1 X177.889 Y88.976 E10.27626
G1 X177.895 Y89.035 E10.27862
G1 X178.04 Y92 E10.3971
G1 X178.039 Y93.028 E10.43813
G1 X177.896 Y95.964 E10.55545
G1 X177.89 Y96.023 E10.55782
G1 X177.54 Y98.378 E10.65285
G1 X177.46 Y98.929 E10.67507
G1 X177.448 Y98.989 E10.67751
G1 X176.732 Y101.836 E10.79468
G1 X176.715 Y101.892 E10.79702
G1 X175.727 Y104.659 E10.91428
G1 X175.704 Y104.714 E10.91666
G1 X174.684 Y106.869 E11.01182
G1 X174.449 Y107.37 E11.03391
G1 X174.42 Y107.424 E11.03635
G1 X172.909 Y109.942 E11.15356
G1 X172.877 Y109.991 E11.15589
G1 X171.456 Y111.906 E11.25107
G1 X171.128 Y112.351 E11.27313
G1 X171.089 Y112.398 E11.27557
G1 X169.487 Y114.162 E11.37068
G1 X169.119 Y114.572 E11.39267
G1 X169.074 Y114.617 E11.39521
G1 X168.661 Y114.988 E11.41736
G1 X166.898 Y116.588 E11.51239
G1 X166.852 Y116.626 E11.51477
G1 X164.936 Y118.045 E11.60993
G1 X164.493 Y118.376 E11.632
G1 X164.44 Y118.412 E11.63456
G1 X163.965 Y118.694 E11.6566
G1 X161.923 Y119.919 E11.75164
G1 X161.87 Y119.947 E11.75404
G1 X159.215 Y121.202 E11.87125
G1 X159.161 Y121.225 E11.87359
G1 X156.392 Y122.215 E11.99096
G1 X156.336 Y122.232 E11.99329
G1 X153.488 Y122.947 E12.11049
G1 X153.429 Y122.959 E12.11289
G1 X152.88 Y123.038 E12.13503
G1 X150.522 Y123.389 E12.23018
G1 X150.463 Y123.395 E12.23255
G1 X147.5 Y123.54 E12.35095
G1 X80.31 Y123.54 E15.03265
G1 X64.521 Y123.541 E15.66282
G1 X62.703 Y123.683 E15.7356
G1 X60.961 Y124.102 E15.80711
G1 X59.3 Y124.79 E15.87887
G1 X57.767 Y125.73 E15.95064
G1 X56.397 Y126.899 E16.02252
G1 X55.231 Y128.264 E16.09417
G1 X54.29 Y129.8 E16.16606
G1 X53.602 Y131.46 E16.23778
G1 X53.257 Y132.896 E16.29673
G1 X53.184 Y133.206 E16.30944
G1 X53.041 Y135.023 E16.38218
G1 X53.041 Y135.979 E16.42034
G1 X53.184 Y137.795 E16.49305
G1 X53.602 Y139.539 E16.56462
G1 X54.288 Y141.196 E16.6362
G1 X55.23 Y142.733 E16.70815
G1 X56.397 Y144.101 E16.77992
G1 X57.767 Y145.271 E16.85183
G1 X59.295 Y146.208 E16.92336
G1 X60.96 Y146.898 E16.9953
G1 X62.396 Y147.243 E17.05424
G1 X62.706 Y147.316 E17.06695
G1 X64.523 Y147.459 E17.1397
G1 X87.499 Y147.459 E18.05672
G1 X87.552 Y147.461 E18.05884
G1 X88.413 Y147.537 E18.09334
G1 X88.515 Y147.555 E18.09747
G1 X89.344 Y147.777 E18.13172
G1 X89.442 Y147.813 E18.13589
G1 X90.222 Y148.176 E18.17023
G1 X90.314 Y148.229 E18.17447
G1 X91.021 Y148.726 E18.20896
G1 X91.1 Y148.793 E18.21309
G1 X91.709 Y149.402 E18.24747
G1 X91.776 Y149.482 E18.25163
G1 X92.268 Y150.184 E18.28585
G1 X92.321 Y150.275 E18.29005
G1 X92.616 Y150.908 E18.31792
G1 X92.723 Y151.153 E18.32859
G1 X92.946 Y151.985 E18.36297
G1 X92.964 Y152.089 E18.36718
G1 X93.024 Y152.793 E18.39538
G1 X93.025 Y153.205 E18.41183
G1 X92.963 Y153.911 E18.44011
G1 X92.945 Y154.014 E18.44429
G1 X92.723 Y154.843 E18.47854
G1 X92.687 Y154.942 E18.48275
G1 X92.321 Y155.726 E18.51728
G1 X92.268 Y155.817 E18.52148
G1 X91.864 Y156.393 E18.54956
G1 X91.709 Y156.6 E18.55988
G1 X91.208 Y157.099 E18.58811
G1 X91.019 Y157.278 E18.59849
G1 X90.442 Y157.681 E18.62659
G1 X90.085 Y157.887 E18.64304
G1 X89.443 Y158.187 E18.67132
G1 X89.345 Y158.222 E18.67547
G1 X88.516 Y158.445 E18.70974
G1 X88.411 Y158.464 E18.71399
G1 X87.706 Y158.524 E18.74223
G1 X87.499 Y158.541 E18.75052
G1 X64.466 Y158.539 E19.66982
G1 X62.011 Y158.401 E19.76796
G1 X61.944 Y158.394 E19.77065
G1 X59.516 Y157.981 E19.86895
G1 X59.451 Y157.966 E19.87161
G1 X57.533 Y157.412 E19.95129
G1 X57.022 Y157.263 E19.97253
G1 X55.179 Y156.498 E20.05218
G1 X54.691 Y156.293 E20.0733
G1 X52.536 Y155.101 E20.1716
G1 X52.479 Y155.065 E20.17429
G1 X50.473 Y153.643 E20.27243
G1 X50.42 Y153.601 E20.27512
G1 X48.932 Y152.269 E20.35483
G1 X48.534 Y151.911 E20.3762
G1 X48.229 Y151.566 E20.39458
G1 X46.899 Y150.078 E20.47423
G1 X46.857 Y150.025 E20.47693
G1 X45.434 Y148.022 E20.575
G1 X45.398 Y147.965 E20.57769
G1 X44.432 Y146.214 E20.6575
G1 X44.176 Y145.748 E20.67872
G1 X43.414 Y143.903 E20.7584
G1 X43.212 Y143.409 E20.7797
G1 X43.088 Y142.965 E20.7981
G1 X42.535 Y141.049 E20.87769
G1 X42.519 Y140.984 E20.88036
G1 X42.106 Y138.556 E20.97866
G1 X42.099 Y138.489 E20.98135
G1 X41.986 Y136.463 E21.06234
G1 X41.987 Y135.619 E21.09602
G1 X42.098 Y133.643 E21.17501
G1 X42.097 Y132.545 E21.21884
G1 X42.105 Y132.444 E21.22288
G1 X42.517 Y130.019 E21.32105
G1 X42.533 Y129.953 E21.32376
G1 X43.215 Y127.589 E21.42196
G1 X43.237 Y127.525 E21.42467
G1 X44.002 Y125.679 E21.50442
G1 X44.206 Y125.19 E21.52557
G1 X45.174 Y123.442 E21.60532
G1 X45.432 Y122.979 E21.62647
G1 X46.59 Y121.35 E21.70624
G1 X46.899 Y120.918 E21.72744
G1 X47.209 Y120.574 E21.74592
G1 X48.538 Y119.087 E21.82552
G1 X48.585 Y119.04 E21.82817
G1 X50.421 Y117.4 E21.92643
G1 X50.474 Y117.358 E21.92913
G1 X52.479 Y115.935 E22.02726
G1 X52.536 Y115.899 E22.02995
G1 X54.692 Y114.707 E22.12828
G1 X54.752 Y114.678 E22.13094
G0 F9000 X54.905 Y115.047
G1 F1800 X57.175 Y114.106 E22.22901
G1 X59.118 Y113.547 E22.30971
G1 X59.583 Y113.413 E22.32902
G1 X61.554 Y113.079 E22.40881
G1 X62.033 Y112.997 E22.42821
G1 X64.027 Y112.886 E22.50791
G1 X64.5 Y112.859 E22.52682
G1 X147.488 Y112.86 E25.83905
G1 X149.892 Y112.714 E25.93518
G1 X151.804 Y112.365 E26.01275
G1 X152.256 Y112.279 E26.03112
G1 X154.108 Y111.704 E26.10852
G1 X154.544 Y111.567 E26.12676
G1 X156.314 Y110.772 E26.2042
G1 X156.729 Y110.584 E26.22238
G1 X158.775 Y109.347 E26.31781
G1 X160.311 Y108.145 E26.39565
G1 X160.67 Y107.862 E26.4139
G1 X160.99 Y107.544 E26.4319
G1 X162.37 Y106.164 E26.5098
G1 X163.845 Y104.282 E26.60523
G1 X164.85 Y102.619 E26.68279
G1 X165.085 Y102.227 E26.70103
G1 X166.069 Y100.043 E26.79663
G1 X166.781 Y97.756 E26.89223
G1 X167.133 Y95.842 E26.96991
G1 X167.214 Y95.392 E26.98816
G1 X167.36 Y92.988 E27.08428
G1 X167.359 Y92.011 E27.12328
G1 X167.214 Y89.606 E27.21944
G1 X167.134 Y89.158 E27.2376
G1 X166.781 Y87.247 E27.31517
G1 X166.066 Y84.953 E27.41107
G1 X165.272 Y83.186 E27.48839
G1 X165.084 Y82.771 E27.50657
G1 X163.847 Y80.725 E27.60199
G1 X162.645 Y79.189 E27.67984
G1 X162.362 Y78.83 E27.69808
G1 X160.99 Y77.456 E27.77558
G1 X160.665 Y77.133 E27.79387
G1 X159.14 Y75.936 E27.87125
G1 X158.784 Y75.659 E27.88925
G1 X156.724 Y74.412 E27.98536
G1 X154.545 Y73.432 E28.08072
G1 X152.256 Y72.719 E28.17641
G1 X149.893 Y72.285 E28.2723
G1 X147.488 Y72.14 E28.36846
G1 X127.483 Y72.139 E29.1669
G1 X126.779 Y72.077 E29.19511
G1 X126.587 Y72.059 E29.20281
G1 X125.894 Y71.87 E29.23148
G1 X125.585 Y71.758 E29.24459
G1 X124.943 Y71.458 E29.27288
G1 X124.913 Y71.441 E29.27425
G1 X124.338 Y71.038 E29.30228
G1 X124.073 Y70.816 E29.31608
G1 X123.573 Y70.315 E29.34433
G1 X123.551 Y70.289 E29.34569
G1 X123.059 Y69.587 E29.3799
G1 X123.042 Y69.557 E29.38128
G1 X122.676 Y68.773 E29.41581
G1 X122.664 Y68.74 E29.41721
G1 X122.442 Y67.911 E29.45146
G1 X122.436 Y67.876 E29.45288
G1 X122.374 Y67.157 E29.48169
G1 X122.374 Y66.83 E29.49474
G1 X122.436 Y66.124 E29.52302
G1 X122.442 Y66.089 E29.52444
G1 X122.625 Y65.409 E29.55255
G1 X122.675 Y65.226 E29.56012
G1 X122.975 Y64.586 E29.58833
G1 X123.056 Y64.416 E29.59584
G1 X123.463 Y63.837 E29.62409
G1 X123.575 Y63.681 E29.63176
G1 X124.073 Y63.184 E29.65984
G1 X124.337 Y62.963 E29.67358
G1 X124.913 Y62.559 E29.70166
G1 X124.943 Y62.542 E29.70304
G1 X125.726 Y62.176 E29.73753
G1 X125.759 Y62.164 E29.73893
G1 X126.589 Y61.942 E29.77323
G1 X126.624 Y61.936 E29.77464
G1 X127.501 Y61.86 E29.80978
G1 X147.51 Y61.859 E30.60838
G1 X149.891 Y61.977 E30.70353
G1 X150.445 Y62.003 E30.72566
G1 X152.821 Y62.356 E30.82154
G1 X153.372 Y62.436 E30.84376
G1 X156.24 Y63.155 E30.96177
G1 X159.046 Y64.159 E31.08071
G1 X161.198 Y65.177 E31.17573
G1 X161.701 Y65.413 E31.19791
G1 X163.761 Y66.65 E31.29381
G1 X164.254 Y66.944 E31.31672
G1 X164.698 Y67.276 E31.33885
G1 X166.614 Y68.696 E31.43403
G1 X168.804 Y70.68 E31.55197
G1 X170.804 Y72.886 E31.67082
G1 X172.555 Y75.246 E31.78811
G1 X174.087 Y77.799 E31.90694
G1 X174.322 Y78.302 E31.9291
G1 X175.341 Y80.456 E32.0242
G1 X176.344 Y83.261 E32.1431
G1 X177.063 Y86.129 E32.26111
G1 X177.143 Y86.678 E32.28325
G1 X177.496 Y89.054 E32.37913
G1 X177.64 Y91.99 E32.49645
G1 X177.64 Y93.009 E32.53712
G1 X177.497 Y95.945 E32.65444
G1 X177.144 Y98.321 E32.75031
G1 X177.064 Y98.872 E32.77253
G1 X176.344 Y101.739 E32.89052
G1 X175.343 Y104.543 E33.00935
G1 X174.323 Y106.698 E33.10451
G1 X174.087 Y107.201 E33.12668
G1 X172.556 Y109.752 E33.24543
G1 X171.135 Y111.667 E33.3406
G1 X170.806 Y112.114 E33.36275
G1 X169.192 Y113.893 E33.45863
G1 X168.822 Y114.305 E33.48073
G1 X168.807 Y114.32 E33.48157
G1 X168.394 Y114.69 E33.5037
G1 X166.614 Y116.305 E33.59963
G1 X164.698 Y117.724 E33.69479
G1 X164.253 Y118.057 E33.71698
G1 X163.761 Y118.35 E33.73983
G1 X161.716 Y119.577 E33.83502
G1 X159.044 Y120.841 E33.95299
G1 X156.239 Y121.844 E34.07189
G1 X153.371 Y122.563 E34.1899
G1 X152.822 Y122.643 E34.21204
G1 X150.444 Y122.996 E34.30799
G1 X147.51 Y123.14 E34.42524
G1 X80.31 Y123.14 E37.10733
G1 X64.503 Y123.141 E37.73822
G1 X62.642 Y123.287 E37.81273
G1 X60.84 Y123.719 E37.88669
G1 X59.115 Y124.435 E37.96123
G1 X57.829 Y125.222 E38.02141
G1 X57.534 Y125.404 E38.03524
G1 X57.262 Y125.634 E38.04946
G1 X56.112 Y126.615 E38.10979
G1 X54.907 Y128.028 E38.18391
G1 X53.932 Y129.619 E38.25838
G1 X53.22 Y131.337 E38.33261
G1 X52.787 Y133.15 E38.407
G1 X52.641 Y135.001 E38.48111
G1 X52.641 Y136.001 E38.52102
G1 X52.788 Y137.856 E38.59529
G1 X53.22 Y139.66 E38.66933
G1 X53.932 Y141.381 E38.74366
G1 X54.905 Y142.968 E38.81796
G1 X56.113 Y144.386 E38.89231
G1 X57.53 Y145.595 E38.96665
G1 X59.114 Y146.566 E39.04081
G1 X59.44 Y146.7 E39.05488
G1 X60.837 Y147.28 E39.11525
G1 X62.65 Y147.713 E39.18964
G1 X64.504 Y147.859 E39.26387
G1 X87.517 Y147.86 E40.18237
G1 X88.378 Y147.936 E40.21687
G1 X88.412 Y147.942 E40.21824
G1 X89.241 Y148.164 E40.2525
G1 X89.273 Y148.176 E40.25386
G1 X90.053 Y148.539 E40.2882
G1 X90.084 Y148.556 E40.28961
G1 X90.791 Y149.053 E40.3241
G1 X90.817 Y149.076 E40.32549
G1 X91.426 Y149.685 E40.35986
G1 X91.449 Y149.711 E40.36125
G1 X91.941 Y150.413 E40.39546
G1 X91.958 Y150.444 E40.39687
G1 X92.256 Y151.083 E40.42501
G1 X92.336 Y151.256 E40.43262
G1 X92.559 Y152.088 E40.467
G1 X92.565 Y152.123 E40.46842
G1 X92.626 Y152.843 E40.49726
G1 X92.626 Y153.17 E40.51031
G1 X92.564 Y153.876 E40.5386
G1 X92.558 Y153.911 E40.54001
G1 X92.336 Y154.74 E40.57427
G1 X92.324 Y154.773 E40.57567
G1 X91.958 Y155.557 E40.6102
G1 X91.941 Y155.587 E40.61158
G1 X91.537 Y156.163 E40.63966
G1 X91.427 Y156.317 E40.64721
G1 X90.926 Y156.816 E40.67543
G1 X90.79 Y156.95 E40.68305
G1 X90.213 Y157.353 E40.71114
G1 X89.916 Y157.524 E40.72482
G1 X89.274 Y157.824 E40.7531
G1 X89.241 Y157.836 E40.75451
G1 X88.412 Y158.059 E40.78877
G1 X88.377 Y158.065 E40.79019
G1 X87.674 Y158.125 E40.81835
G1 X87.499 Y158.141 E40.82536
G1 X64.489 Y158.14 E41.74374
G1 X62.034 Y158.002 E41.84188
G1 X59.583 Y157.586 E41.9411
G1 X59.562 Y157.581 E41.94196
G1 X57.644 Y157.028 E42.02163
G1 X57.175 Y156.894 E42.0411
G1 X55.332 Y156.129 E42.12074
G1 X54.884 Y155.943 E42.14011
G1 X52.729 Y154.751 E42.2384
G1 X52.71 Y154.739 E42.23929
G1 X50.704 Y153.317 E42.33743
G1 X49.199 Y151.972 E42.41799
G1 X48.834 Y151.646 E42.43753
G1 X48.529 Y151.301 E42.4559
G1 X47.183 Y149.794 E42.53655
G1 X45.76 Y147.791 E42.63462
G1 X45.748 Y147.772 E42.63551
G1 X44.782 Y146.021 E42.71533
G1 X44.546 Y145.595 E42.73477
G1 X43.784 Y143.75 E42.81444
G1 X43.597 Y143.3 E42.83389
G1 X43.473 Y142.856 E42.85229
G1 X42.919 Y140.938 E42.93197
G1 X42.914 Y140.917 E42.93283
G1 X42.498 Y138.466 E43.03205
G1 X42.386 Y136.474 E43.11168
G1 X42.386 Y135.642 E43.14489
