;FLAVOR:Marlin
;TIME:7989
;Filament used: 10.3472m
;Layer height: 0.2
;MINX:41.16
;MINY:60.659
;MINZ:0.24
;MAXX:178.84
;MAXY:159.341
;MAXZ:11.88
;Generated with Cura_SteamEngine 4.5.0
M140 S50
M105
M190 S50
M104 S215
M105
M109 S215
M82 ;absolute extrusion mode
M201 X500.00 Y500.00 Z100.00 E5000.00 ;Setup machine max acceleration
M203 X500.00 Y500.00 Z10.00 E50.00 ;Setup machine max feedrate
M204 P500.00 R1000.00 T500.00 ;Setup Print/Retract/Travel acceleration
M205 X8.00 Y8.00 Z0.40 E5.00 ;Setup Jerk
M220 S100 ;Reset Feedrate
M221 S100 ;Reset Flowrate

G28 ;Home

G92 E0 ;Reset Extruder
G1 Z2.0 F3000 ;Move Z Axis up
G1 X10.1 Y20 Z0.28 F5000.0 ;Move to start position
G1 X10.1 Y200.0 Z0.28 F1500.0 E15 ;Draw the first line
G1 X10.4 Y200.0 Z0.28 F5000.0 ;Move to side a little
G1 X10.4 Y20 Z0.28 F1500.0 E30 ;Draw the second line
G92 E0 ;Reset Extruder
G1 Z2.0 F3000 ;Move Z Axis up

G92 E0
G92 E0
G1 F1800 E-3
;LAYER_COUNT:53
;LAYER:0
M106 S63.8
M204 S500
M205 X6 Y6
G0 F9000 X54.304 Y114.007 Z0.24
;TYPE:SKIRT
G1 F1800 E0
G1 X56.716 Y112.998 E0.10435
G1 X59.228 Y112.265 E0.20879
G1 X61.809 Y111.817 E0.31335
G1 X64.421 Y111.661 E0.41778
G1 X131.69 Y111.66 E3.10263
G1 X147.466 Y111.659 E3.73229
G1 X149.741 Y111.521 E3.82326
G1 X151.963 Y111.113 E3.91342
G1 X154.117 Y110.443 E4.00346
G1 X156.172 Y109.518 E4.0934
G1 X158.092 Y108.357 E4.18295
G1 X159.873 Y106.962 E4.27325
G1 X161.467 Y105.368 E4.36322
G1 X162.855 Y103.597 E4.45303
G1 X164.019 Y101.67 E4.54288
G1 X164.944 Y99.615 E4.63282
G1 X165.613 Y97.463 E4.72277
G1 X166.021 Y95.241 E4.81294
G1 X166.132 Y93.427 E4.88547
G1 X166.159 Y92.212 E4.93398
G1 X166.02 Y89.75 E5.0324
G1 X165.613 Y87.537 E5.12221
G1 X164.943 Y85.383 E5.21224
G1 X164.018 Y83.328 E5.30219
G1 X162.857 Y81.408 E5.39174
G1 X161.462 Y79.627 E5.48203
G1 X159.873 Y78.038 E5.57172
G1 X158.092 Y76.643 E5.66201
G1 X156.17 Y75.481 E5.75165
G1 X154.117 Y74.557 E5.84151
G1 X151.963 Y73.887 E5.93154
G1 X149.741 Y73.479 E6.02171
G1 X147.466 Y73.341 E6.11268
G1 X127.501 Y73.341 E6.90953
G1 X126.671 Y73.272 E6.94277
G1 X125.641 Y73.045 E6.98486
G1 X124.622 Y72.632 E7.02875
G1 X123.687 Y72.045 E7.07281
G1 X122.866 Y71.303 E7.11698
G1 X122.19 Y70.436 E7.16086
G1 X121.673 Y69.458 E7.20501
G1 X121.335 Y68.415 E7.24877
G1 X121.184 Y67.322 E7.29281
G1 X121.224 Y66.217 E7.33694
G1 X121.454 Y65.144 E7.38074
G1 X121.868 Y64.122 E7.42475
G1 X122.455 Y63.187 E7.46881
G1 X123.197 Y62.366 E7.51298
G1 X124.061 Y61.692 E7.55671
G1 X125.041 Y61.173 E7.60097
G1 X126.085 Y60.835 E7.64477
G1 X127.182 Y60.684 E7.68897
G1 X147.499 Y60.659 E8.49986
G1 X150.504 Y60.805 E8.61994
G1 X153.548 Y61.249 E8.74272
G1 X156.532 Y61.991 E8.86544
G1 X159.43 Y63.021 E8.9882
G1 X162.213 Y64.328 E9.11091
G1 X164.854 Y65.903 E9.23364
G1 X167.329 Y67.731 E9.35645
G1 X169.611 Y69.79 E9.47912
G1 X171.681 Y72.064 E9.60185
G1 X173.519 Y74.53 E9.72461
G1 X175.107 Y77.165 E9.8474
G1 X176.427 Y79.942 E9.97012
G1 X177.469 Y82.838 E10.09296
G1 X178.224 Y85.816 E10.21558
G1 X178.682 Y88.858 E10.33836
G1 X178.839 Y91.931 E10.46117
G1 X178.84 Y92.812 E10.49633
G1 X178.696 Y95.998 E10.62362
G1 X178.251 Y99.048 E10.74664
G1 X177.509 Y102.032 E10.86937
G1 X176.48 Y104.928 E10.99203
G1 X175.172 Y107.713 E11.11484
G1 X173.597 Y110.354 E11.23756
G1 X171.769 Y112.829 E11.36037
G1 X169.71 Y115.111 E11.48304
G1 X167.436 Y117.181 E11.60578
G1 X164.968 Y119.02 E11.72862
G1 X162.335 Y120.607 E11.85132
G1 X159.557 Y121.927 E11.97408
G1 X156.662 Y122.969 E12.09688
G1 X153.684 Y123.724 E12.2195
G1 X150.64 Y124.182 E12.34236
G1 X147.569 Y124.339 E12.46509
G1 X80.31 Y124.34 E15.14954
G1 X64.559 Y124.341 E15.7782
G1 X62.828 Y124.478 E15.8475
G1 X61.211 Y124.866 E15.91387
G1 X59.659 Y125.508 E15.9809
G1 X58.242 Y126.377 E16.04725
G1 X56.965 Y127.467 E16.11426
G1 X55.881 Y128.738 E16.18093
G1 X55.005 Y130.166 E16.24779
G1 X54.364 Y131.714 E16.31467
G1 X53.978 Y133.327 E16.38086
G1 X53.868 Y134.706 E16.43608
G1 X53.841 Y135.785 E16.47915
G1 X53.978 Y137.674 E16.55475
G1 X54.364 Y139.286 E16.6209
G1 X55.005 Y140.834 E16.68778
G1 X55.881 Y142.262 E16.75464
G1 X56.965 Y143.533 E16.82131
G1 X58.241 Y144.622 E16.88827
G1 X59.66 Y145.492 E16.9547
G1 X61.212 Y146.135 E17.02175
G1 X62.827 Y146.522 E17.08803
G1 X64.56 Y146.659 E17.15741
G1 X87.499 Y146.659 E18.07296
G1 X88.329 Y146.728 E18.1062
G1 X89.359 Y146.955 E18.1483
G1 X90.378 Y147.368 E18.19218
G1 X91.313 Y147.955 E18.23624
G1 X92.134 Y148.697 E18.28041
G1 X92.808 Y149.561 E18.32415
G1 X93.327 Y150.541 E18.36841
G1 X93.665 Y151.584 E18.41217
G1 X93.816 Y152.678 E18.45624
G1 X93.776 Y153.783 E18.50038
G1 X93.546 Y154.856 E18.54417
G1 X93.132 Y155.878 E18.58818
G1 X92.545 Y156.813 E18.63225
G1 X91.803 Y157.634 E18.67641
G1 X90.939 Y158.308 E18.72015
G1 X89.959 Y158.827 E18.76441
G1 X88.915 Y159.165 E18.80821
G1 X87.818 Y159.316 E18.8524
G1 X64.501 Y159.341 E19.78304
G1 X61.965 Y159.201 E19.88441
G1 X59.381 Y158.77 E19.98897
G1 X56.864 Y158.054 E20.09341
G1 X54.443 Y157.062 E20.19784
G1 X52.151 Y155.804 E20.30219
G1 X50.009 Y154.296 E20.40674
G1 X48.051 Y152.558 E20.51123
G1 X46.301 Y150.612 E20.61569
G1 X44.781 Y148.485 E20.72003
G1 X43.507 Y146.196 E20.82459
G1 X42.497 Y143.782 E20.92903
G1 X41.764 Y141.268 E21.03355
G1 X41.317 Y138.69 E21.13798
G1 X41.188 Y136.54 E21.22394
G1 X41.16 Y135.22 E21.27664
G1 X41.299 Y132.472 E21.38646
G1 X41.729 Y129.885 E21.49112
G1 X42.445 Y127.367 E21.59561
G1 X43.437 Y124.945 E21.70007
G1 X44.696 Y122.65 E21.80455
G1 X46.203 Y120.51 E21.90901
G1 X47.94 Y118.553 E22.01345
G1 X49.887 Y116.802 E22.11796
G1 X52.015 Y115.281 E22.22236
G1 X54.304 Y114.007 E22.32691
G0 F9000 X54.497 Y114.357
G1 F1800 X56.869 Y113.367 E22.4295
G1 X59.339 Y112.649 E22.53216
G1 X61.876 Y112.211 E22.63492
G1 X64.444 Y112.061 E22.73759
G1 X131.69 Y112.06 E25.42152
G1 X147.473 Y112.059 E26.05145
G1 X149.788 Y111.919 E26.14402
G1 X152.063 Y111.501 E26.23634
G1 X154.259 Y110.818 E26.32813
G1 X156.356 Y109.874 E26.41991
G1 X158.324 Y108.685 E26.51168
G1 X160.139 Y107.262 E26.60373
G1 X161.764 Y105.637 E26.69546
G1 X163.185 Y103.824 E26.7874
G1 X164.375 Y101.854 E26.87925
G1 X165.319 Y99.757 E26.97104
G1 X166.001 Y97.563 E27.06274
G1 X166.419 Y95.288 E27.15506
G1 X166.532 Y93.434 E27.22919
G1 X166.559 Y92.198 E27.27854
G1 X166.419 Y89.711 E27.37796
G1 X166.001 Y87.437 E27.47024
G1 X165.318 Y85.241 E27.56203
G1 X164.374 Y83.144 E27.65381
G1 X163.185 Y81.176 E27.74558
G1 X161.762 Y79.361 E27.83763
G1 X160.139 Y77.738 E27.92924
G1 X158.324 Y76.315 E28.02129
G1 X156.354 Y75.125 E28.11315
G1 X154.259 Y74.182 E28.20485
G1 X152.063 Y73.499 E28.29663
G1 X149.788 Y73.081 E28.38895
G1 X147.473 Y72.941 E28.48152
G1 X127.501 Y72.941 E29.27865
G1 X126.707 Y72.874 E29.31045
G1 X125.732 Y72.656 E29.35032
G1 X124.78 Y72.264 E29.39141
G1 X123.906 Y71.71 E29.43272
G1 X123.14 Y71.012 E29.47408
G1 X122.51 Y70.196 E29.51522
G1 X122.03 Y69.278 E29.55657
G1 X121.718 Y68.299 E29.59758
G1 X121.581 Y67.275 E29.63881
G1 X121.624 Y66.239 E29.6802
G1 X121.843 Y65.235 E29.72121
G1 X122.236 Y64.28 E29.76243
G1 X122.79 Y63.406 E29.80373
G1 X123.488 Y62.64 E29.84509
G1 X124.301 Y62.012 E29.88609
G1 X125.222 Y61.53 E29.92758
G1 X126.201 Y61.218 E29.96859
G1 X127.229 Y61.081 E30.00999
G1 X147.499 Y61.059 E30.81901
G1 X150.484 Y61.204 E30.93828
G1 X153.49 Y61.645 E31.05954
G1 X156.434 Y62.379 E31.18064
G1 X159.296 Y63.397 E31.30188
G1 X162.042 Y64.69 E31.42302
G1 X164.648 Y66.246 E31.54416
G1 X167.091 Y68.052 E31.66542
G1 X169.343 Y70.086 E31.78654
G1 X171.385 Y72.332 E31.90769
G1 X173.198 Y74.768 E32.02889
G1 X174.764 Y77.371 E32.15013
G1 X176.065 Y80.113 E32.27126
G1 X177.093 Y82.972 E32.39253
G1 X177.836 Y85.914 E32.51363
G1 X178.286 Y88.916 E32.63479
G1 X178.44 Y91.951 E32.75608
G1 X178.44 Y92.811 E32.7904
G1 X178.296 Y95.98 E32.91701
G1 X177.855 Y98.99 E33.03843
G1 X177.121 Y101.934 E33.15953
G1 X176.104 Y104.794 E33.28068
G1 X174.81 Y107.542 E33.40191
G1 X173.254 Y110.148 E33.52305
G1 X171.448 Y112.591 E33.64431
G1 X169.414 Y114.843 E33.76543
G1 X167.168 Y116.885 E33.88658
G1 X164.73 Y118.699 E34.00786
G1 X162.129 Y120.264 E34.12902
G1 X159.386 Y121.565 E34.25019
G1 X156.528 Y122.593 E34.37141
G1 X153.586 Y123.336 E34.49252
G1 X150.582 Y123.786 E34.61375
G1 X147.549 Y123.94 E34.73496
G1 X80.31 Y123.94 E37.41862
G1 X64.541 Y123.941 E38.04799
G1 X62.765 Y124.081 E38.1191
G1 X61.086 Y124.484 E38.18801
G1 X59.48 Y125.149 E38.25739
G1 X58.006 Y126.053 E38.3264
G1 X56.681 Y127.183 E38.39591
G1 X55.556 Y128.502 E38.4651
G1 X54.646 Y129.987 E38.53461
G1 X53.983 Y131.587 E38.60374
G1 X53.581 Y133.266 E38.67264
G1 X53.468 Y134.683 E38.72938
G1 X53.441 Y135.794 E38.77373
G1 X53.581 Y137.735 E38.8514
G1 X53.983 Y139.413 E38.92027
G1 X54.646 Y141.013 E38.9894
G1 X55.556 Y142.498 E39.05891
G1 X56.681 Y143.817 E39.1281
G1 X58.005 Y144.946 E39.19755
G1 X59.48 Y145.851 E39.26662
G1 X61.086 Y146.516 E39.33599
G1 X62.766 Y146.919 E39.40495
G1 X64.542 Y147.059 E39.47605
G1 X87.499 Y147.059 E40.39232
G1 X88.293 Y147.126 E40.42412
G1 X89.268 Y147.344 E40.46399
G1 X90.22 Y147.736 E40.50508
G1 X91.094 Y148.29 E40.54639
G1 X91.86 Y148.988 E40.58775
G1 X92.488 Y149.801 E40.62875
G1 X92.97 Y150.722 E40.67024
G1 X93.282 Y151.7 E40.71121
G1 X93.419 Y152.725 E40.75248
G1 X93.376 Y153.761 E40.79387
G1 X93.157 Y154.765 E40.83488
G1 X92.764 Y155.72 E40.8761
G1 X92.21 Y156.594 E40.9174
G1 X91.512 Y157.36 E40.95876
G1 X90.699 Y157.988 E40.99976
G1 X89.778 Y158.47 E41.04125
G1 X88.799 Y158.782 E41.08226
G1 X87.771 Y158.919 E41.12366
G1 X64.501 Y158.941 E42.05241
G1 X61.988 Y158.801 E42.15287
G1 X59.448 Y158.376 E42.25565
G1 X56.975 Y157.67 E42.3583
G1 X54.596 Y156.692 E42.46096
G1 X52.344 Y155.454 E42.56353
G1 X50.24 Y153.97 E42.66629
G1 X48.318 Y152.26 E42.76897
G1 X46.599 Y150.345 E42.87168
G1 X45.107 Y148.254 E42.9742
G1 X43.857 Y146.003 E43.07697
G1 X42.866 Y143.629 E43.17964
G1 X42.148 Y141.158 E43.28234
G1 X41.711 Y138.623 E43.38501
G1 X41.588 Y136.518 E43.46917
G1 X41.56 Y135.211 E43.52135
G1 X41.698 Y132.492 E43.63001
G1 X42.123 Y129.952 E43.7328
G1 X42.829 Y127.477 E43.83552
G1 X43.807 Y125.098 E43.93818
G1 X45.046 Y122.843 E44.04087
G1 X46.529 Y120.741 E44.14355
G1 X48.238 Y118.82 E44.24617
G1 X50.154 Y117.1 E44.34893
G1 X52.246 Y115.608 E44.45149
G1 X54.497 Y114.357 E44.55427
G0 F9000 X54.691 Y114.707
G1 F1800 X57.022 Y113.737 E44.65504
G1 X59.45 Y113.033 E44.75594
G1 X61.943 Y112.605 E44.8569
G1 X64.466 Y112.46 E44.95776
G1 X131.69 Y112.46 E47.64082
G1 X147.481 Y112.459 E48.27107
G1 X149.845 Y112.316 E48.36559
G1 X152.154 Y111.892 E48.45929
G1 X154.402 Y111.192 E48.55326
G1 X156.546 Y110.228 E48.64709
G1 X158.549 Y109.016 E48.74053
G1 X160.404 Y107.563 E48.83457
G1 X162.065 Y105.902 E48.92833
G1 X163.516 Y104.049 E49.02226
G1 X164.729 Y102.044 E49.11579
G1 X165.693 Y99.9 E49.20961
G1 X166.392 Y97.655 E49.30346
G1 X166.816 Y95.345 E49.3972
G1 X166.933 Y93.429 E49.47381
G1 X166.96 Y92.197 E49.52299
G1 X166.816 Y89.655 E49.62461
G1 X166.392 Y87.346 E49.71831
G1 X165.692 Y85.098 E49.81228
G1 X164.728 Y82.954 E49.90611
G1 X163.516 Y80.951 E49.99955
G1 X162.063 Y79.096 E50.09359
G1 X160.404 Y77.437 E50.18723
G1 X158.549 Y75.984 E50.28128
G1 X156.544 Y74.771 E50.37481
G1 X154.402 Y73.808 E50.46854
G1 X152.154 Y73.108 E50.56251
G1 X149.845 Y72.684 E50.65621
G1 X147.481 Y72.541 E50.75074
G1 X127.501 Y72.541 E51.54818
G1 X126.743 Y72.476 E51.57855
G1 X125.824 Y72.266 E51.61617
G1 X124.937 Y71.897 E51.65451
G1 X124.125 Y71.376 E51.69302
G1 X123.414 Y70.72 E51.73163
G1 X122.83 Y69.956 E51.77001
G1 X122.387 Y69.098 E51.80855
G1 X122.101 Y68.183 E51.84681
G1 X121.978 Y67.228 E51.88525
G1 X122.023 Y66.262 E51.92384
G1 X122.233 Y65.326 E51.96213
G1 X122.603 Y64.437 E52.00056
G1 X123.124 Y63.625 E52.03907
G1 X123.78 Y62.914 E52.07768
G1 X124.541 Y62.332 E52.11592
G1 X125.402 Y61.887 E52.1546
G1 X126.317 Y61.601 E52.19286
G1 X127.276 Y61.478 E52.23145
G1 X147.5 Y61.459 E53.03863
G1 X150.464 Y61.604 E53.15707
G1 X153.431 Y62.04 E53.27677
G1 X156.337 Y62.767 E53.39633
G1 X159.161 Y63.774 E53.51599
G1 X161.871 Y65.052 E53.63557
G1 X164.442 Y66.589 E53.75513
G1 X166.852 Y68.373 E53.8748
G1 X169.074 Y70.382 E53.99436
G1 X171.089 Y72.601 E54.11399
G1 X172.877 Y75.006 E54.2336
G1 X174.421 Y77.577 E54.3533
G1 X175.703 Y80.284 E54.47284
G1 X176.716 Y83.107 E54.59255
G1 X177.448 Y86.011 E54.71208
G1 X177.891 Y88.975 E54.8317
G1 X178.04 Y91.971 E54.95142
G1 X178.04 Y92.811 E54.98495
G1 X177.896 Y95.961 E55.1108
G1 X177.46 Y98.931 E55.23061
G1 X176.733 Y101.837 E55.35017
G1 X175.727 Y104.659 E55.46974
G1 X174.448 Y107.371 E55.58942
G1 X172.911 Y109.942 E55.70897
G1 X171.127 Y112.352 E55.82865
G1 X169.118 Y114.574 E55.94821
G1 X166.899 Y116.589 E56.06784
G1 X164.491 Y118.378 E56.18757
G1 X161.923 Y119.921 E56.30714
G1 X159.215 Y121.203 E56.42672
G1 X156.393 Y122.216 E56.54639
G1 X153.489 Y122.948 E56.66592
G1 X150.523 Y123.391 E56.78561
G1 X147.529 Y123.54 E56.90526
G1 X80.31 Y123.54 E59.58812
G1 X64.522 Y123.541 E60.21825
G1 X62.704 Y123.684 E60.29103
G1 X60.959 Y124.103 E60.36266
G1 X59.3 Y124.79 E60.43433
G1 X57.769 Y125.729 E60.50601
G1 X56.398 Y126.9 E60.57797
G1 X55.232 Y128.265 E60.64962
G1 X54.287 Y129.807 E60.7218
G1 X53.602 Y131.461 E60.79326
G1 X53.185 Y133.205 E60.86483
G1 X53.069 Y134.66 E60.92308
G1 X53.041 Y135.802 E60.96868
G1 X53.184 Y137.796 E61.04847
G1 X53.602 Y139.539 E61.12
G1 X54.287 Y141.193 E61.19146
G1 X55.232 Y142.735 E61.26364
G1 X56.398 Y144.1 E61.33529
G1 X57.768 Y145.27 E61.4072
G1 X59.3 Y146.21 E61.47893
G1 X60.959 Y146.897 E61.5506
G1 X62.705 Y147.316 E61.62227
G1 X64.523 Y147.459 E61.69505
G1 X87.499 Y147.459 E62.61207
G1 X88.257 Y147.524 E62.64244
G1 X89.176 Y147.734 E62.68006
G1 X90.063 Y148.103 E62.7184
G1 X90.875 Y148.624 E62.75691
G1 X91.586 Y149.28 E62.79552
G1 X92.168 Y150.041 E62.83376
G1 X92.613 Y150.902 E62.87244
G1 X92.899 Y151.816 E62.91067
G1 X93.022 Y152.772 E62.94914
G1 X92.977 Y153.738 E62.98773
G1 X92.767 Y154.674 E63.02602
G1 X92.397 Y155.563 E63.06445
G1 X91.876 Y156.375 E63.10296
G1 X91.22 Y157.086 E63.14157
G1 X90.459 Y157.668 E63.17981
G1 X89.598 Y158.113 E63.21849
G1 X88.683 Y158.399 E63.25675
G1 X87.724 Y158.522 E63.29534
G1 X64.5 Y158.541 E64.22226
G1 X62.01 Y158.402 E64.3218
G1 X59.515 Y157.982 E64.42278
G1 X57.086 Y157.286 E64.52363
G1 X54.749 Y156.322 E64.62453
G1 X52.538 Y155.104 E64.72528
G1 X50.472 Y153.643 E64.82627
G1 X48.584 Y151.961 E64.92719
G1 X46.898 Y150.079 E65.02804
G1 X45.434 Y148.022 E65.12881
G1 X44.207 Y145.809 E65.2298
G1 X43.236 Y143.476 E65.33066
G1 X42.532 Y141.047 E65.4316
G1 X42.105 Y138.556 E65.53247
G1 X41.987 Y136.495 E65.61486
G1 X41.96 Y135.203 E65.66644
G1 X42.098 Y132.513 E65.77394
G1 X42.517 Y130.019 E65.87488
G1 X43.213 Y127.588 E65.9758
G1 X44.177 Y125.251 E66.0767
G1 X45.396 Y123.037 E66.17758
G1 X46.856 Y120.973 E66.27848
G1 X48.537 Y119.086 E66.37935
G1 X50.42 Y117.399 E66.48025
G1 X52.478 Y115.934 E66.58108
G1 X54.691 Y114.707 E66.68207
G0 F9000 X54.884 Y115.057
G1 F1800 X57.175 Y114.106 E66.78107
G1 X59.561 Y113.418 E66.88018
G1 X62.01 Y113 E66.97934
G1 X64.489 Y112.859 E67.07845
G1 X131.69 Y112.86 E69.76058
G1 X147.488 Y112.859 E70.39111
G1 X149.892 Y112.714 E70.48724
G1 X152.255 Y112.28 E70.58313
G1 X154.544 Y111.567 E70.67882
G1 X156.729 Y110.584 E70.77444
G1 X158.781 Y109.344 E70.87014
G1 X160.67 Y107.863 E70.96594
G1 X162.365 Y106.168 E71.06161
G1 X163.844 Y104.281 E71.1573
G1 X165.085 Y102.227 E71.25308
G1 X166.068 Y100.042 E71.34871
G1 X166.78 Y97.755 E71.44431
G1 X167.214 Y95.392 E71.5402
G1 X167.332 Y93.454 E71.61769
G1 X167.36 Y92.2 E71.66776
G1 X167.214 Y89.609 E71.77133
G1 X166.78 Y87.245 E71.86726
G1 X166.067 Y84.956 E71.96295
G1 X165.084 Y82.771 E72.05858
G1 X163.844 Y80.719 E72.15427
G1 X162.363 Y78.83 E72.25007
G1 X160.67 Y77.137 E72.34563
G1 X158.781 Y75.656 E72.44144
G1 X156.727 Y74.415 E72.53722
G1 X154.544 Y73.433 E72.63275
G1 X152.255 Y72.72 E72.72844
G1 X149.892 Y72.286 E72.82433
G1 X147.488 Y72.141 E72.92046
G1 X127.501 Y72.141 E73.71818
G1 X126.778 Y72.077 E73.74715
G1 X125.915 Y71.877 E73.78251
G1 X125.094 Y71.529 E73.8181
G1 X124.344 Y71.041 E73.85381
