;FLAVOR:Marlin
;TIME:10136
;Filament used: 8.81685m
;Layer height: 0.24
;MINX:51.239
;MINY:47.331
;MINZ:0.24
;MAXX:165.409
;MAXY:172.647
;MAXZ:29.92
;Generated with Cura_SteamEngine 4.10.0
M82 ;absolute extrusion mode
M201 X500.00 Y500.00 Z100.00 E5000.00 ;Setup machine max acceleration
M203 X500.00 Y500.00 Z10.00 E50.00 ;Setup machine max feedrate
M204 P500.00 R1000.00 T500.00 ;Setup Print/Retract/Travel acceleration
M205 X8.00 Y8.00 Z0.40 E5.00 ;Setup Jerk
M220 S100 ;Reset Feedrate
M221 S100 ;Reset Flowrate

;*** Start Dual Nozzle/Bed Preheating ***
M140 S50 ; start preheating the bed
M104 S200 ?T0 ; start preheating hotend
M190 S50 ; heat to Cura Bed setting and WAIT
M109 S200 ?T0 ; heat to Cura Hotend and WAIT
;*** End Preheating ***

;*** Single Print Start Tone
M300 S1000 P500 ; chirp to indicate starting to print
;*** End Single Start Tone

G28 ;Home

G92 E0 ;Reset Extruder
G1 Z2.0 F3000 ;Move Z Axis up

G1 X10.1 Y20 Z0.28 F5000.0 ;Move to start position
G1 X10.1 Y200.0 Z0.28 F1500.0 E15 ;Draw the first line
G1 X10.4 Y200.0 Z0.28 F5000.0 ;Move to side a little
G1 X10.4 Y20 Z0.28 F1500.0 E30 ;Draw the second line
G92 E0 ;Reset Extruder
G1 Z2.0 F3000 ;Move Z Axis up
G92 E0
G92 E0
G1 F2400 E-3.2
;LAYER_COUNT:135
;LAYER:0
M106 S63.8
M204 S500
M205 X6 Y6
G0 F9000 X57.158 Y51.03 Z0.24
;TYPE:SKIRT
G1 F1440 E0
G1 F1800 X57.788 Y50.358 E0.03676
G1 X58.474 Y49.744 E0.07351
G1 X59.21 Y49.192 E0.11023
G1 X59.992 Y48.705 E0.147
G1 X60.813 Y48.289 E0.18373
G1 X61.667 Y47.945 E0.22048
G1 X62.547 Y47.676 E0.25721
G1 X63.448 Y47.485 E0.29397
G1 X64.362 Y47.373 E0.33072
G1 X64.898 Y47.344 E0.35214
G1 X65.516 Y47.331 E0.37681
G1 X106.825 Y47.331 E2.02554
G1 X107.675 Y47.342 E2.05947
G1 X108.594 Y47.395 E2.09621
G1 X109.505 Y47.528 E2.13296
G1 X110.401 Y47.739 E2.1697
G1 X111.275 Y48.027 E2.20643
G1 X112.122 Y48.39 E2.24321
G1 X112.933 Y48.825 E2.27994
G1 X113.703 Y49.329 E2.31667
G1 X114.427 Y49.898 E2.35342
G1 X115.099 Y50.528 E2.39018
G1 X115.714 Y51.213 E2.42693
G1 X116.267 Y51.949 E2.46367
G1 X116.754 Y52.73 E2.5004
G1 X117.171 Y53.551 E2.53716
G1 X117.516 Y54.405 E2.57392
G1 X117.785 Y55.285 E2.61064
G1 X117.977 Y56.186 E2.64741
G1 X118.054 Y56.735 E2.66954
G1 X118.114 Y57.255 E2.69043
G1 X118.445 Y59.828 E2.79397
G1 X118.839 Y62.328 E2.89498
G1 X119.302 Y64.8 E2.99536
G1 X119.832 Y67.251 E3.09545
G1 X120.608 Y70.365 E3.22354
G1 X121.115 Y72.262 E3.30191
G1 X121.14 Y72.36 E3.30594
G1 X121.831 Y74.827 E3.4082
G1 X122.581 Y77.238 E3.50897
G1 X123.396 Y79.622 E3.60953
G1 X124.274 Y81.969 E3.70954
G1 X125.237 Y84.336 E3.81153
G1 X126.249 Y86.636 E3.91183
G1 X127.348 Y88.953 E4.01418
G1 X128.481 Y91.179 E4.11387
G1 X129.695 Y93.405 E4.21507
G1 X130.969 Y95.591 E4.31605
G1 X132.289 Y97.715 E4.41586
G1 X133.702 Y99.853 E4.51815
G1 X135.144 Y101.906 E4.61828
G1 X136.667 Y103.948 E4.71995
G1 X138.225 Y105.916 E4.82013
G1 X139.863 Y107.872 E4.92196
G1 X141.533 Y109.754 E5.02238
G1 X143.255 Y111.588 E5.12279
G1 X145.045 Y113.39 E5.22416
G1 X146.862 Y115.119 E5.32427
G1 X148.788 Y116.849 E5.4276
G1 X150.671 Y118.448 E5.5262
G1 X152.656 Y120.038 E5.6277
G1 X154.684 Y121.57 E5.72914
G1 X156.706 Y123.011 E5.82824
G1 X159.898 Y125.121 E5.98096
G1 X160.466 Y125.48 E6.00778
G1 X161.222 Y126.005 E6.04452
G1 X161.93 Y126.594 E6.08127
G1 X162.584 Y127.243 E6.11805
G1 X163.179 Y127.945 E6.15478
G1 X163.711 Y128.697 E6.19154
G1 X164.175 Y129.491 E6.22825
G1 X164.569 Y130.323 E6.26499
G1 X164.89 Y131.187 E6.30178
G1 X165.134 Y132.074 E6.33849
G1 X165.3 Y132.98 E6.37526
G1 X165.4 Y134.275 E6.4271
G1 X165.409 Y134.858 E6.45037
G1 X165.408 Y135.22 E6.46482
G1 X165.379 Y136.771 E6.52673
G1 X165.308 Y138.801 E6.6078
G1 X165.266 Y139.673 E6.64264
G1 X165.199 Y140.446 E6.67361
G1 X165.093 Y141.303 E6.70808
G1 X165.001 Y141.967 E6.73483
G1 X164.878 Y142.753 E6.76659
G1 X164.758 Y143.389 E6.79242
G1 X164.547 Y144.349 E6.83165
G1 X164.502 Y144.545 E6.83967
G1 X164.213 Y145.745 E6.88894
G1 X164.039 Y146.425 E6.91695
G1 X163.906 Y146.899 E6.9366
G1 X163.592 Y147.925 E6.97943
G1 X163.491 Y148.238 E6.99255
G1 X163.249 Y148.949 E7.02253
G1 X163.056 Y149.471 E7.04474
G1 X162.88 Y149.895 E7.06307
G1 X162.548 Y150.651 E7.09602
G1 X161.645 Y152.634 E7.18299
G1 X161.373 Y153.211 E7.20845
G1 X161.064 Y153.82 E7.2357
G1 X160.698 Y154.469 E7.26544
G1 X160.057 Y155.555 E7.31577
G1 X159.688 Y156.14 E7.34338
G1 X158.945 Y157.244 E7.39649
G1 X158.593 Y157.747 E7.42099
G1 X158.489 Y157.894 E7.42818
G1 X158.096 Y158.432 E7.45477
G1 X157.773 Y158.85 E7.47586
G1 X157.356 Y159.357 E7.50206
G1 X155.898 Y161.042 E7.59099
G1 X155.435 Y161.555 E7.61857
G1 X154.983 Y162.023 E7.64454
G1 X154.331 Y162.656 E7.68081
G1 X153.802 Y163.156 E7.70986
G1 X153.418 Y163.508 E7.73065
G1 X152.928 Y163.93 E7.75646
G1 X151.964 Y164.711 E7.80598
G1 X151.789 Y164.85 E7.8149
G1 X150.685 Y165.705 E7.87063
G1 X150.114 Y166.134 E7.89914
G1 X149.5 Y166.562 E7.92901
G1 X148.74 Y167.052 E7.9651
G1 X148.21 Y167.382 E7.99002
G1 X147.749 Y167.66 E8.0115
G1 X147.477 Y167.819 E8.02408
G1 X146.504 Y168.367 E8.06865
G1 X145.896 Y168.695 E8.09622
G1 X145.454 Y168.918 E8.11598
G1 X144.475 Y169.384 E8.15926
G1 X144.146 Y169.534 E8.17369
G1 X143.555 Y169.791 E8.19941
G1 X143.014 Y170.008 E8.22267
G1 X142.128 Y170.336 E8.26038
G1 X140.955 Y170.75 E8.31003
G1 X139.761 Y171.148 E8.36026
G1 X139.124 Y171.337 E8.38678
G1 X138.156 Y171.591 E8.42672
G1 X137.663 Y171.712 E8.44699
G1 X136.977 Y171.87 E8.47508
G1 X136.439 Y171.979 E8.49699
G1 X135.368 Y172.167 E8.54039
G1 X134.761 Y172.263 E8.56492
G1 X134.103 Y172.359 E8.59146
G1 X133.367 Y172.447 E8.62104
G1 X132.826 Y172.495 E8.64272
G1 X132.198 Y172.546 E8.66787
G1 X131.363 Y172.604 E8.70127
G1 X130.829 Y172.63 E8.72261
G1 X130.542 Y172.638 E8.73407
G1 X129.839 Y172.647 E8.76213
G1 X129.103 Y172.646 E8.79151
G1 X128.506 Y172.638 E8.81534
G1 X127.913 Y172.614 E8.83902
G1 X126.891 Y172.543 E8.87991
G1 X125.751 Y172.443 E8.92559
G1 X125.115 Y172.378 E8.9511
G1 X124.497 Y172.296 E8.97599
G1 X123.203 Y172.085 E9.02831
G1 X122.735 Y171.998 E9.04731
G1 X121.995 Y171.853 E9.07741
G1 X121.336 Y171.708 E9.10434
G1 X120.593 Y171.52 E9.13493
G1 X120.026 Y171.365 E9.15839
G1 X119.726 Y171.277 E9.17087
G1 X118.59 Y170.927 E9.21831
G1 X118.023 Y170.742 E9.24212
G1 X117.152 Y170.44 E9.27891
G1 X116.617 Y170.237 E9.30175
G1 X115.954 Y169.965 E9.33035
G1 X115.333 Y169.702 E9.35727
G1 X114.676 Y169.412 E9.38593
G1 X114.396 Y169.284 E9.39822
G1 X113.486 Y168.849 E9.43848
G1 X113.166 Y168.689 E9.45276
G1 X112.499 Y168.342 E9.48276
G1 X112.047 Y168.093 E9.50336
G1 X111.514 Y167.781 E9.52801
G1 X110.823 Y167.367 E9.56016
G1 X110.315 Y167.054 E9.58398
G1 X109.743 Y166.685 E9.61114
G1 X109.062 Y166.217 E9.64412
G1 X108.278 Y165.654 E9.68265
G1 X108.038 Y165.475 E9.6946
G1 X107.511 Y165.072 E9.72108
G1 X106.853 Y164.545 E9.75472
G1 X106.585 Y164.321 E9.76866
G1 X105.76 Y163.608 E9.81218
G1 X105.23 Y163.127 E9.84075
G1 X104.963 Y162.873 E9.85546
G1 X103.964 Y161.886 E9.91151
G1 X103.615 Y161.527 E9.93149
G1 X103.117 Y161.003 E9.96034
G1 X102.668 Y160.5 E9.98725
G1 X102.274 Y160.017 E10.01213
G1 X102.044 Y159.721 E10.02709
G1 X100.308 Y157.454 E10.14106
G1 X99.933 Y156.951 E10.1661
G1 X99.474 Y156.284 E10.19841
G1 X98.943 Y155.445 E10.23804
G1 X98.771 Y155.163 E10.25123
G1 X98.447 Y154.614 E10.27667
G1 X98.112 Y154.015 E10.30406
G1 X97.98 Y153.767 E10.31527
G1 X97.473 Y152.783 E10.35946
G1 X96.791 Y151.413 E10.42054
G1 X95.605 Y149.114 E10.52378
G1 X94.371 Y146.877 E10.62575
G1 X93.093 Y144.71 E10.72616
G1 X91.737 Y142.55 E10.82795
G1 X90.354 Y140.481 E10.92728
G1 X88.886 Y138.414 E11.02847
G1 X87.359 Y136.388 E11.12972
G1 X85.773 Y134.402 E11.23116
G1 X84.143 Y132.476 E11.33187
G1 X82.461 Y130.6 E11.43243
G1 X80.713 Y128.754 E11.5339
G1 X78.94 Y126.99 E11.63372
G1 X77.088 Y125.244 E11.73531
G1 X75.209 Y123.574 E11.83564
G1 X73.259 Y121.935 E11.93731
G1 X71.263 Y120.352 E12.03899
G1 X69.259 Y118.853 E12.13887
G1 X67.195 Y117.398 E12.23966
G1 X65.108 Y116.015 E12.33959
G1 X62.951 Y114.671 E12.44103
G1 X59.852 Y112.881 E12.58386
G1 X59.138 Y112.48 E12.61655
G1 X58.718 Y112.23 E12.63606
G1 X58.095 Y111.828 E12.66565
G1 X57.66 Y111.526 E12.68678
G1 X56.927 Y110.969 E12.72353
G1 X56.493 Y110.587 E12.7466
G1 X56.06 Y110.185 E12.77019
G1 X55.571 Y109.701 E12.79765
G1 X55.291 Y109.405 E12.81391
G1 X54.82 Y108.872 E12.8423
G1 X54.463 Y108.423 E12.86519
G1 X54.275 Y108.173 E12.87768
G1 X53.667 Y107.272 E12.92106
G1 X53.367 Y106.774 E12.94426
G1 X53.016 Y106.143 E12.97308
G1 X52.821 Y105.763 E12.99013
G1 X52.553 Y105.201 E13.01498
G1 X52.218 Y104.357 E13.05122
G1 X51.998 Y103.724 E13.07797
G1 X51.727 Y102.815 E13.11583
G1 X51.707 Y102.735 E13.11912
G1 X51.591 Y102.215 E13.14038
G1 X51.479 Y101.647 E13.16349
G1 X51.34 Y100.735 E13.20031
G1 X51.324 Y100.587 E13.20625
G1 X51.279 Y100.033 E13.22844
G1 X51.25 Y99.508 E13.24942
G1 X51.239 Y98.586 E13.28622
G1 X51.246 Y98.366 E13.29501
G1 X51.276 Y97.837 E13.31616
G1 X51.311 Y97.41 E13.33326
G1 X51.418 Y96.546 E13.368
G1 X51.462 Y96.28 E13.37876
G1 X51.581 Y95.671 E13.40353
G1 X51.726 Y95.03 E13.42976
G1 X52.292 Y92.721 E13.52465
G1 X52.824 Y90.262 E13.62506
G1 X53.291 Y87.763 E13.72653
G1 X53.684 Y85.265 E13.82745
G1 X54.004 Y82.781 E13.92742
G1 X54.259 Y80.231 E14.0297
G1 X54.439 Y77.714 E14.13041
G1 X54.547 Y75.207 E14.23057
G1 X54.586 Y72.513 E14.3381
G1 X54.587 Y58.446 E14.89955
G1 X54.597 Y57.781 E14.92609
G1 X54.651 Y56.862 E14.96283
G1 X54.784 Y55.951 E14.99958
G1 X54.996 Y55.055 E15.03633
G1 X55.285 Y54.18 E15.07311
G1 X55.649 Y53.335 E15.10983
G1 X56.084 Y52.524 E15.14656
G1 X56.589 Y51.753 E15.18334
G1 X57.158 Y51.03 E15.22007
G0 F9000 X57.552 Y51.187
G1 F1800 X58.179 Y50.537 E15.25611
G1 X58.861 Y49.945 E15.29216
G1 X59.593 Y49.416 E15.3282
G1 X60.369 Y48.954 E15.36425
G1 X61.183 Y48.563 E15.40029
G1 X62.028 Y48.244 E15.43634
G1 X62.898 Y48.002 E15.47238
G1 X63.786 Y47.838 E15.50842
G1 X64.909 Y47.744 E15.5534
G1 X65.516 Y47.731 E15.57763
G1 X106.825 Y47.731 E17.22636
G1 X107.669 Y47.742 E17.26005
G1 X108.571 Y47.795 E17.29612
G1 X109.464 Y47.927 E17.33214
G1 X110.342 Y48.138 E17.36818
G1 X111.198 Y48.426 E17.40423
G1 X112.025 Y48.788 E17.44026
G1 X112.817 Y49.223 E17.47633
G1 X113.568 Y49.725 E17.51238
G1 X114.271 Y50.292 E17.54843
G1 X114.921 Y50.919 E17.58447
G1 X115.513 Y51.601 E17.62052
G1 X116.043 Y52.332 E17.65656
G1 X116.505 Y53.108 E17.6926
G1 X116.898 Y53.921 E17.72864
G1 X117.216 Y54.766 E17.76468
G1 X117.459 Y55.636 E17.80073
G1 X117.657 Y56.78 E17.84707
G1 X117.715 Y57.284 E17.86732
G1 X118.052 Y59.905 E17.97279
G1 X118.445 Y62.392 E18.07328
G1 X118.911 Y64.886 E18.17454
G1 X119.443 Y67.342 E18.27484
G1 X120.215 Y70.441 E18.40231
G1 X120.687 Y72.204 E18.47515
G1 X120.751 Y72.457 E18.48557
G1 X121.44 Y74.916 E18.58749
G1 X122.196 Y77.349 E18.68918
G1 X123.015 Y79.744 E18.7902
G1 X123.916 Y82.154 E18.89289
G1 X124.858 Y84.469 E18.99265
G1 X125.898 Y86.833 E19.09573
G1 X126.966 Y89.085 E19.1952
G1 X128.139 Y91.388 E19.29836
G1 X129.333 Y93.578 E19.39791
G1 X130.627 Y95.797 E19.50044
G1 X131.975 Y97.966 E19.60236
G1 X133.357 Y100.057 E19.7024
G1 X134.829 Y102.152 E19.80459
G1 X136.348 Y104.189 E19.90601
G1 X137.92 Y106.176 E20.00713
G1 X139.556 Y108.129 E20.10881
G1 X141.225 Y110.01 E20.20918
G1 X142.98 Y111.88 E20.31154
G1 X144.75 Y113.661 E20.41176
G1 X146.62 Y115.441 E20.5148
G1 X148.49 Y117.12 E20.6151
G1 X150.426 Y118.763 E20.71645
G1 X152.411 Y120.353 E20.81796
G1 X154.433 Y121.882 E20.91913
G1 X156.489 Y123.346 E21.01987
G1 X159.675 Y125.452 E21.1723
G1 X160.253 Y125.818 E21.19961
G1 X160.994 Y126.334 E21.23565
G1 X161.686 Y126.914 E21.27168
G1 X162.325 Y127.552 E21.30772
G1 X162.905 Y128.245 E21.34379
G1 X163.421 Y128.986 E21.37983
G1 X163.869 Y129.77 E21.41587
G1 X164.247 Y130.59 E21.45191
G1 X164.55 Y131.441 E21.48796
G1 X164.777 Y132.315 E21.524
G1 X164.926 Y133.206 E21.56006
G1 X165 Y134.282 E21.60311
G1 X165.009 Y134.865 E21.62638
G1 X165.008 Y135.213 E21.64027
G1 X164.975 Y136.937 E21.70909
G1 X164.909 Y138.787 E21.78297
G1 X164.866 Y139.653 E21.81758
G1 X164.802 Y140.397 E21.84738
G1 X164.677 Y141.397 E21.88761
G1 X164.605 Y141.905 E21.90808
G1 X164.482 Y142.691 E21.93984
G1 X164.367 Y143.304 E21.96473
G1 X164.113 Y144.452 E22.01166
G1 X163.826 Y145.646 E22.06067
G1 X163.652 Y146.326 E22.08868
G1 X163.523 Y146.782 E22.1076
G1 X163.209 Y147.808 E22.15042
G1 X163.112 Y148.11 E22.16308
G1 X162.87 Y148.821 E22.19306
G1 X162.684 Y149.322 E22.21439
G1 X162.514 Y149.734 E22.23218
G1 X162.184 Y150.485 E22.26492
G1 X161.343 Y152.335 E22.34603
G1 X161.011 Y153.04 E22.37713
G1 X160.71 Y153.633 E22.40367
G1 X160.351 Y154.269 E22.43282
G1 X159.712 Y155.352 E22.48301
G1 X159.356 Y155.917 E22.50966
G1 X158.613 Y157.021 E22.56277
G1 X158.266 Y157.517 E22.58693
G1 X158.166 Y157.658 E22.59383
G1 X157.773 Y158.196 E22.62042
G1 X157.462 Y158.599 E22.64074
G1 X157.053 Y159.095 E22.6664
G1 X155.595 Y160.78 E22.75533
G1 X155.139 Y161.286 E22.78252
G1 X154.704 Y161.736 E22.8075
G1 X154.056 Y162.366 E22.84357
G1 X153.531 Y162.861 E22.87237
G1 X153.147 Y163.213 E22.89316
G1 X152.676 Y163.619 E22.91798
G1 X151.544 Y164.534 E22.97608
G1 X150.445 Y165.385 E23.03155
G1 X149.874 Y165.814 E23.06006
G1 X149.283 Y166.226 E23.08881
G1 X148.527 Y166.713 E23.1247
G1 X148.003 Y167.04 E23.14936
G1 X147.542 Y167.318 E23.17084
G1 X147.28 Y167.47 E23.18293
G1 X146.307 Y168.018 E23.2275
G1 X145.707 Y168.342 E23.25472
G1 X145.282 Y168.557 E23.27373
G1 X144.303 Y169.023 E23.317
G1 X143.987 Y169.167 E23.33086
G1 X143.396 Y169.424 E23.35658
G1 X142.875 Y169.633 E23.37899
G1 X141.995 Y169.959 E23.41644
G1 X140.822 Y170.373 E23.46609
G1 X139.635 Y170.768 E23.51602
G1 X139.022 Y170.951 E23.54155
G1 X138.06 Y171.203 E23.58125
G1 X137.573 Y171.322 E23.60125
G1 X136.887 Y171.48 E23.62935
G1 X136.369 Y171.585 E23.65045
G1 X135.304 Y171.772 E23.6936
G1 X134.704 Y171.867 E23.71785
G1 X134.046 Y171.963 E23.74439
G1 X133.33 Y172.048 E23.77317
G1 X132.793 Y172.097 E23.79469
G1 X132.17 Y172.146 E23.81963
G1 X131.335 Y172.204 E23.85304
G1 X130.813 Y172.23 E23.8739
G1 X130.537 Y172.238 E23.88492
G1 X129.839 Y172.247 E23.91278
G1 X129.108 Y172.246 E23.94195
G1 X128.511 Y172.238 E23.96578
G1 X127.941 Y172.214 E23.98855
G1 X126.734 Y172.129 E24.03685
G1 X125.792 Y172.045 E24.07459
G1 X125.156 Y171.98 E24.10011
G1 X124.561 Y171.902 E24.12406
G1 X123.475 Y171.726 E24.16797
G1 X122.94 Y171.63 E24.18967
G1 X122.072 Y171.461 E24.22496
G1 X121.425 Y171.318 E24.25141
G1 X120.693 Y171.133 E24.28154
G1 X120.132 Y170.979 E24.30476
G1 X119.844 Y170.895 E24.31673
G1 X118.708 Y170.545 E24.36418
G1 X118.149 Y170.362 E24.38765
G1 X117.283 Y170.062 E24.42423
G1 X116.769 Y169.867 E24.44617
G1 X116.11 Y169.596 E24.47461
G1 X115.337 Y169.267 E24.50814
G1 X114.838 Y169.046 E24.52992
G1 X114.569 Y168.923 E24.54173
G1 X113.659 Y168.488 E24.58199
G1 X113.35 Y168.334 E24.59577
G1 X112.683 Y167.987 E24.62577
G1 X112.249 Y167.747 E24.64557
G1 X111.719 Y167.437 E24.67007
G1 X111.032 Y167.026 E24.70203
G1 X110.524 Y166.713 E24.72584
G1 X109.961 Y166.35 E24.75258
G1 X109.291 Y165.889 E24.78504
G1 X108.512 Y165.329 E24.82333
G1 X108.281 Y165.158 E24.8348
G1 X107.758 Y164.757 E24.8611
G1 X107.104 Y164.234 E24.89453
G1 X106.846 Y164.018 E24.90796
G1 X106.021 Y163.305 E24.95148
G1 X105.501 Y162.833 E24.97951
G1 X105.244 Y162.588 E24.99368
G1 X104.25 Y161.606 E25.04945
G1 X103.905 Y161.252 E25.06917
G1 X103.407 Y160.728 E25.09803
G1 X102.975 Y160.243 E25.12395
G1 X102.59 Y159.772 E25.14823
G1 X102.362 Y159.478 E25.16308
G1 X100.628 Y157.215 E25.27687
G1 X100.253 Y156.712 E25.30191
G1 X99.812 Y156.07 E25.33299
G1 X99.281 Y155.231 E25.37262
G1 X99.116 Y154.96 E25.38529
G1 X98.792 Y154.411 E25.41073
G1 X98.463 Y153.823 E25.43762
G1 X98.335 Y153.584 E25.44844
G1 X97.831 Y152.604 E25.49243
G1 X97.133 Y151.202 E25.55493
G1 X95.954 Y148.916 E25.65759
G1 X94.732 Y146.701 E25.75856
G1 X93.434 Y144.5 E25.86055
G1 X92.091 Y142.362 E25.96132
G1 X90.68 Y140.25 E26.06269
G1 X89.203 Y138.171 E26.16448
G1 X87.659 Y136.121 E26.26691
G1 X86.092 Y134.16 E26.3671
G1 X84.445 Y132.213 E26.46888
G1 X82.767 Y130.341 E26.56922
