;FLAVOR:Marlin
;TIME:10573
;Filament used: 9.73419m
;Layer height: 0.24
;MINX:48.916
;MINY:47.331
;MINZ:0.24
;MAXX:166.595
;MAXY:172.647
;MAXZ:29.88
;Generated with Cura_SteamEngine 4.10.0
M82 ;absolute extrusion mode
M201 X500.00 Y500.00 Z100.00 E5000.00 ;Setup machine max acceleration
M203 X500.00 Y500.00 Z10.00 E50.00 ;Setup machine max feedrate
M204 P500.00 R1000.00 T500.00 ;Setup Print/Retract/Travel acceleration
M205 X8.00 Y8.00 Z0.40 E5.00 ;Setup Jerk
M220 S100 ;Reset Feedrate
M221 S100 ;Reset Flowrate

;*** Start Dual Nozzle/Bed Preheating ***
M140 S50 ; start preheating the bed
M104 S200 ?T0 ; start preheating hotend
M190 S50 ; heat to Cura Bed setting and WAIT
M109 S200 ?T0 ; heat to Cura Hotend and WAIT
;*** End Preheating ***

;*** Single Print Start Tone
M300 S1000 P500 ; chirp to indicate starting to print
;*** End Single Start Tone

G28 ;Home

G92 E0 ;Reset Extruder
G1 Z2.0 F3000 ;Move Z Axis up

G1 X10.1 Y20 Z0.28 F5000.0 ;Move to start position
G1 X10.1 Y200.0 Z0.28 F1500.0 E15 ;Draw the first line
G1 X10.4 Y200.0 Z0.28 F5000.0 ;Move to side a little
G1 X10.4 Y20 Z0.28 F1500.0 E30 ;Draw the second line
G92 E0 ;Reset Extruder
G1 Z2.0 F3000 ;Move Z Axis up
G92 E0
G92 E0
G1 F2400 E-3.2
;LAYER_COUNT:134
;LAYER:0
M106 S63.8
M204 S500
M205 X6 Y6
G0 F9000 X55.972 Y51.03 Z0.24
;TYPE:SKIRT
G1 F1440 E0
G1 F1800 X56.602 Y50.358 E0.03676
G1 X57.288 Y49.744 E0.07351
G1 X58.024 Y49.192 E0.11023
G1 X58.806 Y48.705 E0.147
G1 X59.627 Y48.289 E0.18373
G1 X60.481 Y47.945 E0.22048
G1 X61.361 Y47.676 E0.25721
G1 X62.262 Y47.485 E0.29397
G1 X63.176 Y47.373 E0.33072
G1 X63.712 Y47.344 E0.35214
G1 X64.33 Y47.331 E0.37681
G1 X110.571 Y47.331 E2.22239
G1 X111.421 Y47.342 E2.25632
G1 X112.34 Y47.395 E2.29306
G1 X113.251 Y47.528 E2.32981
G1 X114.147 Y47.739 E2.36654
G1 X115.021 Y48.027 E2.40327
G1 X115.868 Y48.39 E2.44005
G1 X116.679 Y48.825 E2.47678
G1 X117.449 Y49.329 E2.51351
G1 X118.173 Y49.898 E2.55027
G1 X118.845 Y50.528 E2.58703
G1 X119.46 Y51.213 E2.62377
G1 X120.013 Y51.949 E2.66052
G1 X120.5 Y52.73 E2.69725
G1 X120.917 Y53.551 E2.734
G1 X121.262 Y54.405 E2.77076
G1 X121.531 Y55.285 E2.80749
G1 X121.723 Y56.186 E2.84426
G1 X121.83 Y57.031 E2.87825
G1 X121.916 Y58.029 E2.91823
G1 X121.943 Y58.4 E2.93308
G1 X122.188 Y60.904 E3.0335
G1 X122.505 Y63.406 E3.13416
G1 X122.9 Y65.951 E3.23695
G1 X123.352 Y68.397 E3.33623
G1 X123.886 Y70.895 E3.43818
G1 X124.475 Y73.315 E3.53759
G1 X125.147 Y75.768 E3.6391
G1 X125.891 Y78.211 E3.74103
G1 X126.681 Y80.566 E3.84017
G1 X127.57 Y82.982 E3.94292
G1 X128.502 Y85.315 E4.04319
G1 X129.514 Y87.65 E4.14476
G1 X130.573 Y89.917 E4.24462
G1 X131.708 Y92.177 E4.34556
G1 X132.914 Y94.419 E4.44717
G1 X134.171 Y96.605 E4.54781
G1 X135.488 Y98.752 E4.64834
G1 X136.874 Y100.876 E4.74957
G1 X138.33 Y102.973 E4.85146
G1 X139.809 Y104.98 E4.95096
G1 X141.372 Y106.979 E5.05224
G1 X142.99 Y108.933 E5.1535
G1 X144.648 Y110.825 E5.2539
G1 X146.372 Y112.684 E5.35509
G1 X148.139 Y114.482 E5.45571
G1 X149.965 Y116.239 E5.55685
G1 X151.828 Y117.932 E5.65732
G1 X153.785 Y119.613 E5.76029
G1 X155.722 Y121.183 E5.8598
G1 X157.718 Y122.708 E5.96006
G1 X159.799 Y124.209 E6.06247
G1 X161.192 Y125.164 E6.12988
G1 X161.907 Y125.646 E6.16429
G1 X162.648 Y126.193 E6.20105
G1 X163.338 Y126.802 E6.23778
G1 X163.973 Y127.469 E6.27454
G1 X164.548 Y128.188 E6.31129
G1 X165.058 Y128.955 E6.34805
G1 X165.5 Y129.763 E6.38481
G1 X165.87 Y130.606 E6.42155
G1 X166.165 Y131.478 E6.45829
G1 X166.384 Y132.372 E6.49503
G1 X166.524 Y133.282 E6.53178
G1 X166.586 Y134.266 E6.57113
G1 X166.595 Y134.818 E6.59316
G1 X166.594 Y135.187 E6.60789
G1 X166.559 Y136.999 E6.68022
G1 X166.484 Y139.021 E6.76098
G1 X166.442 Y139.718 E6.78885
G1 X166.388 Y140.342 E6.81385
G1 X166.346 Y140.734 E6.82958
G1 X166.25 Y141.499 E6.86036
G1 X166.172 Y142.041 E6.88221
G1 X166.069 Y142.696 E6.90868
G1 X165.947 Y143.342 E6.93492
G1 X165.702 Y144.448 E6.98013
G1 X165.654 Y144.655 E6.98861
G1 X165.496 Y145.306 E7.01535
G1 X165.443 Y145.515 E7.02395
G1 X165.125 Y146.718 E7.07362
G1 X165.006 Y147.132 E7.09081
G1 X164.751 Y147.959 E7.12535
G1 X164.647 Y148.278 E7.13874
G1 X164.419 Y148.942 E7.16676
G1 X164.21 Y149.501 E7.19058
G1 X163.998 Y150.008 E7.21251
G1 X163.698 Y150.683 E7.242
G1 X162.766 Y152.704 E7.33082
G1 X162.489 Y153.285 E7.35651
G1 X162.239 Y153.777 E7.37854
G1 X161.807 Y154.537 E7.41343
G1 X161.155 Y155.626 E7.46409
G1 X160.83 Y156.148 E7.48863
G1 X160.511 Y156.635 E7.51187
G1 X160.32 Y156.913 E7.52533
G1 X159.61 Y157.907 E7.57408
G1 X159.228 Y158.428 E7.59987
G1 X158.866 Y158.894 E7.62342
G1 X158.422 Y159.426 E7.65107
G1 X156.939 Y161.119 E7.7409
G1 X156.517 Y161.583 E7.76594
G1 X156.069 Y162.042 E7.79154
G1 X155.372 Y162.713 E7.83015
G1 X154.886 Y163.166 E7.85667
G1 X154.486 Y163.53 E7.87825
G1 X153.976 Y163.966 E7.90503
G1 X152.969 Y164.772 E7.95651
G1 X151.869 Y165.618 E8.0119
G1 X151.736 Y165.719 E8.01857
G1 X151.138 Y166.163 E8.04829
G1 X150.902 Y166.333 E8.0599
G1 X150.441 Y166.644 E8.0821
G1 X149.81 Y167.044 E8.11191
G1 X149.227 Y167.404 E8.13926
G1 X148.503 Y167.831 E8.17281
G1 X147.285 Y168.507 E8.22841
G1 X146.784 Y168.771 E8.25101
G1 X146.405 Y168.957 E8.26786
G1 X145.448 Y169.407 E8.31007
G1 X145.128 Y169.551 E8.32407
G1 X144.517 Y169.814 E8.35062
G1 X143.964 Y170.034 E8.37438
G1 X143.158 Y170.328 E8.40862
G1 X141.899 Y170.768 E8.46185
G1 X141.713 Y170.831 E8.46969
G1 X140.691 Y171.167 E8.51263
G1 X140.049 Y171.355 E8.53933
G1 X139.187 Y171.578 E8.57486
G1 X138.57 Y171.727 E8.6002
G1 X137.886 Y171.883 E8.6282
G1 X137.341 Y171.992 E8.65038
G1 X136.39 Y172.156 E8.6889
G1 X135.695 Y172.266 E8.71698
G1 X135.032 Y172.362 E8.74372
G1 X134.247 Y172.453 E8.77526
G1 X133.86 Y172.487 E8.79076
G1 X133.177 Y172.541 E8.81811
G1 X132.286 Y172.604 E8.85376
G1 X131.745 Y172.631 E8.87538
G1 X131.447 Y172.639 E8.88728
G1 X130.794 Y172.647 E8.91334
G1 X130.004 Y172.646 E8.94487
G1 X129.391 Y172.638 E8.96934
G1 X128.79 Y172.613 E8.99335
G1 X127.66 Y172.533 E9.03856
G1 X126.621 Y172.442 E9.08019
G1 X126.001 Y172.38 E9.10506
G1 X125.376 Y172.299 E9.13021
G1 X124.14 Y172.099 E9.18019
G1 X123.569 Y171.994 E9.20336
G1 X122.888 Y171.862 E9.23104
G1 X122.31 Y171.738 E9.25464
G1 X122.013 Y171.667 E9.26683
G1 X121.349 Y171.497 E9.29418
G1 X120.547 Y171.274 E9.32741
G1 X119.263 Y170.88 E9.38101
G1 X118.73 Y170.705 E9.4034
G1 X118.052 Y170.472 E9.43202
G1 X117.402 Y170.228 E9.45973
G1 X116.849 Y170.004 E9.48354
G1 X116.071 Y169.677 E9.51722
G1 X115.282 Y169.329 E9.55164
G1 X114.271 Y168.849 E9.59631
G1 X113.972 Y168.701 E9.60962
G1 X113.326 Y168.369 E9.63861
G1 X112.885 Y168.129 E9.65865
G1 X112.317 Y167.801 E9.68483
G1 X111.685 Y167.425 E9.71418
G1 X111.091 Y167.064 E9.74193
G1 X110.506 Y166.691 E9.76962
G1 X109.87 Y166.258 E9.80032
G1 X109.037 Y165.663 E9.84118
G1 X108.829 Y165.511 E9.85146
G1 X108.416 Y165.2 E9.8721
G1 X108.218 Y165.047 E9.88209
G1 X107.702 Y164.639 E9.90834
G1 X107.391 Y164.383 E9.92442
G1 X106.519 Y163.638 E9.97019
G1 X105.991 Y163.166 E9.99846
G1 X105.725 Y162.915 E10.01306
G1 X104.839 Y162.051 E10.06245
G1 X104.428 Y161.637 E10.08573
G1 X103.858 Y161.043 E10.11859
G1 X103.433 Y160.573 E10.14388
G1 X103.042 Y160.102 E10.16831
G1 X102.736 Y159.713 E10.18807
G1 X100.991 Y157.46 E10.30181
G1 X100.557 Y156.869 E10.33107
G1 X100.137 Y156.254 E10.3608
G1 X99.629 Y155.466 E10.39822
G1 X99.425 Y155.137 E10.41367
G1 X99.122 Y154.627 E10.43734
G1 X98.838 Y154.127 E10.46029
G1 X98.687 Y153.847 E10.47299
G1 X96.95 Y150.511 E10.6231
G1 X95.738 Y148.335 E10.72252
G1 X94.435 Y146.144 E10.82426
G1 X93.084 Y144.011 E10.92503
G1 X91.658 Y141.897 E11.02681
G1 X90.204 Y139.866 E11.1265
G1 X88.659 Y137.834 E11.22838
G1 X87.092 Y135.886 E11.32816
G1 X85.443 Y133.952 E11.4296
G1 X83.76 Y132.089 E11.52981
G1 X81.989 Y130.236 E11.63211
G1 X80.206 Y128.473 E11.73219
G1 X78.35 Y126.738 E11.83359
G1 X76.465 Y125.075 E11.93392
G1 X74.519 Y123.454 E12.03501
G1 X72.522 Y121.882 E12.13644
G1 X70.518 Y120.396 E12.23602
G1 X68.403 Y118.917 E12.33902
G1 X66.314 Y117.543 E12.43882
G1 X64.165 Y116.216 E12.53962
G1 X61.985 Y114.954 E12.64016
G1 X59.691 Y113.709 E12.74433
G1 X58.574 Y113.135 E12.79446
G1 X57.347 Y112.515 E12.84933
G1 X56.716 Y112.168 E12.87807
G1 X56.359 Y111.956 E12.89464
G1 X55.695 Y111.528 E12.92617
G1 X55.329 Y111.272 E12.944
G1 X54.714 Y110.808 E12.97474
G1 X54.175 Y110.34 E13.00324
G1 X53.746 Y109.942 E13.02659
G1 X53.237 Y109.437 E13.05521
G1 X52.948 Y109.13 E13.07204
G1 X52.55 Y108.682 E13.09595
G1 X52.508 Y108.632 E13.09856
G1 X51.959 Y107.92 E13.13444
G1 X51.582 Y107.385 E13.16057
G1 X51.208 Y106.816 E13.18774
G1 X50.794 Y106.084 E13.22131
G1 X50.504 Y105.52 E13.24662
G1 X50.175 Y104.819 E13.27753
G1 X50.141 Y104.739 E13.281
G1 X49.877 Y104.051 E13.31041
G1 X49.731 Y103.628 E13.32827
G1 X49.527 Y102.968 E13.35584
G1 X49.394 Y102.482 E13.37595
G1 X49.245 Y101.868 E13.40117
G1 X49.088 Y100.943 E13.43861
G1 X49.025 Y100.437 E13.45897
G1 X48.961 Y99.728 E13.48738
G1 X48.933 Y99.235 E13.50709
G1 X48.916 Y98.586 E13.533
G1 X48.955 Y97.682 E13.56911
G1 X49 Y97.156 E13.59018
G1 X49.085 Y96.445 E13.61876
G1 X49.153 Y96.004 E13.63657
G1 X49.397 Y94.85 E13.68365
G1 X49.492 Y94.507 E13.69785
G1 X50.229 Y91.956 E13.80383
G1 X50.871 Y89.467 E13.90643
G1 X51.426 Y87.039 E14.00583
G1 X51.926 Y84.53 E14.10794
G1 X52.342 Y82.058 E14.20799
G1 X52.7 Y79.515 E14.31049
G1 X52.977 Y77.036 E14.41005
G1 X53.187 Y74.521 E14.51078
G1 X53.324 Y72.028 E14.61043
G1 X53.4 Y68.244 E14.76149
G1 X53.401 Y58.446 E15.15254
G1 X53.411 Y57.781 E15.17909
G1 X53.465 Y56.862 E15.21583
G1 X53.598 Y55.951 E15.25258
G1 X53.81 Y55.055 E15.28933
G1 X54.099 Y54.18 E15.3261
G1 X54.463 Y53.335 E15.36283
G1 X54.898 Y52.524 E15.39956
G1 X55.403 Y51.753 E15.43634
G1 X55.972 Y51.03 E15.47306
G0 F9000 X56.366 Y51.187
G1 F1800 X56.993 Y50.537 E15.50911
G1 X57.675 Y49.945 E15.54515
G1 X58.407 Y49.416 E15.5812
G1 X59.183 Y48.954 E15.61725
G1 X59.997 Y48.563 E15.65329
G1 X60.842 Y48.244 E15.68934
G1 X61.712 Y48.002 E15.72538
G1 X62.6 Y47.838 E15.76142
G1 X63.723 Y47.744 E15.8064
G1 X64.33 Y47.731 E15.83063
G1 X110.571 Y47.731 E17.67621
G1 X111.415 Y47.742 E17.7099
G1 X112.317 Y47.795 E17.74596
G1 X113.21 Y47.927 E17.78199
G1 X114.088 Y48.138 E17.81803
G1 X114.944 Y48.426 E17.85408
G1 X115.771 Y48.788 E17.89011
G1 X116.563 Y49.223 E17.92617
G1 X117.314 Y49.725 E17.96223
G1 X118.017 Y50.292 E17.99827
G1 X118.667 Y50.919 E18.03432
G1 X119.259 Y51.601 E18.07036
G1 X119.789 Y52.332 E18.1064
G1 X120.251 Y53.108 E18.14245
G1 X120.644 Y53.921 E18.17849
G1 X120.962 Y54.766 E18.21452
G1 X121.205 Y55.636 E18.25057
G1 X121.37 Y56.524 E18.28662
G1 X121.431 Y57.065 E18.30835
G1 X121.53 Y58.231 E18.35506
G1 X121.544 Y58.431 E18.36306
G1 X121.792 Y60.957 E18.46436
G1 X122.111 Y63.481 E18.5659
G1 X122.5 Y65.986 E18.66708
G1 X122.961 Y68.482 E18.76839
G1 X123.492 Y70.968 E18.86985
G1 X124.095 Y73.443 E18.97152
G1 X124.764 Y75.885 E19.07258
G1 X125.502 Y78.307 E19.17363
G1 X126.313 Y80.725 E19.27542
G1 X127.194 Y83.12 E19.37727
G1 X128.128 Y85.456 E19.47768
G1 X129.143 Y87.8 E19.57963
G1 X130.225 Y90.115 E19.68162
G1 X131.349 Y92.354 E19.78162
G1 X132.565 Y94.614 E19.88404
G1 X133.826 Y96.808 E19.98504
G1 X135.155 Y98.975 E20.0865
G1 X136.543 Y101.101 E20.18784
G1 X137.995 Y103.192 E20.28944
G1 X139.488 Y105.218 E20.38989
G1 X141.078 Y107.253 E20.49296
G1 X142.667 Y109.171 E20.59237
G1 X144.359 Y111.101 E20.69482
G1 X146.093 Y112.971 E20.7966
G1 X147.858 Y114.768 E20.89713
G1 X149.684 Y116.523 E20.99822
G1 X151.586 Y118.252 E21.10081
G1 X153.518 Y119.911 E21.20244
G1 X155.453 Y121.48 E21.30187
G1 X157.505 Y123.048 E21.40495
G1 X159.551 Y124.524 E21.50564
G1 X160.964 Y125.493 E21.57402
G1 X161.684 Y125.978 E21.60867
G1 X162.41 Y126.515 E21.64471
G1 X163.086 Y127.114 E21.68076
G1 X163.706 Y127.771 E21.71681
G1 X164.265 Y128.48 E21.75285
G1 X164.76 Y129.236 E21.78892
G1 X165.186 Y130.032 E21.82495
G1 X165.54 Y130.863 E21.861
G1 X165.818 Y131.722 E21.89704
G1 X166.02 Y132.602 E21.93307
G1 X166.143 Y133.497 E21.96913
G1 X166.186 Y134.273 E22.00015
G1 X166.195 Y134.825 E22.02218
G1 X166.194 Y135.18 E22.03635
G1 X166.159 Y136.985 E22.10841
G1 X166.084 Y139.001 E22.18893
G1 X166.043 Y139.683 E22.21619
G1 X165.989 Y140.307 E22.24119
G1 X165.949 Y140.685 E22.25636
G1 X165.854 Y141.444 E22.28689
G1 X165.777 Y141.978 E22.30843
G1 X165.674 Y142.633 E22.33489
G1 X165.557 Y143.255 E22.36015
G1 X165.312 Y144.361 E22.40536
G1 X165.107 Y145.212 E22.4403
G1 X165.056 Y145.413 E22.44858
G1 X164.738 Y146.616 E22.49824
G1 X164.624 Y147.014 E22.51477
G1 X164.369 Y147.841 E22.54931
G1 X164.269 Y148.149 E22.56223
G1 X164.041 Y148.813 E22.59025
G1 X163.84 Y149.35 E22.61314
G1 X163.632 Y149.846 E22.6346
G1 X163.334 Y150.515 E22.66383
G1 X162.405 Y152.532 E22.75246
G1 X162.128 Y153.113 E22.77815
G1 X161.887 Y153.586 E22.79934
G1 X161.461 Y154.336 E22.83377
G1 X160.812 Y155.42 E22.88419
G1 X160.491 Y155.935 E22.90841
G1 X160.178 Y156.413 E22.93122
G1 X159.994 Y156.681 E22.94419
G1 X159.288 Y157.67 E22.99269
G1 X158.906 Y158.191 E23.01848
G1 X158.557 Y158.64 E23.04117
G1 X158.121 Y159.163 E23.06835
G1 X156.638 Y160.856 E23.15818
G1 X156.223 Y161.312 E23.18279
G1 X155.791 Y161.754 E23.20746
G1 X155.099 Y162.421 E23.24582
G1 X154.617 Y162.87 E23.27211
G1 X154.217 Y163.234 E23.29369
G1 X153.726 Y163.653 E23.31946
G1 X152.554 Y164.589 E23.37932
G1 X151.626 Y165.301 E23.426
G1 X150.736 Y165.961 E23.47023
G1 X150.67 Y166.008 E23.47346
G1 X150.226 Y166.306 E23.4948
G1 X149.6 Y166.704 E23.52441
G1 X149.021 Y167.061 E23.55156
G1 X148.308 Y167.482 E23.58461
G1 X147.096 Y168.154 E23.63992
G1 X146.604 Y168.414 E23.66213
G1 X146.234 Y168.595 E23.67857
G1 X145.277 Y169.045 E23.72078
G1 X144.97 Y169.184 E23.73423
G1 X144.359 Y169.447 E23.76078
G1 X143.827 Y169.658 E23.78362
G1 X143.026 Y169.95 E23.81765
G1 X141.588 Y170.451 E23.87842
G1 X140.566 Y170.787 E23.92136
G1 X139.948 Y170.968 E23.94706
G1 X139.093 Y171.189 E23.98231
G1 X138.481 Y171.337 E24.00744
G1 X137.797 Y171.493 E24.03544
G1 X137.272 Y171.598 E24.05681
G1 X136.327 Y171.761 E24.09509
G1 X135.638 Y171.87 E24.12293
G1 X134.975 Y171.966 E24.14966
G1 X134.212 Y172.055 E24.18032
G1 X133.828 Y172.088 E24.19571
G1 X133.148 Y172.142 E24.22293
G1 X132.257 Y172.205 E24.25858
G1 X131.728 Y172.231 E24.27972
G1 X131.441 Y172.239 E24.29118
G1 X130.794 Y172.247 E24.31701
G1 X130.009 Y172.246 E24.34834
G1 X129.396 Y172.238 E24.37281
G1 X128.818 Y172.214 E24.39589
G1 X127.695 Y172.134 E24.44083
G1 X126.661 Y172.044 E24.48225
G1 X126.041 Y171.982 E24.50712
G1 X125.44 Y171.904 E24.53131
G1 X124.412 Y171.739 E24.57287
G1 X123.769 Y171.625 E24.59893
G1 X122.964 Y171.47 E24.63165
G1 X122.397 Y171.347 E24.65481
G1 X122.111 Y171.279 E24.66654
G1 X121.453 Y171.111 E24.69364
G1 X120.664 Y170.892 E24.72633
G1 X119.554 Y170.552 E24.77266
G1 X119.021 Y170.38 E24.79501
G1 X118.182 Y170.093 E24.8304
G1 X117.552 Y169.858 E24.85724
G1 X117.004 Y169.635 E24.88086
G1 X116.23 Y169.31 E24.91436
G1 X115.453 Y168.967 E24.94826
G1 X114.442 Y168.487 E24.99293
G1 X114.155 Y168.345 E25.00571
G1 X113.509 Y168.013 E25.0347
G1 X113.085 Y167.782 E25.05397
G1 X112.522 Y167.457 E25.07991
G1 X111.893 Y167.084 E25.1091
G1 X111.299 Y166.723 E25.13684
G1 X110.724 Y166.355 E25.16409
G1 X110.097 Y165.928 E25.19437
G1 X109.951 Y165.826 E25.20148
G1 X109.269 Y165.338 E25.23495
G1 X109.069 Y165.191 E25.24485
G1 X108.656 Y164.88 E25.26549
G1 X108.466 Y164.733 E25.27508
G1 X107.95 Y164.325 E25.30133
G1 X107.65 Y164.079 E25.31682
G1 X106.778 Y163.334 E25.36259
G1 X106.261 Y162.87 E25.39032
G1 X106.005 Y162.629 E25.40435
G1 X105.119 Y161.765 E25.45374
G1 X104.713 Y161.356 E25.47674
G1 X104.146 Y160.766 E25.5094
G1 X103.738 Y160.314 E25.53371
G1 X103.356 Y159.855 E25.55754
G1 X103.052 Y159.468 E25.57718
G1 X101.311 Y157.22 E25.69067
G1 X100.885 Y156.64 E25.71939
G1 X100.473 Y156.038 E25.7485
G1 X99.965 Y155.25 E25.78592
G1 X99.769 Y154.933 E25.8008
G1 X99.466 Y154.423 E25.82448
G1 X99.187 Y153.932 E25.84701
G1 X99.041 Y153.662 E25.85927
G1 X97.303 Y150.323 E26.0095
G1 X96.073 Y148.115 E26.11038
G1 X94.784 Y145.947 E26.21105
