;FLAVOR:Marlin
;TIME:5821
;Filament used: 8.06807m
;Layer height: 0.24
;MINX:82.048
;MINY:76.864
;MINZ:0.24
;MAXX:137.952
;MAXY:143.143
;MAXZ:36.08
;Generated with Cura_SteamEngine 4.5.0
M140 S50
M105
M190 S50
M104 S230
M105
M109 S230
M82 ;absolute extrusion mode
M201 X500.00 Y500.00 Z100.00 E5000.00 ;Setup machine max acceleration
M203 X500.00 Y500.00 Z10.00 E50.00 ;Setup machine max feedrate
M204 P500.00 R1000.00 T500.00 ;Setup Print/Retract/Travel acceleration
M205 X8.00 Y8.00 Z0.40 E5.00 ;Setup Jerk
M220 S100 ;Reset Feedrate
M221 S100 ;Reset Flowrate

G28 ;Home

G92 E0 ;Reset Extruder
G1 Z2.0 F3000 ;Move Z Axis up
G1 X10.1 Y20 Z0.28 F5000.0 ;Move to start position
G1 X10.1 Y200.0 Z0.28 F1500.0 E15 ;Draw the first line
G1 X10.4 Y200.0 Z0.28 F5000.0 ;Move to side a little
G1 X10.4 Y20 Z0.28 F1500.0 E30 ;Draw the second line
G92 E0 ;Reset Extruder
G1 Z2.0 F3000 ;Move Z Axis up

G92 E0
G92 E0
G1 F1800 E-3
;LAYER_COUNT:152
;LAYER:0
M107
;MESH:Soldering_Fingers.stl
G0 F9000 X87.085 Y141.926 Z0.24
;TYPE:WALL-INNER
G1 F1800 E0
G1 F3600 X86.707 Y141.941 E0.02265
G1 X86.242 Y141.906 E0.05057
G1 X85.783 Y141.809 E0.07865
G1 X85.343 Y141.653 E0.1066
G1 X84.938 Y141.444 E0.13389
G1 X84.554 Y141.174 E0.16199
G1 X84.214 Y140.861 E0.18966
G1 X83.91 Y140.494 E0.21819
G1 X83.668 Y140.109 E0.24541
G1 X83.477 Y139.689 E0.27303
G1 X83.34 Y139.23 E0.30171
G1 X83.27 Y138.795 E0.32809
G1 X83.248 Y137.742 E0.39114
G1 X83.249 Y82.259 E3.71281
G1 X83.248 Y81.576 E3.7537
G1 X83.273 Y81.177 E3.77764
G1 X83.357 Y80.704 E3.8064
G1 X83.501 Y80.253 E3.83474
G1 X83.701 Y79.832 E3.86265
G1 X83.945 Y79.458 E3.88938
G1 X84.259 Y79.092 E3.91825
G1 X84.598 Y78.792 E3.94535
G1 X84.986 Y78.53 E3.97338
G1 X85.41 Y78.32 E4.00171
G1 X85.791 Y78.189 E4.02583
G1 X86.16 Y78.103 E4.04851
G1 X86.511 Y78.064 E4.06966
G1 X87.005 Y78.07 E4.09923
G1 X87.461 Y78.128 E4.12675
G1 X91.68 Y79.021 E4.38493
G1 X133.936 Y87.932 E6.97036
G1 X134.425 Y88.074 E7.00085
G1 X134.866 Y88.265 E7.02962
G1 X135.259 Y88.503 E7.05713
G1 X135.621 Y88.794 E7.08493
G1 X135.942 Y89.132 E7.11284
G1 X136.221 Y89.517 E7.14131
G1 X136.43 Y89.906 E7.16774
G1 X136.601 Y90.359 E7.19673
G1 X136.705 Y90.815 E7.22473
G1 X136.739 Y91.117 E7.24293
G1 X136.752 Y92.033 E7.29777
G1 X136.75 Y95.474 E7.50378
G1 X136.752 Y128.407 E9.47542
G1 X136.727 Y128.808 E9.49947
G1 X136.643 Y129.281 E9.52823
G1 X136.5 Y129.729 E9.55639
G1 X136.3 Y130.149 E9.58424
G1 X136.05 Y130.532 E9.61162
G1 X135.741 Y130.893 E9.64007
G1 X135.402 Y131.193 E9.66717
G1 X135.014 Y131.455 E9.6952
G1 X134.587 Y131.666 E9.72371
G1 X134.142 Y131.817 E9.75185
G1 X133.301 Y132.006 E9.80345
G1 X87.504 Y141.862 E12.60801
G1 X87.085 Y141.926 E12.63339
G0 F9000 X87.138 Y142.525
G1 F3600 X86.703 Y142.542 E12.65945
G1 X86.155 Y142.501 E12.69235
G1 X85.622 Y142.388 E12.72497
G1 X85.104 Y142.204 E12.75788
G1 X84.625 Y141.957 E12.79014
G1 X84.176 Y141.642 E12.82298
G1 X83.778 Y141.275 E12.85539
G1 X83.424 Y140.848 E12.8886
G1 X83.138 Y140.392 E12.92082
G1 X82.914 Y139.9 E12.95319
G1 X82.755 Y139.369 E12.98637
G1 X82.679 Y138.89 E13.01541
G1 X82.671 Y138.845 E13.01814
G1 X82.648 Y137.742 E13.08419
G1 X82.649 Y82.259 E16.40586
G1 X82.648 Y81.556 E16.44795
G1 X82.676 Y81.103 E16.47512
G1 X82.773 Y80.561 E16.50809
G1 X82.941 Y80.032 E16.54132
G1 X83.174 Y79.542 E16.5738
G1 X83.465 Y79.096 E16.60568
G1 X83.831 Y78.67 E16.63931
G1 X84.229 Y78.317 E16.67115
G1 X84.685 Y78.009 E16.7041
G1 X85.174 Y77.767 E16.73676
G1 X85.625 Y77.612 E16.76531
G1 X86.024 Y77.52 E16.78983
G1 X86.059 Y77.511 E16.79199
G1 X86.094 Y77.508 E16.79409
G1 X86.443 Y77.469 E16.81512
G1 X86.484 Y77.464 E16.81759
G1 X87.045 Y77.47 E16.85118
G1 X87.563 Y77.536 E16.88244
G1 X91.804 Y78.434 E17.14197
G1 X134.078 Y87.349 E19.72851
G1 X134.635 Y87.51 E19.76322
G1 X135.138 Y87.728 E19.79604
G1 X135.607 Y88.012 E19.82886
G1 X136.026 Y88.349 E19.86106
G1 X136.406 Y88.749 E19.89409
G1 X136.728 Y89.194 E19.92697
G1 X136.98 Y89.662 E19.95879
G1 X137.176 Y90.183 E19.99212
G1 X137.297 Y90.714 E20.02472
G1 X137.3 Y90.746 E20.02665
G1 X137.339 Y91.079 E20.04672
G1 X137.352 Y92.033 E20.10384
G1 X137.35 Y95.474 E20.30985
G1 X137.352 Y128.428 E22.28274
G1 X137.324 Y128.882 E22.30998
G1 X137.227 Y129.424 E22.34294
G1 X137.06 Y129.95 E22.37598
G1 X136.827 Y130.439 E22.40841
G1 X136.53 Y130.894 E22.44094
G1 X136.169 Y131.315 E22.47414
G1 X135.771 Y131.668 E22.50599
G1 X135.315 Y131.976 E22.53893
G1 X134.821 Y132.22 E22.57192
G1 X134.334 Y132.384 E22.60268
G1 X134.303 Y132.395 E22.60465
G1 X134.274 Y132.401 E22.60643
G1 X133.427 Y132.592 E22.65841
G1 X87.62 Y142.451 E25.46359
G1 X87.138 Y142.525 E25.49279
G0 F9000 X87.2 Y143.122
;TYPE:WALL-OUTER
G1 F3600 X86.691 Y143.143 E25.52329
G1 X86.066 Y143.096 E25.56081
G1 X85.462 Y142.967 E25.59779
G1 X84.865 Y142.755 E25.63571
G1 X84.312 Y142.47 E25.67296
G1 X83.799 Y142.11 E25.71048
G1 X83.342 Y141.689 E25.74768
G1 X82.938 Y141.202 E25.78556
G1 X82.609 Y140.678 E25.8226
G1 X82.35 Y140.108 E25.86009
G1 X82.17 Y139.507 E25.89765
G1 X82.072 Y138.895 E25.93475
G1 X82.048 Y137.742 E26.00379
G1 X82.049 Y82.259 E29.32546
G1 X82.048 Y81.536 E29.36875
G1 X82.079 Y81.031 E29.39904
G1 X82.189 Y80.414 E29.43656
G1 X82.38 Y79.816 E29.47414
G1 X82.649 Y79.249 E29.51172
G1 X82.986 Y78.733 E29.54861
G1 X83.403 Y78.248 E29.58691
G1 X83.86 Y77.842 E29.6235
G1 X84.384 Y77.488 E29.66136
G1 X84.941 Y77.213 E29.69855
G1 X85.463 Y77.033 E29.73161
G1 X85.952 Y76.92 E29.76165
G1 X86.457 Y76.864 E29.79207
G1 X87.084 Y76.87 E29.82961
G1 X87.665 Y76.944 E29.86468
G1 X91.928 Y77.847 E30.12556
G1 X134.221 Y86.766 E32.71326
G1 X134.842 Y86.946 E32.75196
G1 X135.412 Y87.192 E32.78913
G1 X135.95 Y87.518 E32.82679
G1 X136.439 Y87.912 E32.86439
G1 X136.867 Y88.362 E32.90157
G1 X137.235 Y88.871 E32.93917
G1 X137.53 Y89.419 E32.97643
G1 X137.751 Y90.008 E33.01409
G1 X137.889 Y90.614 E33.0513
G1 X137.939 Y91.04 E33.07698
G1 X137.952 Y92.033 E33.13644
G1 X137.95 Y95.474 E33.34244
G1 X137.952 Y128.449 E35.3166
G1 X137.921 Y128.954 E35.34689
G1 X137.811 Y129.571 E35.38441
G1 X137.62 Y130.169 E35.42199
G1 X137.351 Y130.735 E35.45951
G1 X137.014 Y131.252 E35.49646
G1 X136.597 Y131.737 E35.53475
G1 X136.14 Y132.143 E35.57135
G1 X135.616 Y132.497 E35.60921
G1 X135.055 Y132.774 E35.64666
G1 X134.466 Y132.973 E35.68388
G1 X133.553 Y133.178 E35.73991
G1 X87.736 Y143.04 E38.54571
G1 X87.2 Y143.122 E38.57818
G0 F9000 X87.137 Y142.466
G0 X87.04 Y141.717
G0 X87.026 Y141.338
;TYPE:SKIN
G1 F3600 X86.71 Y141.35 E38.59711
G1 X86.334 Y141.322 E38.61968
G1 X85.937 Y141.238 E38.64397
G1 X85.584 Y141.113 E38.66639
G1 X85.239 Y140.934 E38.68966
G1 X84.923 Y140.713 E38.71275
G1 X84.642 Y140.454 E38.73563
G1 X84.394 Y140.154 E38.75893
G1 X84.187 Y139.825 E38.7822
G1 X84.031 Y139.481 E38.80481
G1 X83.916 Y139.097 E38.82881
G1 X83.86 Y138.746 E38.85009
G1 X83.838 Y137.742 E38.91021
G1 X83.839 Y82.259 E42.23188
G1 X83.838 Y81.576 E42.27277
G1 X83.858 Y81.255 E42.29203
G1 X83.932 Y80.844 E42.31703
G1 X84.051 Y80.472 E42.34041
G1 X84.216 Y80.122 E42.36358
G1 X84.419 Y79.812 E42.38576
G1 X84.681 Y79.507 E42.40984
G1 X84.961 Y79.258 E42.43227
G1 X85.281 Y79.043 E42.45535
G1 X85.639 Y78.865 E42.47928
G1 X85.961 Y78.755 E42.49966
G1 X86.259 Y78.685 E42.51798
G1 X86.536 Y78.654 E42.53467
G1 X86.959 Y78.66 E42.56
G1 X87.374 Y78.712 E42.58504
G1 X91.558 Y79.598 E42.84108
G1 X133.797 Y88.505 E45.42547
G1 X134.226 Y88.63 E45.45222
G1 X134.592 Y88.788 E45.47608
G1 X134.921 Y88.988 E45.49913
G1 X135.215 Y89.224 E45.5217
G1 X135.489 Y89.514 E45.54559
G1 X135.721 Y89.833 E45.5692
G1 X135.892 Y90.15 E45.59077
G1 X136.036 Y90.53 E45.6151
G1 X136.122 Y90.913 E45.6386
G1 X136.149 Y91.152 E45.653
G1 X136.162 Y92.033 E45.70575
G1 X136.16 Y95.474 E45.91175
G1 X136.162 Y128.407 E47.88339
G1 X136.142 Y128.73 E47.90277
G1 X136.068 Y129.141 E47.92777
G1 X135.95 Y129.51 E47.95096
G1 X135.785 Y129.858 E47.97402
G1 X135.576 Y130.179 E47.99695
G1 X135.319 Y130.478 E48.02056
G1 X135.039 Y130.727 E48.04299
G1 X134.717 Y130.944 E48.06624
G1 X134.362 Y131.119 E48.08993
G1 X133.986 Y131.247 E48.11371
G1 X133.118 Y131.442 E48.16697
G1 X87.404 Y141.28 E50.96645
G1 X87.026 Y141.338 E50.98934
G0 F9000 X87.04 Y141.717
G0 X85.859 Y141.549
G0 X85.083 Y141.215
G0 X84.412 Y140.676
G0 X83.703 Y139.678
G0 X84.268 Y139.423
G1 F3600 X85.768 Y140.922 E51.1163
G0 F9000 X85.56 Y141.507
G0 X86.822 Y141.726
G0 X86.799 Y141.105
G1 F3600 X84.092 Y138.398 E51.34549
G0 F9000 X84.077 Y137.535
G1 F3600 X87.545 Y141.002 E51.63907
G0 F9000 X88.244 Y140.852
G1 F3600 X84.077 Y136.686 E51.99184
G0 F9000 X84.077 Y135.838
G1 F3600 X88.942 Y140.702 E52.4037
G0 F9000 X89.64 Y140.552
G1 F3600 X84.077 Y134.989 E52.8747
G0 F9000 X84.077 Y134.14
G1 F3600 X90.338 Y140.401 E53.40479
G0 F9000 X91.037 Y140.251
G1 F3600 X84.077 Y133.292 E53.99403
G0 F9000 X84.077 Y132.443
G1 F3600 X91.735 Y140.101 E54.6424
G0 F9000 X92.433 Y139.951
G1 F3600 X84.077 Y131.595 E55.34988
G0 F9000 X84.077 Y130.746
G1 F3600 X93.131 Y139.8 E56.11645
G0 F9000 X93.83 Y139.65
G1 F3600 X84.077 Y129.898 E56.94216
G0 F9000 X84.077 Y129.049
G1 F3600 X94.528 Y139.5 E57.82701
G0 F9000 X95.226 Y139.35
G1 F3600 X84.077 Y128.201 E58.77095
G0 F9000 X84.077 Y127.352
G1 F3600 X95.924 Y139.199 E59.774
G0 F9000 X96.623 Y139.049
G1 F3600 X84.077 Y126.504 E60.83618
G0 F9000 X84.077 Y125.655
G1 F3600 X97.321 Y138.899 E61.9575
G0 F9000 X98.019 Y138.749
G1 F3600 X84.077 Y124.807 E63.13792
G0 F9000 X84.077 Y123.958
G1 F3600 X98.717 Y138.598 E64.37744
G0 F9000 X99.416 Y138.448
G1 F3600 X84.077 Y123.11 E65.6761
G0 F9000 X84.077 Y122.261
G1 F3600 X100.114 Y138.298 E67.03389
G0 F9000 X100.812 Y138.148
G1 F3600 X84.077 Y121.413 E68.45079
G0 F9000 X84.077 Y120.564
G1 F3600 X101.51 Y137.997 E69.92678
G0 F9000 X102.209 Y137.847
G1 F3600 X84.077 Y119.716 E71.46191
G0 F9000 X84.077 Y118.867
G1 F3600 X102.907 Y137.697 E73.05618
G0 F9000 X103.605 Y137.547
G1 F3600 X84.077 Y118.018 E74.70959
G0 F9000 X84.077 Y117.17
G1 F3600 X104.303 Y137.396 E76.42205
G0 F9000 X105.002 Y137.246
G1 F3600 X84.077 Y116.321 E78.1937
G0 F9000 X84.077 Y115.473
G1 F3600 X105.7 Y137.095 E80.0244
G0 F9000 X106.399 Y136.946
G1 F3600 X84.077 Y114.624 E81.91433
G0 F9000 X84.077 Y113.776
G1 F3600 X107.096 Y136.795 E83.86326
G0 F9000 X107.795 Y136.645
G1 F3600 X84.077 Y112.927 E85.87138
G0 F9000 X84.077 Y112.079
G1 F3600 X108.493 Y136.494 E87.93856
G0 F9000 X109.192 Y136.345
G1 F3600 X84.077 Y111.23 E90.06496
G0 F9000 X84.077 Y110.382
G1 F3600 X109.89 Y136.194 E92.25041
G0 F9000 X110.588 Y136.044
G1 F3600 X84.077 Y109.533 E94.495
G0 F9000 X84.077 Y108.685
G1 F3600 X111.286 Y135.893 E96.79865
G0 F9000 X111.985 Y135.743
G1 F3600 X84.077 Y107.836 E99.16148
G0 F9000 X84.077 Y106.988
G1 F3600 X112.683 Y135.593 E101.58341
G0 F9000 X113.381 Y135.443
G1 F3600 X84.077 Y106.139 E104.06447
G0 F9000 X84.077 Y105.291
G1 F3600 X114.079 Y135.292 E106.6046
G0 F9000 X114.778 Y135.142
G1 F3600 X84.077 Y104.442 E109.2039
G0 F9000 X84.077 Y103.593
G1 F3600 X115.476 Y134.992 E111.86234
G0 F9000 X116.174 Y134.842
G1 F3600 X84.077 Y102.745 E114.57988
G0 F9000 X84.077 Y101.896
G1 F3600 X116.872 Y134.691 E117.35652
G0 F9000 X117.571 Y134.541
G1 F3600 X84.077 Y101.048 E120.1923
G0 F9000 X84.077 Y100.199
G1 F3600 X118.269 Y134.391 E123.08721
G0 F9000 X118.967 Y134.241
G1 F3600 X84.077 Y99.351 E126.04123
G0 F9000 X84.077 Y98.502
G1 F3600 X119.665 Y134.09 E129.05434
G0 F9000 X120.364 Y133.94
G1 F3600 X84.077 Y97.654 E132.12659
G0 F9000 X84.077 Y96.805
G1 F3600 X121.062 Y133.79 E135.25798
G0 F9000 X121.76 Y133.64
G1 F3600 X84.077 Y95.957 E138.44846
G0 F9000 X84.077 Y95.108
G1 F3600 X122.458 Y133.489 E141.69805
G0 F9000 X123.157 Y133.339
G1 F3600 X84.077 Y94.26 E145.00677
G0 F9000 X84.077 Y93.411
G1 F3600 X123.855 Y133.189 E148.37463
G0 F9000 X124.554 Y133.039
G1 F3600 X84.077 Y92.563 E151.80164
G0 F9000 X84.077 Y91.714
G1 F3600 X125.251 Y132.888 E155.28769
G0 F9000 X125.95 Y132.738
G1 F3600 X84.077 Y90.866 E158.83289
G0 F9000 X84.077 Y90.017
G1 F3600 X126.648 Y132.588 E162.43723
G0 F9000 X127.347 Y132.438
G1 F3600 X84.077 Y89.168 E166.10075
G0 F9000 X84.077 Y88.32
G1 F3600 X128.045 Y132.287 E169.82332
G0 F9000 X128.743 Y132.137
G1 F3600 X84.077 Y87.471 E173.60503
G0 F9000 X84.077 Y86.623
G1 F3600 X129.441 Y131.987 E177.44584
G0 F9000 X130.14 Y131.837
G1 F3600 X84.077 Y85.774 E181.34584
G0 F9000 X84.077 Y84.926
G1 F3600 X130.838 Y131.686 E185.30488
G0 F9000 X131.536 Y131.536
G1 F3600 X84.077 Y84.077 E189.32307
G0 F9000 X84.077 Y83.229
G1 F3600 X132.234 Y131.386 E193.40035
G0 F9000 X132.933 Y131.236
G1 F3600 X84.077 Y82.38 E197.53682
G0 F9000 X84.079 Y81.533
G1 F3600 X133.626 Y131.08 E201.73179
G0 F9000 X134.283 Y130.889
G1 F3600 X84.196 Y80.802 E205.97248
G0 F9000 X84.447 Y80.205
G1 F3600 X134.824 Y130.581 E210.23768
G0 F9000 X135.263 Y130.172
G1 F3600 X84.811 Y79.72 E214.50927
G0 F9000 X85.274 Y79.335
G1 F3600 X135.608 Y129.668 E218.77083
G0 F9000 X135.84 Y129.051
G1 F3600 X85.839 Y79.051 E223.0042
G0 F9000 X86.532 Y78.896
G1 F3600 X135.921 Y128.284 E227.18575
G0 F9000 X135.921 Y127.436
G1 F3600 X87.462 Y78.976 E231.28865
G0 F9000 X87.59 Y78.371
G0 X88.666 Y78.599
G0 X88.538 Y79.204
G1 F3600 X135.921 Y126.587 E235.3004
G0 F9000 X135.921 Y125.739
G1 F3600 X89.613 Y79.431 E239.22113
G0 F9000 X89.741 Y78.826
G0 X90.817 Y79.054
G0 X90.689 Y79.659
G1 F3600 X135.921 Y124.89 E243.05073
G0 F9000 X135.921 Y124.042
G1 F3600 X91.765 Y79.886 E246.78926
G0 F9000 X91.893 Y79.282
G0 X92.968 Y79.508
G0 X92.84 Y80.113
G1 F3600 X135.921 Y123.193 E250.43673
G0 F9000 X135.921 Y122.345
G1 F3600 X93.916 Y80.34 E253.99315
G0 F9000 X94.044 Y79.735
G0 X95.12 Y79.962
G0 X94.992 Y80.567
G1 F3600 X135.921 Y121.496 E257.45846
G0 F9000 X135.921 Y120.647
G1 F3600 X96.066 Y80.793 E260.8328
G0 F9000 X96.194 Y80.188
G0 X97.27 Y80.415
G0 X97.142 Y81.02
G1 F3600 X135.921 Y119.799 E264.11608
G0 F9000 X135.921 Y118.95
G1 F3600 X98.217 Y81.247 E267.30831
G0 F9000 X98.345 Y80.642
G0 X99.42 Y80.869
G0 X99.292 Y81.473
G1 F3600 X135.921 Y118.102 E270.40956
G0 F9000 X135.92 Y117.253
G1 F3600 X100.368 Y81.7 E273.41966
G0 F9000 X100.496 Y81.096
G0 X101.571 Y81.322
G0 X101.443 Y81.927
G1 F3600 X135.92 Y116.404 E276.33871
G0 F9000 X135.92 Y115.556
G1 F3600 X102.519 Y82.154 E279.16669
G0 F9000 X102.647 Y81.549
G0 X103.721 Y81.776
G0 X103.593 Y82.38
G1 F3600 X135.92 Y114.707 E281.90371
G0 F9000 X135.92 Y113.859
G1 F3600 X104.669 Y82.607 E284.54966
G0 F9000 X104.797 Y82.003
G0 X105.872 Y82.229
G0 X105.744 Y82.834
G1 F3600 X135.92 Y113.01 E287.10456
G0 F9000 X135.92 Y112.161
G1 F3600 X106.819 Y83.061 E289.5684
G0 F9000 X106.947 Y82.456
G0 X108.023 Y82.683
G0 X107.895 Y83.287
G1 F3600 X135.92 Y111.313 E291.94122
G0 F9000 X135.92 Y110.464
G1 F3600 X108.97 Y83.514 E294.22298
G0 F9000 X109.098 Y82.91
G0 X110.173 Y83.136
G0 X110.045 Y83.741
G1 F3600 X135.92 Y109.616 E296.41372
G0 F9000 X135.92 Y108.767
G1 F3600 X111.121 Y83.968 E298.51337
G0 F9000 X111.249 Y83.363
G0 X112.324 Y83.59
G0 X112.196 Y84.195
G1 F3600 X135.92 Y107.919 E300.52199
G0 F9000 X135.92 Y107.07
G1 F3600 X113.272 Y84.422 E302.43952
G0 F9000 X113.4 Y83.817
G0 X114.474 Y84.043
G0 X114.346 Y84.648
G1 F3600 X135.92 Y106.221 E304.26607
G0 F9000 X135.92 Y105.373
G1 F3600 X115.422 Y84.875 E306.00157
G0 F9000 X115.55 Y84.27
G0 X116.625 Y84.497
G0 X116.497 Y85.102
G1 F3600 X135.92 Y104.524 E307.646
G0 F9000 X135.92 Y103.675
G1 F3600 X117.572 Y85.328 E309.19942
G0 F9000 X117.7 Y84.723
G0 X118.776 Y84.95
G0 X118.648 Y85.555
G1 F3600 X135.92 Y102.827 E310.66178
G0 F9000 X135.92 Y101.978
G1 F3600 X119.723 Y85.782 E312.03308
G0 F9000 X119.851 Y85.177
G0 X120.926 Y85.404
G0 X120.798 Y86.008
G1 F3600 X135.92 Y101.13 E313.31341
G0 F9000 X135.92 Y100.281
G1 F3600 X121.874 Y86.235 E314.50263
G0 F9000 X122.002 Y85.631
G0 X123.077 Y85.857
G0 X122.949 Y86.462
G1 F3600 X135.92 Y99.433 E315.60084
G0 F9000 X135.92 Y98.584
G1 F3600 X124.025 Y86.689 E316.60795
G0 F9000 X124.153 Y86.084
G0 X125.227 Y86.311
G0 X125.099 Y86.916
G1 F3600 X135.92 Y97.736 E317.52408
G0 F9000 X135.92 Y96.887
G1 F3600 X126.175 Y87.143 E318.34911
G0 F9000 X126.303 Y86.538
G0 X127.378 Y86.764
G0 X127.25 Y87.37
