;FLAVOR:Marlin
;TIME:1286
;Filament used: 0.690235m
;Layer height: 0.16
;MINX:81.309
;MINY:88.712
;MINZ:0.24
;MAXX:136.887
;MAXY:131.289
;MAXZ:12.72
;Generated with Cura_SteamEngine main
M82 ;absolute extrusion mode
M201 X500.00 Y500.00 Z100.00 E5000.00 ;Setup machine max acceleration
M203 X500.00 Y500.00 Z10.00 E50.00 ;Setup machine max feedrate
M204 P500.00 R1000.00 T500.00 ;Setup Print/Retract/Travel acceleration
M205 X8.00 Y8.00 Z0.40 E5.00 ;Setup Jerk
M220 S100 ;Reset Feedrate
M221 S100 ;Reset Flowrate

;*** Start Dual Nozzle/Bed Preheating ***
M140 S50 ; start preheating the bed
M104 S200 ?T0 ; start preheating hotend
M190 S50 ; heat to Cura Bed setting and WAIT
M109 S200 ?T0 ; heat to Cura Hotend and WAIT
;*** End Preheating ***


;*** Single Print Start Tone
M300 S1000 P500 ; chirp to indicate starting to print
;*** End Single Start Tone

G28 ;Home

G92 E0 ;Reset Extruder
G1 Z2.0 F3000 ;Move Z Axis up
G1 X10.1 Y20 Z0.28 F5000.0 ;Move to start position
G1 X10.1 Y200.0 Z0.28 F1500.0 E15 ;Draw the first line
G1 X10.4 Y200.0 Z0.28 F5000.0 ;Move to side a little
G1 X10.4 Y20 Z0.28 F1500.0 E30 ;Draw the second line
G92 E0 ;Reset Extruder
G1 Z2.0 F3000 ;Move Z Axis up
G92 E0
G92 E0
G1 F2700 E-6
;LAYER_COUNT:79
;LAYER:0
M107
M204 S500
M205 X5 Y5
G0 F7500 X85.172 Y91.524 Z0.24
G0 X81.309 Y100.501
M205 X8 Y8
;TYPE:SKIRT
G1 F2700 E0
G1 F1500 X81.321 Y99.728 E0.03202
G1 X81.376 Y98.805 E0.07033
G1 X81.509 Y97.89 E0.10863
G1 X81.722 Y96.99 E0.14694
G1 X82.011 Y96.112 E0.18523
G1 X82.479 Y95.053 E0.23319
G1 X82.608 Y94.799 E0.24499
G1 X83.062 Y93.994 E0.28327
G1 X83.584 Y93.231 E0.32157
G1 X84.169 Y92.515 E0.35987
G1 X85.172 Y91.524 E0.41828
G1 X86 Y90.861 E0.46222
G1 X86.768 Y90.348 E0.50047
G1 X87.579 Y89.903 E0.53879
G1 X88.425 Y89.53 E0.57709
G1 X89.173 Y89.269 E0.60991
G1 X89.417 Y89.194 E0.62049
G1 X90.312 Y88.961 E0.6588
G1 X91.223 Y88.806 E0.69707
G1 X92.212 Y88.728 E0.73817
G1 X92.867 Y88.712 E0.76531
G1 X103.961 Y88.712 E1.22487
G1 X104.975 Y88.726 E1.26687
G1 X107.759 Y88.806 E1.38225
G1 X110.258 Y88.806 E1.48576
G1 X111.848 Y88.761 E1.55165
G1 X112.008 Y88.763 E1.55828
G1 X113.859 Y88.712 E1.63499
G1 X125.117 Y88.713 E2.10134
G1 X125.873 Y88.724 E2.13266
G1 X126.796 Y88.778 E2.17096
G1 X127.71 Y88.911 E2.20922
G1 X128.611 Y89.122 E2.24755
G1 X129.489 Y89.411 E2.28584
G1 X130.532 Y89.869 E2.33303
G1 X130.865 Y90.037 E2.34848
G1 X131.672 Y90.489 E2.38679
G1 X132.436 Y91.008 E2.42505
G1 X133.153 Y91.592 E2.46336
G1 X133.817 Y92.236 E2.50167
G1 X134.423 Y92.934 E2.53997
G1 X134.966 Y93.683 E2.57829
G1 X135.442 Y94.475 E2.61656
G1 X135.973 Y95.605 E2.66828
G1 X136.098 Y95.917 E2.68221
G1 X136.405 Y96.79 E2.72054
G1 X136.635 Y97.685 E2.75882
G1 X136.786 Y98.597 E2.79711
G1 X136.863 Y99.663 E2.84139
G1 X136.887 Y100.78 E2.88767
G1 X136.886 Y119.51 E3.66353
G1 X136.875 Y120.239 E3.69374
G1 X136.821 Y121.162 E3.73204
G1 X136.687 Y122.077 E3.77034
G1 X136.475 Y122.977 E3.80864
G1 X136.111 Y124.048 E3.8555
G1 X136.013 Y124.293 E3.86643
G1 X135.633 Y125.136 E3.90474
G1 X135.182 Y125.943 E3.94303
G1 X134.662 Y126.707 E3.98131
G1 X134.078 Y127.424 E4.01962
G1 X133.53 Y128.005 E4.0527
G1 X132.771 Y128.696 E4.09522
G1 X132.037 Y129.258 E4.13352
G1 X131.257 Y129.754 E4.17181
G1 X130.436 Y130.18 E4.21012
G1 X129.169 Y130.676 E4.26648
G1 X128.862 Y130.774 E4.27983
G1 X127.97 Y131.017 E4.31813
G1 X127.06 Y131.181 E4.35643
G1 X125.793 Y131.278 E4.40907
G1 X125.081 Y131.289 E4.43857
G1 X114.07 Y131.286 E4.89469
G1 X113.232 Y131.273 E4.9294
G1 X110.459 Y131.193 E5.04432
G1 X107.944 Y131.191 E5.1485
G1 X105.997 Y131.239 E5.22918
G1 X104.88 Y131.278 E5.27548
G1 X104.513 Y131.284 E5.29068
G1 X93.257 Y131.288 E5.75695
G1 X92.442 Y131.278 E5.79071
G1 X91.519 Y131.226 E5.82901
G1 X90.604 Y131.094 E5.8673
G1 X89.392 Y130.791 E5.91905
G1 X89.095 Y130.698 E5.93194
G1 X88.225 Y130.383 E5.97027
G1 X87.386 Y129.995 E6.00856
G1 X86.583 Y129.536 E6.04688
G1 X85.824 Y129.009 E6.08515
G1 X84.902 Y128.231 E6.13513
G1 X84.165 Y127.479 E6.17874
G1 X83.577 Y126.765 E6.21706
G1 X83.053 Y126.003 E6.25537
G1 X82.502 Y125.02 E6.30205
G1 X82.075 Y124.066 E6.34534
G1 X81.772 Y123.192 E6.38366
G1 X81.546 Y122.296 E6.42194
G1 X81.398 Y121.383 E6.46025
G1 X81.33 Y120.497 E6.49706
G1 X81.313 Y119.813 E6.5254
G1 X81.309 Y100.501 E7.32538
M205 X5 Y5
G0 F7500 X81.769 Y100.508
M205 X8 Y8
G1 F1500 X81.781 Y99.735 E7.35741
G1 X81.835 Y98.832 E7.39488
G1 X81.969 Y97.938 E7.43233
G1 X82.181 Y97.059 E7.46978
G1 X82.47 Y96.202 E7.50725
G1 X82.889 Y95.262 E7.54988
G1 X83.018 Y95.008 E7.56168
G1 X83.463 Y94.22 E7.59917
G1 X83.975 Y93.475 E7.63661
G1 X84.552 Y92.778 E7.67409
G1 X85.477 Y91.868 E7.72784
G1 X86.287 Y91.221 E7.77079
G1 X87.041 Y90.721 E7.80826
G1 X87.836 Y90.289 E7.84574
G1 X88.666 Y89.93 E7.8832
G1 X89.308 Y89.709 E7.91133
G1 X89.552 Y89.634 E7.9219
G1 X90.428 Y89.406 E7.9594
G1 X91.32 Y89.257 E7.99686
G1 X92.227 Y89.187 E8.03455
G1 X92.867 Y89.172 E8.06106
G1 X103.961 Y89.172 E8.52062
G1 X104.962 Y89.186 E8.56209
G1 X107.746 Y89.266 E8.67746
G1 X110.271 Y89.266 E8.78206
G1 X111.861 Y89.221 E8.84795
G1 X112.021 Y89.223 E8.85457
G1 X113.859 Y89.172 E8.93074
G1 X125.11 Y89.173 E9.3968
G1 X125.866 Y89.184 E9.42812
G1 X126.769 Y89.237 E9.46559
G1 X127.663 Y89.37 E9.50303
G1 X128.543 Y89.581 E9.54052
G1 X129.4 Y89.869 E9.57797
G1 X130.325 Y90.28 E9.6199
G1 X130.658 Y90.448 E9.63535
G1 X131.447 Y90.89 E9.67281
G1 X132.193 Y91.401 E9.71027
G1 X132.892 Y91.975 E9.74773
G1 X133.537 Y92.609 E9.7852
G1 X134.123 Y93.298 E9.82267
G1 X134.646 Y94.035 E9.8601
G1 X135.103 Y94.816 E9.89759
G1 X135.546 Y95.776 E9.94138
G1 X135.671 Y96.088 E9.9553
G1 X135.97 Y96.942 E9.99279
G1 X136.192 Y97.819 E10.03026
G1 X136.337 Y98.712 E10.06774
G1 X136.403 Y99.673 E10.10764
G1 X136.427 Y100.79 E10.15392
G1 X136.426 Y119.503 E10.92908
G1 X136.415 Y120.232 E10.95929
G1 X136.361 Y121.135 E10.99676
G1 X136.228 Y122.03 E11.03424
G1 X136.016 Y122.909 E11.0717
G1 X135.684 Y123.877 E11.11409
G1 X135.586 Y124.122 E11.12502
G1 X135.214 Y124.946 E11.16247
G1 X134.77 Y125.734 E11.19993
G1 X134.258 Y126.48 E11.23741
G1 X133.682 Y127.177 E11.27487
G1 X133.13 Y127.747 E11.30774
G1 X132.461 Y128.356 E11.34521
G1 X131.741 Y128.903 E11.38267
G1 X130.976 Y129.384 E11.4201
G1 X130.17 Y129.796 E11.4576
G1 X129.029 Y130.238 E11.50829
G1 X128.722 Y130.336 E11.52164
G1 X127.849 Y130.572 E11.5591
G1 X126.959 Y130.731 E11.59655
G1 X125.785 Y130.819 E11.64532
G1 X125.257 Y130.828 E11.66719
G1 X114.077 Y130.826 E12.13031
G1 X113.246 Y130.813 E12.16474
G1 X110.474 Y130.733 E12.27961
G1 X107.934 Y130.731 E12.38483
G1 X104.513 Y130.824 E12.52659
G1 X93.257 Y130.828 E12.99286
G1 X92.448 Y130.818 E13.02637
G1 X91.545 Y130.766 E13.06384
G1 X90.65 Y130.634 E13.10132
G1 X89.529 Y130.352 E13.1492
G1 X89.232 Y130.259 E13.16209
G1 X88.382 Y129.95 E13.19956
G1 X87.562 Y129.568 E13.23703
G1 X86.779 Y129.115 E13.2745
G1 X86.039 Y128.595 E13.31196
G1 X85.211 Y127.891 E13.35699
G1 X84.494 Y127.157 E13.39949
G1 X83.921 Y126.457 E13.43696
G1 X83.412 Y125.709 E13.47444
G1 X82.911 Y124.809 E13.51711
G1 X82.496 Y123.878 E13.55933
G1 X82.202 Y123.023 E13.59679
G1 X81.985 Y122.145 E13.63425
G1 X81.846 Y121.251 E13.67173
G1 X81.79 Y120.482 E13.70367
G1 X81.773 Y119.813 E13.73139
G1 X81.769 Y100.508 E14.53108
M205 X5 Y5
G1 F2700 E8.53108
;MESH:FilamentCleanerOiler.stl
G0 F7500 X91.334 Y100.508
G0 X92.429 Y100.507
G0 X93.209 Y100.612
M205 X8 Y8
;TYPE:WALL-INNER
G1 F2700 E14.53108
G1 F1500 X93.211 Y119.388 E15.37648
G1 X103.987 Y119.388 E15.86168
G1 X103.988 Y100.613 E16.70704
G1 X93.209 Y100.612 E17.19238
M205 X5 Y5
G0 F7500 X92.709 Y100.112
M205 X8 Y8
G1 F1500 X92.711 Y119.888 E18.08281
G1 X104.487 Y119.888 E18.61304
G1 X104.488 Y100.113 E19.50342
G1 X92.709 Y100.112 E20.03378
M205 X5 Y5
G0 F7500 X92.484 Y99.896
M205 X8 Y8
;TYPE:WALL-OUTER
G1 F1500 X92.429 Y100.036 E20.04001
G1 X92.431 Y119.976 E20.866
G1 X92.479 Y120.097 E20.8714
G1 X92.619 Y120.168 E20.8779
G1 X104.574 Y120.169 E21.37312
G1 X104.718 Y120.109 E21.37958
G1 X104.767 Y119.985 E21.38511
G1 X104.768 Y99.97 E22.2142
G1 X104.695 Y99.879 E22.21904
G1 X104.579 Y99.833 E22.22421
G1 X92.628 Y99.832 E22.71926
G1 X92.484 Y99.896 E22.72579
M205 X5 Y5
G0 F7500 X92.429 Y100.036
G0 X92.429 Y100.086
G1 F2700 E16.72579
G0 F7500 X92.898 Y100.301
G0 X93.459 Y105.839
G0 X95.342 Y107.445
G0 X95.277 Y107.94
M205 X8 Y8
;TYPE:WALL-INNER
G1 F2700 E22.72579
G1 F1500 X95.518 Y107.594 E22.74478
G1 X95.802 Y107.27 E22.76418
G1 X96.081 Y107.007 E22.78144
G1 X96.467 Y106.724 E22.80299
G1 X96.783 Y106.533 E22.81962
G1 X97.194 Y106.353 E22.83982
G1 X97.537 Y106.234 E22.85616
G1 X97.944 Y106.145 E22.87492
G1 X98.307 Y106.102 E22.89138
G1 X98.756 Y106.095 E22.9116
G1 X99.18 Y106.133 E22.93077
G1 X99.634 Y106.226 E22.95163
G1 X100.022 Y106.358 E22.97009
G1 X100.417 Y106.535 E22.98958
G1 X100.751 Y106.736 E23.00713
G1 X101.094 Y106.989 E23.02632
G1 X101.435 Y107.3 E23.0471
G1 X101.744 Y107.676 E23.06901
G1 X101.964 Y107.999 E23.08661
G1 X102.176 Y108.423 E23.10795
G1 X102.285 Y108.695 E23.12115
G1 X102.419 Y109.143 E23.1422
G1 X102.494 Y109.651 E23.16532
G1 X102.513 Y109.989 E23.18057
G1 X102.481 Y110.471 E23.20232
G1 X102.43 Y110.8 E23.21731
G1 X102.328 Y111.179 E23.23498
G1 X102.149 Y111.651 E23.25771
G1 X101.924 Y112.06 E23.27873
G1 X101.761 Y112.302 E23.29186
G1 X101.439 Y112.693 E23.31467
G1 X101.122 Y112.992 E23.33429
G1 X100.733 Y113.276 E23.35598
G1 X100.417 Y113.467 E23.3726
G1 X100.006 Y113.647 E23.39281
G1 X99.661 Y113.767 E23.40925
G1 X99.257 Y113.855 E23.42787
G1 X98.892 Y113.898 E23.44442
G1 X98.444 Y113.905 E23.46459
G1 X98.021 Y113.867 E23.48371
G1 X97.573 Y113.776 E23.5043
G1 X97.178 Y113.642 E23.52308
G1 X96.783 Y113.465 E23.54257
G1 X96.391 Y113.229 E23.56317
G1 X96.104 Y113.008 E23.57948
G1 X95.816 Y112.745 E23.59704
G1 X95.491 Y112.378 E23.61911
G1 X95.213 Y111.953 E23.64198
G1 X95.049 Y111.646 E23.65765
G1 X94.869 Y111.169 E23.68061
G1 X94.771 Y110.787 E23.69836
G1 X94.72 Y110.477 E23.71251
G1 X94.691 Y110.079 E23.73048
G1 X94.708 Y109.597 E23.75219
G1 X94.784 Y109.132 E23.77341
G1 X94.914 Y108.698 E23.79381
G1 X95.053 Y108.344 E23.81093
G1 X95.277 Y107.94 E23.83173
M205 X5 Y5
G0 F7500 X96.954 Y106.832
G0 X97.983 Y106.485
G0 X98.823 Y106.438
G0 X99.678 Y106.625
G0 X100.616 Y106.982
G0 X100.493 Y107.164
M205 X8 Y8
G1 F1500 X100.845 Y107.433 E23.85168
G1 X101.04 Y107.617 E23.86375
G1 X101.284 Y107.897 E23.88047
G1 X101.548 Y108.286 E23.90164
G1 X101.712 Y108.608 E23.91791
G1 X101.82 Y108.879 E23.93104
G1 X101.937 Y109.294 E23.95046
G1 X101.994 Y109.678 E23.96794
G1 X102.012 Y109.989 E23.98197
G1 X101.987 Y110.392 E24.00015
G1 X101.936 Y110.714 E24.01482
G1 X101.847 Y111.044 E24.03021
G1 X101.707 Y111.407 E24.04773
G1 X101.509 Y111.78 E24.06675
G1 X101.346 Y112.022 E24.07988
G1 X101.096 Y112.323 E24.0975
G1 X100.829 Y112.581 E24.11422
G1 X100.474 Y112.848 E24.13422
G1 X100.15 Y113.038 E24.15113
G1 X99.904 Y113.15 E24.1633
G1 X99.486 Y113.293 E24.18319
G1 X99.171 Y113.362 E24.19771
G1 X98.836 Y113.401 E24.2129
G1 X98.366 Y113.401 E24.23406
G1 X98.002 Y113.357 E24.25057
G1 X97.659 Y113.278 E24.26642
G1 X97.348 Y113.171 E24.28123
G1 X97.051 Y113.038 E24.29588
G1 X96.707 Y112.836 E24.31384
G1 X96.355 Y112.566 E24.33381
G1 X96.159 Y112.381 E24.34595
G1 X95.869 Y112.042 E24.36604
G1 X95.693 Y111.783 E24.38014
G1 X95.527 Y111.48 E24.39569
G1 X95.376 Y111.111 E24.41364
G1 X95.28 Y110.778 E24.42925
G1 X95.214 Y110.396 E24.4467
G1 X95.191 Y110.051 E24.46227
G1 X95.205 Y109.683 E24.47885
G1 X95.282 Y109.215 E24.50021
G1 X95.38 Y108.881 E24.51588
G1 X95.527 Y108.52 E24.53343
G1 X95.654 Y108.282 E24.54558
G1 X95.901 Y107.916 E24.56546
G1 X96.145 Y107.634 E24.58225
G1 X96.431 Y107.37 E24.59977
G1 X96.726 Y107.152 E24.61629
G1 X97.05 Y106.962 E24.6332
G1 X97.296 Y106.85 E24.64537
G1 X97.714 Y106.707 E24.66526
G1 X98.03 Y106.638 E24.67983
G1 X98.363 Y106.599 E24.69492
G1 X98.834 Y106.599 E24.71613
G1 X99.2 Y106.643 E24.73273
G1 X99.541 Y106.722 E24.74849
G1 X99.852 Y106.829 E24.7633
G1 X100.149 Y106.962 E24.77795
G1 X100.493 Y107.164 E24.79591
M205 X5 Y5
G1 F2700 E18.79591
G0 F7500 X100.616 Y106.982
G0 X99.524 Y106.553
G0 X98.445 Y106.435
G0 X97.608 Y106.572
G0 X96.628 Y107.026
G0 X95.985 Y107.573
G0 X95.373 Y108.474
G0 X94.994 Y109.583
G1 F2700 E24.79591
G0 F7500 X95.49 Y109.65
M205 X8 Y8
;TYPE:WALL-OUTER
G1 F1500 X95.551 Y109.291 E24.811
G1 X95.64 Y108.984 E24.82424
G1 X95.753 Y108.697 E24.83701
G1 X95.901 Y108.414 E24.85024
G1 X96.087 Y108.134 E24.86417
G1 X96.304 Y107.873 E24.87823
G1 X96.6 Y107.593 E24.89511
G1 X96.833 Y107.417 E24.9072
G1 X97.122 Y107.24 E24.92124
G1 X97.412 Y107.105 E24.93449
G1 X97.727 Y106.994 E24.94833
G1 X98.078 Y106.914 E24.96324
G1 X98.395 Y106.877 E24.97646
G1 X98.803 Y106.877 E24.99336
G1 X99.14 Y106.916 E25.00741
G1 X99.45 Y106.987 E25.02059
G1 X99.757 Y107.092 E25.03403
G1 X100.074 Y107.239 E25.0485
G1 X100.388 Y107.431 E25.06375
G1 X100.619 Y107.608 E25.0758
G1 X100.88 Y107.854 E25.09066
G1 X101.071 Y108.078 E25.10285
G1 X101.274 Y108.372 E25.11765
G1 X101.433 Y108.671 E25.13168
G1 X101.573 Y109.023 E25.14737
G1 X101.66 Y109.339 E25.16095
G1 X101.715 Y109.694 E25.17583
G1 X101.731 Y109.989 E25.18807
G1 X101.715 Y110.302 E25.20105
G1 X101.66 Y110.666 E25.2163
G1 X101.577 Y110.968 E25.22928
G1 X101.426 Y111.348 E25.24621
G1 X101.299 Y111.586 E25.25739
G1 X101.113 Y111.866 E25.27131
G1 X100.85 Y112.176 E25.28815
G1 X100.599 Y112.409 E25.30234
G1 X100.33 Y112.608 E25.3162
G1 X100.078 Y112.76 E25.32839
G1 X99.788 Y112.895 E25.34164
G1 X99.473 Y113.006 E25.35548
G1 X99.123 Y113.086 E25.37035
G1 X98.805 Y113.123 E25.38361
G1 X98.396 Y113.123 E25.40055
G1 X98.062 Y113.084 E25.41448
G1 X97.75 Y113.013 E25.42774
G1 X97.443 Y112.908 E25.44118
G1 X97.126 Y112.761 E25.45565
G1 X96.811 Y112.568 E25.47096
G1 X96.547 Y112.362 E25.48483
G1 X96.351 Y112.177 E25.49599
G1 X96.101 Y111.884 E25.51195
G1 X95.901 Y111.586 E25.52681
G1 X95.753 Y111.304 E25.54001
G1 X95.622 Y110.963 E25.55514
G1 X95.541 Y110.66 E25.56813
G1 X95.485 Y110.304 E25.58306
G1 X95.47 Y110.036 E25.59418
G1 X95.49 Y109.65 E25.61019
M205 X5 Y5
G0 F7500 X95.523 Y109.453
G0 X95.03 Y109.371
G0 X94.745 Y111.274
G0 X94.63 Y111.311
M205 X8 Y8
;TYPE:SKIN
G1 F1500 X94.507 Y110.833 E25.62174
G1 X94.456 Y110.507 E25.62947
G1 X94.42 Y109.999 E25.64139
G1 X94.455 Y109.493 E25.65327
G1 X94.54 Y109.018 E25.66457
G1 X94.662 Y108.614 E25.67445
G1 X94.809 Y108.235 E25.68397
G1 X95.055 Y107.791 E25.69585
G1 X95.222 Y107.544 E25.70283
G1 X95.567 Y107.122 E25.71559
G1 X95.97 Y106.756 E25.72834
G1 X96.333 Y106.494 E25.73882
G1 X96.659 Y106.297 E25.74774
G1 X96.984 Y106.151 E25.75608
G1 X97.464 Y105.976 E25.76804
G1 X97.911 Y105.881 E25.77874
G1 X98.344 Y105.829 E25.78895
G1 X98.85 Y105.829 E25.8008
G1 X99.205 Y105.868 E25.80916
G1 X99.697 Y105.964 E25.8209
G1 X100.226 Y106.153 E25.83405
G1 X100.539 Y106.297 E25.84212
G1 X101.026 Y106.6 E25.85555
G1 X101.264 Y106.784 E25.86259
G1 X101.56 Y107.051 E25.87193
G1 X101.87 Y107.402 E25.88289
G1 X102.19 Y107.856 E25.89589
G1 X102.356 Y108.175 E25.90431
G1 X102.54 Y108.614 E25.91546
G1 X102.682 Y109.092 E25.92713
G1 X102.746 Y109.503 E25.93687
G1 X102.78 Y109.984 E25.94816
G1 X102.745 Y110.514 E25.9606
G1 X102.693 Y110.845 E25.96844
G1 X102.582 Y111.256 E25.97841
G1 X102.389 Y111.768 E25.99122
G1 X102.22 Y112.084 E25.99961
G1 X101.985 Y112.448 E26.00976
G1 X101.623 Y112.89 E26.02313
G1 X101.237 Y113.24 E26.03533
G1 X100.872 Y113.503 E26.04587
G1 X100.552 Y113.696 E26.05462
G1 X100.112 Y113.892 E26.06589
G1 X99.731 Y114.025 E26.07534
G1 X99.293 Y114.119 E26.08583
G1 X98.854 Y114.171 E26.09618
G1 X98.349 Y114.171 E26.10801
G1 X97.996 Y114.132 E26.11632
G1 X97.494 Y114.033 E26.1283
G1 X96.974 Y113.847 E26.14123
G1 X96.659 Y113.702 E26.14935
G1 X96.168 Y113.396 E26.1629
G1 X95.83 Y113.125 E26.17304
G1 X95.623 Y112.931 E26.17968
G1 X95.335 Y112.605 E26.18987
G1 X95.017 Y112.152 E26.20283
G1 X94.811 Y111.766 E26.21307
G1 X94.63 Y111.311 E26.22453
M205 X5 Y5
G1 F2700 E20.22453
G0 F7500 X94.746 Y111.275
G0 X95.085 Y107.81
G0 X93.459 Y105.839
G0 X93.431 Y100.834
G1 F2700 E26.22453
