;FLAVOR:Marlin
;TIME:2481
;Filament used: 0.921153m
;Layer height: 0.16
;MINX:95.927
;MINY:98.655
;MINZ:0.24
;MAXX:123.552
;MAXY:121.346
;MAXZ:27.36
;Generated with Cura_SteamEngine 4.5.0
M140 S50
M105
M190 S50
M104 S215
M105
M109 S215
M82 ;absolute extrusion mode
M201 X500.00 Y500.00 Z100.00 E5000.00 ;Setup machine max acceleration
M203 X500.00 Y500.00 Z10.00 E50.00 ;Setup machine max feedrate
M204 P500.00 R1000.00 T500.00 ;Setup Print/Retract/Travel acceleration
M205 X8.00 Y8.00 Z0.40 E5.00 ;Setup Jerk
M220 S100 ;Reset Feedrate
M221 S100 ;Reset Flowrate

G28 ;Home

G92 E0 ;Reset Extruder
G1 Z2.0 F3000 ;Move Z Axis up
G1 X10.1 Y20 Z0.28 F5000.0 ;Move to start position
G1 X10.1 Y200.0 Z0.28 F1500.0 E15 ;Draw the first line
G1 X10.4 Y200.0 Z0.28 F5000.0 ;Move to side a little
G1 X10.4 Y20 Z0.28 F1500.0 E30 ;Draw the second line
G92 E0 ;Reset Extruder
G1 Z2.0 F3000 ;Move Z Axis up

G92 E0
G92 E0
G1 F1800 E-3
;LAYER_COUNT:168
;LAYER:0
M106 S63.8
M204 S500
M205 X6 Y6
G0 F9000 X104.87 Y99.201 Z0.24
;TYPE:SKIRT
G1 F1800 E0
G1 X105.103 Y98.963 E0.01329
G1 X105.387 Y98.786 E0.02665
G1 X105.704 Y98.681 E0.03998
G1 X106.037 Y98.655 E0.05331
G1 X106.675 Y98.838 E0.0798
G1 X107.041 Y99.141 E0.09876
G1 X108.088 Y100.359 E0.16287
G1 X109.259 Y100.196 E0.21006
G1 X110.065 Y100.167 E0.24225
G1 X110.885 Y100.206 E0.27501
G1 X111.693 Y100.311 E0.30753
G1 X112.499 Y100.486 E0.34045
G1 X113.262 Y100.716 E0.37226
G1 X114.025 Y101.017 E0.40499
G1 X114.758 Y101.378 E0.43761
G1 X115.458 Y101.797 E0.47017
G1 X115.954 Y102.147 E0.4944
G1 X116.562 Y102.638 E0.52559
G1 X117.14 Y103.188 E0.55743
G1 X117.654 Y103.76 E0.58812
G1 X118.045 Y104.262 E0.61352
G1 X118.467 Y104.892 E0.64378
G1 X118.843 Y105.56 E0.67438
G1 X119.116 Y106.13 E0.6996
G1 X119.394 Y106.838 E0.72996
G1 X119.585 Y107.451 E0.75559
G1 X119.76 Y108.179 E0.78547
G1 X119.88 Y108.947 E0.8165
G1 X119.933 Y109.555 E0.84086
G1 X119.948 Y110.288 E0.87012
G1 X119.917 Y110.914 E0.89513
G1 X119.83 Y111.655 E0.92491
G1 X119.712 Y112.275 E0.9501
G1 X119.523 Y112.997 E0.97989
G1 X119.322 Y113.591 E1.00492
G1 X119.034 Y114.282 E1.0348
G1 X118.756 Y114.84 E1.05968
G1 X118.376 Y115.487 E1.08963
G1 X118.028 Y115.993 E1.11414
G1 X117.563 Y116.581 E1.14406
G1 X117.143 Y117.04 E1.16889
G1 X116.619 Y117.543 E1.19788
G1 X116.072 Y117.989 E1.22605
G1 X115.585 Y118.346 E1.25015
G1 X115.978 Y119.491 E1.29846
G1 X116.048 Y119.818 E1.31181
G1 X116.039 Y120.152 E1.32515
G1 X115.951 Y120.474 E1.33847
G1 X115.789 Y120.766 E1.3518
G1 X115.562 Y121.012 E1.36516
G1 X115.284 Y121.196 E1.37846
G1 X114.97 Y121.31 E1.3918
G1 X114.637 Y121.346 E1.40516
G1 X114.306 Y121.302 E1.41849
G1 X113.995 Y121.181 E1.43181
G1 X113.721 Y120.99 E1.44514
G1 X112.639 Y119.703 E1.51225
G1 X111.58 Y119.939 E1.55555
G1 X110.78 Y120.032 E1.5877
G1 X109.972 Y120.064 E1.61997
G1 X109.156 Y120.029 E1.65257
G1 X108.345 Y119.927 E1.68519
G1 X107.542 Y119.757 E1.71795
G1 X106.773 Y119.527 E1.74999
G1 X106.011 Y119.229 E1.78265
G1 X105.28 Y118.875 E1.81506
G1 X104.575 Y118.456 E1.84779
G1 X104.081 Y118.112 E1.87182
G1 X103.623 Y117.751 E1.8951
G1 X103.086 Y117.271 E1.92384
G1 X102.656 Y116.827 E1.94851
G1 X102.169 Y116.252 E1.97859
G1 X101.72 Y115.633 E2.00911
G1 X101.385 Y115.092 E2.0345
G1 X101.034 Y114.427 E2.06452
G1 X100.728 Y113.719 E2.0953
G1 X100.516 Y113.121 E2.12062
G1 X100.315 Y112.392 E2.15081
G1 X100.189 Y111.764 E2.17637
G1 X100.091 Y111.016 E2.20648
G1 X100.051 Y110.21 E2.23869
G1 X100.073 Y109.452 E2.26895
G1 X100.133 Y108.831 E2.29386
G1 X100.257 Y108.094 E2.32368
G1 X100.404 Y107.488 E2.34857
G1 X100.627 Y106.778 E2.37827
G1 X100.856 Y106.196 E2.40324
G1 X101.173 Y105.524 E2.43289
G1 X101.481 Y104.978 E2.45791
G1 X101.883 Y104.363 E2.48724
G1 X102.258 Y103.867 E2.51205
G1 X102.754 Y103.298 E2.54218
G1 X103.325 Y102.74 E2.57405
G1 X103.86 Y102.293 E2.60187
G1 X104.395 Y101.896 E2.62846
G1 X104.974 Y101.534 E2.65572
G1 X104.643 Y100.47 E2.70019
G1 X104.583 Y100.142 E2.7135
G1 X104.602 Y99.808 E2.72685
G1 X104.699 Y99.489 E2.74016
G1 X104.87 Y99.201 E2.75353
G0 F9000 X105.126 Y99.534
G1 F1800 X105.305 Y99.316 E2.76478
G1 X105.538 Y99.157 E2.77604
G1 X105.807 Y99.069 E2.78734
G1 X106.089 Y99.06 E2.7986
G1 X106.605 Y99.273 E2.82088
G1 X107.937 Y100.796 E2.90163
G1 X108.534 Y100.679 E2.92592
G1 X109.302 Y100.594 E2.95676
G1 X110.078 Y100.566 E2.98775
G1 X110.863 Y100.605 E3.01912
G1 X111.64 Y100.707 E3.05039
G1 X112.412 Y100.876 E3.08194
G1 X113.144 Y101.098 E3.11247
G1 X113.875 Y101.388 E3.14385
G1 X114.58 Y101.736 E3.17523
G1 X115.25 Y102.139 E3.20644
G1 X115.722 Y102.472 E3.22949
G1 X116.309 Y102.948 E3.25966
G1 X116.863 Y103.476 E3.2902
G1 X117.354 Y104.026 E3.31963
G1 X117.728 Y104.506 E3.34392
G1 X118.133 Y105.113 E3.37304
G1 X118.494 Y105.755 E3.40244
G1 X118.754 Y106.301 E3.42657
G1 X119.021 Y106.982 E3.45577
G1 X119.202 Y107.568 E3.48025
G1 X119.371 Y108.272 E3.50914
G1 X119.484 Y109.006 E3.53878
G1 X119.535 Y109.588 E3.5621
G1 X119.548 Y110.294 E3.59028
G1 X119.517 Y110.892 E3.61418
G1 X119.433 Y111.607 E3.64292
G1 X119.319 Y112.198 E3.66694
G1 X119.136 Y112.894 E3.69566
G1 X118.944 Y113.461 E3.71956
G1 X118.665 Y114.127 E3.74838
G1 X118.399 Y114.66 E3.77215
G1 X118.032 Y115.283 E3.80101
G1 X117.7 Y115.764 E3.82434
G1 X117.25 Y116.331 E3.85323
G1 X116.849 Y116.769 E3.87693
G1 X116.344 Y117.253 E3.90485
G1 X115.822 Y117.677 E3.93169
G1 X115.295 Y118.062 E3.95774
G1 X115.105 Y118.181 E3.96669
G1 X115.6 Y119.621 E4.02746
G1 X115.653 Y119.898 E4.03872
G1 X115.626 Y120.179 E4.04998
G1 X115.523 Y120.441 E4.06122
G1 X115.35 Y120.664 E4.07248
G1 X115.121 Y120.83 E4.08377
G1 X114.856 Y120.925 E4.09501
G1 X114.574 Y120.943 E4.10629
G1 X114.299 Y120.881 E4.11754
G1 X114.052 Y120.745 E4.12879
G1 X112.781 Y119.246 E4.20723
G1 X112.272 Y119.391 E4.22835
G1 X111.502 Y119.546 E4.2597
G1 X110.735 Y119.635 E4.29052
G1 X109.958 Y119.664 E4.32155
G1 X109.175 Y119.63 E4.35284
G1 X108.398 Y119.53 E4.3841
G1 X107.627 Y119.366 E4.41556
G1 X106.89 Y119.144 E4.44628
G1 X106.159 Y118.857 E4.47763
G1 X105.456 Y118.516 E4.50881
G1 X104.782 Y118.113 E4.54016
G1 X104.312 Y117.785 E4.56303
G1 X103.872 Y117.438 E4.5854
G1 X103.354 Y116.974 E4.61315
G1 X102.945 Y116.55 E4.63667
G1 X102.475 Y115.995 E4.66569
G1 X102.046 Y115.4 E4.69497
G1 X101.726 Y114.883 E4.71924
G1 X101.388 Y114.242 E4.74816
G1 X101.096 Y113.562 E4.7777
G1 X100.894 Y112.989 E4.80195
G1 X100.702 Y112.288 E4.83095
G1 X100.582 Y111.687 E4.85541
G1 X100.488 Y110.966 E4.88443
G1 X100.451 Y110.192 E4.91536
G1 X100.473 Y109.465 E4.94439
G1 X100.531 Y108.872 E4.96817
G1 X100.652 Y108.163 E4.99688
G1 X100.792 Y107.584 E5.02065
G1 X101.008 Y106.899 E5.04932
G1 X101.228 Y106.344 E5.07315
G1 X101.534 Y105.696 E5.10175
G1 X101.828 Y105.176 E5.12559
G1 X102.217 Y104.584 E5.15387
G1 X102.576 Y104.11 E5.1776
G1 X103.055 Y103.562 E5.20665
G1 X103.603 Y103.027 E5.23721
G1 X104.115 Y102.602 E5.26377
G1 X104.633 Y102.218 E5.28951
G1 X105.301 Y101.803 E5.32089
G1 X105.452 Y101.721 E5.32775
G1 X105.025 Y100.351 E5.38503
G1 X104.98 Y100.073 E5.39627
G1 X105.015 Y99.793 E5.40753
G1 X105.126 Y99.534 E5.41878
G0 F9000 X105.56 Y99.626
G1 F1800 X105.741 Y99.504 E5.42749
G1 X105.953 Y99.455 E5.43617
G1 X106.169 Y99.485 E5.44488
G1 X106.435 Y99.663 E5.45765
G1 X107.794 Y101.243 E5.54083
G1 X108.61 Y101.072 E5.57411
G1 X109.344 Y100.991 E5.60358
G1 X110.09 Y100.966 E5.63337
G1 X110.842 Y101.005 E5.66342
G1 X111.586 Y101.103 E5.69338
G1 X112.324 Y101.267 E5.72355
G1 X113.027 Y101.48 E5.75287
G1 X113.726 Y101.759 E5.78291
G1 X114.401 Y102.094 E5.81298
G1 X115.043 Y102.481 E5.8429
G1 X115.49 Y102.798 E5.86477
G1 X116.056 Y103.258 E5.89388
G1 X116.586 Y103.764 E5.92313
G1 X117.055 Y104.291 E5.95129
G1 X117.411 Y104.751 E5.9745
G1 X117.8 Y105.334 E6.00247
G1 X118.144 Y105.949 E6.0306
G1 X118.393 Y106.472 E6.05372
G1 X118.648 Y107.126 E6.08173
G1 X118.82 Y107.685 E6.10508
G1 X118.982 Y108.364 E6.13294
G1 X119.088 Y109.065 E6.16124
G1 X119.136 Y109.621 E6.18351
G1 X119.148 Y110.301 E6.21065
G1 X119.118 Y110.87 E6.23339
G1 X119.036 Y111.559 E6.26109
G1 X118.927 Y112.121 E6.28394
G1 X118.75 Y112.791 E6.3116
G1 X118.565 Y113.331 E6.33438
G1 X118.297 Y113.971 E6.36207
G1 X118.042 Y114.48 E6.38479
G1 X117.688 Y115.079 E6.41256
G1 X117.372 Y115.535 E6.43471
G1 X116.937 Y116.082 E6.4626
G1 X116.556 Y116.497 E6.48509
G1 X116.068 Y116.964 E6.51204
G1 X115.571 Y117.366 E6.53756
G1 X115.059 Y117.739 E6.56284
G1 X114.622 Y118.007 E6.5833
G1 X115.221 Y119.751 E6.6569
G1 X115.254 Y119.967 E6.66562
G1 X115.207 Y120.18 E6.67433
G1 X115.086 Y120.362 E6.68305
G1 X114.909 Y120.489 E6.69174
G1 X114.698 Y120.544 E6.70045
G1 X114.481 Y120.521 E6.70916
G1 X114.191 Y120.328 E6.72306
G1 X112.916 Y118.782 E6.80304
G1 X112.163 Y119.006 E6.8344
G1 X111.425 Y119.154 E6.86444
G1 X110.691 Y119.237 E6.89392
G1 X109.945 Y119.265 E6.92371
G1 X109.195 Y119.23 E6.95368
G1 X108.45 Y119.134 E6.98366
G1 X107.712 Y118.975 E7.01379
G1 X107.007 Y118.762 E7.04319
G1 X106.306 Y118.486 E7.07326
G1 X105.632 Y118.157 E7.10319
G1 X104.988 Y117.771 E7.13316
G1 X104.542 Y117.458 E7.1549
G1 X104.121 Y117.125 E7.17633
G1 X103.622 Y116.677 E7.20309
G1 X103.233 Y116.273 E7.22548
G1 X102.782 Y115.738 E7.25341
G1 X102.371 Y115.167 E7.28149
G1 X102.067 Y114.674 E7.3046
G1 X101.742 Y114.056 E7.33247
G1 X101.464 Y113.406 E7.36069
G1 X101.271 Y112.857 E7.38391
G1 X101.088 Y112.183 E7.41179
G1 X100.974 Y111.61 E7.43511
G1 X100.885 Y110.915 E7.46307
G1 X100.851 Y110.175 E7.49264
G1 X100.872 Y109.479 E7.52043
G1 X100.929 Y108.913 E7.54313
G1 X101.046 Y108.231 E7.57075
G1 X101.181 Y107.68 E7.59339
G1 X101.389 Y107.021 E7.62097
G1 X101.599 Y106.493 E7.64365
G1 X101.895 Y105.869 E7.67122
G1 X102.176 Y105.374 E7.69394
G1 X102.55 Y104.804 E7.72115
G1 X102.893 Y104.353 E7.74376
G1 X103.355 Y103.826 E7.77173
G1 X103.881 Y103.315 E7.801
G1 X104.369 Y102.911 E7.82629
G1 X104.87 Y102.54 E7.85117
G1 X105.51 Y102.143 E7.88123
G1 X105.934 Y101.923 E7.90029
G1 X105.407 Y100.232 E7.97099
G1 X105.381 Y100.016 E7.97967
G1 X105.434 Y99.804 E7.98839
G1 X105.56 Y99.626 E7.9971
G0 F9000 X105.867 Y99.889
G1 F1800 X105.987 Y99.854 E8.00209
G1 X106.132 Y99.924 E8.00851
G1 X107.652 Y101.691 E8.10154
G1 X108.686 Y101.465 E8.14378
G1 X109.387 Y101.389 E8.17193
G1 X110.103 Y101.366 E8.20052
G1 X110.82 Y101.404 E8.22917
G1 X111.533 Y101.5 E8.25789
G1 X112.237 Y101.657 E8.28668
G1 X112.91 Y101.863 E8.31477
G1 X113.577 Y102.13 E8.34344
G1 X114.222 Y102.452 E8.37222
G1 X114.836 Y102.823 E8.40085
G1 X115.257 Y103.123 E8.42148
G1 X115.803 Y103.568 E8.44959
G1 X116.309 Y104.053 E8.47757
G1 X116.756 Y104.556 E8.50443
G1 X117.094 Y104.995 E8.52654
G1 X117.467 Y105.555 E8.55339
G1 X117.795 Y106.144 E8.5803
G1 X118.031 Y106.643 E8.60233
G1 X118.275 Y107.271 E8.62922
G1 X118.437 Y107.802 E8.65138
G1 X118.593 Y108.456 E8.67822
G1 X118.693 Y109.124 E8.70517
G1 X118.737 Y109.654 E8.7264
G1 X118.748 Y110.307 E8.75247
G1 X118.719 Y110.848 E8.77409
G1 X118.639 Y111.51 E8.8007
G1 X118.534 Y112.044 E8.82243
G1 X118.363 Y112.688 E8.84902
G1 X118.187 Y113.201 E8.87067
G1 X117.928 Y113.816 E8.8973
G1 X117.685 Y114.3 E8.91892
G1 X117.344 Y114.875 E8.9456
G1 X117.044 Y115.306 E8.96656
G1 X116.624 Y115.833 E8.99345
G1 X116.262 Y116.226 E9.01478
G1 X115.792 Y116.674 E9.04069
G1 X115.32 Y117.054 E9.06488
G1 X114.824 Y117.416 E9.08939
G1 X114.347 Y117.707 E9.11169
G1 X114.136 Y117.822 E9.12128
G1 X114.843 Y119.881 E9.20817
G1 X114.845 Y120.006 E9.21316
G1 X114.772 Y120.107 E9.21813
G1 X114.653 Y120.146 E9.22313
G1 X114.5 Y120.073 E9.2299
G1 X113.048 Y118.313 E9.32096
G1 X112.054 Y118.621 E9.36249
G1 X111.348 Y118.761 E9.39122
G1 X110.647 Y118.84 E9.41938
G1 X109.931 Y118.865 E9.44797
G1 X109.214 Y118.831 E9.47662
G1 X108.503 Y118.737 E9.50524
G1 X107.797 Y118.584 E9.53408
G1 X107.124 Y118.379 E9.56216
G1 X106.454 Y118.114 E9.59091
G1 X105.809 Y117.798 E9.61958
G1 X105.195 Y117.428 E9.64819
G1 X104.773 Y117.131 E9.66879
G1 X104.37 Y116.812 E9.6893
G1 X103.89 Y116.38 E9.71508
G1 X103.522 Y115.996 E9.7363
G1 X103.088 Y115.481 E9.76318
G1 X102.696 Y114.934 E9.79004
G1 X102.408 Y114.465 E9.81201
G1 X102.097 Y113.871 E9.83877
G1 X101.832 Y113.249 E9.86575
G1 X101.649 Y112.726 E9.88787
G1 X101.474 Y112.079 E9.91462
G1 X101.367 Y111.533 E9.93683
G1 X101.282 Y110.865 E9.9637
G1 X101.25 Y110.158 E9.99195
G1 X101.272 Y109.492 E10.01855
G1 X101.327 Y108.954 E10.04013
G1 X101.44 Y108.299 E10.06666
G1 X101.569 Y107.776 E10.08816
G1 X101.77 Y107.142 E10.11471
G1 X101.97 Y106.642 E10.1362
G1 X102.256 Y106.041 E10.16276
G1 X102.523 Y105.572 E10.1843
G1 X102.884 Y105.025 E10.21046
G1 X103.211 Y104.596 E10.23199
G1 X103.656 Y104.09 E10.25888
G1 X104.159 Y103.602 E10.28686
G1 X104.623 Y103.22 E10.31084
G1 X105.107 Y102.862 E10.33487
G1 X105.72 Y102.484 E10.36362
G1 X106.207 Y102.232 E10.3855
G1 X106.419 Y102.135 E10.39481
G1 X105.789 Y100.113 E10.47933
G1 X105.791 Y99.989 E10.48428
G1 X105.867 Y99.889 E10.4893
G1 F1800 E7.4893
;MESH:ReverseFlashRing.stl
G0 F9000 X105.289 Y100.069
G0 X104.357 Y102.839
G0 X104.94 Y103.63
G0 X103.485 Y105.882
G0 X102.031 Y108.404
G0 X101.834 Y108.368
;TYPE:WALL-OUTER
G1 F1800 E10.4893
G1 X101.954 Y107.884 E10.5092
G1 X102.152 Y107.264 E10.53518
G1 X102.342 Y106.789 E10.55559
G1 X102.611 Y106.226 E10.5805
G1 X102.871 Y105.769 E10.60148
G1 X103.21 Y105.257 E10.62599
G1 X103.529 Y104.84 E10.64695
G1 X103.945 Y104.366 E10.67212
G1 X104.437 Y103.89 E10.69944
G1 X104.869 Y103.535 E10.72176
G1 X105.341 Y103.187 E10.74516
G1 X105.923 Y102.828 E10.77246
G1 X106.382 Y102.592 E10.79305
G1 X106.905 Y102.354 E10.81599
G1 X106.457 Y100.916 E10.8761
G1 X107.51 Y102.139 E10.94052
G1 X108.209 Y101.965 E10.96927
G1 X108.748 Y101.86 E10.99118
G1 X109.421 Y101.788 E11.0182
G1 X110.104 Y101.766 E11.04547
G1 X110.797 Y101.804 E11.07317
G1 X111.47 Y101.895 E11.10028
G1 X112.141 Y102.044 E11.12771
G1 X112.776 Y102.24 E11.15423
G1 X113.423 Y102.5 E11.18206
G1 X114.037 Y102.808 E11.20948
G1 X114.624 Y103.163 E11.23686
G1 X115.026 Y103.449 E11.25655
G1 X115.538 Y103.866 E11.28291
G1 X116.021 Y104.331 E11.30967
G1 X116.457 Y104.823 E11.3359
G1 X116.77 Y105.229 E11.35636
G1 X117.133 Y105.776 E11.38257
G1 X117.439 Y106.327 E11.40772
G1 X117.667 Y106.808 E11.42897
G1 X117.901 Y107.416 E11.45497
G1 X118.051 Y107.906 E11.47542
G1 X118.2 Y108.542 E11.50149
G1 X118.297 Y109.183 E11.52737
G1 X118.338 Y109.675 E11.54707
G1 X118.348 Y110.3 E11.57202
G1 X118.32 Y110.813 E11.59253
G1 X118.242 Y111.457 E11.61842
G1 X118.146 Y111.953 E11.63858
G1 X117.979 Y112.579 E11.66444
G1 X117.811 Y113.065 E11.68496
G1 X117.563 Y113.654 E11.71047
G1 X117.333 Y114.108 E11.73078
G1 X117.001 Y114.668 E11.75677
G1 X116.723 Y115.067 E11.77618
G1 X116.321 Y115.573 E11.80197
G1 X115.972 Y115.95 E11.82247
G1 X115.52 Y116.381 E11.8474
G1 X115.073 Y116.74 E11.87028
G1 X114.599 Y117.084 E11.89366
G1 X114.139 Y117.365 E11.91517
G1 X113.648 Y117.633 E11.9375
G1 X114.107 Y118.97 E11.99392
G1 X113.18 Y117.845 E12.0521
G1 X112.484 Y118.084 E12.08147
G1 X111.956 Y118.234 E12.10338
G1 X111.284 Y118.366 E12.13071
G1 X110.61 Y118.441 E12.15778
G1 X109.927 Y118.465 E12.18506
G1 X109.234 Y118.431 E12.21275
G1 X108.56 Y118.342 E12.23988
G1 X107.897 Y118.198 E12.26696
G1 X107.252 Y118 E12.29389
G1 X106.603 Y117.743 E12.32175
G1 X105.995 Y117.444 E12.34879
G1 X105.412 Y117.092 E12.37597
G1 X105.003 Y116.804 E12.39594
G1 X104.628 Y116.506 E12.41506
G1 X104.159 Y116.083 E12.44026
G1 X103.82 Y115.73 E12.4598
G1 X103.4 Y115.23 E12.48586
G1 X103.023 Y114.703 E12.51172
G1 X102.754 Y114.264 E12.53227
G1 X102.454 Y113.691 E12.55809
G1 X102.205 Y113.104 E12.58353
G1 X102.027 Y112.595 E12.60506
G1 X101.86 Y111.974 E12.63072
G1 X101.759 Y111.457 E12.65175
G1 X101.68 Y110.832 E12.67689
G1 X101.65 Y110.146 E12.7043
G1 X101.672 Y109.505 E12.7299
G1 X101.725 Y108.996 E12.75032
G1 X101.834 Y108.368 E12.77576
G1 F1800 E9.77576
G0 F9000 X102.03 Y108.403
G0 X102.354 Y111.619
G0 X102.461 Y111.99
G0 X102.957 Y113.59
G0 X103.132 Y113.494
G1 F1800 E12.77576
G1 X103.455 Y114.083 E12.80257
G1 X103.827 Y114.641 E12.82934
G1 X104.218 Y115.13 E12.85433
G1 X104.679 Y115.617 E12.88109
