;FLAVOR:Marlin
;TIME:2841
;Filament used: 1.09038m
;Layer height: 0.16
;MINX:94.193
;MINY:97.55
;MINZ:0.24
;MAXX:125.945
;MAXY:122.451
;MAXZ:30.4
;Generated with Cura_SteamEngine 4.5.0
M140 S50
M105
M190 S50
M104 S215
M105
M109 S215
M82 ;absolute extrusion mode
M201 X500.00 Y500.00 Z100.00 E5000.00 ;Setup machine max acceleration
M203 X500.00 Y500.00 Z10.00 E50.00 ;Setup machine max feedrate
M204 P500.00 R1000.00 T500.00 ;Setup Print/Retract/Travel acceleration
M205 X8.00 Y8.00 Z0.40 E5.00 ;Setup Jerk
M220 S100 ;Reset Feedrate
M221 S100 ;Reset Flowrate

G28 ;Home

G92 E0 ;Reset Extruder
G1 Z2.0 F3000 ;Move Z Axis up
G1 X10.1 Y20 Z0.28 F5000.0 ;Move to start position
G1 X10.1 Y200.0 Z0.28 F1500.0 E15 ;Draw the first line
G1 X10.4 Y200.0 Z0.28 F5000.0 ;Move to side a little
G1 X10.4 Y20 Z0.28 F1500.0 E30 ;Draw the second line
G92 E0 ;Reset Extruder
G1 Z2.0 F3000 ;Move Z Axis up

G92 E0
G92 E0
G1 F1800 E-3
;LAYER_COUNT:187
;LAYER:0
M106 S63.8
M204 S500
M205 X6 Y6
G0 F9000 X104.423 Y98.096 Z0.24
;TYPE:SKIRT
G1 F1800 E0
G1 X104.656 Y97.858 E0.01329
G1 X104.94 Y97.681 E0.02665
G1 X105.257 Y97.576 E0.03998
G1 X105.59 Y97.55 E0.05331
G1 X106.228 Y97.733 E0.0798
G1 X106.594 Y98.036 E0.09876
G1 X107.815 Y99.455 E0.17348
G1 X108.321 Y99.359 E0.19404
G1 X108.922 Y99.283 E0.21821
G1 X109.511 Y99.241 E0.24178
G1 X110.098 Y99.229 E0.26522
G1 X110.694 Y99.251 E0.28902
G1 X111.295 Y99.306 E0.31311
G1 X111.88 Y99.391 E0.3367
G1 X112.47 Y99.513 E0.36075
G1 X113.038 Y99.661 E0.38417
G1 X113.598 Y99.839 E0.40763
G1 X114.168 Y100.057 E0.43198
G1 X114.709 Y100.298 E0.45562
G1 X115.235 Y100.568 E0.47922
G1 X115.748 Y100.868 E0.50294
G1 X116.244 Y101.195 E0.52665
G1 X116.811 Y101.621 E0.55496
G1 X117.381 Y102.109 E0.5849
G1 X117.838 Y102.554 E0.61036
G1 X118.241 Y102.994 E0.63418
G1 X118.617 Y103.456 E0.65795
G1 X118.963 Y103.928 E0.68131
G1 X119.287 Y104.425 E0.70499
G1 X119.582 Y104.935 E0.7285
G1 X119.851 Y105.466 E0.75226
G1 X120.089 Y106.004 E0.77574
G1 X120.3 Y106.564 E0.79963
G1 X120.478 Y107.128 E0.82323
G1 X120.625 Y107.698 E0.84673
G1 X120.742 Y108.286 E0.87065
G1 X120.825 Y108.868 E0.89412
G1 X120.878 Y109.459 E0.9178
G1 X120.899 Y110.085 E0.9428
G1 X120.887 Y110.674 E0.96631
G1 X120.841 Y111.26 E0.98977
G1 X120.764 Y111.844 E1.01328
G1 X120.656 Y112.42 E1.03667
G1 X120.517 Y112.991 E1.06013
G1 X120.323 Y113.624 E1.08655
G1 X120.122 Y114.172 E1.10985
G1 X119.887 Y114.717 E1.13354
G1 X119.627 Y115.24 E1.15685
G1 X119.337 Y115.752 E1.18033
G1 X119.021 Y116.246 E1.20374
G1 X118.648 Y116.764 E1.22922
G1 X118.269 Y117.23 E1.25319
G1 X117.869 Y117.67 E1.27692
G1 X117.423 Y118.109 E1.3019
G1 X116.845 Y118.606 E1.33233
G1 X116.283 Y119.034 E1.36052
G1 X116.019 Y119.209 E1.37316
G1 X116.495 Y120.596 E1.43169
G1 X116.565 Y120.923 E1.44504
G1 X116.556 Y121.257 E1.45837
G1 X116.468 Y121.579 E1.4717
G1 X116.306 Y121.871 E1.48502
G1 X116.079 Y122.117 E1.49838
G1 X115.801 Y122.301 E1.51169
G1 X115.486 Y122.415 E1.52506
G1 X115.154 Y122.451 E1.53839
G1 X114.823 Y122.407 E1.55171
G1 X114.512 Y122.286 E1.56503
G1 X114.238 Y122.095 E1.57836
G1 X112.988 Y120.604 E1.65602
G1 X112.004 Y120.841 E1.69642
G1 X111.422 Y120.934 E1.71994
G1 X110.835 Y120.995 E1.74349
G1 X110.233 Y121.026 E1.76755
G1 X109.635 Y121.022 E1.79142
G1 X109.049 Y120.987 E1.81485
G1 X108.458 Y120.919 E1.8386
G1 X107.876 Y120.821 E1.86215
G1 X107.286 Y120.686 E1.88631
G1 X106.716 Y120.522 E1.90998
G1 X106.156 Y120.328 E1.93364
G1 X105.608 Y120.104 E1.95726
G1 X105.075 Y119.852 E1.98079
G1 X104.54 Y119.562 E2.00508
G1 X104.036 Y119.252 E2.0287
G1 X103.548 Y118.914 E2.05239
G1 X103.019 Y118.498 E2.07925
G1 X102.421 Y117.962 E2.1113
G1 X101.958 Y117.484 E2.13786
G1 X101.57 Y117.037 E2.16149
G1 X101.206 Y116.567 E2.18522
G1 X100.871 Y116.084 E2.20868
G1 X100.56 Y115.576 E2.23245
G1 X100.278 Y115.056 E2.25606
G1 X100.025 Y114.521 E2.27968
G1 X99.801 Y113.974 E2.30327
G1 X99.608 Y113.415 E2.32687
G1 X99.444 Y112.848 E2.35043
G1 X99.311 Y112.267 E2.37422
G1 X99.21 Y111.682 E2.39791
G1 X99.143 Y111.091 E2.42165
G1 X99.106 Y110.466 E2.44664
G1 X99.103 Y109.882 E2.46995
G1 X99.132 Y109.296 E2.49337
G1 X99.193 Y108.713 E2.51676
G1 X99.285 Y108.135 E2.54012
G1 X99.404 Y107.571 E2.56313
G1 X99.558 Y107.001 E2.5867
G1 X99.741 Y106.447 E2.60998
G1 X99.955 Y105.9 E2.63343
G1 X100.194 Y105.37 E2.65663
G1 X100.464 Y104.851 E2.67998
G1 X100.799 Y104.286 E2.7062
G1 X101.158 Y103.756 E2.73175
G1 X101.519 Y103.283 E2.75549
G1 X101.902 Y102.833 E2.77908
G1 X102.463 Y102.255 E2.81123
G1 X103.083 Y101.709 E2.8442
G1 X103.605 Y101.306 E2.87052
G1 X104.129 Y100.945 E2.89592
G1 X104.6 Y100.661 E2.91787
G1 X104.196 Y99.365 E2.97205
G1 X104.136 Y99.037 E2.98536
G1 X104.155 Y98.703 E2.99871
G1 X104.252 Y98.384 E3.01202
G1 X104.423 Y98.096 E3.02539
G0 F9000 X104.679 Y98.429
G1 F1800 X104.858 Y98.211 E3.03665
G1 X105.091 Y98.052 E3.0479
G1 X105.36 Y97.964 E3.0592
G1 X105.642 Y97.955 E3.07046
G1 X106.158 Y98.168 E3.09274
G1 X107.666 Y99.896 E3.18428
G1 X108.396 Y99.752 E3.21398
G1 X108.97 Y99.68 E3.23707
G1 X109.538 Y99.64 E3.25979
G1 X110.105 Y99.629 E3.28243
G1 X110.678 Y99.651 E3.30531
G1 X111.258 Y99.704 E3.32856
G1 X111.821 Y99.787 E3.35127
G1 X112.387 Y99.905 E3.37435
G1 X112.936 Y100.048 E3.39699
G1 X113.475 Y100.22 E3.41957
G1 X114.024 Y100.43 E3.44303
G1 X114.544 Y100.663 E3.46577
G1 X115.052 Y100.923 E3.48855
G1 X115.545 Y101.213 E3.51138
G1 X116.022 Y101.528 E3.53419
G1 X116.569 Y101.94 E3.56153
G1 X117.12 Y102.412 E3.59048
G1 X117.558 Y102.839 E3.6149
G1 X117.945 Y103.263 E3.63781
G1 X118.306 Y103.708 E3.66068
G1 X118.639 Y104.163 E3.68318
G1 X118.951 Y104.643 E3.70603
G1 X119.235 Y105.134 E3.72867
G1 X119.494 Y105.645 E3.75154
G1 X119.723 Y106.164 E3.77418
G1 X119.925 Y106.703 E3.79715
G1 X120.096 Y107.247 E3.81991
G1 X120.238 Y107.797 E3.84258
G1 X120.349 Y108.362 E3.86557
G1 X120.429 Y108.923 E3.88818
G1 X120.479 Y109.493 E3.91102
G1 X120.5 Y110.097 E3.93514
G1 X120.487 Y110.663 E3.95774
G1 X120.443 Y111.228 E3.98036
G1 X120.368 Y111.79 E4.00299
G1 X120.263 Y112.345 E4.02553
G1 X120.129 Y112.895 E4.04812
G1 X119.941 Y113.505 E4.0736
G1 X119.747 Y114.034 E4.09609
G1 X119.52 Y114.557 E4.11884
G1 X119.269 Y115.061 E4.14132
G1 X118.989 Y115.554 E4.16395
G1 X118.685 Y116.03 E4.18649
G1 X118.324 Y116.529 E4.21107
G1 X117.96 Y116.976 E4.23408
G1 X117.574 Y117.401 E4.25699
G1 X117.144 Y117.823 E4.28104
G1 X116.586 Y118.302 E4.31039
G1 X116.042 Y118.715 E4.33765
G1 X115.539 Y119.042 E4.36159
G1 X116.117 Y120.726 E4.43266
G1 X116.17 Y121.003 E4.44391
G1 X116.143 Y121.284 E4.45518
G1 X116.04 Y121.547 E4.46645
G1 X115.867 Y121.769 E4.47769
G1 X115.638 Y121.935 E4.48897
G1 X115.373 Y122.03 E4.50021
G1 X115.091 Y122.048 E4.51149
G1 X114.816 Y121.986 E4.52274
G1 X114.569 Y121.849 E4.53401
G1 X114.399 Y121.687 E4.54338
G1 X113.129 Y120.147 E4.62305
G1 X112.493 Y120.328 E4.64945
G1 X111.922 Y120.45 E4.67275
G1 X111.361 Y120.538 E4.69542
G1 X110.795 Y120.597 E4.71813
G1 X110.213 Y120.627 E4.74139
G1 X109.639 Y120.622 E4.7643
G1 X109.074 Y120.588 E4.78689
G1 X108.506 Y120.522 E4.80971
G1 X107.945 Y120.426 E4.83243
G1 X107.376 Y120.296 E4.85572
G1 X106.828 Y120.138 E4.87849
G1 X106.288 Y119.951 E4.90129
G1 X105.761 Y119.734 E4.92404
G1 X105.247 Y119.491 E4.94673
G1 X104.732 Y119.211 E4.97013
G1 X104.246 Y118.912 E4.9929
G1 X103.777 Y118.586 E5.0157
G1 X103.267 Y118.184 E5.04162
G1 X102.69 Y117.665 E5.07259
G1 X102.246 Y117.207 E5.09805
G1 X101.873 Y116.776 E5.1208
G1 X101.523 Y116.323 E5.14365
G1 X101.2 Y115.857 E5.16628
G1 X100.901 Y115.368 E5.18916
G1 X100.631 Y114.867 E5.21187
G1 X100.388 Y114.352 E5.2346
G1 X100.172 Y113.823 E5.25741
G1 X99.986 Y113.285 E5.28013
G1 X99.829 Y112.738 E5.30284
G1 X99.701 Y112.179 E5.32573
G1 X99.605 Y111.615 E5.34856
G1 X99.54 Y111.046 E5.37142
G1 X99.506 Y110.444 E5.39549
G1 X99.503 Y109.881 E5.41796
G1 X99.531 Y109.317 E5.44049
G1 X99.591 Y108.756 E5.46301
G1 X99.68 Y108.199 E5.48553
G1 X99.795 Y107.654 E5.50776
G1 X99.944 Y107.107 E5.53038
G1 X100.12 Y106.574 E5.55279
G1 X100.327 Y106.047 E5.57539
G1 X100.558 Y105.536 E5.59777
G1 X100.818 Y105.037 E5.62022
G1 X101.143 Y104.491 E5.64559
G1 X101.488 Y103.982 E5.67013
G1 X101.836 Y103.527 E5.69299
G1 X102.206 Y103.093 E5.71575
G1 X102.749 Y102.535 E5.74683
G1 X103.346 Y102.01 E5.77856
G1 X103.848 Y101.623 E5.80386
G1 X104.355 Y101.276 E5.82838
G1 X104.849 Y100.979 E5.85138
G1 X105.08 Y100.857 E5.86181
G1 X104.578 Y99.246 E5.92916
G1 X104.533 Y98.968 E5.9404
G1 X104.568 Y98.688 E5.95166
G1 X104.679 Y98.429 E5.96291
G0 F9000 X105.113 Y98.521
G1 F1800 X105.294 Y98.399 E5.97162
G1 X105.506 Y98.35 E5.9803
G1 X105.722 Y98.38 E5.98901
G1 X105.988 Y98.558 E6.00178
G1 X107.525 Y100.344 E6.09583
G1 X108.47 Y100.145 E6.13437
G1 X109.018 Y100.077 E6.15641
G1 X109.565 Y100.039 E6.1783
G1 X110.112 Y100.029 E6.20013
G1 X110.661 Y100.05 E6.22206
G1 X111.22 Y100.103 E6.24447
G1 X111.762 Y100.183 E6.26634
G1 X112.304 Y100.296 E6.28843
G1 X112.834 Y100.435 E6.3103
G1 X113.353 Y100.601 E6.33205
G1 X113.879 Y100.803 E6.35454
G1 X114.38 Y101.028 E6.37646
G1 X114.868 Y101.279 E6.39836
G1 X115.342 Y101.557 E6.42029
G1 X115.801 Y101.861 E6.44227
G1 X116.327 Y102.259 E6.46859
G1 X116.859 Y102.715 E6.49656
G1 X117.277 Y103.124 E6.5199
G1 X117.649 Y103.532 E6.54194
G1 X117.995 Y103.959 E6.56387
G1 X118.316 Y104.399 E6.58561
G1 X118.616 Y104.86 E6.60756
G1 X118.888 Y105.333 E6.62934
G1 X119.136 Y105.825 E6.65133
G1 X119.356 Y106.325 E6.67313
G1 X119.55 Y106.842 E6.69517
G1 X119.714 Y107.366 E6.71709
G1 X119.85 Y107.896 E6.73893
G1 X119.956 Y108.438 E6.76097
G1 X120.033 Y108.979 E6.78278
G1 X120.081 Y109.527 E6.80473
G1 X120.1 Y110.109 E6.82797
G1 X120.087 Y110.653 E6.84969
G1 X120.044 Y111.196 E6.87143
G1 X119.972 Y111.736 E6.89318
G1 X119.87 Y112.27 E6.91488
G1 X119.74 Y112.799 E6.93662
G1 X119.559 Y113.386 E6.96113
G1 X119.372 Y113.895 E6.98278
G1 X119.154 Y114.396 E7.00458
G1 X118.911 Y114.882 E7.02627
G1 X118.642 Y115.355 E7.04799
G1 X118.348 Y115.813 E7.06971
G1 X118 Y116.294 E7.09341
G1 X117.65 Y116.723 E7.1155
G1 X117.279 Y117.131 E7.13751
G1 X116.864 Y117.537 E7.16069
G1 X116.326 Y117.998 E7.18896
G1 X115.801 Y118.396 E7.21526
G1 X115.243 Y118.757 E7.24178
G1 X115.054 Y118.865 E7.25047
G1 X115.738 Y120.856 E7.33449
G1 X115.771 Y121.072 E7.34322
G1 X115.724 Y121.285 E7.35192
G1 X115.603 Y121.467 E7.36064
G1 X115.426 Y121.594 E7.36934
G1 X115.215 Y121.649 E7.37804
G1 X114.998 Y121.626 E7.38675
G1 X114.708 Y121.433 E7.40065
G1 X113.262 Y119.679 E7.49138
G1 X112.384 Y119.943 E7.52798
G1 X111.841 Y120.058 E7.55013
G1 X111.3 Y120.143 E7.57199
G1 X110.754 Y120.199 E7.59389
G1 X110.193 Y120.227 E7.61631
G1 X109.644 Y120.222 E7.63822
G1 X109.099 Y120.189 E7.66002
G1 X108.553 Y120.125 E7.68196
G1 X108.013 Y120.032 E7.70383
G1 X107.466 Y119.906 E7.72623
G1 X106.939 Y119.754 E7.74812
G1 X106.421 Y119.573 E7.77002
G1 X105.914 Y119.364 E7.79191
G1 X105.418 Y119.13 E7.8138
G1 X104.924 Y118.86 E7.83627
G1 X104.457 Y118.572 E7.85817
G1 X104.006 Y118.258 E7.8801
G1 X103.516 Y117.871 E7.90502
G1 X102.958 Y117.368 E7.935
G1 X102.534 Y116.93 E7.95934
G1 X102.176 Y116.515 E7.98121
G1 X101.84 Y116.079 E8.00318
G1 X101.53 Y115.63 E8.02496
G1 X101.243 Y115.161 E8.0469
G1 X100.983 Y114.678 E8.0688
G1 X100.75 Y114.182 E8.09067
G1 X100.543 Y113.673 E8.1126
G1 X100.364 Y113.156 E8.13443
G1 X100.214 Y112.629 E8.1563
G1 X100.092 Y112.091 E8.17832
G1 X99.999 Y111.549 E8.20027
G1 X99.938 Y111.002 E8.22224
G1 X99.905 Y110.422 E8.24542
G1 X99.903 Y109.88 E8.26706
G1 X99.931 Y109.338 E8.28872
G1 X99.989 Y108.799 E8.31035
G1 X100.075 Y108.264 E8.33198
G1 X100.186 Y107.738 E8.35344
G1 X100.33 Y107.214 E8.37513
G1 X100.5 Y106.7 E8.39673
G1 X100.699 Y106.194 E8.41844
G1 X100.922 Y105.702 E8.44
G1 X101.173 Y105.222 E8.46161
G1 X101.486 Y104.696 E8.48604
G1 X101.819 Y104.207 E8.50966
G1 X102.153 Y103.77 E8.53161
G1 X102.509 Y103.354 E8.55346
G1 X103.035 Y102.814 E8.58355
G1 X103.609 Y102.312 E8.61399
G1 X104.091 Y101.941 E8.63826
G1 X104.58 Y101.606 E8.66192
G1 X105.054 Y101.323 E8.68395
G1 X105.562 Y101.059 E8.7068
G1 X104.96 Y99.127 E8.78757
G1 X104.934 Y98.911 E8.79625
G1 X104.987 Y98.699 E8.80497
G1 X105.113 Y98.521 E8.81368
G0 F9000 X105.42 Y98.784
G1 F1800 X105.54 Y98.749 E8.81867
G1 X105.685 Y98.819 E8.82509
G1 X107.383 Y100.793 E8.92902
G1 X107.921 Y100.657 E8.95117
G1 X108.545 Y100.538 E8.97652
G1 X109.067 Y100.474 E8.99751
G1 X109.592 Y100.438 E9.01851
G1 X110.119 Y100.429 E9.03955
G1 X110.645 Y100.45 E9.06056
G1 X111.182 Y100.501 E9.08209
G1 X111.703 Y100.578 E9.10311
G1 X112.221 Y100.687 E9.12424
G1 X112.732 Y100.822 E9.14533
G1 X113.23 Y100.982 E9.16621
G1 X113.735 Y101.176 E9.1878
G1 X114.216 Y101.393 E9.20886
G1 X114.685 Y101.634 E9.22991
G1 X115.139 Y101.902 E9.25095
G1 X115.58 Y102.194 E9.27206
G1 X116.086 Y102.578 E9.29741
G1 X116.598 Y103.018 E9.32436
G1 X116.996 Y103.409 E9.34662
G1 X117.353 Y103.801 E9.36779
G1 X117.684 Y104.21 E9.38879
G1 X117.993 Y104.634 E9.40973
G1 X118.28 Y105.077 E9.43079
G1 X118.541 Y105.532 E9.45173
G1 X118.779 Y106.004 E9.47283
G1 X118.99 Y106.486 E9.49383
G1 X119.175 Y106.981 E9.51492
G1 X119.332 Y107.485 E9.53599
G1 X119.463 Y107.995 E9.557
G1 X119.563 Y108.514 E9.5781
G1 X119.637 Y109.035 E9.5991
G1 X119.682 Y109.561 E9.62017
G1 X119.7 Y110.122 E9.64257
G1 X119.687 Y110.643 E9.66338
G1 X119.645 Y111.164 E9.68424
G1 X119.575 Y111.682 E9.7051
G1 X119.477 Y112.195 E9.72594
G1 X119.352 Y112.703 E9.74682
G1 X119.177 Y113.267 E9.77039
G1 X118.997 Y113.756 E9.79119
G1 X118.787 Y114.236 E9.8121
G1 X118.554 Y114.703 E9.83293
G1 X118.295 Y115.157 E9.85379
G1 X118.012 Y115.596 E9.87464
G1 X117.677 Y116.059 E9.89745
G1 X117.341 Y116.47 E9.91864
G1 X116.984 Y116.861 E9.93977
G1 X116.585 Y117.251 E9.96204
G1 X116.067 Y117.693 E9.98922
G1 X115.56 Y118.077 E10.0146
G1 X115.026 Y118.421 E10.03995
G1 X114.568 Y118.679 E10.06093
G1 X115.36 Y120.986 E10.15829
G1 X115.362 Y121.111 E10.16328
G1 X115.289 Y121.212 E10.16825
G1 X115.17 Y121.251 E10.17325
G1 X115.017 Y121.178 E10.18001
G1 X113.395 Y119.211 E10.28177
G1 X112.883 Y119.386 E10.30337
G1 X112.275 Y119.558 E10.32858
G1 X111.759 Y119.667 E10.34963
G1 X111.239 Y119.748 E10.37064
G1 X110.714 Y119.801 E10.3917
G1 X110.174 Y119.828 E10.41328
G1 X109.649 Y119.822 E10.43423
G1 X109.124 Y119.79 E10.45523
G1 X108.6 Y119.728 E10.47629
G1 X108.081 Y119.638 E10.49731
G1 X107.557 Y119.517 E10.51877
G1 X107.051 Y119.37 E10.5398
G1 X106.553 Y119.196 E10.56086
G1 X106.067 Y118.995 E10.58185
G1 X105.59 Y118.769 E10.60292
G1 X105.116 Y118.509 E10.62449
G1 X104.668 Y118.232 E10.64552
G1 X104.235 Y117.93 E10.66659
G1 X103.765 Y117.558 E10.69051
G1 X103.226 Y117.071 E10.7195
G1 X102.823 Y116.653 E10.74268
G1 X102.479 Y116.254 E10.7637
G1 X102.157 Y115.836 E10.78476
G1 X101.859 Y115.403 E10.80574
G1 X101.585 Y114.953 E10.82677
G1 X101.336 Y114.489 E10.84779
G1 X101.112 Y114.012 E10.86882
G1 X100.914 Y113.523 E10.88988
G1 X100.743 Y113.026 E10.91085
G1 X100.599 Y112.52 E10.93185
G1 X100.482 Y112.003 E10.95301
G1 X100.394 Y111.482 E10.9741
G1 X100.335 Y110.958 E10.99514
G1 X100.304 Y110.4 E11.01745
G1 X100.303 Y109.879 E11.03824
G1 X100.33 Y109.359 E11.05903
G1 X100.386 Y108.842 E11.07978
G1 X100.47 Y108.328 E11.10057
G1 X100.577 Y107.821 E11.12125
G1 X100.715 Y107.32 E11.14199
G1 X100.879 Y106.827 E11.16273
G1 X101.071 Y106.341 E11.18358
G1 X101.286 Y105.868 E11.20432
G1 X101.527 Y105.408 E11.22505
G1 X101.829 Y104.901 E11.2486
G1 X102.149 Y104.433 E11.27123
G1 X102.47 Y104.014 E11.29229
G1 X102.813 Y103.614 E11.31333
G1 X103.321 Y103.094 E11.34234
G1 X103.872 Y102.613 E11.37153
G1 X104.334 Y102.258 E11.39479
G1 X104.805 Y101.937 E11.41754
G1 X105.259 Y101.666 E11.43864
G1 X105.788 Y101.392 E11.46242
G1 X106.048 Y101.274 E11.47381
G1 X105.342 Y99.008 E11.56854
G1 X105.344 Y98.884 E11.57349
G1 X105.42 Y98.784 E11.5785
G1 F1800 E8.5785
;MESH:Object 1
G0 F9000 X106.259 Y100.259
G0 X110.812 Y106.92
G0 X110.722 Y108.203
G0 X114.069 Y113.112
G0 X111.961 Y112.697
G0 X113.756 Y117.932
G0 X116.889 Y116.075
G0 X117.038 Y116.208
;TYPE:WALL-OUTER
G1 F1800 E11.5785
G1 X116.69 Y116.589 E11.5991
G1 X116.309 Y116.961 E11.62035
