;FLAVOR:Marlin
;TIME:2001
;Filament used: 0.66768m
;Layer height: 0.16
;MINX:97.152
;MINY:99.361
;MINZ:0.24
;MAXX:122.025
;MAXY:120.64
;MAXZ:24.32
;Generated with Cura_SteamEngine 4.5.0
M140 S50
M105
M190 S50
M104 S215
M105
M109 S215
M82 ;absolute extrusion mode
M201 X500.00 Y500.00 Z100.00 E5000.00 ;Setup machine max acceleration
M203 X500.00 Y500.00 Z10.00 E50.00 ;Setup machine max feedrate
M204 P500.00 R1000.00 T500.00 ;Setup Print/Retract/Travel acceleration
M205 X8.00 Y8.00 Z0.40 E5.00 ;Setup Jerk
M220 S100 ;Reset Feedrate
M221 S100 ;Reset Flowrate

G28 ;Home

G92 E0 ;Reset Extruder
G1 Z2.0 F3000 ;Move Z Axis up
G1 X10.1 Y20 Z0.28 F5000.0 ;Move to start position
G1 X10.1 Y200.0 Z0.28 F1500.0 E15 ;Draw the first line
G1 X10.4 Y200.0 Z0.28 F5000.0 ;Move to side a little
G1 X10.4 Y20 Z0.28 F1500.0 E30 ;Draw the second line
G92 E0 ;Reset Extruder
G1 Z2.0 F3000 ;Move Z Axis up

G92 E0
G92 E0
G1 F1800 E-3
;LAYER_COUNT:150
;LAYER:0
M106 S63.8
M204 S500
M205 X6 Y6
G0 F9000 X105.114 Y99.929 Z0.24
;TYPE:SKIRT
G1 F1800 E0
G1 X105.401 Y99.681 E0.01514
G1 X105.733 Y99.499 E0.03025
G1 X106.096 Y99.391 E0.04537
G1 X106.474 Y99.361 E0.0605
G1 X107.206 Y99.538 E0.09056
G1 X107.529 Y99.737 E0.1057
G1 X107.791 Y99.986 E0.12013
G1 X108.511 Y100.823 E0.16419
G1 X109.28 Y100.733 E0.19509
G1 X110.038 Y100.704 E0.22537
G1 X110.817 Y100.74 E0.25649
G1 X111.577 Y100.836 E0.28707
G1 X112.343 Y101.001 E0.31834
G1 X113.063 Y101.217 E0.34834
G1 X113.781 Y101.498 E0.37912
G1 X114.477 Y101.838 E0.41003
G1 X115.139 Y102.233 E0.4408
G1 X115.719 Y102.649 E0.46929
G1 X116.185 Y103.027 E0.49324
G1 X116.732 Y103.544 E0.52328
G1 X117.216 Y104.082 E0.55216
G1 X117.701 Y104.716 E0.58402
G1 X118.096 Y105.332 E0.61323
G1 X118.471 Y106.032 E0.64492
G1 X118.763 Y106.707 E0.67428
G1 X119.019 Y107.463 E0.70613
G1 X119.215 Y108.249 E0.73846
G1 X119.33 Y108.977 E0.76788
G1 X119.39 Y109.75 E0.79883
G1 X119.39 Y110.522 E0.82964
G1 X119.318 Y111.327 E0.8619
G1 X119.2 Y112.031 E0.89039
G1 X119.004 Y112.799 E0.92202
G1 X118.745 Y113.548 E0.95365
G1 X118.453 Y114.212 E0.9826
G1 X118.078 Y114.906 E1.01409
G1 X117.652 Y115.562 E1.04531
G1 X117.159 Y116.192 E1.07723
G1 X116.621 Y116.772 E1.10881
G1 X116.111 Y117.243 E1.13652
G1 X115.623 Y117.627 E1.1613
G1 X115.839 Y118.255 E1.18781
G1 X115.924 Y118.624 E1.20292
G1 X115.93 Y119.003 E1.21805
G1 X115.856 Y119.375 E1.23319
G1 X115.706 Y119.723 E1.24831
G1 X115.486 Y120.032 E1.26345
G1 X115.207 Y120.288 E1.27856
G1 X114.88 Y120.48 E1.2937
G1 X114.52 Y120.599 E1.30883
G1 X114.143 Y120.64 E1.32397
G1 X113.766 Y120.601 E1.33909
G1 X113.406 Y120.485 E1.35419
G1 X113.078 Y120.295 E1.36932
G1 X112.748 Y119.985 E1.38739
G1 X112.145 Y119.254 E1.42521
G1 X111.512 Y119.38 E1.45097
G1 X110.755 Y119.47 E1.4814
G1 X109.996 Y119.502 E1.51172
G1 X109.221 Y119.47 E1.54268
G1 X108.456 Y119.374 E1.57345
G1 X107.696 Y119.214 E1.60445
G1 X106.974 Y119.002 E1.63448
G1 X106.25 Y118.721 E1.66548
G1 X105.558 Y118.386 E1.69616
G1 X104.894 Y117.994 E1.72694
G1 X104.306 Y117.574 E1.75578
G1 X103.84 Y117.202 E1.77958
G1 X103.331 Y116.726 E1.80739
G1 X102.81 Y116.155 E1.83824
G1 X102.314 Y115.511 E1.87068
G1 X101.921 Y114.904 E1.89955
G1 X101.543 Y114.202 E1.93137
G1 X101.249 Y113.532 E1.96057
G1 X100.989 Y112.77 E1.9927
G1 X100.792 Y111.99 E2.02481
G1 X100.674 Y111.263 E2.05421
G1 X100.61 Y110.494 E2.08501
G1 X100.609 Y109.717 E2.11602
G1 X100.666 Y108.999 E2.14477
G1 X100.79 Y108.225 E2.17605
G1 X100.982 Y107.453 E2.2078
G1 X101.24 Y106.697 E2.23969
G1 X101.524 Y106.043 E2.26814
G1 X101.891 Y105.351 E2.29941
G1 X102.317 Y104.69 E2.33079
G1 X102.802 Y104.06 E2.36253
G1 X103.287 Y103.526 E2.39132
G1 X103.836 Y103.01 E2.42139
G1 X104.446 Y102.524 E2.45252
G1 X104.875 Y102.233 E2.47321
G1 X104.708 Y101.694 E2.49573
G1 X104.634 Y101.323 E2.51083
G1 X104.64 Y100.944 E2.52596
G1 X104.725 Y100.574 E2.54111
G1 X104.885 Y100.231 E2.55621
G1 X105.114 Y99.929 E2.57134
G0 F9000 X105.317 Y100.307
G1 F1800 X105.551 Y100.068 E2.58469
G1 X105.834 Y99.892 E2.59799
G1 X106.152 Y99.787 E2.61136
G1 X106.485 Y99.761 E2.62469
G1 X107.122 Y99.945 E2.65115
G1 X107.488 Y100.247 E2.67009
G1 X108.36 Y101.259 E2.72341
G1 X109.323 Y101.131 E2.76218
G1 X110.051 Y101.104 E2.79126
G1 X110.795 Y101.139 E2.82099
G1 X111.524 Y101.232 E2.85032
G1 X112.255 Y101.391 E2.88018
G1 X112.945 Y101.599 E2.90894
G1 X113.633 Y101.869 E2.93844
G1 X114.298 Y102.196 E2.96801
G1 X114.932 Y102.575 E2.99749
G1 X115.482 Y102.972 E3.02457
G1 X115.932 Y103.336 E3.04767
G1 X116.455 Y103.833 E3.07646
G1 X116.917 Y104.347 E3.10405
G1 X117.382 Y104.957 E3.13466
G1 X117.757 Y105.545 E3.1625
G1 X118.117 Y106.219 E3.19299
G1 X118.394 Y106.862 E3.22094
G1 X118.64 Y107.589 E3.25157
G1 X118.826 Y108.342 E3.28253
G1 X118.935 Y109.036 E3.31057
G1 X118.991 Y109.778 E3.34026
G1 X118.99 Y110.519 E3.36984
G1 X118.92 Y111.288 E3.40066
G1 X118.806 Y111.962 E3.42794
G1 X118.617 Y112.697 E3.45823
G1 X118.368 Y113.415 E3.48856
G1 X118.089 Y114.048 E3.51617
G1 X117.727 Y114.713 E3.54639
G1 X117.318 Y115.341 E3.5763
G1 X116.846 Y115.943 E3.60684
G1 X116.33 Y116.498 E3.63708
G1 X115.842 Y116.947 E3.66355
G1 X115.207 Y117.443 E3.69571
G1 X115.151 Y117.483 E3.69845
G1 X115.461 Y118.385 E3.73652
G1 X115.531 Y118.712 E3.74987
G1 X115.522 Y119.046 E3.76321
G1 X115.434 Y119.368 E3.77653
G1 X115.272 Y119.66 E3.78986
G1 X115.045 Y119.905 E3.80319
G1 X114.767 Y120.09 E3.81651
G1 X114.453 Y120.204 E3.82985
G1 X114.121 Y120.24 E3.84318
G1 X113.789 Y120.196 E3.85654
G1 X113.478 Y120.075 E3.86986
G1 X113.204 Y119.884 E3.88319
G1 X112.291 Y118.802 E3.9397
G1 X111.434 Y118.987 E3.97469
G1 X110.711 Y119.073 E4.00375
G1 X109.982 Y119.102 E4.03287
G1 X109.241 Y119.07 E4.06247
G1 X108.509 Y118.978 E4.09192
G1 X107.781 Y118.824 E4.12162
G1 X107.09 Y118.619 E4.15038
G1 X106.398 Y118.349 E4.18003
G1 X105.735 Y118.027 E4.20945
G1 X105.1 Y117.651 E4.2389
G1 X104.541 Y117.251 E4.26634
G1 X104.092 Y116.89 E4.28933
G1 X103.607 Y116.436 E4.31585
G1 X103.107 Y115.888 E4.34545
G1 X102.633 Y115.269 E4.37657
G1 X102.259 Y114.689 E4.40411
G1 X101.896 Y114.015 E4.43467
G1 X101.617 Y113.375 E4.46253
G1 X101.369 Y112.644 E4.49334
G1 X101.181 Y111.895 E4.52417
G1 X101.069 Y111.203 E4.55214
G1 X101.009 Y110.464 E4.58174
G1 X101.009 Y109.719 E4.61147
G1 X101.064 Y109.034 E4.6389
G1 X101.184 Y108.291 E4.66894
G1 X101.37 Y107.553 E4.69931
G1 X101.618 Y106.83 E4.72982
G1 X101.89 Y106.204 E4.75706
G1 X102.243 Y105.541 E4.78704
G1 X102.651 Y104.909 E4.81707
G1 X103.117 Y104.307 E4.84745
G1 X103.581 Y103.797 E4.87497
G1 X104.108 Y103.304 E4.90377
G1 X104.693 Y102.838 E4.93362
G1 X105.333 Y102.41 E4.96435
G1 X105.09 Y101.576 E4.99902
G1 X105.03 Y101.247 E5.01237
G1 X105.049 Y100.914 E5.02568
G1 X105.146 Y100.594 E5.03903
G1 X105.317 Y100.307 E5.05236
G0 F9000 X105.753 Y100.421
G1 F1800 X105.986 Y100.263 E5.0636
G1 X106.254 Y100.175 E5.07486
G1 X106.536 Y100.166 E5.08612
G1 X107.052 Y100.38 E5.10841
G1 X108.208 Y101.696 E5.17832
G1 X108.759 Y101.594 E5.20069
G1 X109.365 Y101.529 E5.22502
G1 X110.064 Y101.504 E5.25293
G1 X110.773 Y101.538 E5.28126
G1 X111.471 Y101.629 E5.30936
G1 X112.168 Y101.781 E5.33783
G1 X112.828 Y101.981 E5.36535
G1 X113.484 Y102.241 E5.39352
G1 X114.12 Y102.554 E5.42181
G1 X114.724 Y102.917 E5.44993
G1 X115.246 Y103.294 E5.47563
G1 X115.679 Y103.646 E5.49791
G1 X116.178 Y104.121 E5.5254
G1 X116.617 Y104.612 E5.55169
G1 X117.062 Y105.198 E5.58106
G1 X117.419 Y105.758 E5.60757
G1 X117.763 Y106.405 E5.63681
G1 X118.026 Y107.018 E5.66343
G1 X118.26 Y107.715 E5.69278
G1 X118.437 Y108.436 E5.72241
G1 X118.539 Y109.095 E5.74903
G1 X118.592 Y109.806 E5.77748
G1 X118.59 Y110.516 E5.80582
G1 X118.522 Y111.249 E5.8352
G1 X118.412 Y111.892 E5.86124
G1 X118.23 Y112.595 E5.89022
G1 X117.991 Y113.282 E5.91925
G1 X117.724 Y113.884 E5.94554
G1 X117.377 Y114.52 E5.97445
G1 X116.984 Y115.12 E6.00308
G1 X116.533 Y115.694 E6.03221
G1 X116.039 Y116.224 E6.06113
G1 X115.573 Y116.651 E6.08636
G1 X114.962 Y117.126 E6.11725
G1 X114.671 Y117.316 E6.13112
G1 X115.083 Y118.515 E6.18172
G1 X115.136 Y118.792 E6.19298
G1 X115.109 Y119.073 E6.20424
G1 X115.006 Y119.335 E6.21548
G1 X114.833 Y119.558 E6.22674
G1 X114.604 Y119.724 E6.23803
G1 X114.339 Y119.819 E6.24927
G1 X114.057 Y119.837 E6.26055
G1 X113.782 Y119.775 E6.2718
G1 X113.535 Y119.639 E6.28305
G1 X112.432 Y118.345 E6.35091
G1 X111.357 Y118.595 E6.39496
G1 X110.667 Y118.675 E6.42269
G1 X109.968 Y118.702 E6.45061
G1 X109.261 Y118.671 E6.47885
G1 X108.561 Y118.581 E6.50702
G1 X107.866 Y118.433 E6.53538
G1 X107.206 Y118.236 E6.56287
G1 X106.545 Y117.977 E6.59121
G1 X105.912 Y117.669 E6.6193
G1 X105.306 Y117.308 E6.64746
G1 X104.776 Y116.927 E6.67351
G1 X104.343 Y116.579 E6.69568
G1 X103.882 Y116.146 E6.72092
G1 X103.405 Y115.62 E6.74926
G1 X102.952 Y115.028 E6.77902
G1 X102.596 Y114.475 E6.80527
G1 X102.25 Y113.827 E6.83458
G1 X101.985 Y113.218 E6.86109
G1 X101.748 Y112.518 E6.89059
G1 X101.57 Y111.8 E6.92011
G1 X101.465 Y111.142 E6.94671
G1 X101.408 Y110.434 E6.97506
G1 X101.409 Y109.722 E7.00347
G1 X101.463 Y109.069 E7.02963
G1 X101.579 Y108.357 E7.05842
G1 X101.757 Y107.653 E7.0874
G1 X101.995 Y106.962 E7.11657
G1 X102.256 Y106.366 E7.14254
G1 X102.595 Y105.731 E7.17127
G1 X102.986 Y105.129 E7.19992
G1 X103.432 Y104.553 E7.22899
G1 X103.875 Y104.068 E7.25521
G1 X104.379 Y103.598 E7.28272
G1 X104.94 Y103.153 E7.3113
G1 X105.554 Y102.744 E7.34074
G1 X105.825 Y102.592 E7.35314
G1 X105.472 Y101.457 E7.40058
G1 X105.427 Y101.178 E7.41186
G1 X105.462 Y100.898 E7.42312
G1 X105.573 Y100.639 E7.43437
G1 X105.753 Y100.421 E7.44566
G0 F9000 X106.007 Y100.731
G1 F1800 X106.188 Y100.61 E7.45434
G1 X106.401 Y100.561 E7.46307
G1 X106.617 Y100.591 E7.47177
G1 X106.882 Y100.769 E7.48451
G1 X108.063 Y102.141 E7.55677
G1 X108.753 Y101.999 E7.58488
G1 X109.408 Y101.926 E7.61119
G1 X110.077 Y101.903 E7.6379
G1 X110.752 Y101.938 E7.66488
G1 X111.418 Y102.025 E7.69169
G1 X112.08 Y102.172 E7.71875
G1 X112.71 Y102.364 E7.74504
G1 X113.335 Y102.612 E7.77188
G1 X113.941 Y102.912 E7.79887
G1 X114.517 Y103.259 E7.8257
G1 X115.01 Y103.617 E7.85002
G1 X115.426 Y103.956 E7.87144
G1 X115.901 Y104.409 E7.89764
G1 X116.317 Y104.877 E7.92263
G1 X116.743 Y105.439 E7.95077
G1 X117.08 Y105.971 E7.97591
G1 X117.41 Y106.592 E8.00398
G1 X117.657 Y107.173 E8.02918
G1 X117.88 Y107.841 E8.05728
G1 X118.048 Y108.53 E8.08559
G1 X118.143 Y109.154 E8.11078
G1 X118.193 Y109.835 E8.13803
G1 X118.19 Y110.513 E8.16509
G1 X118.124 Y111.21 E8.19304
G1 X118.018 Y111.822 E8.21783
G1 X117.843 Y112.493 E8.2455
G1 X117.614 Y113.149 E8.27324
G1 X117.359 Y113.719 E8.29816
G1 X117.027 Y114.327 E8.32581
G1 X116.651 Y114.9 E8.35316
G1 X116.22 Y115.445 E8.38089
G1 X115.748 Y115.949 E8.40845
G1 X115.304 Y116.354 E8.43244
G1 X114.718 Y116.81 E8.46207
G1 X114.234 Y117.12 E8.48501
G1 X114.189 Y117.147 E8.48711
G1 X114.704 Y118.645 E8.55033
G1 X114.737 Y118.861 E8.55905
G1 X114.69 Y119.074 E8.56776
G1 X114.569 Y119.256 E8.57648
G1 X114.392 Y119.383 E8.58518
G1 X114.181 Y119.438 E8.59388
G1 X113.964 Y119.415 E8.60259
G1 X113.674 Y119.222 E8.61649
G1 X112.57 Y117.883 E8.68576
G1 X111.941 Y118.07 E8.71195
G1 X111.279 Y118.203 E8.7389
G1 X110.623 Y118.277 E8.76525
G1 X109.954 Y118.303 E8.79197
G1 X109.281 Y118.271 E8.81886
G1 X108.614 Y118.185 E8.8457
G1 X107.952 Y118.042 E8.87273
G1 X107.322 Y117.853 E8.89898
G1 X106.693 Y117.606 E8.92595
G1 X106.089 Y117.31 E8.9528
G1 X105.512 Y116.965 E8.97963
G1 X105.012 Y116.604 E9.00425
G1 X104.594 Y116.268 E9.02565
G1 X104.158 Y115.856 E9.04959
G1 X103.702 Y115.352 E9.07672
G1 X103.271 Y114.786 E9.10512
G1 X102.934 Y114.26 E9.13005
G1 X102.603 Y113.64 E9.1581
G1 X102.352 Y113.06 E9.18332
G1 X102.128 Y112.391 E9.21148
G1 X101.958 Y111.705 E9.23969
G1 X101.86 Y111.081 E9.2649
G1 X101.807 Y110.403 E9.29204
G1 X101.809 Y109.724 E9.31914
G1 X101.861 Y109.104 E9.34398
G1 X101.973 Y108.423 E9.37152
G1 X102.144 Y107.753 E9.39912
G1 X102.373 Y107.094 E9.42696
G1 X102.621 Y106.528 E9.45163
G1 X102.947 Y105.921 E9.47913
G1 X103.32 Y105.348 E9.50642
G1 X103.747 Y104.8 E9.53414
G1 X104.169 Y104.339 E9.55909
G1 X104.651 Y103.891 E9.58535
G1 X105.187 Y103.467 E9.61263
G1 X105.774 Y103.078 E9.64074
G1 X106.28 Y102.801 E9.66376
G1 X106.305 Y102.788 E9.66488
G1 X105.854 Y101.338 E9.72549
G1 X105.828 Y101.121 E9.73421
G1 X105.882 Y100.91 E9.74291
G1 X106.007 Y100.731 E9.75162
G0 F9000 X106.314 Y100.995
G1 F1800 X106.434 Y100.96 E9.75661
G1 X106.579 Y101.03 E9.76304
G1 X107.921 Y102.589 E9.84514
G1 X108.828 Y102.392 E9.88218
G1 X109.451 Y102.324 E9.90719
G1 X110.09 Y102.303 E9.93271
G1 X110.73 Y102.337 E9.95829
G1 X111.365 Y102.422 E9.98386
G1 X111.993 Y102.562 E10.00954
G1 X112.592 Y102.746 E10.03455
G1 X113.186 Y102.983 E10.06008
G1 X113.762 Y103.27 E10.08576
G1 X114.31 Y103.601 E10.11131
G1 X114.773 Y103.94 E10.13422
G1 X115.173 Y104.266 E10.15481
G1 X115.624 Y104.698 E10.17974
G1 X116.018 Y105.142 E10.20343
G1 X116.424 Y105.68 E10.23033
G1 X116.741 Y106.184 E10.2541
G1 X117.056 Y106.779 E10.28097
G1 X117.288 Y107.328 E10.30475
G1 X117.501 Y107.967 E10.33164
G1 X117.659 Y108.623 E10.35857
G1 X117.748 Y109.213 E10.38238
G1 X117.794 Y109.863 E10.40839
G1 X117.79 Y110.51 E10.43421
G1 X117.726 Y111.171 E10.46072
G1 X117.624 Y111.753 E10.4843
G1 X117.456 Y112.391 E10.51063
G1 X117.237 Y113.016 E10.53707
G1 X116.994 Y113.555 E10.56067
G1 X116.676 Y114.134 E10.58703
G1 X116.317 Y114.679 E10.61308
G1 X115.907 Y115.196 E10.63941
G1 X115.457 Y115.675 E10.66564
G1 X115.035 Y116.058 E10.68839
G1 X114.473 Y116.493 E10.71675
G1 X114.019 Y116.783 E10.73826
G1 X113.703 Y116.962 E10.75275
G1 X114.326 Y118.775 E10.82926
G1 X114.328 Y118.9 E10.83425
G1 X114.255 Y119.001 E10.83923
G1 X114.136 Y119.04 E10.84423
G1 X113.983 Y118.967 E10.85099
G1 X112.703 Y117.415 E10.93129
G1 X111.831 Y117.685 E10.96772
G1 X111.202 Y117.81 E10.99331
G1 X110.579 Y117.88 E11.01834
G1 X109.94 Y117.903 E11.04386
G1 X109.301 Y117.872 E11.06939
G1 X108.667 Y117.788 E11.09492
G1 X108.037 Y117.651 E11.12065
G1 X107.438 Y117.47 E11.14562
G1 X106.84 Y117.234 E11.17128
G1 X106.266 Y116.951 E11.19683
G1 X105.718 Y116.622 E11.22234
G1 X105.247 Y116.281 E11.24554
G1 X104.845 Y115.957 E11.26615
G1 X104.433 Y115.566 E11.28882
G1 X103.999 Y115.085 E11.31468
G1 X103.59 Y114.545 E11.34172
G1 X103.271 Y114.045 E11.36539
G1 X102.956 Y113.453 E11.39215
G1 X102.72 Y112.903 E11.41604
G1 X102.507 Y112.265 E11.44288
G1 X102.347 Y111.61 E11.4698
G1 X102.255 Y111.02 E11.49363
G1 X102.206 Y110.373 E11.51953
G1 X102.209 Y109.727 E11.54531
G1 X102.26 Y109.139 E11.56887
G1 X102.368 Y108.489 E11.59516
G1 X102.531 Y107.853 E11.62137
G1 X102.75 Y107.227 E11.64784
G1 X102.987 Y106.69 E11.67127
G1 X103.299 Y106.111 E11.69752
G1 X103.655 Y105.567 E11.72346
G1 X104.062 Y105.047 E11.74982
G1 X104.463 Y104.61 E11.77349
G1 X104.922 Y104.185 E11.79846
G1 X105.434 Y103.782 E11.82447
G1 X105.994 Y103.412 E11.85125
G1 X106.471 Y103.152 E11.87294
G1 X106.79 Y103 E11.88704
G1 X106.236 Y101.219 E11.96148
G1 X106.238 Y101.094 E11.96647
G1 X106.314 Y100.995 E11.97145
G1 F1800 E8.97145
;MESH:Object 1
G0 F9000 X105.736 Y101.175
G0 X105.199 Y103.38
G0 X105.742 Y104.2
G0 X103.313 Y107.434
G0 X103.126 Y107.366
;TYPE:WALL-OUTER
G1 F1800 E11.97145
G1 X103.351 Y106.858 E11.99363
G1 X103.647 Y106.307 E12.01859
G1 X103.98 Y105.8 E12.0428
G1 X104.372 Y105.299 E12.06819
G1 X104.752 Y104.887 E12.09056
G1 X105.193 Y104.479 E12.11454
G1 X105.669 Y104.105 E12.1387
G1 X106.207 Y103.75 E12.16443
G1 X106.651 Y103.509 E12.18459
G1 X107.274 Y103.212 E12.21214
G1 X106.904 Y102.02 E12.26195
G1 X107.779 Y103.037 E12.3155
G1 X108.4 Y102.882 E12.34104
G1 X108.89 Y102.787 E12.36097
G1 X109.485 Y102.723 E12.38485
G1 X110.091 Y102.703 E12.40905
G1 X110.707 Y102.737 E12.43367
G1 X111.302 Y102.817 E12.45764
G1 X111.897 Y102.949 E12.48196
G1 X112.463 Y103.125 E12.50562
G1 X113.029 Y103.351 E12.52994
G1 X113.577 Y103.626 E12.55441
G1 X114.103 Y103.944 E12.57895
G1 X114.53 Y104.257 E12.60008
G1 X114.909 Y104.566 E12.61959
G1 X115.336 Y104.976 E12.64322
G1 X115.713 Y105.402 E12.66593
G1 X116.105 Y105.921 E12.69188
G1 X116.396 Y106.384 E12.71371
