;FLAVOR:Marlin
;TIME:7611
;Filament used: 10.5444m
;Layer height: 0.2
;MINX:38.923
;MINY:73.581
;MINZ:0.2
;MAXX:182.078
;MAXY:147.711
;MAXZ:14.96
;Generated with Cura_SteamEngine 4.10.0
M82 ;absolute extrusion mode
M201 X500.00 Y500.00 Z100.00 E5000.00 ;Setup machine max acceleration
M203 X500.00 Y500.00 Z10.00 E50.00 ;Setup machine max feedrate
M204 P500.00 R1000.00 T500.00 ;Setup Print/Retract/Travel acceleration
M205 X8.00 Y8.00 Z0.40 E5.00 ;Setup Jerk
M220 S100 ;Reset Feedrate
M221 S100 ;Reset Flowrate

;*** Start Dual Nozzle/Bed Preheating ***
M140 S50 ; start preheating the bed
M104 S195 ?T0 ; start preheating hotend
M190 S50 ; heat to Cura Bed setting and WAIT
M109 S195 ?T0 ; heat to Cura Hotend and WAIT
;*** End Preheating ***

;*** Single Print Start Tone
M300 S1000 P500 ; chirp to indicate starting to print
;*** End Single Start Tone

G28 ;Home

G92 E0 ;Reset Extruder
G1 Z2.0 F3000 ;Move Z Axis up

G1 X10.1 Y20 Z0.28 F5000.0 ;Move to start position
G1 X10.1 Y200.0 Z0.28 F1500.0 E15 ;Draw the first line
G1 X10.4 Y200.0 Z0.28 F5000.0 ;Move to side a little
G1 X10.4 Y20 Z0.28 F1500.0 E30 ;Draw the second line
G92 E0 ;Reset Extruder
G1 Z2.0 F3000 ;Move Z Axis up
G92 E0
G92 E0
G1 F2400 E-3.2
;LAYER_COUNT:70
;LAYER:0
M106 S63.8
M204 S500
M205 X6 Y6
G0 F9000 X46.547 Y76.322 Z0.2
;TYPE:SKIRT
G1 F1440 E0
G1 F1800 X46.752 Y76.206 E0.00783
G1 X47.429 Y75.855 E0.0332
G1 X47.964 Y75.603 E0.05287
G1 X48.39 Y75.414 E0.06837
G1 X49.345 Y75.067 E0.10216
G1 X49.913 Y74.892 E0.12193
G1 X50.756 Y74.671 E0.15092
G1 X51.056 Y74.606 E0.16113
G1 X51.752 Y74.481 E0.18465
G1 X51.952 Y74.452 E0.19137
G1 X52.522 Y74.385 E0.21046
G1 X53.056 Y74.338 E0.22829
G1 X53.653 Y74.303 E0.24818
G1 X54.19 Y74.297 E0.26604
G1 X54.85 Y74.315 E0.288
G1 X55.01 Y74.324 E0.29333
G1 X55.65 Y74.38 E0.3147
G1 X56.201 Y74.446 E0.33315
G1 X56.771 Y74.531 E0.35232
G1 X57.344 Y74.644 E0.37175
G1 X58.727 Y74.958 E0.41892
G1 X59.246 Y75.084 E0.43668
G1 X61.763 Y75.617 E0.52225
G1 X64.249 Y76.068 E0.60629
G1 X66.74 Y76.448 E0.69009
G1 X69.262 Y76.762 E0.77462
G1 X71.811 Y77.006 E0.85979
G1 X74.339 Y77.175 E0.94406
G1 X76.871 Y77.273 E1.02834
G1 X79.112 Y77.3 E1.10288
G1 X137.764 Y77.3 E3.05365
G1 X140.369 Y77.263 E3.14031
G1 X142.935 Y77.154 E3.22573
G1 X145.442 Y76.976 E3.30932
G1 X147.983 Y76.725 E3.39425
G1 X150.491 Y76.404 E3.47834
G1 X152.996 Y76.01 E3.56268
G1 X155.483 Y75.548 E3.64682
G1 X157.97 Y75.013 E3.73143
G1 X161.627 Y74.096 E3.85683
G1 X162.303 Y73.937 E3.87992
G1 X163.023 Y73.795 E3.90433
G1 X163.497 Y73.719 E3.9203
G1 X164.394 Y73.615 E3.95033
G1 X164.901 Y73.592 E3.96721
G1 X165.433 Y73.581 E3.98491
G1 X166.164 Y73.592 E4.00923
G1 X166.693 Y73.619 E4.02684
G1 X167.592 Y73.705 E4.05688
G1 X168.069 Y73.784 E4.07296
G1 X168.714 Y73.906 E4.0948
G1 X169.464 Y74.077 E4.12038
G1 X169.531 Y74.095 E4.12269
G1 X170.176 Y74.292 E4.14512
G1 X170.748 Y74.487 E4.16522
G1 X171.451 Y74.755 E4.19024
G1 X171.498 Y74.775 E4.19194
G1 X172.094 Y75.052 E4.2138
G1 X172.6 Y75.307 E4.23265
G1 X173.254 Y75.667 E4.25748
G1 X173.626 Y75.89 E4.2719
G1 X174.091 Y76.186 E4.29024
G1 X174.168 Y76.238 E4.29333
G1 X174.618 Y76.561 E4.31175
G1 X174.849 Y76.736 E4.32139
G1 X175.631 Y77.392 E4.35534
G1 X176.079 Y77.808 E4.37567
G1 X176.554 Y78.279 E4.39792
G1 X177.136 Y78.913 E4.42655
G1 X177.208 Y78.997 E4.43022
G1 X177.644 Y79.542 E4.45344
G1 X177.822 Y79.781 E4.46335
G1 X178.384 Y80.618 E4.49688
G1 X178.687 Y81.122 E4.51644
G1 X179.01 Y81.702 E4.53852
G1 X179.206 Y82.082 E4.55274
G1 X179.531 Y82.774 E4.57817
G1 X179.559 Y82.84 E4.58056
G1 X179.798 Y83.458 E4.60259
G1 X180.006 Y84.053 E4.62356
G1 X180.278 Y84.966 E4.65524
G1 X180.411 Y85.55 E4.67516
G1 X180.516 Y86.08 E4.69314
G1 X180.611 Y86.648 E4.71229
G1 X180.625 Y86.748 E4.71565
G1 X180.708 Y87.593 E4.74389
G1 X180.742 Y88.202 E4.76417
G1 X180.758 Y88.771 E4.78311
G1 X180.758 Y88.872 E4.78647
G1 X180.722 Y89.724 E4.81483
G1 X180.67 Y90.344 E4.83552
G1 X180.597 Y90.976 E4.85668
G1 X180.533 Y91.398 E4.87088
G1 X180.434 Y91.983 E4.89061
G1 X180.425 Y92.064 E4.89332
G1 X180.244 Y93.085 E4.92781
G1 X179.869 Y95.614 E5.01285
G1 X179.566 Y98.148 E5.09773
G1 X179.337 Y100.659 E5.18159
G1 X179.178 Y103.202 E5.26634
G1 X179.092 Y105.726 E5.35033
G1 X179.077 Y108.296 E5.43581
G1 X179.133 Y110.8 E5.51912
G1 X179.263 Y113.351 E5.60407
G1 X179.463 Y115.876 E5.68832
G1 X179.737 Y118.422 E5.77349
G1 X180.077 Y120.911 E5.85704
G1 X180.497 Y123.452 E5.9427
G1 X180.974 Y125.907 E6.02588
G1 X181.419 Y127.872 E6.09289
G1 X181.463 Y128.114 E6.10108
G1 X181.662 Y128.972 E6.13037
G1 X181.734 Y129.305 E6.1417
G1 X181.843 Y129.857 E6.16042
G1 X181.973 Y130.7 E6.18879
G1 X181.991 Y130.861 E6.19417
G1 X182.038 Y131.424 E6.21296
G1 X182.067 Y131.942 E6.23022
G1 X182.078 Y132.824 E6.25956
G1 X182.071 Y133.053 E6.26718
G1 X182.04 Y133.601 E6.28543
G1 X182 Y134.074 E6.30122
G1 X181.895 Y134.903 E6.32902
G1 X181.872 Y135.04 E6.33364
G1 X181.76 Y135.608 E6.35289
G1 X181.635 Y136.159 E6.37168
G1 X181.474 Y136.78 E6.39302
G1 X181.454 Y136.848 E6.39538
G1 X181.196 Y137.611 E6.42217
G1 X181.008 Y138.103 E6.43968
G1 X180.744 Y138.731 E6.46234
G1 X180.538 Y139.178 E6.47871
G1 X180.136 Y139.959 E6.50793
G1 X180.083 Y140.052 E6.51149
G1 X179.816 Y140.494 E6.52866
G1 X179.524 Y140.951 E6.5467
G1 X179.136 Y141.516 E6.5695
G1 X178.815 Y141.937 E6.58711
G1 X178.478 Y142.348 E6.60478
G1 X178.39 Y142.451 E6.60929
G1 X177.859 Y143.026 E6.63532
G1 X177.553 Y143.333 E6.64974
G1 X177.069 Y143.788 E6.67183
G1 X176.668 Y144.141 E6.6896
G1 X175.964 Y144.707 E6.71965
G1 X175.502 Y145.028 E6.73836
G1 X175.01 Y145.349 E6.7579
G1 X174.431 Y145.699 E6.7804
G1 X174.212 Y145.822 E6.78875
G1 X173.547 Y146.164 E6.81362
G1 X172.984 Y146.428 E6.83431
G1 X172.151 Y146.775 E6.86432
G1 X171.652 Y146.942 E6.88182
G1 X171.083 Y147.117 E6.90162
G1 X170.245 Y147.337 E6.93044
G1 X169.945 Y147.402 E6.94065
G1 X169.249 Y147.527 E6.96417
G1 X169.049 Y147.556 E6.97089
G1 X168.479 Y147.623 E6.98998
G1 X167.945 Y147.67 E7.00781
G1 X167.348 Y147.705 E7.0277
G1 X166.811 Y147.711 E7.04556
G1 X166.151 Y147.693 E7.06752
G1 X165.991 Y147.684 E7.07285
G1 X165.351 Y147.628 E7.09422
G1 X164.8 Y147.562 E7.11267
G1 X164.23 Y147.477 E7.13184
G1 X163.635 Y147.359 E7.15202
G1 X163.052 Y147.219 E7.17196
G1 X162.605 Y147.094 E7.1874
G1 X161.111 Y146.638 E7.23935
G1 X158.833 Y145.972 E7.31829
G1 X156.348 Y145.321 E7.40373
G1 X153.874 Y144.746 E7.48821
G1 X151.371 Y144.239 E7.57315
G1 X148.891 Y143.811 E7.65685
G1 X146.394 Y143.45 E7.74077
G1 X143.861 Y143.158 E7.82557
G1 X141.325 Y142.938 E7.91024
G1 X138.762 Y142.788 E7.99563
G1 X136.25 Y142.712 E8.07922
G1 X134.732 Y142.7 E8.12971
G1 X80.752 Y142.7 E9.92509
G1 X78.147 Y142.737 E10.01174
G1 X75.581 Y142.846 E10.09716
G1 X73.074 Y143.024 E10.18076
G1 X70.533 Y143.275 E10.26568
G1 X68.025 Y143.596 E10.34978
G1 X65.52 Y143.99 E10.43412
G1 X63.033 Y144.452 E10.51825
G1 X60.534 Y144.99 E10.60327
G1 X59.99 Y145.125 E10.62192
G1 X57.569 Y145.691 E10.70461
G1 X56.769 Y145.845 E10.73171
G1 X56.716 Y145.853 E10.73349
G1 X56.11 Y145.926 E10.75379
G1 X55.489 Y145.982 E10.77453
G1 X54.825 Y146.02 E10.79665
G1 X54.127 Y146.021 E10.81987
G1 X53.747 Y146.01 E10.83251
G1 X52.952 Y145.946 E10.85904
G1 X52.314 Y145.87 E10.88041
G1 X51.595 Y145.758 E10.90461
G1 X50.997 Y145.631 E10.92494
G1 X50.475 Y145.501 E10.94284
G1 X49.825 Y145.304 E10.96543
G1 X49.277 Y145.118 E10.98467
G1 X48.571 Y144.849 E11.0098
G1 X48.505 Y144.821 E11.01219
G1 X47.894 Y144.537 E11.0346
G1 X47.462 Y144.319 E11.05069
G1 X46.827 Y143.97 E11.07479
G1 X46.467 Y143.755 E11.08874
G1 X45.874 Y143.373 E11.1122
G1 X45.49 Y143.106 E11.12775
G1 X44.772 Y142.558 E11.1578
G1 X44.359 Y142.193 E11.17613
G1 X43.903 Y141.768 E11.19686
G1 X43.429 Y141.297 E11.21909
G1 X43.173 Y141.025 E11.23151
G1 X42.737 Y140.53 E11.25345
G1 X42.392 Y140.095 E11.27191
G1 X42.204 Y139.845 E11.28232
G1 X41.619 Y138.978 E11.3171
G1 X41.319 Y138.48 E11.33644
G1 X40.981 Y137.874 E11.35952
G1 X40.786 Y137.494 E11.37373
G1 X40.527 Y136.951 E11.39374
G1 X40.205 Y136.139 E11.42279
G1 X39.985 Y135.506 E11.44508
G1 X39.714 Y134.59 E11.47685
G1 X39.583 Y134.005 E11.49679
G1 X39.484 Y133.5 E11.5139
G1 X39.387 Y132.922 E11.5334
G1 X39.316 Y132.332 E11.55316
G1 X39.265 Y131.674 E11.57511
G1 X39.262 Y131.614 E11.57711
G1 X39.25 Y130.956 E11.599
G1 X39.26 Y130.272 E11.62175
G1 X39.313 Y129.37 E11.65181
G1 X39.384 Y128.827 E11.67002
G1 X39.552 Y127.765 E11.70578
G1 X39.59 Y127.543 E11.71327
G1 X39.924 Y125.697 E11.77567
G1 X40.302 Y123.209 E11.85937
G1 X40.613 Y120.675 E11.94428
G1 X40.853 Y118.142 E12.02891
G1 X41.019 Y115.613 E12.1132
G1 X41.114 Y113.084 E12.19738
G1 X41.138 Y110.512 E12.28293
G1 X41.09 Y108.014 E12.36602
G1 X40.969 Y105.45 E12.4514
G1 X40.776 Y102.912 E12.53606
G1 X40.515 Y100.403 E12.61996
G1 X40.179 Y97.881 E12.70458
G1 X39.774 Y95.377 E12.78895
G1 X39.283 Y92.81 E12.87587
G1 X39.209 Y92.447 E12.88819
G1 X39.117 Y91.932 E12.90559
G1 X39.068 Y91.609 E12.91646
G1 X38.97 Y90.669 E12.94789
G1 X38.935 Y90.065 E12.96802
G1 X38.923 Y89.15 E12.99845
G1 X38.928 Y88.993 E13.00368
G1 X38.959 Y88.458 E13.0215
G1 X39.004 Y87.926 E13.03926
G1 X39.071 Y87.344 E13.05874
G1 X39.089 Y87.218 E13.06298
G1 X39.18 Y86.681 E13.08109
G1 X39.233 Y86.413 E13.09018
G1 X39.475 Y85.441 E13.12349
G1 X39.637 Y84.905 E13.14212
G1 X39.883 Y84.188 E13.16733
G1 X39.999 Y83.887 E13.17806
G1 X40.242 Y83.31 E13.19888
G1 X40.453 Y82.849 E13.21575
G1 X40.947 Y81.905 E13.25118
G1 X41.188 Y81.508 E13.26663
G1 X41.483 Y81.047 E13.28483
G1 X41.866 Y80.491 E13.30729
G1 X42.186 Y80.073 E13.3248
G1 X42.504 Y79.681 E13.34159
G1 X42.554 Y79.622 E13.34416
G1 X43.115 Y79.014 E13.37167
G1 X43.515 Y78.613 E13.39051
G1 X44.024 Y78.135 E13.41374
G1 X44.341 Y77.858 E13.42774
G1 X44.873 Y77.424 E13.45057
G1 X45.542 Y76.951 E13.47782
G1 X45.866 Y76.741 E13.49067
G0 F1620 X46.02 Y76.641
G0 X46.547 Y76.322
G1 F2400 E10.29067
G0 F9000 X168.153 Y86.847
G0 X168.153 Y133.153
G0 X165.357 Y134.86
G1 F1440 E13.49067
G1 F1800 X167.66 Y134.86 E13.56726
G1 X168.077 Y134.82 E13.5812
G1 X168.479 Y134.702 E13.59513
G1 X168.904 Y134.468 E13.61127
G1 X168.467 Y134.836 E13.63027
G1 X167.938 Y135.119 E13.65022
G1 X167.384 Y135.278 E13.66939
G1 X166.8 Y135.319 E13.68887
G1 X166.235 Y135.242 E13.70783
G1 X165.691 Y135.046 E13.72706
G0 F1620 X165.667 Y135.038
G0 X165.357 Y134.86
G0 F9000 X165.309 Y135.3
G1 F1800 X164.769 Y134.913 E13.74916
G1 X164.35 Y134.46 E13.76968
G1 X167.66 Y134.46 E13.87977
G1 X168.037 Y134.42 E13.89238
G1 X168.397 Y134.302 E13.90498
G1 X168.724 Y134.112 E13.91756
G1 X169.005 Y133.857 E13.93018
G1 X169.225 Y133.548 E13.9428
G1 X169.377 Y133.201 E13.9554
G1 X169.46 Y132.66 E13.9736
G1 X169.46 Y130.612 E14.04172
G1 X169.818 Y131.227 E14.06539
G1 X170.02 Y131.848 E14.08711
G1 X170.091 Y132.522 E14.10965
G1 X170.024 Y133.177 E14.13155
G1 X169.81 Y133.835 E14.15456
G1 X169.48 Y134.405 E14.17647
G1 X169.029 Y134.904 E14.19884
G1 X168.494 Y135.291 E14.2208
G1 X167.876 Y135.566 E14.2433
G1 X167.231 Y135.702 E14.26522
G1 X166.556 Y135.702 E14.28768
G1 X166.05 Y135.594 E14.30488
G0 F1620 X165.898 Y135.562
G0 X165.309 Y135.3
G0 F9000 X165.099 Y135.642
G1 F1800 X164.669 Y135.351 E14.32215
G1 X164.141 Y134.842 E14.34655
G1 X163.837 Y134.421 E14.36382
G1 X163.643 Y134.06 E14.37745
G1 X167.66 Y134.06 E14.51105
G1 X167.992 Y134.02 E14.52218
G1 X168.304 Y133.903 E14.53326
G1 X168.581 Y133.715 E14.54439
G1 X168.804 Y133.467 E14.55549
G1 X168.963 Y133.173 E14.5666
G1 X169.06 Y132.66 E14.58397
G1 X169.06 Y129.65 E14.68408
G1 X169.484 Y130.025 E14.70291
G1 X169.948 Y130.616 E14.7279
G1 X170.187 Y131.071 E14.74499
G1 X170.412 Y131.763 E14.7692
G1 X170.483 Y132.276 E14.78642
G1 X170.458 Y133.022 E14.81125
G1 X170.349 Y133.525 E14.82836
G1 X170.068 Y134.217 E14.85321
G1 X169.646 Y134.842 E14.87829
G1 X169.107 Y135.36 E14.90315
G1 X168.68 Y135.646 E14.92025
G1 X168.001 Y135.946 E14.94494
G1 X167.269 Y136.101 E14.96982
G1 X166.769 Y136.119 E14.98646
G1 X166.266 Y136.066 E15.00328
G1 X165.834 Y135.957 E15.0181
G0 F1620 X165.772 Y135.942
G0 X165.099 Y135.642
G0 F9000 X164.907 Y135.993
G1 F1800 X164.422 Y135.667 E15.03754
G1 X164.012 Y135.294 E15.05598
G1 X163.663 Y134.881 E15.07396
G1 X163.367 Y134.408 E15.09252
G1 X163.135 Y133.887 E15.11149
G1 X163.061 Y133.66 E15.11943
G1 X167.66 Y133.66 E15.27239
G1 X167.939 Y133.62 E15.28177
G1 X168.196 Y133.504 E15.29114
G1 X168.411 Y133.321 E15.30053
G1 X168.565 Y133.085 E15.30991
G1 X168.66 Y132.66 E15.32439
G1 X168.66 Y128.934 E15.44832
G1 X169.134 Y129.209 E15.46655
G1 X169.567 Y129.548 E15.48484
G1 X169.965 Y129.959 E15.50386
G1 X170.29 Y130.409 E15.52233
G1 X170.555 Y130.914 E15.5413
G1 X170.739 Y131.42 E15.5592
G1 X170.852 Y131.953 E15.57733
G1 X170.893 Y132.522 E15.5963
G1 X170.854 Y133.083 E15.615
G1 X170.739 Y133.619 E15.63324
G1 X170.545 Y134.152 E15.6521
G1 X170.291 Y134.631 E15.67013
G1 X169.962 Y135.088 E15.68886
G1 X169.567 Y135.496 E15.70775
G1 X169.134 Y135.835 E15.72604
G1 X168.656 Y136.112 E15.74442
G1 X168.14 Y136.322 E15.76295
G1 X167.601 Y136.458 E15.78143
G1 X167.033 Y136.519 E15.80044
G1 X166.483 Y136.499 E15.81874
G1 X165.941 Y136.407 E15.83703
G1 X165.64 Y136.309 E15.84755
G0 F1620 X165.394 Y136.23
G0 X164.907 Y135.993
G0 F9000 X164.703 Y136.338
G1 F1800 X164.175 Y135.982 E15.86873
G1 X163.72 Y135.568 E15.88919
G1 X163.341 Y135.118 E15.90876
G1 X163.009 Y134.588 E15.92956
G1 X162.763 Y134.034 E15.94972
G1 X162.593 Y133.447 E15.97005
G1 X162.56 Y133.26 E15.97637
G1 X167.66 Y133.26 E16.14599
G1 X167.875 Y133.22 E16.15327
G1 X168.061 Y133.107 E16.16051
G1 X168.194 Y132.934 E16.16776
G1 X168.26 Y132.66 E16.17714
G1 X168.26 Y128.34 E16.32082
G1 X168.835 Y128.574 E16.34147
G1 X169.351 Y128.873 E16.3613
G1 X169.835 Y129.251 E16.38173
G1 X170.268 Y129.698 E16.40243
G1 X170.626 Y130.191 E16.42269
G1 X170.916 Y130.74 E16.44334
G1 X171.122 Y131.306 E16.46338
G1 X171.25 Y131.909 E16.48388
G1 X171.292 Y132.522 E16.50432
G1 X171.25 Y133.143 E16.52502
G1 X171.125 Y133.726 E16.54485
G1 X170.913 Y134.31 E16.56551
G1 X170.631 Y134.841 E16.58551
G1 X170.265 Y135.349 E16.60633
G1 X169.835 Y135.793 E16.62689
G1 X169.351 Y136.171 E16.64732
G1 X168.835 Y136.47 E16.66715
G1 X168.251 Y136.707 E16.68812
G1 X167.654 Y136.856 E16.70858
G1 X167.048 Y136.919 E16.72885
G1 X166.429 Y136.896 E16.74945
G1 X165.831 Y136.792 E16.76964
G1 X165.433 Y136.663 E16.78355
G0 F1620 X165.257 Y136.607
G0 X164.703 Y136.338
G0 F9000 X164.209 Y136.5
G1 F1800 X163.687 Y136.093 E16.80557
G1 X163.217 Y135.609 E16.82801
G1 X162.821 Y135.061 E16.85049
G1 X162.508 Y134.471 E16.87271
G1 X162.28 Y133.846 E16.89483
G1 X162.137 Y133.171 E16.91778
G1 X162.106 Y132.86 E16.92818
G1 X167.66 Y132.86 E17.11291
G1 X167.779 Y132.821 E17.11707
G1 X167.86 Y132.66 E17.12307
G1 X167.86 Y127.823 E17.28394
G1 X168.383 Y127.96 E17.30193
G1 X169.013 Y128.216 E17.32454
G1 X169.585 Y128.548 E17.34654
G1 X170.104 Y128.955 E17.36848
G1 X170.577 Y129.443 E17.39108
G1 X170.968 Y129.984 E17.41328
G1 X171.286 Y130.587 E17.43596
G1 X171.509 Y131.2 E17.45765
G1 X171.647 Y131.856 E17.47995
G1 X171.693 Y132.522 E17.50215
G1 X171.647 Y133.19 E17.52442
G1 X171.507 Y133.846 E17.54673
G1 X171.279 Y134.471 E17.56886
G1 X170.966 Y135.061 E17.59108
G1 X170.57 Y135.609 E17.61356
G1 X170.104 Y136.089 E17.63581
G1 X169.585 Y136.496 E17.65775
G1 X169.013 Y136.828 E17.67975
G1 X168.679 Y136.977 E17.69191
G1 X168.057 Y137.179 E17.71366
G1 X167.396 Y137.295 E17.73598
G1 X166.723 Y137.319 E17.75838
G1 X166.065 Y137.25 E17.78039
G1 X165.397 Y137.082 E17.8033
G1 X164.909 Y136.884 E17.82081
G0 F1620 X164.781 Y136.832
G0 X164.209 Y136.5
G1 F2400 E14.62081
G0 F9000 X168.153 Y133.153
G0 X168.165 Y92.976
G0 X167.86 Y92.976
G1 F1440 E17.82081
G1 F1800 X167.86 Y87.34 E18.00827
G1 X167.821 Y87.221 E18.01243
G1 X167.66 Y87.14 E18.01843
G1 X161.051 Y87.14 E18.23824
G1 X161.336 Y86.499 E18.26158
G1 X161.694 Y85.927 E18.28402
G1 X162.121 Y85.423 E18.30599
G1 X162.623 Y84.97 E18.32848
G1 X163.18 Y84.598 E18.35076
G1 X163.783 Y84.305 E18.37305
G1 X164.412 Y84.102 E18.39504
G1 X165.062 Y83.987 E18.41699
G1 X165.732 Y83.963 E18.43929
