;FLAVOR:Marlin
;TIME:5404
;Filament used: 3.81526m
;Layer height: 0.2
;MINX:25.93
;MINY:32.887
;MINZ:0.2
;MAXX:197.808
;MAXY:183.629
;MAXZ:7.96
;Generated with Cura_SteamEngine 4.10.0
M82 ;absolute extrusion mode
M201 X500.00 Y500.00 Z100.00 E5000.00 ;Setup machine max acceleration
M203 X500.00 Y500.00 Z10.00 E50.00 ;Setup machine max feedrate
M204 P500.00 R1000.00 T500.00 ;Setup Print/Retract/Travel acceleration
M205 X8.00 Y8.00 Z0.40 E5.00 ;Setup Jerk
M220 S100 ;Reset Feedrate
M221 S100 ;Reset Flowrate

;*** Start Dual Nozzle/Bed Preheating ***
M140 S50 ; start preheating the bed
M104 S195 ?T0 ; start preheating hotend
M190 S50 ; heat to Cura Bed setting and WAIT
M109 S195 ?T0 ; heat to Cura Hotend and WAIT
;*** End Preheating ***

;*** Single Print Start Tone
M300 S1000 P500 ; chirp to indicate starting to print
;*** End Single Start Tone

G28 ;Home

G92 E0 ;Reset Extruder
G1 Z2.0 F3000 ;Move Z Axis up

G1 X10.1 Y20 Z0.28 F5000.0 ;Move to start position
G1 X10.1 Y200.0 Z0.28 F1500.0 E15 ;Draw the first line
G1 X10.4 Y200.0 Z0.28 F5000.0 ;Move to side a little
G1 X10.4 Y20 Z0.28 F1500.0 E30 ;Draw the second line
G92 E0 ;Reset Extruder
G1 Z2.0 F3000 ;Move Z Axis up
G92 E0
G92 E0
G1 F2400 E-3.2
;LAYER_COUNT:41
;LAYER:0
M106 S63.8
M204 S500
M205 X6 Y6
G0 F9000 X35.621 Y37.191 Z0.2
;TYPE:SKIRT
G1 F1440 E0
G1 F1800 X36.286 Y36.579 E0.03006
G1 X36.693 Y36.254 E0.04738
G1 X37.097 Y35.948 E0.06424
G1 X37.691 Y35.531 E0.08838
G1 X37.969 Y35.35 E0.09941
G1 X38.551 Y34.998 E0.12203
G1 X39.044 Y34.722 E0.14083
G1 X39.923 Y34.284 E0.17349
G1 X40.42 Y34.076 E0.19141
G1 X40.875 Y33.899 E0.20765
G1 X41.476 Y33.687 E0.22884
G1 X41.567 Y33.658 E0.23202
G1 X42.338 Y33.445 E0.25862
G1 X42.876 Y33.319 E0.277
G1 X43.581 Y33.18 E0.3009
G1 X44.016 Y33.11 E0.31556
G1 X44.605 Y33.032 E0.33532
G1 X44.664 Y33.026 E0.33729
G1 X45.499 Y32.976 E0.36511
G1 X46.016 Y32.966 E0.38231
G1 X46.699 Y32.976 E0.40503
G1 X47.181 Y32.999 E0.42108
G1 X47.804 Y33.047 E0.44186
G1 X47.868 Y33.054 E0.444
G1 X48.682 Y33.177 E0.47138
G1 X49.675 Y33.369 E0.50502
G1 X51.872 Y33.831 E0.57969
G1 X54.37 Y34.284 E0.66413
G1 X56.877 Y34.665 E0.74847
G1 X59.398 Y34.976 E0.83296
G1 X61.899 Y35.213 E0.91651
G1 X64.458 Y35.382 E1.00181
G1 X66.991 Y35.478 E1.08612
G1 X69.56 Y35.503 E1.17157
G1 X72.057 Y35.456 E1.25464
G1 X74.624 Y35.335 E1.34011
G1 X77.161 Y35.144 E1.42473
G1 X79.67 Y34.883 E1.50863
G1 X82.187 Y34.549 E1.59308
G1 X84.695 Y34.144 E1.67758
G1 X87.201 Y33.666 E1.76243
G1 X89.268 Y33.215 E1.83279
G1 X89.793 Y33.114 E1.85058
G1 X90.281 Y33.034 E1.86702
G1 X90.955 Y32.947 E1.88963
G1 X91.007 Y32.942 E1.89136
G1 X91.787 Y32.897 E1.91735
G1 X92.307 Y32.887 E1.93465
G1 X92.989 Y32.897 E1.95733
G1 X93.471 Y32.92 E1.97338
G1 X94.123 Y32.972 E1.99514
G1 X94.62 Y33.03 E2.01178
G1 X94.963 Y33.076 E2.02329
G1 X97.599 Y33.391 E2.11159
G1 X100.12 Y33.62 E2.19578
G1 X102.643 Y33.778 E2.27986
G1 X105.162 Y33.864 E2.36369
G1 X108.88 Y33.864 E2.48736
G1 X110.792 Y33.826 E2.55096
G1 X111.479 Y33.835 E2.57381
G1 X111.963 Y33.858 E2.58993
G1 X112.694 Y33.92 E2.61433
G1 X112.769 Y33.929 E2.61684
G1 X113.441 Y34.032 E2.63945
G1 X114.036 Y34.144 E2.65959
G1 X114.858 Y34.334 E2.68765
G1 X114.956 Y34.361 E2.69103
G1 X115.535 Y34.54 E2.71119
G1 X116.09 Y34.729 E2.73069
G1 X116.679 Y34.95 E2.75161
G1 X116.752 Y34.98 E2.75424
G1 X117.463 Y35.304 E2.78023
G1 X117.882 Y35.515 E2.79583
G1 X118.525 Y35.869 E2.82024
G1 X118.833 Y36.053 E2.83218
G1 X119.435 Y36.441 E2.856
G1 X119.742 Y36.655 E2.86844
G1 X120.3 Y37.074 E2.89165
G1 X120.703 Y37.398 E2.90885
G1 X121.381 Y37.994 E2.93888
G1 X121.765 Y38.383 E2.95706
G1 X122.164 Y38.81 E2.97649
G1 X122.599 Y39.307 E2.99846
G1 X123.16 Y40.01 E3.02838
G1 X123.203 Y40.068 E3.03078
G1 X123.75 Y40.886 E3.06351
G1 X124.005 Y41.31 E3.07996
G1 X124.33 Y41.892 E3.10213
G1 X124.561 Y42.34 E3.1189
G1 X124.937 Y43.156 E3.14878
G1 X124.984 Y43.271 E3.15291
G1 X125.182 Y43.797 E3.17161
G1 X125.349 Y44.28 E3.1886
G1 X125.445 Y44.571 E3.1988
G1 X125.625 Y45.147 E3.21887
G1 X125.686 Y45.349 E3.22589
G1 X125.843 Y45.889 E3.24459
G1 X126.627 Y48.338 E3.33012
G1 X127.452 Y50.683 E3.4128
G1 X128.376 Y53.087 E3.49846
G1 X129.346 Y55.411 E3.58222
G1 X130.393 Y57.739 E3.66712
G1 X131.49 Y60.001 E3.75073
G1 X132.691 Y62.308 E3.83724
G1 X133.906 Y64.49 E3.9203
G1 X135.198 Y66.662 E4.00436
G1 X136.569 Y68.828 E4.08962
G1 X137.975 Y70.913 E4.17326
G1 X139.458 Y72.985 E4.25801
G1 X141.014 Y75.033 E4.34356
G1 X142.584 Y76.984 E4.42685
G1 X144.243 Y78.928 E4.51185
G1 X145.93 Y80.798 E4.59561
G1 X147.721 Y82.672 E4.68183
G1 X149.492 Y84.422 E4.76464
G1 X151.365 Y86.173 E4.84992
G1 X153.264 Y87.848 E4.93414
G1 X155.208 Y89.469 E5.01833
G1 X157.222 Y91.055 E5.10359
G1 X159.24 Y92.552 E5.18716
G1 X161.324 Y94.008 E5.27172
G1 X163.461 Y95.415 E5.35682
G1 X165.625 Y96.752 E5.44142
G1 X167.79 Y98.007 E5.52465
G1 X170.049 Y99.232 E5.61012
G1 X172.311 Y100.377 E5.69445
G1 X174.594 Y101.453 E5.77839
G1 X176.944 Y102.481 E5.8637
G1 X179.323 Y103.444 E5.94907
G1 X181.662 Y104.309 E6.03201
G1 X184.114 Y105.142 E6.11814
G1 X185.358 Y105.534 E6.16152
G1 X186.771 Y105.963 E6.21064
G1 X187.09 Y106.065 E6.22178
G1 X187.685 Y106.267 E6.24268
G1 X188.385 Y106.534 E6.26759
G1 X188.673 Y106.656 E6.278
G1 X189.295 Y106.945 E6.30081
G1 X189.661 Y107.13 E6.31445
G1 X190.272 Y107.465 E6.33763
G1 X190.526 Y107.616 E6.34745
G1 X191.147 Y108.017 E6.37204
G1 X191.573 Y108.314 E6.38931
G1 X192.291 Y108.863 E6.41937
G1 X192.68 Y109.206 E6.43662
G1 X193.071 Y109.569 E6.45437
G1 X193.581 Y110.077 E6.47831
G1 X193.87 Y110.386 E6.49238
G1 X194.296 Y110.872 E6.51388
G1 X194.533 Y111.16 E6.52628
G1 X194.871 Y111.594 E6.54458
G1 X194.924 Y111.666 E6.54755
G1 X195.458 Y112.468 E6.5796
G1 X195.714 Y112.895 E6.59616
G1 X196.027 Y113.457 E6.61755
G1 X196.257 Y113.902 E6.63421
G1 X196.545 Y114.506 E6.65647
G1 X196.844 Y115.263 E6.68354
G1 X197.06 Y115.881 E6.70532
G1 X197.353 Y116.88 E6.73994
G1 X197.466 Y117.387 E6.75722
G1 X197.566 Y117.89 E6.77428
G1 X197.698 Y118.736 E6.80275
G1 X197.721 Y118.94 E6.80958
G1 X197.771 Y119.547 E6.82984
G1 X197.796 Y120.022 E6.84566
G1 X197.808 Y120.782 E6.87094
G1 X197.804 Y120.964 E6.877
G1 X197.77 Y121.593 E6.89795
G1 X197.725 Y122.129 E6.91584
G1 X197.641 Y122.833 E6.93942
G1 X197.622 Y122.956 E6.94356
G1 X197.491 Y123.647 E6.96695
G1 X197.364 Y124.209 E6.98611
G1 X197.223 Y124.763 E7.00513
G1 X197.207 Y124.819 E7.00706
G1 X196.935 Y125.638 E7.03577
G1 X196.695 Y126.27 E7.05825
G1 X196.414 Y126.938 E7.08236
G1 X196.395 Y126.979 E7.08386
G1 X196.069 Y127.62 E7.10778
G1 X195.815 Y128.08 E7.12525
G1 X195.477 Y128.648 E7.14724
G1 X195.237 Y129.023 E7.16205
G1 X194.738 Y129.735 E7.19096
G1 X194.639 Y129.864 E7.19637
G1 X194.251 Y130.339 E7.21677
G1 X194.041 Y130.581 E7.22743
G1 X193.594 Y131.064 E7.24932
G1 X193.27 Y131.392 E7.26465
G1 X192.742 Y131.889 E7.28877
G1 X192.39 Y132.198 E7.30435
G1 X191.837 Y132.651 E7.32812
G1 X191.193 Y133.106 E7.35435
G1 X190.738 Y133.402 E7.3724
G1 X190.159 Y133.752 E7.39491
G1 X189.875 Y133.911 E7.40573
G1 X189.246 Y134.235 E7.42927
G1 X188.818 Y134.437 E7.44501
G1 X188.23 Y134.692 E7.46632
G1 X188.157 Y134.721 E7.46894
G1 X187.401 Y134.988 E7.4956
G1 X186.802 Y135.173 E7.51645
G1 X186.266 Y135.322 E7.53496
G1 X186.19 Y135.341 E7.53756
G1 X185.343 Y135.515 E7.56632
G1 X184.749 Y135.611 E7.58634
G1 X184.137 Y135.691 E7.60686
G1 X184.077 Y135.697 E7.60887
G1 X183.262 Y135.746 E7.63603
G1 X182.598 Y135.759 E7.65811
G1 X181.947 Y135.751 E7.67977
G1 X181.14 Y135.687 E7.70669
G1 X180.502 Y135.611 E7.72806
G1 X179.877 Y135.517 E7.74909
G1 X179.417 Y135.431 E7.76465
G1 X178.841 Y135.312 E7.78421
G1 X177.664 Y135.06 E7.82425
G1 X175.147 Y134.596 E7.90937
G1 X172.649 Y134.208 E7.99345
G1 X170.125 Y133.889 E8.07807
G1 X167.596 Y133.641 E8.16259
G1 X165.069 Y133.465 E8.24684
G1 X162.539 Y133.361 E8.33106
G1 X160.005 Y133.329 E8.41535
G1 X157.436 Y133.369 E8.5008
G1 X154.907 Y133.48 E8.585
G1 X152.4 Y133.661 E8.6686
G1 X149.859 Y133.917 E8.75354
G1 X147.333 Y134.244 E8.83826
G1 X144.8 Y134.644 E8.92355
G1 X142.355 Y135.103 E9.00629
G1 X139.848 Y135.646 E9.09161
G1 X137.403 Y136.249 E9.17536
G1 X134.938 Y136.931 E9.26043
G1 X132.482 Y137.687 E9.3459
G1 X130.104 Y138.492 E9.4294
G1 X127.721 Y139.375 E9.51393
G1 X125.366 Y140.325 E9.59839
G1 X123.03 Y141.345 E9.68317
G1 X120.732 Y142.425 E9.76762
G1 X118.484 Y143.562 E9.85141
G1 X116.238 Y144.778 E9.93636
G1 X114.048 Y146.046 E10.02052
G1 X111.851 Y147.402 E10.10639
G1 X109.786 Y148.757 E10.18854
G1 X107.658 Y150.244 E10.27489
G1 X105.637 Y151.742 E10.35856
G1 X103.651 Y153.302 E10.44255
G1 X101.653 Y154.966 E10.52904
G1 X99.805 Y156.595 E10.61097
G1 X97.912 Y158.361 E10.69708
G1 X96.103 Y160.149 E10.78167
G1 X94.37 Y161.961 E10.86507
G1 X92.645 Y163.868 E10.95059
G1 X90.994 Y165.802 E11.03517
G1 X89.421 Y167.754 E11.11855
G1 X87.883 Y169.777 E11.20307
G1 X86.381 Y171.873 E11.28884
G1 X85.485 Y173.184 E11.34165
G1 X84.742 Y174.29 E11.38597
G1 X84.206 Y175.017 E11.41601
G1 X83.803 Y175.487 E11.4366
G1 X83.423 Y175.886 E11.45493
G1 X82.941 Y176.366 E11.47755
G1 X80.448 Y178.793 E11.59327
G1 X79.871 Y179.34 E11.61972
G1 X79.189 Y179.932 E11.64976
G1 X78.457 Y180.461 E11.67979
G1 X77.681 Y180.923 E11.70983
G1 X76.867 Y181.315 E11.73988
G1 X76.022 Y181.633 E11.76991
G1 X75.152 Y181.875 E11.79995
G1 X74.465 Y182.009 E11.82323
G1 X73.539 Y182.157 E11.85442
G1 X64.475 Y183.441 E12.1589
G1 X64.324 Y183.462 E12.16397
G1 X63.635 Y183.549 E12.18706
G1 X62.306 Y183.629 E12.23135
G1 X62.105 Y183.628 E12.23803
G1 X61.203 Y183.583 E12.26807
G1 X60.309 Y183.459 E12.29809
G1 X59.429 Y183.257 E12.32812
G1 X58.37 Y182.9 E12.36529
G1 X57.603 Y182.592 E12.39278
G1 X56.552 Y182.151 E12.43069
G1 X55.897 Y181.867 E12.45443
G1 X55.086 Y181.472 E12.48444
G1 X54.312 Y181.006 E12.51449
G1 X53.582 Y180.473 E12.54455
G1 X52.903 Y179.878 E12.57458
G1 X52.279 Y179.226 E12.60459
G1 X51.715 Y178.52 E12.63465
G1 X51.169 Y177.691 E12.66766
G1 X50.683 Y176.867 E12.69948
G1 X50.589 Y176.704 E12.70574
G1 X47.447 Y171.145 E12.91812
G1 X46.128 Y168.959 E13.00304
G1 X44.77 Y166.844 E13.08664
G1 X43.326 Y164.728 E13.17184
G1 X41.818 Y162.65 E13.25724
G1 X40.29 Y160.663 E13.34061
G1 X38.703 Y158.717 E13.42413
G1 X36.587 Y156.286 E13.53132
G1 X36.439 Y156.112 E13.53892
G1 X35.885 Y155.398 E13.56898
G1 X35.448 Y154.726 E13.59564
G1 X35.015 Y153.967 E13.6247
G1 X30.308 Y145.317 E13.95224
G1 X29.953 Y144.644 E13.97755
G1 X29.722 Y144.176 E13.9949
G1 X29.377 Y143.342 E14.02492
G1 X29.174 Y142.724 E14.04656
G1 X28.961 Y141.995 E14.07182
G1 X26.451 Y132.928 E14.38473
G1 X26.273 Y132.249 E14.40808
G1 X26.083 Y131.366 E14.43812
G1 X25.972 Y130.469 E14.46818
G1 X25.945 Y129.969 E14.48483
G1 X25.93 Y129.33 E14.50609
G1 X25.931 Y126.295 E14.60704
G1 X25.942 Y125.603 E14.63006
G1 X25.997 Y124.701 E14.66011
G1 X26.13 Y123.808 E14.69014
G1 X26.343 Y122.93 E14.72019
G1 X26.791 Y121.688 E14.76411
G1 X27.202 Y120.748 E14.79823
G1 X27.613 Y119.836 E14.8315
G1 X28.608 Y117.449 E14.91751
G1 X29.524 Y115.073 E15.00221
G1 X30.341 Y112.742 E15.08436
G1 X31.129 Y110.281 E15.17031
G1 X31.832 Y107.856 E15.25429
G1 X32.472 Y105.386 E15.33915
G1 X33.037 Y102.924 E15.42317
G1 X33.546 Y100.38 E15.50946
G1 X33.964 Y97.918 E15.59252
G1 X34.315 Y95.435 E15.67592
G1 X34.604 Y92.871 E15.76174
G1 X34.816 Y90.347 E15.84598
G1 X34.957 Y87.821 E15.93013
G1 X35.026 Y85.285 E16.01451
G1 X35.024 Y82.751 E16.09879
G1 X34.949 Y80.175 E16.1845
G1 X34.804 Y77.662 E16.26823
G1 X34.585 Y75.114 E16.35329
G1 X34.41 Y73.509 E16.40698
G1 X34.255 Y72.192 E16.45109
G1 X34.201 Y71.66 E16.46888
G1 X33.908 Y68.21 E16.58404
G1 X33.649 Y65.593 E16.6715
G1 X33.329 Y63.096 E16.75523
G1 X32.933 Y60.571 E16.84024
G1 X32.471 Y58.087 E16.92428
G1 X31.932 Y55.58 E17.00957
G1 X31.563 Y54.036 E17.06236
G1 X31.009 Y51.8 E17.13898
G1 X30.846 Y51.1 E17.16289
G1 X30.68 Y50.212 E17.19293
G1 X30.594 Y49.314 E17.22294
G1 X30.587 Y48.41 E17.25301
G1 X30.66 Y47.51 E17.28304
G1 X30.813 Y46.62 E17.31308
G1 X30.952 Y46.058 E17.33233
G1 X31.441 Y44.297 E17.39312
G1 X31.649 Y43.601 E17.41728
G1 X31.868 Y42.96 E17.43981
G1 X31.997 Y42.619 E17.45193
G1 X32.268 Y41.97 E17.47533
G1 X32.494 Y41.478 E17.49333
G1 X33.048 Y40.435 E17.53261
G1 X33.508 Y39.709 E17.5612
G1 X33.799 Y39.281 E17.57841
G1 X33.865 Y39.189 E17.58218
G1 X34.421 Y38.482 E17.6121
G1 X34.723 Y38.131 E17.6275
G1 X35.063 Y37.764 E17.64414
G0 F1620 X35.224 Y37.59
G0 X35.621 Y37.191
G0 F9000 X45.362 Y45.042
G1 F1800 X46.023 Y44.949 E17.66634
G1 X46.246 Y44.949 E17.67375
G1 X46.909 Y45.042 E17.69602
G1 X47.541 Y45.272 E17.71839
G1 X47.956 Y45.518 E17.73444
G1 X45.702 Y45.104 E17.81066
G0 F1620 X45.362 Y45.042
G0 F9000 X45.253 Y44.656
G1 F1800 X45.749 Y44.567 E17.82742
G1 X46.259 Y44.549 E17.84439
G1 X47.015 Y44.656 E17.86979
G1 X47.706 Y44.908 E17.89425
G1 X48.138 Y45.155 E17.9108
G1 X48.536 Y45.464 E17.92756
G1 X48.899 Y45.841 E17.94497
G1 X49.118 Y46.138 E17.95724
G1 X44.058 Y45.208 E18.12836
G1 X44.535 Y44.924 E18.14682
G0 F1620 X44.562 Y44.908
G0 X45.253 Y44.656
G0 F9000 X45.446 Y44.206
G1 F1800 X45.997 Y44.149 E18.16525
G1 X46.272 Y44.149 E18.17439
G1 X46.822 Y44.206 E18.19278
G1 X47.374 Y44.342 E18.21169
G1 X47.882 Y44.548 E18.22992
G1 X48.366 Y44.827 E18.24851
G1 X48.811 Y45.173 E18.26725
G1 X49.201 Y45.578 E18.28595
G1 X49.523 Y46.024 E18.30425
G1 X49.784 Y46.51 E18.3226
G1 X49.852 Y46.679 E18.32866
G1 X43.942 Y45.593 E18.52852
G1 X43.66 Y45.582 E18.5379
G1 X43.386 Y45.65 E18.54729
G1 X43.202 Y45.748 E18.55423
G1 X42.713 Y46.078 E18.57385
G1 X43.067 Y45.578 E18.59422
G1 X43.457 Y45.173 E18.61292
G1 X43.902 Y44.827 E18.63167
G1 X44.386 Y44.548 E18.65025
G1 X44.679 Y44.429 E18.66077
G0 F1620 X44.894 Y44.342
G0 X45.446 Y44.206
G0 F9000 X45.06 Y43.879
G1 F1800 X45.665 Y43.771 E18.68121
G1 X46.285 Y43.749 E18.70185
G1 X46.888 Y43.811 E18.72201
G1 X47.492 Y43.96 E18.7427
G1 X48.065 Y44.192 E18.76326
G1 X48.585 Y44.492 E18.78323
G1 X49.078 Y44.874 E18.80397
G1 X49.51 Y45.323 E18.82469
G1 X49.855 Y45.799 E18.84425
G1 X50.151 Y46.351 E18.86508
G1 X50.36 Y46.922 E18.8853
G1 X50.453 Y47.311 E18.89861
G1 X50.144 Y47.14 E18.91035
G1 X43.869 Y45.987 E19.12255
G1 X43.651 Y45.987 E19.1298
G1 X43.426 Y46.08 E19.1379
G1 X41.853 Y47.141 E19.20101
G1 X42.005 Y46.627 E19.21884
G1 X42.25 Y46.079 E19.2388
G1 X42.578 Y45.553 E19.25942
G1 X42.97 Y45.088 E19.27965
G1 X43.409 Y44.691 E19.29933
G1 X43.937 Y44.333 E19.32055
G1 X44.309 Y44.152 E19.33431
G0 F1620 X44.489 Y44.065
G0 X45.06 Y43.879
G0 F9000 X44.655 Y43.578
G1 F1800 X45.316 Y43.416 E19.35695
G1 X45.972 Y43.349 E19.37888
G1 X46.648 Y43.373 E19.40138
G1 X47.31 Y43.492 E19.42375
G1 X47.934 Y43.696 E19.44558
G1 X48.535 Y43.989 E19.46782
G1 X49.101 Y44.372 E19.49055
G1 X49.582 Y44.806 E19.5121
G1 X50.009 Y45.311 E19.5341
G1 X50.369 Y45.887 E19.55669
G1 X50.65 Y46.519 E19.57969
G1 X50.833 Y47.162 E19.60193
G1 X50.922 Y47.808 E19.62362
G1 X50.922 Y48.476 E19.64583
G1 X50.833 Y49.129 E19.66775
G1 X50.652 Y49.77 E19.68991
G1 X50.369 Y50.404 E19.713
G1 X50.011 Y50.976 E19.73544
G1 X49.584 Y51.483 E19.75749
G1 X49.554 Y51.512 E19.75888
G1 X50.233 Y47.766 E19.8855
G1 X50.216 Y47.642 E19.88966
G1 X50.072 Y47.533 E19.89567
G1 X43.797 Y46.38 E20.10787
G1 X43.649 Y46.411 E20.1129
G1 X41.341 Y47.968 E20.2055
G1 X41.383 Y47.464 E20.22232
G1 X41.52 Y46.824 E20.24409
G1 X41.744 Y46.205 E20.26598
G1 X42.069 Y45.595 E20.28897
G1 X42.448 Y45.071 E20.31048
G1 X42.929 Y44.571 E20.33356
G1 X43.454 Y44.164 E20.35565
G1 X43.922 Y43.894 E20.37362
G0 F1620 X44.038 Y43.827
G0 X44.655 Y43.578
G1 F2400 E17.17362
G0 F9000 X50.608 Y47.335
G0 X50.524 Y48.398
G1 F1440 E20.37362
G1 F1800 X50.44 Y49.05 E20.39549
G1 X50.333 Y49.453 E20.40936
G1 X50.505 Y48.506 E20.44137
G0 F1620 X50.524 Y48.398
G1 F2400 E17.24137
G0 F9000 X87.637 Y47.736
G1 F1440 E20.44137
G1 F1800 X87.725 Y47.087 E20.46315
G1 X87.913 Y46.432 E20.48582
G1 X88.187 Y45.813 E20.50833
G1 X88.548 Y45.236 E20.53097
G1 X88.976 Y44.728 E20.55306
G1 X89.464 Y44.289 E20.57489
G1 X90.035 Y43.905 E20.59778
G1 X90.626 Y43.617 E20.61965
G1 X91.249 Y43.413 E20.64145
G1 X91.911 Y43.294 E20.66382
