;FLAVOR:Marlin
;TIME:620
;Filament used: 0.158393m
;Layer height: 0.16
;MINX:89.155
;MINY:86.139
;MINZ:0.2
;MAXX:130.85
;MAXY:133.856
;MAXZ:1.8
;Generated with Cura_SteamEngine 4.10.0
M82 ;absolute extrusion mode
M201 X500.00 Y500.00 Z100.00 E5000.00 ;Setup machine max acceleration
M203 X500.00 Y500.00 Z10.00 E50.00 ;Setup machine max feedrate
M204 P500.00 R1000.00 T500.00 ;Setup Print/Retract/Travel acceleration
M205 X8.00 Y8.00 Z0.40 E5.00 ;Setup Jerk
M220 S100 ;Reset Feedrate
M221 S100 ;Reset Flowrate

;*** Start Dual Nozzle/Bed Preheating ***
M140 S50 ; start preheating the bed
M104 S195 ?T0 ; start preheating hotend
M190 S50 ; heat to Cura Bed setting and WAIT
M109 S195 ?T0 ; heat to Cura Hotend and WAIT
;*** End Preheating ***

;*** Single Print Start Tone
M300 S1000 P500 ; chirp to indicate starting to print
;*** End Single Start Tone

G28 ;Home

G92 E0 ;Reset Extruder
G1 Z2.0 F3000 ;Move Z Axis up

G1 X10.1 Y20 Z0.28 F5000.0 ;Move to start position
G1 X10.1 Y200.0 Z0.28 F1500.0 E15 ;Draw the first line
G1 X10.4 Y200.0 Z0.28 F5000.0 ;Move to side a little
G1 X10.4 Y20 Z0.28 F1500.0 E30 ;Draw the second line
G92 E0 ;Reset Extruder
G1 Z2.0 F3000 ;Move Z Axis up
G92 E0
G92 E0
G1 F2400 E-3.2
;LAYER_COUNT:11
;LAYER:0
M106 S63.8
M204 S500
M205 X6 Y6
G0 F9000 X92.195 Y89.686 Z0.2
;TYPE:SKIRT
G1 F1440 E0
G1 F1800 X92.839 Y89.027 E0.03065
G1 X93.536 Y88.427 E0.06124
G1 X94.284 Y87.889 E0.09188
G1 X95.075 Y87.418 E0.1225
G1 X95.904 Y87.018 E0.15311
G1 X96.765 Y86.691 E0.18375
G1 X97.65 Y86.44 E0.21434
G1 X98.555 Y86.267 E0.24499
G1 X99.721 Y86.161 E0.28393
G1 X100.041 Y86.152 E0.29458
G1 X100.712 Y86.144 E0.3169
G1 X104.572 Y86.143 E0.44528
G1 X105.285 Y86.139 E0.469
G1 X105.416 Y86.144 E0.47336
G1 X109.333 Y86.145 E0.60364
G1 X109.96 Y86.154 E0.62449
G1 X112.946 Y86.149 E0.72381
G1 X113.307 Y86.144 E0.73582
G1 X114.885 Y86.144 E0.7883
G1 X114.991 Y86.139 E0.79183
G1 X115.704 Y86.139 E0.81554
G1 X115.819 Y86.144 E0.81937
G1 X119.695 Y86.145 E0.94829
G1 X120.393 Y86.155 E0.97151
G1 X121.312 Y86.208 E1.00212
G1 X122.223 Y86.341 E1.03274
G1 X123.119 Y86.552 E1.06336
G1 X123.993 Y86.84 E1.09397
G1 X124.84 Y87.203 E1.12462
G1 X125.651 Y87.638 E1.15523
G1 X126.421 Y88.142 E1.18584
G1 X127.145 Y88.711 E1.21646
G1 X127.817 Y89.341 E1.2471
G1 X128.432 Y90.026 E1.27772
G1 X128.985 Y90.762 E1.30834
G1 X129.472 Y91.543 E1.33895
G1 X129.889 Y92.364 E1.36958
G1 X130.234 Y93.218 E1.40021
G1 X130.503 Y94.098 E1.43082
G1 X130.695 Y94.999 E1.46146
G1 X130.808 Y95.912 E1.49205
G1 X130.837 Y96.471 E1.51067
G1 X130.848 Y97.2 E1.53492
G1 X130.829 Y98.52 E1.57883
G1 X130.781 Y100.194 E1.63453
G1 X130.781 Y102.726 E1.71874
G1 X130.812 Y104.175 E1.76695
G1 X130.845 Y105.313 E1.80482
G1 X130.85 Y105.625 E1.81519
G1 X130.849 Y106.366 E1.83984
G1 X130.839 Y107.082 E1.86366
G1 X130.814 Y107.68 E1.88356
G1 X130.718 Y109.018 E1.92818
G1 X130.693 Y109.305 E1.93776
G1 X130.551 Y111.817 E2.02144
G1 X130.476 Y114.473 E2.10982
G1 X130.468 Y114.964 E2.12615
G1 X130.42 Y116.639 E2.18189
G1 X130.42 Y119.17 E2.26607
G1 X130.451 Y120.62 E2.3143
G1 X130.484 Y121.738 E2.35151
G1 X130.489 Y122.52 E2.37752
G1 X130.478 Y123.393 E2.40655
G1 X130.425 Y124.312 E2.43717
G1 X130.293 Y125.223 E2.46779
G1 X130.082 Y126.119 E2.4984
G1 X129.795 Y126.994 E2.52903
G1 X129.432 Y127.84 E2.55965
G1 X128.998 Y128.652 E2.59027
G1 X128.494 Y129.423 E2.62091
G1 X127.926 Y130.147 E2.65152
G1 X127.297 Y130.819 E2.68213
G1 X126.612 Y131.434 E2.71275
G1 X125.876 Y131.987 E2.74337
G1 X125.095 Y132.475 E2.774
G1 X124.275 Y132.893 E2.80461
G1 X123.421 Y133.238 E2.83525
G1 X122.541 Y133.507 E2.86585
G1 X121.64 Y133.7 E2.8965
G1 X120.727 Y133.813 E2.9271
G1 X120.177 Y133.843 E2.94542
G1 X119.559 Y133.856 E2.96598
G1 X100.459 Y133.855 E3.60124
G1 X99.761 Y133.846 E3.62446
G1 X98.842 Y133.794 E3.65508
G1 X97.931 Y133.663 E3.68569
G1 X97.035 Y133.453 E3.7163
G1 X96.16 Y133.166 E3.74693
G1 X95.313 Y132.804 E3.77756
G1 X94.501 Y132.37 E3.80818
G1 X93.73 Y131.868 E3.83878
G1 X93.005 Y131.3 E3.86942
G1 X92.332 Y130.671 E3.90006
G1 X91.717 Y129.987 E3.93065
G1 X91.163 Y129.252 E3.96126
G1 X90.675 Y128.471 E3.99189
G1 X90.256 Y127.651 E4.02252
G1 X89.91 Y126.798 E4.05314
G1 X89.64 Y125.918 E4.08375
G1 X89.447 Y125.017 E4.1144
G1 X89.333 Y124.104 E4.145
G1 X89.302 Y123.556 E4.16326
G1 X89.29 Y122.782 E4.189
G1 X89.298 Y122.229 E4.2074
G1 X89.303 Y119.987 E4.28197
G1 X89.3 Y119.59 E4.29517
G1 X89.311 Y119.028 E4.31387
G1 X89.328 Y118.654 E4.32632
G1 X89.414 Y115.993 E4.41487
G1 X89.424 Y113.48 E4.49845
G1 X89.362 Y110.928 E4.58336
G1 X89.227 Y108.378 E4.66829
G1 X89.211 Y108.15 E4.67589
G1 X89.176 Y107.541 E4.69618
G1 X89.155 Y106.916 E4.71698
G1 X89.16 Y103.603 E4.82717
G1 X89.188 Y102.85 E4.85224
G1 X89.25 Y101.998 E4.88065
G1 X89.403 Y99.366 E4.96834
G1 X89.451 Y97.819 E5.01981
G1 X89.501 Y96.385 E5.06754
G1 X89.573 Y95.467 E5.09817
G1 X89.725 Y94.559 E5.12879
G1 X89.954 Y93.667 E5.15942
G1 X90.261 Y92.799 E5.19004
G1 X90.641 Y91.96 E5.22067
G1 X91.092 Y91.158 E5.25127
G1 X91.612 Y90.398 E5.2819
G1 X91.689 Y90.305 E5.28592
G0 F1620 X92.195 Y89.686
G0 F9000 X92.586 Y89.851
G1 F1800 X93.226 Y89.214 E5.31595
G1 X93.92 Y88.636 E5.34599
G1 X94.662 Y88.121 E5.37603
G1 X95.447 Y87.674 E5.40608
G1 X96.269 Y87.299 E5.43613
G1 X97.12 Y86.998 E5.46615
G1 X97.995 Y86.773 E5.4962
G1 X98.886 Y86.626 E5.52624
G1 X99.735 Y86.56 E5.55456
G1 X100.047 Y86.552 E5.56494
G1 X100.712 Y86.544 E5.58706
G1 X104.574 Y86.543 E5.71551
G1 X105.287 Y86.539 E5.73922
G1 X105.416 Y86.544 E5.74352
G1 X109.327 Y86.545 E5.8736
G1 X109.954 Y86.554 E5.89446
G1 X112.888 Y86.549 E5.99204
G1 X113.307 Y86.544 E6.00598
G1 X114.84 Y86.544 E6.05697
G1 X114.991 Y86.539 E6.06199
G1 X115.704 Y86.539 E6.0857
G1 X115.817 Y86.544 E6.08947
G1 X119.689 Y86.545 E6.21825
G1 X120.387 Y86.555 E6.24147
G1 X121.289 Y86.608 E6.27152
G1 X122.182 Y86.74 E6.30154
G1 X123.06 Y86.951 E6.33158
G1 X123.916 Y87.239 E6.36162
G1 X124.743 Y87.601 E6.39164
G1 X125.535 Y88.036 E6.4217
G1 X126.286 Y88.538 E6.45174
G1 X126.989 Y89.105 E6.48178
G1 X127.639 Y89.732 E6.51182
G1 X128.231 Y90.414 E6.54186
G1 X128.761 Y91.145 E6.57189
G1 X129.223 Y91.921 E6.60193
G1 X129.616 Y92.734 E6.63196
G1 X129.934 Y93.579 E6.66199
G1 X130.177 Y94.449 E6.69203
G1 X130.342 Y95.337 E6.72207
G1 X130.437 Y96.482 E6.76029
G1 X130.448 Y97.194 E6.78397
G1 X130.429 Y98.508 E6.82768
G1 X130.381 Y100.182 E6.88338
G1 X130.381 Y102.735 E6.96829
G1 X130.41 Y104.102 E7.01377
G1 X130.446 Y105.325 E7.05446
G1 X130.45 Y105.625 E7.06444
G1 X130.449 Y106.36 E7.08889
G1 X130.439 Y107.076 E7.11271
G1 X130.415 Y107.652 E7.13188
G1 X130.32 Y108.984 E7.1763
G1 X130.294 Y109.284 E7.18631
G1 X130.151 Y111.817 E7.27069
G1 X130.076 Y114.456 E7.3585
G1 X130.068 Y114.952 E7.375
G1 X130.02 Y116.627 E7.43073
G1 X130.02 Y119.179 E7.51561
G1 X130.051 Y120.629 E7.56385
G1 X130.084 Y121.75 E7.60115
G1 X130.089 Y122.52 E7.62676
G1 X130.078 Y123.387 E7.6556
G1 X130.026 Y124.289 E7.68565
G1 X129.894 Y125.182 E7.71568
G1 X129.683 Y126.061 E7.74574
G1 X129.396 Y126.917 E7.77577
G1 X129.034 Y127.744 E7.8058
G1 X128.6 Y128.536 E7.83584
G1 X128.098 Y129.287 E7.86588
G1 X127.532 Y129.99 E7.8959
G1 X126.905 Y130.641 E7.92596
G1 X126.224 Y131.233 E7.95597
G1 X125.493 Y131.763 E7.986
G1 X124.717 Y132.226 E8.01606
G1 X123.904 Y132.619 E8.04609
G1 X123.059 Y132.939 E8.07615
G1 X122.19 Y133.182 E8.10616
G1 X121.302 Y133.347 E8.1362
G1 X120.166 Y133.443 E8.17412
G1 X119.559 Y133.456 E8.19431
G1 X100.464 Y133.455 E8.82941
G1 X99.766 Y133.446 E8.85263
G1 X98.865 Y133.395 E8.88264
G1 X97.971 Y133.263 E8.9127
G1 X97.093 Y133.054 E8.94272
G1 X96.236 Y132.767 E8.97278
G1 X95.409 Y132.406 E9.00279
G1 X94.616 Y131.973 E9.03284
G1 X93.865 Y131.472 E9.06287
G1 X93.161 Y130.906 E9.09291
G1 X92.51 Y130.28 E9.12295
G1 X91.917 Y129.599 E9.15299
G1 X91.387 Y128.868 E9.18302
G1 X90.923 Y128.093 E9.21306
G1 X90.529 Y127.28 E9.24311
G1 X90.209 Y126.436 E9.27313
G1 X89.965 Y125.566 E9.30318
G1 X89.799 Y124.678 E9.33323
G1 X89.702 Y123.544 E9.37109
G1 X89.69 Y122.788 E9.39623
G1 X89.698 Y122.236 E9.41459
G1 X89.703 Y119.984 E9.4895
G1 X89.7 Y119.587 E9.5027
G1 X89.711 Y119.046 E9.5207
G1 X89.727 Y118.684 E9.53275
G1 X89.814 Y116.008 E9.6218
G1 X89.824 Y113.472 E9.70615
G1 X89.762 Y110.933 E9.79062
G1 X89.626 Y108.346 E9.87679
G1 X89.611 Y108.127 E9.88409
G1 X89.576 Y107.518 E9.90438
G1 X89.555 Y106.905 E9.92478
G1 X89.56 Y103.603 E10.0346
G1 X89.587 Y102.879 E10.0587
G1 X89.647 Y102.052 E10.08628
G1 X89.804 Y99.363 E10.17587
G1 X89.851 Y97.833 E10.22678
G1 X89.901 Y96.399 E10.2745
G1 X89.973 Y95.498 E10.30456
G1 X90.123 Y94.608 E10.33458
G1 X90.352 Y93.734 E10.36463
G1 X90.658 Y92.884 E10.39468
G1 X91.037 Y92.065 E10.4247
G1 X91.487 Y91.282 E10.45473
G1 X92.005 Y90.542 E10.48478
G1 X92.071 Y90.463 E10.4882
G0 F1620 X92.586 Y89.851
G1 F2400 E7.2882
;MESH:FencingTrophy_NAF_letters_foil_epee.stl
G0 F9000 X110.543 Y96.091
G0 X110.528 Y96.866
G0 X110.915 Y97.941
G0 X112.01 Y97.581
G0 X113.249 Y97.418
G0 X113.249 Y97.618
;TYPE:WALL-OUTER
G1 F1440 E10.4882
G1 F1800 X113.049 Y97.618 E10.49485
G1 X112.608 Y97.619 E10.50952
G1 X112.173 Y97.675 E10.52411
G1 X111.813 Y97.856 E10.53751
G1 X111.56 Y98.156 E10.55056
G1 X111.395 Y98.547 E10.56468
G1 X111.303 Y99.055 E10.58185
G1 X111.271 Y99.715 E10.60383
G1 X111.308 Y100.387 E10.62621
G1 X111.415 Y100.939 E10.64491
G1 X111.596 Y101.355 E10.66
G1 X111.878 Y101.653 E10.67365
G1 X112.267 Y101.827 E10.68782
G1 X112.747 Y101.883 E10.70389
G1 X113.249 Y101.883 E10.72059
G1 X113.249 Y97.818 E10.85579
G1 X113.249 Y97.618 E10.8601
G0 F9000 X113.249 Y97.418
G0 X113.91 Y97.902
G0 X113.85 Y98.354
G0 X113.85 Y104.608
G0 X113.904 Y105.085
G0 X114.663 Y106.272
G0 X115.766 Y106.271
G0 X118.636 Y105.514
G0 X118.636 Y97.49
G0 X118.508 Y97.418
G0 X118.508 Y97.618
G1 F1800 X117.016 Y97.618 E10.90972
G1 X116.767 Y97.66 E10.91812
G1 X116.559 Y97.787 E10.92623
G1 X116.366 Y98.051 E10.93711
G1 X116.272 Y98.404 E10.94926
G1 X116.239 Y98.531 E10.95362
G1 X116.225 Y98.656 E10.9578
G1 X116.182 Y99.2 E10.97595
G1 X115.859 Y99.198 E10.9867
G1 X115.868 Y98.65 E11.0022
G1 X115.871 Y98.525 E11.00603
G1 X115.873 Y98.393 E11.01024
G1 X115.9 Y96.944 E11.05845
G1 X120.05 Y96.944 E11.19647
G1 X120.05 Y97.518 E11.21557
G1 X119.701 Y97.548 E11.22722
G1 X119.448 Y97.696 E11.23697
G1 X119.296 Y97.972 E11.24745
G1 X119.247 Y98.417 E11.26234
G1 X119.247 Y104.651 E11.46968
G1 X119.306 Y105.075 E11.48392
G1 X119.456 Y105.334 E11.49387
G1 X119.712 Y105.457 E11.50332
G1 X120.05 Y105.487 E11.5146
G1 X120.05 Y106.744 E11.55641
G1 X99.95 Y106.744 E12.22494
G1 X99.95 Y106.144 E12.2449
G1 X100.017 Y106.144 E12.24713
G1 X99.976 Y104.574 E12.29936
G1 X99.974 Y104.491 E12.30212
G1 X99.955 Y103.798 E12.32518
G1 X100.278 Y103.796 E12.33592
G1 X100.355 Y104.48 E12.35606
G1 X100.375 Y104.56 E12.35874
G1 X100.451 Y104.853 E12.36881
G1 X100.623 Y105.141 E12.37997
G1 X100.817 Y105.296 E12.38822
G1 X101.068 Y105.376 E12.39699
G1 X101.201 Y105.386 E12.40142
G1 X102.889 Y105.386 E12.45757
G1 X102.889 Y101.633 E12.58239
G1 X100.847 Y101.633 E12.65031
G1 X100.847 Y100.96 E12.67269
G1 X102.889 Y100.96 E12.74061
G1 X102.889 Y97.618 E12.85177
G1 X101.399 Y97.618 E12.90132
G1 X101.149 Y97.66 E12.90975
G1 X100.941 Y97.787 E12.91786
G1 X100.745 Y98.057 E12.92896
G1 X100.653 Y98.406 E12.94096
G1 X100.621 Y98.532 E12.94529
G1 X100.607 Y98.656 E12.94944
G1 X100.564 Y99.2 E12.96759
G1 X100.241 Y99.198 E12.97833
G1 X100.249 Y98.651 E12.99388
G1 X100.252 Y98.526 E12.99772
G1 X100.254 Y98.396 E13.00188
G1 X100.281 Y96.944 E13.05018
G1 X104.431 Y96.944 E13.18821
G1 X104.431 Y97.518 E13.20731
G1 X104.083 Y97.548 E13.21892
G1 X103.827 Y97.697 E13.22877
G1 X103.679 Y97.963 E13.2389
G1 X103.629 Y98.418 E13.25412
G1 X103.629 Y104.663 E13.46183
G1 X103.687 Y105.076 E13.4757
G1 X103.832 Y105.33 E13.48543
G1 X104.099 Y105.458 E13.49528
G1 X104.431 Y105.487 E13.50636
G1 X104.431 Y106.144 E13.52822
G1 X105.076 Y106.144 E13.54967
G1 X105.077 Y106.144 E13.5497
G1 X105.281 Y106.144 E13.55649
G1 X105.277 Y105.94 E13.56085
G1 X105.276 Y105.939 E13.5609
G1 X105.237 Y104.589 E13.60582
G1 X105.235 Y104.5 E13.60878
G1 X105.215 Y103.798 E13.63214
G1 X105.537 Y103.796 E13.64285
G1 X105.615 Y104.489 E13.66319
G1 X105.637 Y104.575 E13.66607
G1 X105.707 Y104.847 E13.67542
G1 X105.887 Y105.146 E13.68702
G1 X106.076 Y105.295 E13.69503
G1 X106.328 Y105.376 E13.70383
G1 X106.459 Y105.386 E13.7082
G1 X108.148 Y105.386 E13.76438
G1 X108.148 Y101.633 E13.8892
G1 X106.106 Y101.633 E13.95712
G1 X106.106 Y100.96 E13.9795
G1 X108.148 Y100.96 E14.04742
G1 X108.148 Y97.618 E14.15858
G1 X106.657 Y97.618 E14.20817
G1 X106.407 Y97.661 E14.2166
G1 X106.197 Y97.788 E14.22477
G1 X106.007 Y98.05 E14.23553
G1 X105.912 Y98.409 E14.24788
G1 X105.88 Y98.532 E14.25211
G1 X105.866 Y98.656 E14.25626
G1 X105.823 Y99.2 E14.27441
G1 X105.5 Y99.198 E14.28515
G1 X105.508 Y98.651 E14.30071
G1 X105.511 Y98.526 E14.30455
G1 X105.513 Y98.398 E14.30864
G1 X105.54 Y96.944 E14.35701
G1 X109.69 Y96.944 E14.49504
G1 X109.69 Y97.518 E14.51413
G1 X109.342 Y97.548 E14.52575
G1 X109.088 Y97.696 E14.53553
G1 X108.937 Y97.97 E14.54593
G1 X108.888 Y98.418 E14.56092
G1 X108.888 Y104.663 E14.76863
G1 X108.946 Y105.076 E14.7825
G1 X109.094 Y105.332 E14.79234
G1 X109.35 Y105.457 E14.80181
G1 X109.69 Y105.487 E14.81317
G1 X109.69 Y106.144 E14.83502
G1 X112.276 Y106.144 E14.92103
G1 X112.276 Y105.487 E14.94288
G1 X112.797 Y105.456 E14.96024
G1 X113.051 Y105.326 E14.96973
G1 X113.199 Y105.077 E14.97937
G1 X113.249 Y104.659 E14.99337
G1 X113.249 Y102.557 E15.06328
G1 X112.669 Y102.557 E15.08257
G1 X112.275 Y102.53 E15.09571
G1 X111.942 Y102.452 E15.10708
G1 X111.646 Y102.321 E15.11785
G1 X111.156 Y101.941 E15.13847
G1 X110.797 Y101.414 E15.15968
G1 X110.569 Y100.748 E15.18309
G1 X110.46 Y100.012 E15.20784
G1 X110.46 Y99.23 E15.23385
G1 X110.577 Y98.49 E15.25877
G1 X110.81 Y97.883 E15.28039
G1 X111.148 Y97.432 E15.29914
G1 X111.599 Y97.125 E15.31728
G1 X112.148 Y96.965 E15.3363
G1 X112.486 Y96.944 E15.34757
G1 X114.791 Y96.944 E15.42423
G1 X114.791 Y97.518 E15.44332
G1 X114.445 Y97.549 E15.45488
G1 X114.188 Y97.687 E15.46458
G1 X114.044 Y97.946 E15.47444
G1 X113.989 Y98.363 E15.48843
G1 X113.989 Y104.6 E15.69587
G1 X114.039 Y105.042 E15.71066
G1 X114.189 Y105.309 E15.72085
G1 X114.444 Y105.457 E15.73066
G1 X114.791 Y105.487 E15.74224
G1 X114.791 Y106.144 E15.76409
G1 X115.43 Y106.144 E15.78535
G1 X115.431 Y106.144 E15.78538
G1 X115.635 Y106.144 E15.79216
G1 X115.631 Y105.94 E15.79653
G1 X115.63 Y105.939 E15.79658
G1 X115.595 Y104.58 E15.84179
G1 X115.593 Y104.491 E15.84475
G1 X115.574 Y103.798 E15.86781
G1 X115.897 Y103.796 E15.87855
G1 X115.973 Y104.481 E15.89877
G1 X115.994 Y104.567 E15.90164
G1 X116.066 Y104.848 E15.91129
G1 X116.243 Y105.143 E15.92273
G1 X116.429 Y105.292 E15.93066
G1 X116.688 Y105.376 E15.93971
G1 X116.819 Y105.386 E15.94408
G1 X118.508 Y105.386 E16.00026
G1 X118.508 Y101.633 E16.12508
G1 X116.465 Y101.633 E16.19303
G1 X116.465 Y100.96 E16.21542
G1 X118.508 Y100.96 E16.28337
G1 X118.508 Y98.418 E16.36792
G0 F1620 X118.508 Y97.618
G0 F9000 X119.257 Y97.344
;TYPE:WALL-INNER
G1 F1800 X119.151 Y97.406 E16.372
G1 X119.121 Y97.461 E16.37408
G1 X118.908 Y97.847 E16.38875
G1 X118.908 Y97.406 E16.39311
G1 X118.908 Y97.344 E16.39435
G1 X119.151 Y97.344 E16.39957
G1 X119.257 Y97.344 E16.39972
G0 F9000 X116.516 Y97.344
G1 F1800 X116.355 Y97.443 E16.40601
G1 X116.29 Y97.483 E16.40855
G1 X116.293 Y97.344 E16.41016
G1 X116.516 Y97.344 E16.41195
G0 F9000 X118.636 Y97.49
G0 X118.636 Y105.514
G0 X115.766 Y106.271
G0 X114.663 Y106.272
G0 X113.904 Y105.085
G0 X113.85 Y104.608
G0 X113.85 Y98.354
G0 X113.981 Y97.344
G1 F1800 X113.895 Y97.39 E16.41519
G1 X113.864 Y97.452 E16.4175
G1 X113.649 Y97.876 E16.43331
G1 X113.649 Y97.39 E16.43826
G1 X113.649 Y97.344 E16.43903
G1 X113.895 Y97.344 E16.44418
G1 X113.981 Y97.344 E16.44425
G0 F9000 X112.132 Y97.54
G0 X111.804 Y97.705
G0 X110.966 Y98.592
G1 F1800 X110.905 Y99.009 E16.45827
G1 X110.893 Y99.261 E16.46666
G1 X110.87 Y99.716 E16.48182
G1 X110.884 Y99.978 E16.49054
G1 X110.899 Y100.247 E16.4995
