;FLAVOR:Marlin
;TIME:4627
;Filament used: 2.47293m
;Layer height: 0.2
;MINX:69.301
;MINY:53.067
;MINZ:0.24
;MAXX:149.975
;MAXY:166.607
;MAXZ:11.76
;Generated with Cura_SteamEngine 4.10.0
M82 ;absolute extrusion mode
M201 X500.00 Y500.00 Z100.00 E5000.00 ;Setup machine max acceleration
M203 X500.00 Y500.00 Z10.00 E50.00 ;Setup machine max feedrate
M204 P500.00 R1000.00 T500.00 ;Setup Print/Retract/Travel acceleration
M205 X8.00 Y8.00 Z0.40 E5.00 ;Setup Jerk
M220 S100 ;Reset Feedrate
M221 S100 ;Reset Flowrate

;*** Start Dual Nozzle/Bed Preheating ***
M140 S50 ; start preheating the bed
M104 S200 ?T0 ; start preheating hotend
M190 S50 ; heat to Cura Bed setting and WAIT
M109 S200 ?T0 ; heat to Cura Hotend and WAIT
;*** End Preheating ***

;*** Single Print Start Tone
M300 S1000 P500 ; chirp to indicate starting to print
;*** End Single Start Tone

G28 ;Home

G92 E0 ;Reset Extruder
G1 Z2.0 F3000 ;Move Z Axis up

G1 X10.1 Y20 Z0.28 F5000.0 ;Move to start position
G1 X10.1 Y200.0 Z0.28 F1500.0 E15 ;Draw the first line
G1 X10.4 Y200.0 Z0.28 F5000.0 ;Move to side a little
G1 X10.4 Y20 Z0.28 F1500.0 E30 ;Draw the second line
G92 E0 ;Reset Extruder
G1 Z2.0 F3000 ;Move Z Axis up
G92 E0
G92 E0
G1 F2400 E-3.2
;LAYER_COUNT:74
;LAYER:0
M106 S63.8
M204 S500
M205 X6 Y6
G0 F9000 X76.097 Y67.082 Z0.24
;TYPE:SKIRT
G1 F1440 E0
G1 F1800 X76.14 Y67.036 E0.00251
G1 X76.785 Y66.404 E0.03855
G1 X77.708 Y65.669 E0.08565
G1 X78.089 Y65.4 E0.10426
G1 X78.849 Y64.912 E0.14031
G1 X79.433 Y64.598 E0.16677
G1 X80.397 Y64.119 E0.20974
G1 X80.588 Y64.026 E0.21822
G1 X100.639 Y54.577 E1.1029
G1 X101.262 Y54.294 E1.13021
G1 X101.709 Y54.101 E1.14965
G1 X102.415 Y53.833 E1.17979
G1 X102.696 Y53.738 E1.19163
G1 X103.508 Y53.501 E1.22539
G1 X104.259 Y53.328 E1.25615
G1 X105.149 Y53.174 E1.2922
G1 X105.733 Y53.115 E1.31562
G1 X106.101 Y53.089 E1.33035
G1 X107.066 Y53.067 E1.36887
G1 X107.742 Y53.096 E1.39588
G1 X108.641 Y53.183 E1.43193
G1 X109.51 Y53.345 E1.46721
G1 X110.067 Y53.474 E1.49003
G1 X110.907 Y53.707 E1.52482
G1 X111.182 Y53.796 E1.53636
G1 X112.197 Y54.185 E1.57974
G1 X112.58 Y54.363 E1.5966
G1 X113.59 Y54.856 E1.64145
G1 X113.754 Y54.938 E1.64877
G1 X126.45 Y61.421 E2.21774
G1 X127.074 Y61.751 E2.24591
G1 X127.999 Y62.305 E2.28895
G1 X128.573 Y62.699 E2.31673
G1 X128.854 Y62.903 E2.33059
G1 X129.561 Y63.465 E2.36664
G1 X130.095 Y63.965 E2.39584
G1 X130.269 Y64.14 E2.40569
G1 X130.877 Y64.808 E2.44174
G1 X131.47 Y65.596 E2.4811
G1 X131.757 Y66.018 E2.50147
G1 X132.427 Y67.155 E2.55414
G1 X132.575 Y67.448 E2.56724
G1 X133.001 Y68.412 E2.60931
G1 X133.269 Y69.137 E2.64016
G1 X133.411 Y69.564 E2.65812
G1 X149.194 Y118.275 E4.70178
G1 X149.397 Y118.936 E4.72938
G1 X149.608 Y119.74 E4.76256
G1 X149.731 Y120.331 E4.78665
G1 X149.81 Y120.764 E4.80422
G1 X149.933 Y121.659 E4.84028
G1 X149.975 Y122.706 E4.8821
G1 X149.965 Y123.267 E4.90449
G1 X149.953 Y123.576 E4.91683
G1 X149.845 Y124.713 E4.96242
G1 X149.745 Y125.311 E4.98662
G1 X149.679 Y125.648 E5.00032
G1 X149.408 Y126.719 E5.04442
G1 X149.347 Y126.915 E5.05261
G1 X149.002 Y127.857 E5.09265
G1 X148.725 Y128.512 E5.12103
G1 X148.475 Y129.059 E5.14504
G1 X148.158 Y129.699 E5.17354
G1 X145.058 Y135.775 E5.44579
G1 X144.224 Y137.355 E5.5171
G1 X143.04 Y139.676 E5.62109
G1 X142.464 Y140.869 E5.67396
G1 X141.887 Y142.087 E5.72776
G1 X141.755 Y142.355 E5.73968
G1 X138.696 Y148.349 E6.00827
G1 X138.429 Y148.855 E6.0311
G1 X138.109 Y149.419 E6.05698
G1 X137.748 Y150.009 E6.08459
G1 X137.499 Y150.397 E6.10299
G1 X136.972 Y151.13 E6.13902
G1 X136.406 Y151.788 E6.17366
G1 X136.051 Y152.167 E6.19439
G1 X135.746 Y152.479 E6.2118
G1 X135.069 Y153.099 E6.24844
G1 X134.266 Y153.769 E6.29018
G1 X134.114 Y153.893 E6.29801
G1 X122.068 Y163.556 E6.91437
G1 X121.296 Y164.153 E6.95332
G1 X120.278 Y164.846 E7.00247
G1 X119.976 Y165.026 E7.0165
G1 X119.181 Y165.453 E7.05252
G1 X118.252 Y165.845 E7.09276
G1 X118.063 Y165.914 E7.10079
G1 X116.765 Y166.293 E7.15476
G1 X116.593 Y166.331 E7.16179
G1 X116.033 Y166.438 E7.18455
G1 X115.812 Y166.474 E7.19349
G1 X114.915 Y166.58 E7.22954
G1 X114.172 Y166.607 E7.25921
G1 X114.053 Y166.607 E7.26396
G1 X113.428 Y166.588 E7.28892
G1 X113.086 Y166.567 E7.30259
G1 X111.986 Y166.439 E7.34679
G1 X111.204 Y166.304 E7.37846
G1 X98.191 Y163.883 E7.90675
G1 X97.295 Y163.702 E7.94324
G1 X96.502 Y163.507 E7.97583
G1 X96.301 Y163.449 E7.98418
G1 X95.805 Y163.292 E8.00494
G1 X95.393 Y163.15 E8.02234
G1 X94.553 Y162.819 E8.05837
G1 X93.859 Y162.476 E8.08927
G1 X93.787 Y162.437 E8.09254
G1 X93.106 Y162.033 E8.12414
G1 X92.431 Y161.582 E8.15654
G1 X91.71 Y161.039 E8.19257
G1 X91.087 Y160.48 E8.22597
G1 X90.864 Y160.263 E8.23839
G1 X90.401 Y159.783 E8.26501
G1 X89.714 Y159.021 E8.30596
G1 X89.586 Y158.876 E8.31368
G1 X76.432 Y143.715 E9.11479
G1 X76.025 Y143.239 E9.13979
G1 X75.666 Y142.797 E9.16252
G1 X75.318 Y142.329 E9.18579
G1 X75.194 Y142.152 E9.19442
G1 X74.709 Y141.391 E9.23044
G1 X74.46 Y140.931 E9.25131
G1 X74.327 Y140.67 E9.26301
G1 X73.952 Y139.845 E9.29918
G1 X73.808 Y139.487 E9.31458
G1 X73.508 Y138.635 E9.35063
G1 X73.325 Y137.942 E9.37924
G1 X73.305 Y137.854 E9.38284
G1 X73.192 Y137.284 E9.40603
G1 X73.103 Y136.726 E9.42858
G1 X73.016 Y136.011 E9.45733
G1 X72.744 Y133.382 E9.56282
G1 X72.68 Y132.658 E9.59183
G1 X72.643 Y131.516 E9.63743
G1 X72.667 Y130.885 E9.66263
G1 X72.689 Y130.549 E9.67607
G1 X72.744 Y129.966 E9.69945
G1 X72.807 Y129.468 E9.71948
G1 X73.182 Y126.823 E9.8261
G1 X73.468 Y124.284 E9.92808
G1 X73.682 Y121.752 E10.0295
G1 X73.825 Y119.21 E10.13112
G1 X73.895 Y116.686 E10.23189
G1 X73.893 Y114.152 E10.33303
G1 X73.818 Y111.574 E10.43597
G1 X73.677 Y109.093 E10.53515
G1 X73.456 Y106.522 E10.63814
G1 X73.171 Y104.029 E10.73829
G1 X72.809 Y101.495 E10.84046
G1 X72.379 Y98.991 E10.94186
G1 X71.878 Y96.497 E11.04339
G1 X71.315 Y94.064 E11.14306
G1 X70.667 Y91.58 E11.24552
G1 X69.778 Y88.552 E11.37148
G1 X69.625 Y87.966 E11.39565
G1 X69.561 Y87.688 E11.40703
G1 X69.398 Y86.8 E11.44307
G1 X69.313 Y85.901 E11.47911
G1 X69.301 Y85.333 E11.50178
G1 X69.305 Y84.722 E11.52617
G1 X69.325 Y84.158 E11.5487
G1 X69.332 Y84.045 E11.55321
G1 X69.427 Y83.147 E11.58926
G1 X69.602 Y82.261 E11.6253
G1 X69.726 Y81.801 E11.64432
G1 X69.934 Y81.093 E11.67377
G1 X70.144 Y80.454 E11.70061
G1 X70.588 Y79.244 E11.75206
G1 X73.301 Y71.919 E12.06382
G1 X73.708 Y70.846 E12.10962
G1 X74.065 Y70.016 E12.14569
G1 X74.675 Y68.931 E12.19537
G1 X74.797 Y68.742 E12.20434
G1 X75.392 Y67.915 E12.24501
G1 X75.573 Y67.688 E12.25659
G1 X76.097 Y67.082 E12.28857
G1 F2400 E9.08857
;MESH:CarabinerHook.stl
G0 F9000 X82.217 Y75.304
G0 X83.234 Y75.678
G0 X80.667 Y84.838
G0 X80.698 Y85.415
G0 X82.236 Y90.008
G0 X85.071 Y79.195
G0 X87.676 Y78.194
G0 X89.008 Y77.992
G0 X89.764 Y78.076
G0 X90.894 Y78.447
G0 X91.528 Y78.842
G0 X92.027 Y79.266
G0 X92.541 Y79.885
G0 X92.954 Y80.746
G0 X93.181 Y81.412
G0 X93.252 Y82.059
G0 X93.15 Y83.074
G0 X91.2 Y90.92
G0 X90.911 Y90.84
;TYPE:WALL-OUTER
G1 F1440 E12.28857
G1 F1800 X91.078 Y90.245 E12.31323
G1 X92 Y86.687 E12.45993
G1 X92.89 Y83.264 E12.60109
G1 X92.991 Y82.631 E12.62668
G1 X93.013 Y82.067 E12.64921
G1 X92.946 Y81.464 E12.67342
G1 X92.73 Y80.832 E12.70008
G1 X92.497 Y80.294 E12.72348
G1 X92.344 Y80.021 E12.73597
G1 X91.856 Y79.435 E12.7664
G1 X91.387 Y79.036 E12.79098
G1 X90.788 Y78.662 E12.81917
G1 X90.234 Y78.451 E12.84283
G1 X89.715 Y78.311 E12.86428
G1 X89.212 Y78.236 E12.88458
G1 X89.016 Y78.231 E12.8924
G1 X88.388 Y78.29 E12.91758
G1 X87.75 Y78.423 E12.94359
G1 X87.183 Y78.679 E12.96842
G1 X86.745 Y78.926 E12.98849
G1 X86.318 Y79.271 E13.0104
G1 X85.916 Y79.688 E13.03352
G1 X85.434 Y80.399 E13.0678
G1 X85.228 Y80.889 E13.08902
G1 X85.111 Y81.243 E13.1039
G1 X83.304 Y88.225 E13.39175
G1 X83.202 Y88.775 E13.41407
G1 X83.179 Y89.302 E13.43513
G1 X83.235 Y89.897 E13.45898
G1 X83.315 Y90.318 E13.47608
G1 X83.553 Y90.912 E13.50162
G1 X83.833 Y91.428 E13.52505
G1 X84.097 Y91.778 E13.54255
G1 X84.538 Y92.239 E13.56801
G1 X84.618 Y92.306 E13.57218
G1 X85.274 Y92.717 E13.60308
G1 X85.652 Y92.937 E13.62053
G1 X86.22 Y93.127 E13.64444
G1 X86.363 Y93.16 E13.65029
G1 X86.886 Y93.237 E13.67139
G1 X87.602 Y93.225 E13.69997
G1 X88.075 Y93.164 E13.71901
G1 X88.507 Y93.03 E13.73706
G1 X88.981 Y92.809 E13.75793
G1 X89.259 Y92.698 E13.76988
G1 X89.901 Y92.187 E13.80263
G1 X90.268 Y91.807 E13.82372
G1 X90.644 Y91.276 E13.84969
G1 X90.87 Y90.842 E13.86921
G1 X90.911 Y90.84 E13.87085
G1 F2400 E10.67085
G0 F9000 X91.199 Y90.92
G0 X96.344 Y76.742
G0 X96.632 Y76.077
G0 X97.015 Y75.598
G0 X97.458 Y75.254
G0 X104.336 Y71.206
G0 X104.728 Y71.049
G0 X105.327 Y71.033
G0 X105.715 Y71.169
G0 X119.178 Y78.046
G0 X119.667 Y78.424
G0 X120.04 Y79.063
G0 X133.098 Y119.358
G0 X133.171 Y119.987
G0 X133.128 Y120.334
G0 X132.929 Y120.895
G0 X130.412 Y125.927
G0 X131.947 Y128.369
G0 X131.971 Y128.687
G0 X128.301 Y137.035
G0 X125.319 Y137.32
G0 X121.662 Y143.762
G0 X111.186 Y151.283
G0 X100.443 Y148.51
G0 X90.178 Y135.33
G0 X86.963 Y133.458
G0 X87.849 Y129.927
G0 X87.873 Y129.551
G0 X84.47 Y130.474
G0 X84.263 Y130.595
G0 X84.087 Y130.957
G0 X84.005 Y131.748
G0 X84.391 Y135.355
G0 X84.674 Y135.867
G0 X98.896 Y152.236
G0 X99.21 Y152.445
G0 X99.629 Y152.583
G0 X114.058 Y155.24
G0 X114.466 Y155.08
G0 X127.692 Y144.467
G0 X128.023 Y144.128
G0 X128.342 Y143.624
G0 X131.546 Y137.335
G0 X131.272 Y135.226
G0 X131.558 Y135.314
G1 F1440 E13.87085
G1 F1800 X131.649 Y135.699 E13.88664
G1 X132.592 Y137.153 E13.95581
G1 X132.632 Y137.279 E13.96109
G1 X132.605 Y137.407 E13.96631
G1 X129.183 Y144.113 E14.26679
G1 X128.791 Y144.73 E14.29597
G1 X128.343 Y145.189 E14.32157
G1 X115.022 Y155.877 E15.00322
G1 X114.686 Y156.088 E15.01905
G1 X114.152 Y156.217 E15.04098
G1 X113.758 Y156.2 E15.05672
G1 X99.376 Y153.523 E15.64059
G1 X98.781 Y153.327 E15.6656
G1 X98.276 Y152.991 E15.68981
G1 X98.053 Y152.766 E15.70245
G1 X83.919 Y136.477 E16.5632
G1 X83.668 Y136.138 E16.58004
G1 X83.454 Y135.63 E16.60204
G1 X83.401 Y135.336 E16.61396
G1 X83.031 Y131.762 E16.75737
G1 X83.058 Y131.229 E16.77867
G1 X83.134 Y130.757 E16.79775
G1 X83.274 Y130.302 E16.81675
G1 X83.586 Y129.871 E16.83799
G1 X83.913 Y129.642 E16.85392
G1 X84.122 Y129.562 E16.86286
G1 X88.602 Y128.323 E17.04837
G1 X88.643 Y128.312 E17.05007
G1 X88.907 Y128.316 E17.06061
G1 X88.922 Y128.316 E17.06121
G1 X88.975 Y128.373 E17.06431
G1 X88.973 Y128.416 E17.06603
G1 X88.957 Y128.686 E17.07683
G1 X88.956 Y128.7 E17.07739
G1 X88.788 Y130.305 E17.14179
G1 X88.55 Y130.626 E17.15774
G1 X88.219 Y130.939 E17.17593
G1 X87.929 Y131.329 E17.19532
G1 X87.772 Y131.84 E17.21666
G1 X87.729 Y132.118 E17.22789
G1 X87.764 Y132.691 E17.2508
G1 X87.866 Y133.072 E17.26654
G1 X88.182 Y133.591 E17.29079
G1 X88.536 Y133.919 E17.31005
G1 X88.997 Y134.159 E17.3308
G1 X89.568 Y134.308 E17.35435
G1 X90.184 Y134.345 E17.37898
G1 X90.681 Y134.429 E17.3991
G1 X90.772 Y134.506 E17.40386
G1 X100.557 Y147.219 E18.04415
G1 X101.079 Y147.77 E18.07445
G1 X101.711 Y148.209 E18.10516
G1 X102.33 Y148.475 E18.13205
G1 X102.762 Y148.592 E18.14991
G1 X111.264 Y150.307 E18.49608
G1 X111.818 Y150.285 E18.51821
G1 X112.256 Y150.06 E18.53786
G1 X112.615 Y149.775 E18.55616
G1 X121.019 Y143.033 E18.98618
G1 X121.378 Y142.683 E19.00619
G1 X121.787 Y142.085 E19.0351
G1 X121.837 Y141.997 E19.03914
G1 X124.641 Y136.502 E19.28536
G1 X124.726 Y136.407 E19.29045
G1 X124.849 Y136.367 E19.29561
G1 X127.572 Y136.227 E19.40444
G1 X127.816 Y136.16 E19.41454
G1 X128.048 Y135.946 E19.42713
G1 X131.684 Y128.822 E19.74636
G1 X131.73 Y128.662 E19.75301
G1 X131.712 Y128.427 E19.76241
G1 X131.635 Y128.251 E19.77008
G1 X130.17 Y125.991 E19.87758
G1 X130.184 Y125.751 E19.88717
G1 X132.709 Y120.801 E20.10896
G1 X132.894 Y120.279 E20.13106
G1 X132.93 Y119.986 E20.14284
G1 X132.863 Y119.409 E20.16603
G1 X119.817 Y79.152 E21.85503
G1 X119.626 Y78.759 E21.87247
G1 X119.497 Y78.595 E21.8808
G1 X119.047 Y78.247 E21.90351
G1 X118.975 Y78.208 E21.90677
G1 X105.621 Y71.389 E22.50523
G1 X105.29 Y71.273 E22.51923
G1 X104.777 Y71.287 E22.53971
G1 X104.441 Y71.421 E22.55415
G1 X97.605 Y75.444 E22.87073
G1 X97.592 Y75.457 E22.87146
G1 X97.184 Y75.77 E22.89198
G1 X96.839 Y76.201 E22.91402
G1 X96.571 Y76.821 E22.94098
G1 X96.359 Y77.623 E22.97409
G1 X92.962 Y90.718 E23.51404
G1 X92.7 Y91.436 E23.54454
G1 X92.435 Y92.073 E23.57208
G1 X92.106 Y92.587 E23.59643
G1 X91.896 Y92.858 E23.61012
G1 X91.561 Y93.279 E23.63159
G1 X91.072 Y93.758 E23.65891
G1 X90.468 Y94.214 E23.68912
G1 X89.686 Y94.643 E23.72472
G1 X89.621 Y94.675 E23.72761
G1 X88.874 Y94.944 E23.7593
G1 X88.651 Y95.006 E23.76854
G1 X88.1 Y95.12 E23.79099
G1 X87.647 Y95.173 E23.8092
G1 X87.233 Y95.162 E23.82573
G1 X87.076 Y95.189 E23.83208
G1 X86.298 Y95.113 E23.86328
G1 X86.228 Y95.109 E23.86608
G1 X85.712 Y94.97 E23.88741
G1 X85.145 Y94.829 E23.91073
G1 X84.402 Y94.488 E23.94336
G1 X84.189 Y94.376 E23.95296
G1 X83.652 Y94.033 E23.9784
G1 X83.453 Y93.857 E23.989
G1 X82.743 Y93.188 E24.02793
G1 X82.595 Y93.009 E24.0372
G1 X82.235 Y92.523 E24.06134
G1 X81.955 Y92.062 E24.08287
G1 X81.737 Y91.625 E24.10236
G1 X81.528 Y91.075 E24.12585
G1 X79.759 Y85.665 E24.35302
G1 X79.684 Y85.285 E24.36848
G1 X79.699 Y84.7 E24.39184
G1 X79.808 Y84.307 E24.40811
G1 X80.342 Y82.853 E24.46994
G1 X83.028 Y75.603 E24.77852
G1 X83.222 Y75.069 E24.8012
G1 X83.435 Y74.504 E24.8253
G1 X83.729 Y74.126 E24.84441
G1 X84.131 Y73.854 E24.86378
G1 X105.583 Y63.743 E25.81031
G1 X105.91 Y63.613 E25.82436
G1 X106.509 Y63.473 E25.84891
G1 X107.226 Y63.474 E25.87753
G1 X107.859 Y63.633 E25.90358
G1 X108.223 Y63.79 E25.9194
G1 X122.21 Y70.932 E26.54622
G1 X122.744 Y71.308 E26.57228
G1 X122.917 Y71.482 E26.58208
G1 X123.227 Y71.957 E26.60471
G1 X123.362 Y72.287 E26.61894
G1 X139.461 Y121.976 E28.70363
G1 X139.585 Y122.607 E28.7293
G1 X139.571 Y123.159 E28.75134
G1 X139.479 Y123.658 E28.77159
G1 X139.183 Y124.405 E28.80366
G1 X135.489 Y131.646 E29.1281
G1 X135.4 Y131.743 E29.13335
G1 X135.278 Y131.784 E29.13849
G1 X133.622 Y131.87 E29.20467
G1 X133.433 Y131.907 E29.21236
G1 X133.142 Y132.144 E29.22734
G1 X131.611 Y135.143 E29.36173
G1 X131.558 Y135.314 E29.36888
G1 F2400 E26.16888
G0 F9000 X131.272 Y135.226
G0 X131.546 Y137.335
G0 X128.342 Y143.624
G0 X128.023 Y144.128
G0 X127.692 Y144.467
G0 X114.304 Y155.18
G0 X113.855 Y155.231
G0 X99.629 Y152.583
G0 X99.21 Y152.445
G0 X98.761 Y152.101
G0 X84.518 Y135.654
G0 X84.361 Y135.186
G0 X84.005 Y131.748
G0 X84.154 Y130.744
G0 X84.263 Y130.595
G0 X88.548 Y128.754
;TYPE:WALL-INNER
G1 F1440 E29.36888
G1 F1800 X88.518 Y129.045 E29.38055
G1 X88.401 Y130.156 E29.42514
G1 X88.253 Y130.356 E29.43507
G1 X87.919 Y130.672 E29.45342
G1 X87.567 Y131.146 E29.47699
G1 X87.381 Y131.75 E29.50221
G1 X87.327 Y132.099 E29.51631
G1 X87.367 Y132.756 E29.54258
G1 X87.494 Y133.231 E29.5622
G1 X87.869 Y133.847 E29.59098
G1 X88.304 Y134.249 E29.61462
G1 X88.852 Y134.535 E29.6393
G1 X89.505 Y134.705 E29.66623
G1 X90.139 Y134.743 E29.69158
G1 X90.496 Y134.803 E29.70602
G1 X100.253 Y147.479 E30.34447
G1 X100.817 Y148.075 E30.37722
G1 X101.516 Y148.561 E30.4112
G1 X102.198 Y148.854 E30.44082
G1 X102.67 Y148.982 E30.46034
G1 X111.232 Y150.709 E30.80895
G1 X111.922 Y150.681 E30.83652
G1 X112.474 Y150.398 E30.86127
G1 X112.865 Y150.088 E30.88119
G1 X121.284 Y143.333 E31.312
G1 X121.686 Y142.942 E31.33438
G1 X122.127 Y142.297 E31.36557
G1 X122.189 Y142.187 E31.37061
G1 X124.957 Y136.762 E31.61369
G1 X127.636 Y136.624 E31.72075
G1 X128.016 Y136.52 E31.73648
G1 X128.372 Y136.192 E31.7558
G1 X132.058 Y128.97 E32.07942
G1 X132.134 Y128.703 E32.0905
G1 X132.106 Y128.329 E32.10546
G1 X131.988 Y128.061 E32.11715
G1 X130.577 Y125.882 E32.22076
G1 X130.578 Y125.858 E32.22172
G1 X133.077 Y120.959 E32.44122
G1 X133.286 Y120.371 E32.46613
G1 X133.333 Y119.987 E32.48157
G1 X133.256 Y119.323 E32.50825
G1 X120.189 Y79.002 E34.19994
G1 X119.967 Y78.545 E34.22022
G1 X119.781 Y78.309 E34.23221
G1 X119.266 Y77.911 E34.25819
G1 X119.161 Y77.854 E34.26296
G1 X105.779 Y71.02 E34.86268
G1 X105.353 Y70.871 E34.88069
G1 X104.695 Y70.889 E34.90697
G1 X104.264 Y71.061 E34.92549
G1 X97.358 Y75.125 E35.24531
G1 X97.323 Y75.16 E35.24728
