;FLAVOR:Marlin
;TIME:2482
;Filament used: 1.34266m
;Layer height: 0.2
;MINX:103.9
;MINY:80.597
;MINZ:0.24
;MAXX:116.1
;MAXY:139.403
;MAXZ:8.92
;Generated with Cura_SteamEngine 4.5.0
M140 S50
M105
M190 S50
M104 S215
M105
M109 S215
M82 ;absolute extrusion mode
M201 X500.00 Y500.00 Z100.00 E5000.00 ;Setup machine max acceleration
M203 X500.00 Y500.00 Z10.00 E50.00 ;Setup machine max feedrate
M204 P500.00 R1000.00 T500.00 ;Setup Print/Retract/Travel acceleration
M205 X8.00 Y8.00 Z0.40 E5.00 ;Setup Jerk
M220 S100 ;Reset Feedrate
M221 S100 ;Reset Flowrate

G28 ;Home

G92 E0 ;Reset Extruder
G1 Z2.0 F3000 ;Move Z Axis up
G1 X10.1 Y20 Z0.28 F5000.0 ;Move to start position
G1 X10.1 Y200.0 Z0.28 F1500.0 E15 ;Draw the first line
G1 X10.4 Y200.0 Z0.28 F5000.0 ;Move to side a little
G1 X10.4 Y20 Z0.28 F1500.0 E30 ;Draw the second line
G92 E0 ;Reset Extruder
G1 Z2.0 F3000 ;Move Z Axis up

G92 E0
G92 E0
G1 F1800 E-3
;LAYER_COUNT:56
;LAYER:0
M106 S63.8
M204 S500
M205 X6 Y6
;MESH:CarabinerDoor.STL
G0 F9000 X115.17 Y82.543 Z0.24
;TYPE:WALL-OUTER
G1 F1800 E0
G1 X115.229 Y82.571 E0.00261
G1 X115.302 Y82.694 E0.00832
G1 X115.418 Y83.204 E0.02919
G1 X115.44 Y84.309 E0.0733
G1 X115.441 Y88.038 E0.22213
G1 X115.398 Y88.523 E0.24157
G1 X115.294 Y88.918 E0.25787
G1 X115.221 Y89.029 E0.26317
G1 X115.175 Y89.047 E0.26514
G1 X106.567 Y89.047 E0.60871
G1 X106.361 Y89.178 E0.61845
G1 X106.211 Y89.553 E0.63457
G1 X106.147 Y90.057 E0.65485
G1 X106.147 Y124.324 E2.02252
G1 X106.195 Y124.92 E2.04638
G1 X106.342 Y125.527 E2.07131
G1 X106.586 Y126.103 E2.09628
G1 X106.921 Y126.632 E2.12127
G1 X107.336 Y127.1 E2.14623
G1 X107.82 Y127.494 E2.17114
G1 X108.364 Y127.805 E2.19615
G1 X108.949 Y128.024 E2.22108
G1 X109.562 Y128.144 E2.24601
G1 X110.189 Y128.164 E2.27105
G1 X110.808 Y128.083 E2.29597
G1 X111.407 Y127.903 E2.32093
G1 X111.968 Y127.629 E2.34585
G1 X112.478 Y127.267 E2.37081
G1 X112.923 Y126.827 E2.39579
G1 X113.291 Y126.32 E2.42079
G1 X113.572 Y125.761 E2.44576
G1 X113.759 Y125.165 E2.4707
G1 X113.846 Y124.548 E2.49556
G1 X113.854 Y118.907 E2.72071
G1 X113.852 Y97.257 E3.58481
G1 X113.779 Y96.721 E3.6064
G1 X113.636 Y96.372 E3.62145
G1 X113.429 Y96.252 E3.631
G1 X110.575 Y96.25 E3.74491
G1 X110.58 Y96.217 E3.74624
G1 X110.817 Y95.783 E3.76598
G1 X111.379 Y94.972 E3.80536
G1 X111.681 Y94.56 E3.82575
G1 X111.975 Y94.268 E3.84229
G1 X112.036 Y94.245 E3.84489
G1 X115.166 Y94.242 E3.96981
G1 X115.234 Y94.277 E3.97287
G1 X115.305 Y94.401 E3.97857
G1 X115.419 Y94.904 E3.99915
G1 X115.44 Y102.315 E4.29494
G1 X115.441 Y136.858 E5.67363
G1 X115.396 Y137.27 E5.69017
G1 X115.277 Y137.606 E5.7044
G1 X115.207 Y137.676 E5.70835
G1 X115.188 Y137.681 E5.70913
G1 X104.821 Y137.68 E6.1229
G1 X104.773 Y137.663 E6.12494
G1 X104.684 Y137.537 E6.13109
G1 X104.579 Y137.125 E6.14806
G1 X104.56 Y128.4 E6.4963
G1 X104.559 Y86.995 E8.14886
G1 X104.603 Y86.505 E8.1685
G1 X104.732 Y86.073 E8.18649
G1 X104.788 Y86.009 E8.18988
G1 X105.716 Y85.982 E8.22694
G1 X105.943 Y85.992 E8.23601
G1 X106.048 Y86.1 E8.24202
G1 X106.215 Y86.546 E8.26103
G1 X106.361 Y86.911 E8.27672
G1 X106.567 Y87.042 E8.28646
G1 X112.903 Y87.04 E8.53934
G1 X113.129 Y86.867 E8.5507
G1 X113.277 Y86.389 E8.57067
G1 X113.312 Y86.03 E8.58507
G1 X113.313 Y83.791 E8.67443
G1 X113.322 Y83.267 E8.69535
G1 X113.386 Y82.803 E8.71405
G1 X113.483 Y82.581 E8.72372
G1 X113.513 Y82.556 E8.72527
G1 X114.603 Y82.542 E8.76878
G1 X115.17 Y82.543 E8.79141
G0 F9000 X114.921 Y83.005
G1 F1800 E5.79141
G0 F9000 X114.299 Y83.528
G0 X113.226 Y88.049
G0 X106.498 Y88.809
G0 X106.169 Y89.019
G0 X105.978 Y89.492
G0 X105.908 Y90.042
G0 X105.908 Y124.333
G0 X105.936 Y124.686
G0 X106.23 Y126.289
;TYPE:WALL-INNER
G1 F1800 E8.79141
G1 X106.6 Y126.873 E8.81901
G1 X107.058 Y127.39 E8.84657
G1 X107.593 Y127.825 E8.87409
G1 X108.194 Y128.168 E8.90171
G1 X108.84 Y128.41 E8.92924
G1 X109.517 Y128.543 E8.95678
G1 X110.209 Y128.565 E8.98441
G1 X110.892 Y128.475 E9.01191
G1 X111.553 Y128.277 E9.03945
G1 X112.173 Y127.974 E9.06699
G1 X112.736 Y127.574 E9.09456
G1 X113.228 Y127.088 E9.12216
G1 X113.634 Y126.529 E9.14973
G1 X113.944 Y125.912 E9.17729
G1 X114.15 Y125.253 E9.20485
G1 X114.246 Y124.576 E9.23214
G1 X114.254 Y118.908 E9.45836
G1 X114.252 Y97.23 E10.32358
G1 X114.168 Y96.617 E10.34827
G1 X113.954 Y96.094 E10.37083
G1 X113.537 Y95.852 E10.39007
G1 X111.637 Y95.85 E10.4659
G1 X111.636 Y95.85 E10.46594
G1 X111.257 Y95.85 E10.48107
G1 X111.473 Y95.538 E10.48951
G1 X111.702 Y95.208 E10.50554
G1 X111.984 Y94.823 E10.52459
G1 X112.163 Y94.645 E10.53467
G1 X114.95 Y94.642 E10.6459
G1 X115.019 Y94.948 E10.65842
G1 X115.04 Y102.315 E10.95246
G1 X115.041 Y136.833 E12.33014
G1 X115.003 Y137.181 E12.34412
G1 X114.968 Y137.281 E12.34834
G1 X105.032 Y137.28 E12.74491
G1 X104.979 Y137.073 E12.75344
G1 X104.96 Y128.399 E13.09964
G1 X104.959 Y87.009 E14.7516
G1 X104.997 Y86.581 E14.76875
G1 X105.051 Y86.402 E14.77622
G1 X105.727 Y86.383 E14.80321
G1 X105.842 Y86.69 E14.81629
G1 X106.038 Y87.179 E14.83732
G1 X106.451 Y87.442 E14.85686
G1 X113.039 Y87.44 E15.1198
G1 X113.473 Y87.107 E15.14163
G1 X113.671 Y86.468 E15.16833
G1 X113.712 Y86.05 E15.1851
G1 X113.713 Y83.798 E15.27498
G1 X113.722 Y83.293 E15.29514
G1 X113.769 Y82.953 E15.30884
G1 X114.607 Y82.942 E15.34229
G1 X114.948 Y82.943 E15.3559
G1 X115.019 Y83.253 E15.36859
G1 X115.04 Y84.309 E15.41075
G1 X115.041 Y88.026 E15.5591
G1 X115.003 Y88.45 E15.57609
G1 X114.951 Y88.647 E15.58422
G1 X106.451 Y88.647 E15.92348
G1 X106.038 Y88.91 E15.94302
G1 X105.821 Y89.452 E15.96632
G1 X105.747 Y90.032 E15.98966
G1 X105.747 Y124.34 E17.35896
G1 X105.799 Y124.984 E17.38475
G1 X105.961 Y125.653 E17.41222
G1 X106.23 Y126.289 E17.43978
G0 F9000 X105.874 Y126.475
G1 F1800 X106.279 Y127.114 E17.46998
G1 X106.78 Y127.68 E17.50015
G1 X107.366 Y128.156 E17.53028
G1 X108.024 Y128.531 E17.56051
G1 X108.731 Y128.796 E17.59064
G1 X109.472 Y128.942 E17.62079
G1 X110.229 Y128.966 E17.65102
G1 X110.976 Y128.867 E17.68109
G1 X111.699 Y128.651 E17.71121
G1 X112.378 Y128.319 E17.74137
G1 X112.994 Y127.881 E17.77154
G1 X113.532 Y127.35 E17.80171
G1 X113.977 Y126.738 E17.83191
G1 X114.247 Y126.201 E17.8559
G1 X114.316 Y126.062 E17.8621
G1 X114.541 Y125.341 E17.89224
G1 X114.641 Y124.643 E17.92038
G1 X114.641 Y125.341 E17.92382
G1 X114.641 Y126.062 E17.93899
G1 X114.641 Y126.218 E17.94466
G1 X114.641 Y136.645 E18.36082
G1 X114.641 Y136.808 E18.36733
G1 X114.633 Y136.881 E18.37026
G1 X114.47 Y136.881 E18.37676
G1 X105.379 Y136.88 E18.73961
G1 X105.36 Y128.398 E19.07814
G1 X105.36 Y126.22 E19.16507
G1 X105.36 Y125.779 E19.18267
G1 X105.36 Y125.048 E19.21185
G1 X105.36 Y124.515 E19.23312
G1 X105.403 Y125.048 E19.23431
G1 X105.58 Y125.779 E19.24463
G1 X105.751 Y126.185 E19.25834
G1 X105.874 Y126.475 E19.27091
G1 F1800 E16.27091
G0 F9000 X108.263 Y128.023
G0 X108.884 Y128.255
G0 X109.535 Y128.382
G0 X110.2 Y128.403
G0 X110.858 Y128.318
G0 X111.494 Y128.127
G0 X112.09 Y127.836
G0 X112.632 Y127.451
G0 X113.105 Y126.984
G0 X113.496 Y126.444
G0 X113.795 Y125.851
G0 X113.994 Y125.217
G0 X114.044 Y124.848
G0 X114.625 Y97.006
G1 F1800 E19.27091
G1 X114.557 Y96.512 E19.29082
G1 X114.273 Y95.816 E19.32082
G1 X114.235 Y95.794 E19.32257
G1 X113.645 Y95.452 E19.34979
G1 X112.327 Y95.452 E19.40239
G1 X112.288 Y95.452 E19.40395
G1 X112.021 Y95.451 E19.41461
G1 X112.288 Y95.086 E19.42567
G1 X112.316 Y95.058 E19.42719
G1 X112.329 Y95.045 E19.42793
G1 X114.619 Y95.042 E19.51933
G1 X114.621 Y95.771 E19.54842
G1 X114.621 Y95.815 E19.55008
G1 X114.623 Y96.511 E19.56421
G1 X114.625 Y97.006 E19.56583
G1 F1800 E16.56583
G0 F9000 X114.085 Y124.564
G0 X113.994 Y125.217
G0 X113.795 Y125.851
G0 X113.496 Y126.444
G0 X113.105 Y126.984
G0 X112.632 Y127.451
G0 X112.09 Y127.836
G0 X111.494 Y128.127
G0 X110.858 Y128.318
G0 X110.2 Y128.403
G0 X109.535 Y128.382
G0 X108.884 Y128.255
G0 X108.263 Y128.023
G0 X107.684 Y127.691
G0 X107.17 Y127.273
G0 X106.73 Y126.777
G0 X106.373 Y126.214
G0 X106.114 Y125.602
G0 X105.958 Y124.958
G0 X105.944 Y124.782
G0 X105.359 Y89.913
G1 F1800 E19.56583
G1 X105.359 Y89.351 E19.58826
G1 X105.359 Y88.642 E19.61656
G1 X105.359 Y88.603 E19.61812
G1 X105.359 Y87.447 E19.66425
G1 X105.359 Y87.021 E19.68126
G1 X105.376 Y86.827 E19.68903
G1 X105.379 Y86.793 E19.69039
G1 X105.453 Y86.791 E19.69335
G1 X105.469 Y86.835
G1 X105.518 Y86.957 E19.69434
G1 X105.715 Y87.447 E19.70908
G1 X105.823 Y87.515 E19.71417
G1 X106.335 Y87.842 E19.73842
G1 X113.175 Y87.84 E20.01142
G1 X113.817 Y87.347 E20.04373
G1 X114.065 Y86.548 E20.07712
G1 X114.112 Y86.07 E20.09629
G1 X114.113 Y83.805 E20.18669
G1 X114.121 Y83.348 E20.20493
G1 X114.621 Y83.342 E20.22489
G1 X114.64 Y84.309 E20.26349
G1 X114.641 Y87.93 E20.40801
G1 X114.641 Y88.012 E20.41128
G1 X114.62 Y88.247 E20.4207
G1 X114.538 Y88.247 E20.42397
G1 X106.334 Y88.247 E20.75141
G1 X105.747 Y88.622 E20.77921
G1 X105.715 Y88.642 E20.78065
G1 X105.668 Y88.761 E20.78575
G1 X105.451 Y89.303 E20.79749
G1 X105.431 Y89.351 E20.79956
G1 X105.359 Y89.913 E20.80171
G0 F9000 X105.898 Y88.394
G0 X105.749 Y88.158
;TYPE:SKIN
G1 F1800 X105.749 Y87.931 E20.81077
G1 X105.927 Y88.044 E20.81919
G1 X105.749 Y88.158 E20.82762
G0 F9000 X105.898 Y88.394
G0 X113.794 Y88.137
G0 X113.794 Y87.857
G1 F1800 X114.153 Y87.581 E20.8457
G1 X114.251 Y87.265 E20.8589
G1 X114.251 Y87.857 E20.88253
G1 X113.794 Y87.857 E20.90077
G0 F9000 X113.615 Y87.877
;TYPE:SKIN
G1 F1800 X113.517 Y87.778 E20.90355
G0 F9000 X113.357 Y87.901
G1 F1800 X113.542 Y88.087 E20.90879
G0 F9000 X113.26 Y88.087
G1 F1800 X113.173 Y88 E20.91124
G0 F9000 X112.977 Y88.087
G1 F1800 X112.891 Y88 E20.91368
G0 F9000 X112.694 Y88.087
G1 F1800 X112.608 Y88 E20.91612
G0 F9000 X112.411 Y88.087
G1 F1800 X112.325 Y88 E20.91856
G0 F9000 X112.128 Y88.087
G1 F1800 X112.042 Y88 E20.92101
G0 F9000 X111.845 Y88.087
G1 F1800 X111.759 Y88 E20.92345
G0 F9000 X111.563 Y88.087
G1 F1800 X111.476 Y88 E20.9259
G0 F9000 X111.28 Y88.087
G1 F1800 X111.193 Y88 E20.92836
G0 F9000 X110.997 Y88.087
G1 F1800 X110.911 Y88.001 E20.93078
G0 F9000 X110.714 Y88.087
G1 F1800 X110.628 Y88.001 E20.93321
G0 F9000 X110.431 Y88.087
G1 F1800 X110.346 Y88.001 E20.93562
G0 F9000 X110.148 Y88.087
G1 F1800 X110.063 Y88.001 E20.93804
G0 F9000 X109.866 Y88.087
G1 F1800 X109.78 Y88.001 E20.94047
G0 F9000 X109.583 Y88.087
G1 F1800 X109.497 Y88.001 E20.94289
G0 F9000 X109.3 Y88.087
G1 F1800 X109.214 Y88.001 E20.94532
G0 F9000 X109.017 Y88.087
G1 F1800 X108.931 Y88.001 E20.94775
G0 F9000 X108.734 Y88.087
G1 F1800 X108.649 Y88.001 E20.95016
G0 F9000 X108.451 Y88.087
G1 F1800 X108.366 Y88.002 E20.95256
G0 F9000 X108.168 Y88.087
G1 F1800 X108.084 Y88.002 E20.95494
G0 F9000 X107.886 Y88.087
G1 F1800 X107.801 Y88.002 E20.95734
G0 F9000 X107.603 Y88.087
G1 F1800 X107.518 Y88.002 E20.95974
G0 F9000 X107.32 Y88.087
G1 F1800 X107.235 Y88.002 E20.96214
G0 F9000 X107.037 Y88.087
G1 F1800 X106.952 Y88.002 E20.96454
G0 F9000 X106.754 Y88.087
G1 F1800 X106.669 Y88.002 E20.96694
G0 F9000 X106.471 Y88.087
G1 F1800 X106.387 Y88.002 E20.96932
G0 F9000 X105.62 Y87.801
G1 F1800 X105.518 Y87.699 E20.9722
G0 F9000 X105.518 Y88.264
G1 F1800 X105.708 Y88.454 E20.97756
G0 F9000 X105.735 Y88.498
G0 X112.983 Y87.277
G0 X114.06 Y86.938
G0 X114.105 Y86.952
G1 F1800 X114.239 Y87.086 E20.98135
G0 F9000 X114.481 Y87.045
G1 F1800 X114.172 Y86.736 E20.99007
G0 F9000 X114.228 Y86.509
G1 F1800 X114.481 Y86.762 E20.99721
G0 F9000 X114.481 Y86.479
G1 F1800 X114.253 Y86.252 E21.00363
G0 F9000 X114.481 Y86.197
G1 F1800 X114.271 Y85.987 E21.00955
G0 F9000 X114.48 Y85.913
G1 F1800 X114.271 Y85.704 E21.01545
G0 F9000 X114.48 Y85.63
G1 F1800 X114.271 Y85.421 E21.02135
G0 F9000 X114.48 Y85.347
G1 F1800 X114.271 Y85.138 E21.02725
G0 F9000 X114.479 Y85.064
G1 F1800 X114.271 Y84.856 E21.03312
G0 F9000 X114.479 Y84.781
G1 F1800 X114.271 Y84.573 E21.03899
G0 F9000 X114.479 Y84.498
G1 F1800 X114.271 Y84.29 E21.04486
G0 F9000 X114.477 Y84.213
G1 F1800 X114.271 Y84.007 E21.05067
G0 F9000 X114.472 Y83.925
G1 F1800 X114.273 Y83.726 E21.05629
G0 F9000 X114.465 Y83.635
G1 F1800 X114.336 Y83.506 E21.05993
G1 F1800 E18.05993
G0 F9000 X114.336 Y83.455
G0 X114.442 Y83.527
G0 X114.455 Y88.066
G0 X106.498 Y88.809
G0 X106.169 Y89.019
G0 X105.978 Y89.492
G0 X105.908 Y90.042
G0 X105.908 Y124.333
G0 X105.958 Y124.958
G0 X106.114 Y125.602
G0 X106.373 Y126.214
G0 X106.73 Y126.777
G0 X107.17 Y127.273
G0 X107.684 Y127.691
G0 X108.263 Y128.023
G0 X108.884 Y128.255
G0 X109.535 Y128.382
G0 X110.2 Y128.403
G0 X110.858 Y128.318
G0 X111.494 Y128.127
G0 X112.09 Y127.836
G0 X112.632 Y127.451
G0 X113.105 Y126.984
G0 X113.496 Y126.444
G0 X113.795 Y125.851
G0 X113.994 Y125.217
G0 X114.044 Y124.848
G0 X114.311 Y95.71
G0 X114.336 Y95.668
;TYPE:SKIN
G1 F1800 E21.05993
G1 X113.871 Y95.203 E21.08618
G0 F9000 X113.393 Y95.291
G1 F1800 X113.306 Y95.204 E21.09109
G0 F9000 X112.827 Y95.291
G1 F1800 X112.741 Y95.204 E21.09597
G1 F1800 E18.09597
G0 F9000 X113.825 Y96.207
G0 X114.012 Y96.659
G0 X114.091 Y97.242
G0 X114.086 Y121.831
G0 X114.026 Y126.86
G0 X114.251 Y127.024
G1 F1800 E21.09597
G1 X114.251 Y136.491 E21.47382
G1 X105.769 Y136.49 E21.81235
G1 X105.75 Y127.008 E22.1908
G1 X105.967 Y127.35 E22.20697
G1 X106.509 Y127.963 E22.23962
G1 X107.145 Y128.479 E22.27231
G1 X107.858 Y128.886 E22.30508
G1 X108.624 Y129.172 E22.33771
G1 X109.428 Y129.33 E22.37042
G1 X110.249 Y129.356 E22.4032
G1 X111.058 Y129.249 E22.43577
G1 X111.841 Y129.016 E22.46838
G1 X112.578 Y128.655 E22.50113
G1 X113.246 Y128.181 E22.53382
G1 X113.829 Y127.605 E22.56653
G1 X114.251 Y127.024 E22.59519
G0 F9000 X114.027 Y127.603
G1 F1800 X114.09 Y127.667 E22.59878
G0 F9000 X113.758 Y127.9
G1 F1800 X114.09 Y128.233 E22.61755
G0 F9000 X114.09 Y128.798
G1 F1800 X113.474 Y128.182 E22.65232
G0 F9000 X113.163 Y128.436
G1 F1800 X114.09 Y129.364 E22.70467
G0 F9000 X114.09 Y129.93
G1 F1800 X112.832 Y128.671 E22.7757
G0 F9000 X112.477 Y128.882
G1 F1800 X114.09 Y130.495 E22.86675
G0 F9000 X114.09 Y131.061
G1 F1800 X112.097 Y129.068 E22.97924
G0 F9000 X111.691 Y129.228
G1 F1800 X114.09 Y131.627 E23.11465
G0 F9000 X114.09 Y132.192
G1 F1800 X111.255 Y129.357 E23.27467
G0 F9000 X110.778 Y129.446
G1 F1800 X114.09 Y132.758 E23.46161
G0 F9000 X114.09 Y133.324
G1 F1800 X110.278 Y129.512 E23.67678
G0 F9000 X109.699 Y129.498
G1 F1800 X114.09 Y133.889 E23.92463
G0 F9000 X114.09 Y134.455
G1 F1800 X109.054 Y129.419 E24.20888
G0 F9000 X108.286 Y129.216
G1 F1800 X114.09 Y135.021 E24.53651
G0 F9000 X114.09 Y135.587
G1 F1800 X107.194 Y128.69 E24.92578
G0 F9000 X107.411 Y128.31
G0 X105.563 Y126.257
G0 X105.47 Y128.539
G0 X105.912 Y128.539
G1 F1800 X113.702 Y136.33 E25.36551
G0 F9000 X114.09 Y136.152
G1 F1800 X105.911 Y127.973 E25.82717
G0 F9000 X105.47 Y127.973
G0 X105.471 Y129.107
G0 X105.913 Y129.107
G1 F1800 X113.137 Y136.33 E26.23489
G0 F9000 X112.571 Y136.33
G1 F1800 X105.914 Y129.673 E26.61064
G0 F9000 X105.916 Y130.24
G1 F1800 X112.005 Y136.33 E26.95436
G0 F9000 X111.44 Y136.33
G1 F1800 X105.917 Y130.807 E27.2661
G0 F9000 X105.918 Y131.374
G1 F1800 X110.873 Y136.329 E27.54578
G0 F9000 X110.307 Y136.329
G1 F1800 X105.919 Y131.941 E27.79346
G0 F9000 X105.921 Y132.508
G1 F1800 X109.742 Y136.329 E28.00914
G0 F9000 X109.176 Y136.329
G1 F1800 X105.921 Y133.074 E28.19286
G0 F9000 X105.923 Y133.641
G1 F1800 X108.61 Y136.328 E28.34453
G0 F9000 X108.044 Y136.328
G1 F1800 X105.923 Y134.208 E28.46422
G0 F9000 X105.925 Y134.775
G1 F1800 X107.478 Y136.328 E28.55188
G0 F9000 X106.913 Y136.328
G1 F1800 X105.926 Y135.342 E28.60756
G0 F9000 X105.927 Y135.908
G1 F1800 X106.347 Y136.328 E28.63126
G0 F9000 X106.346 Y136.77
G0 X105.561 Y136.698
G0 X105.47 Y126.856
G0 X105.643 Y126.856
;TYPE:SKIN
G1 F1800 X105.519 Y126.732 E28.63476
G0 F9000 X105.519 Y126.449
G1 F1800 X105.86 Y126.791 E28.6444
G0 F9000 X105.608 Y126.256
G1 F1800 X105.557 Y126.205 E28.64584
G0 F9000 X105.551 Y126.198
G0 X107.684 Y127.691
G0 X108.263 Y128.023
G0 X108.884 Y128.255
G0 X109.535 Y128.382
G0 X110.2 Y128.403
G0 X110.858 Y128.318
G0 X111.494 Y128.127
G0 X111.662 Y128.046
G0 X114.158 Y126.624
G0 X114.2 Y126.645
G1 F1800 X114.463 Y126.908 E28.65326
G0 F9000 X114.481 Y126.643
G1 F1800 X114.295 Y126.457 E28.65851
