;FLAVOR:Marlin
;TIME:1343
;Filament used: 0.6027m
;Layer height: 0.2
;MINX:105.475
;MINY:87.998
;MINZ:0.24
;MAXX:114.525
;MAXY:132.002
;MAXZ:6.68
;Generated with Cura_SteamEngine 4.7.1
M140 S50
M105
M190 S50
M104 S215
M105
M109 S215
M82 ;absolute extrusion mode
M201 X500.00 Y500.00 Z100.00 E5000.00 ;Setup machine max acceleration
M203 X500.00 Y500.00 Z10.00 E50.00 ;Setup machine max feedrate
M204 P500.00 R1000.00 T500.00 ;Setup Print/Retract/Travel acceleration
M205 X8.00 Y8.00 Z0.40 E5.00 ;Setup Jerk
M220 S100 ;Reset Feedrate
M221 S100 ;Reset Flowrate

G28 ;Home

G92 E0 ;Reset Extruder
G1 Z2.0 F3000 ;Move Z Axis up
G1 X10.1 Y20 Z0.28 F5000.0 ;Move to start position
G1 X10.1 Y200.0 Z0.28 F1500.0 E15 ;Draw the first line
G1 X10.4 Y200.0 Z0.28 F5000.0 ;Move to side a little
G1 X10.4 Y20 Z0.28 F1500.0 E30 ;Draw the second line
G92 E0 ;Reset Extruder
G1 Z2.0 F3000 ;Move Z Axis up

G92 E0
G92 E0
G1 F1800 E-3
;LAYER_COUNT:42
;LAYER:0
M106 S63.8
M204 S500
M205 X6 Y6
;MESH:CarabinerDoor.3mf
G0 F9000 X114.027 Y130.546 Z0.24
;TYPE:WALL-OUTER
G1 F1800 E0
G1 X113.913 Y130.796 E0.01097
G1 X113.864 Y130.819 E0.01313
G1 X106.136 Y130.819 E0.32157
G1 X106.082 Y130.793 E0.32396
G1 X105.996 Y130.623 E0.33156
G1 X105.912 Y130.21 E0.34839
G1 X105.909 Y130.153 E0.35066
G1 X105.909 Y92.757 E1.84322
G1 X105.968 Y92.267 E1.86292
G1 X106.08 Y91.948 E1.87641
G1 X106.126 Y91.906 E1.8789
G1 X106.914 Y91.905 E1.91035
G1 X106.966 Y91.934 E1.91272
G1 X107.101 Y92.248 E1.92637
G1 X107.231 Y92.598 E1.94127
G1 X107.419 Y92.698 E1.94977
G1 X112.205 Y92.697 E2.14079
G1 X112.431 Y92.493 E2.15294
G1 X112.51 Y92.032 E2.17161
G1 X112.51 Y90.036 E2.25127
G1 X112.555 Y89.549 E2.27079
G1 X112.641 Y89.346 E2.27959
G1 X112.682 Y89.324 E2.28145
G1 X113.866 Y89.324 E2.3287
G1 X113.895 Y89.337 E2.32997
G1 X113.967 Y89.464 E2.3358
G1 X114.075 Y89.913 E2.35423
G1 X114.091 Y90.172 E2.36459
G1 X114.091 Y93.518 E2.49813
G1 X114.03 Y94.015 E2.51812
G1 X113.919 Y94.328 E2.53137
G1 X113.875 Y94.369 E2.53377
G1 X107.398 Y94.369 E2.79228
G1 X107.184 Y94.543 E2.80329
G1 X107.089 Y94.953 E2.82009
G1 X107.085 Y95.049 E2.82392
G1 X107.085 Y120.769 E3.85046
G1 X107.154 Y121.364 E3.87437
G1 X107.354 Y121.96 E3.89946
G1 X107.679 Y122.501 E3.92465
G1 X108.113 Y122.959 E3.94984
G1 X108.636 Y123.313 E3.97504
G1 X109.221 Y123.546 E4.00017
G1 X109.843 Y123.648 E4.02533
G1 X110.471 Y123.614 E4.05043
G1 X111.077 Y123.445 E4.07554
G1 X111.635 Y123.151 E4.10072
G1 X112.116 Y122.742 E4.12592
G1 X112.498 Y122.24 E4.15109
G1 X112.763 Y121.667 E4.17629
G1 X112.897 Y121.057 E4.20122
G1 X112.914 Y120.742 E4.21381
G1 X112.915 Y100.38 E5.0265
G1 X112.82 Y99.946 E5.04423
G1 X112.601 Y99.771 E5.05542
G1 X110.401 Y99.769 E5.14323
G1 X110.404 Y99.756 E5.14376
G1 X110.562 Y99.491 E5.15607
G1 X111.325 Y98.403 E5.20911
G1 X111.573 Y98.123 E5.22404
G1 X111.626 Y98.101 E5.22633
G1 X113.859 Y98.099 E5.31545
G1 X113.904 Y98.123 E5.31749
G1 X114.017 Y98.405 E5.32961
G1 X114.091 Y98.946 E5.35141
G1 X114.091 Y130.135 E6.59623
G1 X114.027 Y130.546 E6.61283
G0 F9000 X113.606 Y130.379
G1 F1800 E3.61283
G0 F9000 X113.154 Y100.354
G0 X113.046 Y99.868
G0 X111.772 Y98.501
;TYPE:WALL-INNER
G1 F1800 E6.61283
G1 X113.624 Y98.499 E6.68675
G1 X113.628 Y98.509 E6.68718
G1 X113.673 Y98.845 E6.70071
G1 X113.691 Y98.971 E6.70579
G1 X113.691 Y100.231 E6.75608
G1 X113.691 Y100.337 E6.76031
G1 X113.691 Y120.753 E7.57515
G1 X113.691 Y121.111 E7.58944
G1 X113.691 Y121.124 E7.58996
G1 X113.691 Y130.105 E7.94841
G1 X113.642 Y130.419 E7.9611
G1 X106.363 Y130.419 E8.25162
G1 X106.309 Y130.153 E8.26245
G1 X106.309 Y120.992 E8.62809
G1 X106.309 Y120.792 E8.63607
G1 X106.309 Y95.041 E9.66385
G1 X106.309 Y94.899 E9.66951
G1 X106.309 Y94.825 E9.67247
G1 X106.309 Y92.78 E9.75409
G1 X106.353 Y92.422 E9.76848
G1 X106.36 Y92.358 E9.77105
G1 X106.378 Y92.306 E9.77325
G1 X106.691 Y92.305 E9.78574
G1 X106.726 Y92.387 E9.7893
G1 X106.748 Y92.448 E9.79179
G1 X106.909 Y92.88 E9.81019
G1 X107.319 Y93.098 E9.82872
G1 X112.359 Y93.097 E10.02988
G1 X112.802 Y92.697 E10.0537
G1 X112.91 Y92.066 E10.07925
G1 X112.91 Y90.051 E10.15967
G1 X112.94 Y89.724 E10.17278
G1 X113.618 Y89.724 E10.19984
G1 X113.678 Y89.975 E10.21014
G1 X113.691 Y90.181 E10.21838
G1 X113.691 Y93.493 E10.35057
G1 X113.638 Y93.922 E10.36782
G1 X113.622 Y93.969 E10.3698
G1 X107.256 Y93.969 E10.62388
G1 X106.825 Y94.319 E10.64604
G1 X106.707 Y94.827 E10.66686
G1 X106.691 Y94.899 E10.66974
G1 X106.685 Y95.041 E10.67513
G1 X106.685 Y120.792 E11.64366
G1 X106.707 Y120.99 E11.65138
G1 X106.761 Y121.452 E11.66995
G1 X106.989 Y122.129 E11.69846
G1 X107.359 Y122.744 E11.72711
G1 X107.853 Y123.266 E11.75579
G1 X108.448 Y123.669 E11.78447
G1 X109.113 Y123.934 E11.81304
G1 X109.821 Y124.05 E11.84168
G1 X110.536 Y124.011 E11.87026
G1 X111.226 Y123.819 E11.89884
G1 X111.86 Y123.484 E11.92746
G1 X112.408 Y123.019 E11.95615
G1 X112.843 Y122.448 E11.9848
G1 X113.144 Y121.795 E12.0135
G1 X113.293 Y121.123 E12.04097
G1 X113.295 Y121.111 E12.04145
G1 X113.314 Y120.753 E12.05531
G1 X113.315 Y100.337 E12.82421
G1 X113.293 Y100.234 E12.82829
G1 X113.18 Y99.722 E12.84922
G1 X112.741 Y99.371 E12.87165
G1 X111.518 Y99.37 E12.92046
G1 X111.517 Y99.37 E12.9205
G1 X111.135 Y99.37 E12.93575
G1 X111.355 Y99.057 E12.94424
G1 X111.641 Y98.649 E12.96413
G1 X111.772 Y98.501 E12.97202
G0 F9000 X111.953 Y98.901
G1 F1800 X112.88 Y98.9 E13.00902
G1 X113.278 Y98.899 E13.0249
G1 X113.291 Y98.996 E13.02881
G1 X113.291 Y99.299 E13.0409
G1 X113.144 Y99.181 E13.04216
G1 X113.089 Y99.137
G1 X112.881 Y98.971 E13.04612
G1 X111.953 Y98.971 E13.05268
G1 X111.904 Y98.97 E13.05463
G1 X111.953 Y98.901 E13.05583
G0 F9000 X113.033 Y99.813
G0 X113.13 Y100.25
G0 X113.291 Y122.431
G1 F1800 X113.291 Y122.655 E13.06477
G1 X113.291 Y123.093 E13.08225
G1 X113.291 Y130.019 E13.35868
G1 X106.709 Y130.019 E13.62138
G1 X106.709 Y123.073 E13.89861
G1 X106.709 Y122.987 E13.90205
G1 X106.709 Y122.439 E13.92392
G1 X107.039 Y122.987 E13.93605
G1 X107.098 Y123.049 E13.93918
G1 X107.593 Y123.573 E13.96795
G1 X108.26 Y124.025 E14.00011
G1 X109.005 Y124.322 E14.03212
G1 X109.799 Y124.452 E14.06424
G1 X110.601 Y124.408 E14.09629
G1 X111.375 Y124.193 E14.12836
G1 X112.085 Y123.817 E14.16042
G1 X112.7 Y123.296 E14.19259
G1 X112.923 Y123.003 E14.20729
G1 X113.188 Y122.655 E14.2186
G1 X113.291 Y122.431 E14.22045
G1 F1800 E11.22045
G0 F9000 X111.165 Y123.669
G0 X110.51 Y123.852
G0 X109.83 Y123.888
G0 X109.157 Y123.778
G0 X108.524 Y123.526
G0 X107.958 Y123.142
G0 X107.488 Y122.647
G0 X107.135 Y122.06
G0 X106.919 Y121.416
G0 X106.846 Y120.783
G0 X106.851 Y94.921
G0 X106.972 Y94.41
G0 X107.279 Y94.16
G0 X112.513 Y93.569
G1 F1800 E14.22045
G1 X107.219 Y93.569 E14.43174
G1 X107.114 Y93.569 E14.43593
G1 X106.709 Y93.898 E14.45676
G1 X106.709 Y93.227 E14.48354
G1 X107.166 Y93.47 E14.50269
G1 X107.219 Y93.498
G1 X112.513 Y93.497 E14.54055
G1 X113.173 Y92.901 E14.57604
G1 X113.291 Y92.211 E14.60398
G1 X113.291 Y92.901 E14.60797
G1 X113.291 Y93.468 E14.6306
G1 X113.279 Y93.569 E14.63466
G1 X112.513 Y93.569 E14.66523
G1 F1800 E11.66523
G0 F9000 X107.314 Y94.132
G0 X106.972 Y94.41
G0 X106.846 Y95.045
G0 X106.846 Y120.783
G0 X106.919 Y121.416
G0 X107.135 Y122.06
G0 X107.488 Y122.647
G0 X107.958 Y123.142
G0 X108.524 Y123.526
G0 X109.157 Y123.778
G0 X109.83 Y123.888
G0 X110.51 Y123.852
G0 X111.165 Y123.669
G0 X111.77 Y123.351
G0 X112.291 Y122.907
G0 X112.704 Y122.364
G0 X112.866 Y122.013
G0 X113.181 Y123.638
G0 X112.901 Y123.638
;TYPE:SKIN
G1 F1800 E14.66523
G1 X112.901 Y129.629 E14.90435
G1 X107.099 Y129.629 E15.13592
G1 X107.099 Y123.618 E15.37583
G1 X107.339 Y123.872 E15.38978
G1 X108.076 Y124.372 E15.42532
G1 X108.9 Y124.7 E15.46072
G1 X109.778 Y124.844 E15.49623
G1 X110.665 Y124.796 E15.53168
G1 X111.52 Y124.558 E15.56711
G1 X112.305 Y124.142 E15.60257
G1 X112.901 Y123.638 E15.63372
G0 F9000 X112.395 Y124.274
G1 F1800 X112.741 Y124.62 E15.65325
G0 F9000 X112.741 Y125.186
G1 F1800 X112.026 Y124.471 E15.69361
G0 F9000 X111.656 Y124.667
G1 F1800 X112.741 Y125.751 E15.75482
G0 F9000 X112.741 Y126.317
G1 F1800 X111.228 Y124.805 E15.84019
G0 F9000 X110.785 Y124.928
G1 F1800 X112.741 Y126.883 E15.95057
G0 F9000 X112.741 Y127.448
G1 F1800 X110.269 Y124.977 E16.09007
G0 F9000 X109.724 Y124.998
G1 F1800 X112.741 Y128.014 E16.26033
G0 F9000 X112.741 Y128.58
G1 F1800 X109.047 Y124.886 E16.46884
G0 F9000 X108.18 Y124.585
G1 F1800 X112.741 Y129.145 E16.72625
G0 F9000 X112.497 Y129.467
G1 F1800 X107.258 Y124.229 E17.02194
G0 F9000 X107.258 Y124.795
G1 F1800 X111.931 Y129.467 E17.28567
G0 F9000 X111.365 Y129.467
G1 F1800 X107.258 Y125.36 E17.51749
G0 F9000 X107.258 Y125.926
G1 F1800 X110.8 Y129.467 E17.71739
G0 F9000 X110.234 Y129.467
G1 F1800 X107.258 Y126.492 E17.88534
G0 F9000 X107.258 Y127.057
G1 F1800 X109.668 Y129.467 E18.02137
G0 F9000 X109.103 Y129.467
G1 F1800 X107.258 Y127.623 E18.12548
G0 F9000 X107.258 Y128.189
G1 F1800 X108.537 Y129.467 E18.19764
G0 F9000 X107.971 Y129.467
G1 F1800 X107.258 Y128.754 E18.23789
G0 F9000 X107.258 Y129.32
G1 F1800 X107.405 Y129.467 E18.24619
G0 F9000 X107.405 Y129.909
G0 X106.891 Y129.837
G0 X106.905 Y123.129
G0 X107.193 Y123.311
G0 X107.045 Y123.45
;TYPE:SKIN
G1 F1800 X106.869 Y123.274 E18.25115
G0 F9000 X106.819 Y123.274
G0 X106.905 Y123.129
G0 X109.157 Y123.778
G0 X109.83 Y123.888
G0 X110.38 Y123.86
G0 X112.832 Y123.305
G0 X112.87 Y123.335
G1 F1800 X113.045 Y123.511 E18.25611
G0 F9000 X113.131 Y123.313
G1 F1800 X112.992 Y123.175 E18.26002
G0 F9000 X113.17 Y122.221
G1 F1800 X113.377 Y122.145 E18.26474
G1 X113.469 Y121.388 E18.28107
G0 F9000 X113.422 Y121.342
G0 X112.291 Y122.907
G0 X111.77 Y123.351
G0 X111.165 Y123.669
G0 X110.51 Y123.852
G0 X109.83 Y123.888
G0 X109.157 Y123.778
G0 X108.524 Y123.526
G0 X108.204 Y123.309
G0 X106.779 Y122.052
G0 X106.631 Y121.904
G1 F1800 X106.559 Y121.55 E18.28943
G1 X106.598 Y122.155 E18.30345
G1 F1800 E15.30345
G0 F9000 X106.714 Y122.27
G0 X108.524 Y123.526
G0 X109.157 Y123.778
G0 X109.83 Y123.888
G0 X110.51 Y123.852
G0 X111.165 Y123.669
G0 X111.77 Y123.351
G0 X112.291 Y122.907
G0 X112.704 Y122.364
G0 X112.991 Y121.743
G0 X113.153 Y120.748
G0 X113.154 Y100.354
G0 X113.033 Y99.813
G0 X112.719 Y99.562
G0 X110.908 Y99.47
G0 X110.846 Y99.532
G1 F1800 E18.30345
G1 X110.922 Y99.325 E18.30551
G1 X111.59 Y99.145 E18.31197
G1 X111.703 Y98.975 E18.31388
G0 F9000 X111.657 Y98.929
G0 X113.321 Y99.462
G1 F1800 X113.515 Y99.656 E18.31935
G0 F9000 X113.375 Y99.798
G1 F1800 X113.515 Y99.938 E18.3233
G1 F1800 E15.3233
G0 F9000 X113.135 Y121.089
G0 X112.991 Y121.743
G0 X112.704 Y122.364
G0 X112.291 Y122.907
G0 X111.77 Y123.351
G0 X111.165 Y123.669
G0 X110.51 Y123.852
G0 X109.83 Y123.888
G0 X109.157 Y123.778
G0 X108.524 Y123.526
G0 X107.958 Y123.142
G0 X107.488 Y122.647
G0 X107.135 Y122.06
G0 X106.919 Y121.416
G0 X106.846 Y120.783
G0 X106.851 Y94.921
G0 X106.972 Y94.41
G0 X107.279 Y94.16
G0 X113.081 Y93.369
G0 X113.115 Y93.316
G1 F1800 E18.3233
G1 X113.047 Y93.248 E18.32522
G0 F9000 X112.98 Y93.268
G0 X113.26 Y92.047
G1 F1800 X113.084 Y91.87 E18.3302
G0 F9000 X113.299 Y91.803
G1 F1800 X113.299 Y91.52 E18.34309
G1 X113.306 Y90.113 E18.40714
G1 X113.44 Y89.964 E18.41626
G0 F9000 X113.375 Y89.899
G0 X112.651 Y92.614
G0 X112.296 Y92.934
G0 X107.854 Y92.935
G0 X106.71 Y92.851
G0 X106.605 Y92.745
G1 F1800 X106.503 Y92.927 E18.42336
G0 F9000 X106.524 Y92.948
G0 X106.483 Y94.038
G0 X106.575 Y94.129
G1 F1800 X106.548 Y94.385 E18.4294
G1 X106.521 Y94.642 E18.43546
G0 F9000 X106.539 Y94.676
G1 F1800 E15.43546
;MESH:NONMESH
G0 F300 X106.539 Y94.676 Z0.4
G0 F9000 X106.846 Y120.783
G0 X106.919 Y121.416
G0 X107.135 Y122.06
G0 X107.488 Y122.647
G0 X107.958 Y123.142
G0 X108.524 Y123.526
G0 X109.157 Y123.778
G0 X109.83 Y123.888
G0 X110.51 Y123.852
G0 X111.165 Y123.669
G0 X111.77 Y123.351
G0 X112.291 Y122.907
G0 X112.704 Y122.364
G0 X112.991 Y121.743
G0 X113.121 Y120.938
G0 X113.747 Y98.642
G0 X114.214 Y98.58
;TIME_ELAPSED:34.084822
;LAYER:1
M140 S40
M106 S127.5
;TYPE:WALL-OUTER
;MESH:CarabinerDoor.3mf
G1 F1800 E18.43546
G1 F2100 X114.251 Y98.944 E18.4452
G1 X114.25 Y130.173 E19.27614
G1 X114.165 Y130.587 E19.28739
G1 X113.97 Y130.983 E19.29913
G1 X113.887 Y131.044 E19.30187
G1 X106.128 Y131.044 E19.50832
G1 X106.072 Y131.022 E19.50993
G1 X105.9 Y130.746 E19.51858
G1 X105.763 Y130.32 E19.53049
G1 X105.749 Y130.153 E19.53494
G1 X105.749 Y92.752 E20.53011
G1 X105.811 Y92.28 E20.54278
G1 X105.989 Y91.788 E20.5567
G1 X106.093 Y91.639 E20.56154
G1 X106.127 Y91.626 E20.56251
G1 X106.923 Y91.628 E20.58369
G1 X106.983 Y91.66 E20.5855
G1 X107.072 Y91.845 E20.59096
G1 X107.202 Y92.298 E20.6035
G1 X107.416 Y92.419 E20.61004
G1 X110.615 Y92.418 E20.69516
G1 X112.186 Y92.42 E20.73696
G1 X112.405 Y92.275 E20.74395
G1 X112.495 Y91.965 E20.75254
G1 X112.496 Y89.598 E20.81552
G1 X112.554 Y89.173 E20.82693
G1 X112.617 Y89.07 E20.83015
G1 X112.674 Y89.045 E20.8318
G1 X113.868 Y89.046 E20.86357
G1 X113.921 Y89.069 E20.86511
G1 X114.063 Y89.326 E20.87292
G1 X114.214 Y89.806 E20.88631
G1 X114.251 Y90.169 E20.89602
G1 X114.251 Y93.523 E20.98526
G1 X114.19 Y93.992 E20.99785
G1 X114.008 Y94.494 E21.01206
G1 X113.905 Y94.638 E21.01677
G1 X113.876 Y94.648 E21.01758
G1 X107.414 Y94.648 E21.18952
G1 X107.199 Y94.776 E21.19618
G1 X107.1 Y95.101 E21.20522
G1 X107.1 Y120.756 E21.88785
G1 X107.167 Y121.363 E21.9041
G1 X107.335 Y121.881 E21.91859
G1 X107.596 Y122.362 E21.93315
G1 X107.989 Y122.828 E21.94937
G1 X108.503 Y123.222 E21.96661
G1 X109.075 Y123.487 E21.98338
G1 X109.652 Y123.617 E21.99912
G1 X110.309 Y123.623 E22.0166
G1 X110.923 Y123.488 E22.03333
G1 X111.452 Y123.248 E22.04878
G1 X111.988 Y122.85 E22.06655
G1 X112.397 Y122.372 E22.08329
G1 X112.669 Y121.875 E22.09836
G1 X112.835 Y121.353 E22.11294
G1 X112.9 Y120.748 E22.12913
G1 X112.9 Y100.491 E22.66813
G1 X112.797 Y100.171 E22.67707
G1 X112.585 Y100.047 E22.68361
G1 X110.192 Y100.045 E22.74728
G1 X110.259 Y99.925 E22.75094
G1 X111.622 Y97.979 E22.81415
G1 X111.792 Y97.82 E22.82035
G1 X113.88 Y97.822 E22.87591
G1 X113.92 Y97.84 E22.87707
G1 X114.072 Y98.117 E22.88548
G1 X114.214 Y98.58 E22.89837
G0 F9000 X113.783 Y98.667
G1 F1800 E19.89837
G0 F9000 X111.804 Y98.137
G0 X110.594 Y99.827
G0 X112.649 Y99.809
G0 X112.995 Y100.012
G0 X113.139 Y100.454
G0 X113.139 Y120.761
G0 X113.071 Y121.402
G0 X112.89 Y121.969
G0 X112.594 Y122.508
G0 X112.152 Y123.026
G0 X111.574 Y123.455
G0 X110.998 Y123.716
G0 X110.334 Y123.862
G0 X109.625 Y123.856
G0 X108.998 Y123.714
G0 X108.379 Y123.428
G0 X107.823 Y123.002
G0 X107.397 Y122.497
G0 X107.114 Y121.975
G0 X106.931 Y121.413
G0 X106.861 Y120.769
G0 X106.861 Y95.066
G0 X106.972 Y94.706
G0 X107.304 Y94.248
;TYPE:WALL-INNER
G1 F1800 E22.89837
G1 F2100 X106.861 Y94.511 E22.91207
G1 X106.7 Y95.041 E22.92681
G1 X106.7 Y120.778 E23.61163
G1 X106.774 Y121.448 E23.62956
G1 X106.966 Y122.039 E23.6461
G1 X107.264 Y122.589 E23.66274
G1 X107.711 Y123.119 E23.68119
G1 X108.295 Y123.566 E23.70076
G1 X108.946 Y123.868 E23.71985
G1 X109.606 Y124.017 E23.73786
G1 X110.351 Y124.023 E23.75768
G1 X111.05 Y123.87 E23.77672
G1 X111.656 Y123.595 E23.79443
G1 X112.263 Y123.144 E23.81455
G1 X112.728 Y122.6 E23.83359
G1 X113.038 Y122.033 E23.85078
G1 X113.228 Y121.436 E23.86745
G1 X113.3 Y120.769 E23.8853
G1 X113.3 Y100.428 E24.42654
G1 X113.131 Y99.903 E24.44122
G1 X112.694 Y99.647 E24.45469
G1 X111.326 Y99.646 E24.49109
G1 X111.325 Y99.646 E24.49112
G1 X110.943 Y99.646 E24.50128
G1 X111.162 Y99.333 E24.50694
G1 X111.927 Y98.242 E24.5424
G1 X111.949 Y98.22 E24.54323
G1 X113.673 Y98.222 E24.5891
G1 X113.703 Y98.276 E24.59074
G1 X113.807 Y98.616 E24.6002
G1 X113.82 Y98.657 E24.60135
G1 X113.851 Y98.964 E24.60956
G1 X113.85 Y130.132 E25.43888
G1 X113.784 Y130.456 E25.44768
G1 X113.691 Y130.644 E25.45326
G1 X106.308 Y130.644 E25.64971
G1 X106.266 Y130.577 E25.65181
G1 X106.158 Y130.242 E25.66117
G1 X106.149 Y130.132 E25.66411
G1 X106.149 Y92.781 E26.65795
G1 X106.203 Y92.373 E26.6689
G1 X106.319 Y92.052 E26.67798
G1 X106.328 Y92.027 E26.67869
G1 X106.709 Y92.027 E26.68883
G1 X106.716 Y92.052 E26.68952
G1 X106.863 Y92.566 E26.70374
G1 X107.311 Y92.819 E26.71743
G1 X110.615 Y92.818 E26.80535
