;FLAVOR:Marlin
;TIME:3198
;Filament used: 1.743m
;Layer height: 0.2
;MINX:85.625
;MINY:73.438
;MINZ:0.28
;MAXX:133.815
;MAXY:146.317
;MAXZ:8.8
;Generated with Cura_SteamEngine 4.7.1
M140 S110
M105
M190 S110
M104 S240
M105
M109 S240
M82 ;absolute extrusion mode
M201 X500.00 Y500.00 Z100.00 E5000.00 ;Setup machine max acceleration
M203 X500.00 Y500.00 Z10.00 E50.00 ;Setup machine max feedrate
M204 P500.00 R1000.00 T500.00 ;Setup Print/Retract/Travel acceleration
M205 X8.00 Y8.00 Z0.40 E5.00 ;Setup Jerk
M220 S100 ;Reset Feedrate
M221 S100 ;Reset Flowrate

G28 ;Home

G92 E0 ;Reset Extruder
G1 Z2.0 F3000 ;Move Z Axis up
G1 X10.1 Y20 Z0.28 F5000.0 ;Move to start position
G1 X10.1 Y200.0 Z0.28 F1500.0 E15 ;Draw the first line
G1 X10.4 Y200.0 Z0.28 F5000.0 ;Move to side a little
G1 X10.4 Y20 Z0.28 F1500.0 E30 ;Draw the second line
G92 E0 ;Reset Extruder
G1 Z2.0 F3000 ;Move Z Axis up

G92 E0
G92 E0
G1 F1800 E-3
;LAYER_COUNT:55
;LAYER:0
M107
M205 X6 Y6
G0 F9000 X89.063 Y81.997 Z0.28
;TYPE:SKIRT
G1 F1800 E0
G1 F2400 X89.373 Y81.718 E0.01942
G1 X89.859 Y81.415 E0.04609
G1 X106.028 Y73.795 E0.8784
G1 X106.59 Y73.587 E0.90631
G1 X107.104 Y73.472 E0.93083
G1 X107.433 Y73.438 E0.94623
G1 X107.986 Y73.447 E0.97199
G1 X108.324 Y73.494 E0.98788
G1 X108.841 Y73.632 E1.01279
G1 X109.366 Y73.847 E1.03921
G1 X111.475 Y74.925 E1.1495
G1 X119.958 Y79.254 E1.59297
G1 X120.173 Y79.39 E1.60481
G1 X120.673 Y79.773 E1.63414
G1 X120.962 Y80.071 E1.65347
G1 X121.278 Y80.514 E1.67881
G1 X121.556 Y81.107 E1.7093
G1 X121.586 Y81.189 E1.71337
G1 X133.669 Y118.483 E3.53881
G1 X133.711 Y118.647 E3.54669
G1 X133.81 Y119.154 E3.57074
G1 X133.815 Y119.952 E3.6079
G1 X133.777 Y120.219 E3.62046
G1 X133.634 Y120.814 E3.64895
G1 X133.395 Y121.409 E3.67881
G1 X133.363 Y121.476 E3.68227
G1 X130.532 Y127.026 E3.97238
G1 X130.346 Y127.303 E3.98791
G1 X129.99 Y127.6 E4.0095
G1 X129.398 Y127.898 E4.04036
G1 X129.074 Y127.954 E4.05568
G1 X128.507 Y127.984 E4.08211
G1 X127.99 Y128.997 E4.13507
G1 X128.338 Y129.534 E4.16487
G1 X128.485 Y129.834 E4.18042
G1 X128.562 Y130.231 E4.19925
G1 X128.551 Y130.871 E4.22906
G1 X128.424 Y131.238 E4.24714
G1 X125.821 Y136.342 E4.51393
G1 X125.765 Y136.441 E4.51923
G1 X125.459 Y136.937 E4.54636
G1 X125.294 Y137.155 E4.55909
G1 X124.931 Y137.546 E4.58394
G1 X124.781 Y137.685 E4.59346
G1 X114.759 Y145.727 E5.19179
G1 X114.354 Y145.994 E5.21438
G1 X113.92 Y146.175 E5.23628
G1 X113.444 Y146.285 E5.25903
G1 X113.023 Y146.317 E5.27869
G1 X112.492 Y146.268 E5.30352
G1 X103.155 Y144.532 E5.74574
G1 X101.684 Y144.256 E5.81543
G1 X101.501 Y144.209 E5.82423
G1 X101.016 Y144.048 E5.84802
G1 X100.664 Y143.872 E5.86635
G1 X100.241 Y143.581 E5.89026
G1 X99.82 Y143.189 E5.91704
G1 X98.448 Y141.604 E6.01466
G1 X89.215 Y130.966 E6.67056
G1 X88.876 Y130.512 E6.69694
G1 X88.674 Y130.117 E6.7176
G1 X88.475 Y129.505 E6.74757
G1 X88.413 Y129.217 E6.76128
G1 X88.149 Y126.673 E6.88038
G1 X88.144 Y126.461 E6.89025
G1 X88.172 Y125.874 E6.91762
G1 X88.204 Y125.634 E6.92889
G1 X88.348 Y124.993 E6.95948
G1 X88.629 Y124.328 E6.9931
G1 X88.909 Y123.939 E7.01542
G1 X89.272 Y123.583 E7.03909
G1 X89.622 Y123.333 E7.05912
G1 X90.227 Y123.06 E7.09003
G1 X90.514 Y122.982 E7.10388
G1 X93.446 Y122.169 E7.24555
G1 X93.69 Y122.124 E7.25711
G1 X94.206 Y122.076 E7.28124
G1 X94.54 Y122.085 E7.2968
G1 X94.863 Y122.173 E7.31238
G1 X95.293 Y122.423 E7.33555
G1 X95.548 Y122.639 E7.35111
G1 X95.746 Y122.908 E7.36666
G1 X95.941 Y123.551 E7.39795
G1 X95.958 Y123.939 E7.41603
G1 X95.823 Y125.342 E7.48166
G1 X95.751 Y125.668 E7.49721
G1 X95.531 Y126.071 E7.51859
G1 X95.123 Y126.537 E7.54743
G1 X94.963 Y126.668 E7.55706
G1 X95.683 Y126.757 E7.59084
G1 X96.126 Y126.867 E7.61209
G1 X96.434 Y126.999 E7.6277
G1 X96.728 Y127.219 E7.64479
G1 X96.933 Y127.434 E7.65863
G1 X104.154 Y136.814 E8.20983
G1 X104.376 Y137.049 E8.22489
G1 X104.587 Y137.198 E8.23691
G1 X104.993 Y137.346 E8.25704
G1 X110.927 Y138.544 E8.53892
G1 X111.403 Y138.165 E8.56725
G1 X117.204 Y133.509 E8.91362
G1 X117.488 Y133.158 E8.93464
G1 X119.567 Y129.085 E9.14758
G1 X119.753 Y128.808 E9.16311
G1 X120.305 Y128.383 E9.19555
G1 X120.605 Y128.236 E9.21111
G1 X120.995 Y128.16 E9.22961
G1 X122.383 Y128.088 E9.29433
G1 X124.481 Y123.977 E9.50924
G1 X123.748 Y122.846 E9.572
G1 X123.525 Y122.317 E9.59873
G1 X123.512 Y121.693 E9.62779
G1 X123.572 Y121.365 E9.64332
G1 X123.662 Y121.143 E9.65447
G1 X125.508 Y117.52 E9.84381
G1 X125.515 Y117.372 E9.85071
G1 X115.858 Y87.573 E11.30932
G1 X115.83 Y87.548 E11.31107
G1 X106.319 Y82.693 E11.8083
G1 X101.708 Y85.406 E12.05742
G1 X101.524 Y85.579 E12.06918
G1 X101.466 Y85.753 E12.07772
G1 X101.273 Y86.504 E12.11382
G1 X101.163 Y86.91 E12.13341
G1 X98.818 Y95.958 E12.56864
G1 X98.781 Y96.078 E12.57449
G1 X98.525 Y96.794 E12.6099
G1 X98.447 Y96.973 E12.61899
G1 X98.152 Y97.536 E12.64859
G1 X98.035 Y97.722 E12.65882
G1 X97.621 Y98.278 E12.6911
G1 X97.522 Y98.397 E12.6983
G1 X97.028 Y98.927 E12.73204
G1 X96.879 Y99.065 E12.7415
G1 X96.463 Y99.398 E12.76631
G1 X96.266 Y99.53 E12.77735
G1 X95.561 Y99.92 E12.81487
G1 X94.97 Y100.173 E12.8448
G1 X94.787 Y100.234 E12.85379
G1 X94.095 Y100.412 E12.88706
G1 X93.929 Y100.444 E12.89493
G1 X93.428 Y100.51 E12.91846
G1 X93.276 Y100.522 E12.92556
G1 X92.742 Y100.534 E12.95043
G1 X92.587 Y100.528 E12.95765
G1 X92.081 Y100.483 E12.98131
G1 X91.902 Y100.456 E12.98974
G1 X91.397 Y100.344 E13.01382
G1 X91.289 Y100.315 E13.01903
G1 X90.765 Y100.154 E13.04456
G1 X90.567 Y100.077 E13.05445
G1 X89.998 Y99.802 E13.08388
G1 X89.883 Y99.739 E13.08998
G1 X89.413 Y99.455 E13.11555
G1 X89.214 Y99.31 E13.12702
G1 X88.77 Y98.921 E13.1545
G1 X88.674 Y98.828 E13.16073
G1 X88.144 Y98.265 E13.19673
G1 X87.978 Y98.051 E13.20934
G1 X87.629 Y97.496 E13.23987
G1 X87.38 Y97.072 E13.26277
G1 X87.114 Y96.413 E13.29586
G1 X87.081 Y96.324 E13.30028
G1 X85.742 Y92.227 E13.50098
G1 X85.625 Y91.592 E13.53105
G1 X85.63 Y90.905 E13.56304
G1 X85.695 Y90.543 E13.58016
G1 X85.874 Y89.984 E13.6075
G1 X85.893 Y89.929 E13.6102
G1 X86.407 Y88.527 E13.67974
G1 X87.454 Y85.692 E13.82046
G1 X88.023 Y84.159 E13.8966
G1 X88.299 Y83.402 E13.93412
G1 X88.506 Y82.868 E13.96079
G1 X88.805 Y82.31 E13.99027
G1 X89.063 Y81.997 E14.00916
G0 F9000 X89.371 Y82.251
G1 F2400 X89.906 Y81.846 E14.0404
G1 X90.03 Y81.776 E14.04703
G1 X106.199 Y74.156 E14.87935
G1 X106.678 Y73.977 E14.90316
G1 X107.192 Y73.862 E14.92768
G1 X107.426 Y73.838 E14.93864
G1 X107.979 Y73.847 E14.96439
G1 X108.221 Y73.881 E14.97577
G1 X108.738 Y74.019 E15.00069
G1 X109.184 Y74.203 E15.02315
G1 X111.294 Y75.282 E15.1335
G1 X119.777 Y79.611 E15.57697
G1 X119.93 Y79.707 E15.58538
G1 X120.43 Y80.09 E15.61471
G1 X120.636 Y80.303 E15.6285
G1 X120.952 Y80.746 E15.65384
G1 X121.184 Y81.254 E15.67985
G1 X121.205 Y81.313 E15.68276
G1 X133.288 Y118.607 E17.5082
G1 X133.318 Y118.723 E17.51378
G1 X133.417 Y119.23 E17.53783
G1 X133.415 Y119.935 E17.57066
G1 X133.388 Y120.126 E17.57964
G1 X133.245 Y120.721 E17.60814
G1 X133.03 Y121.246 E17.63455
G1 X133.007 Y121.294 E17.63703
G1 X130.176 Y126.844 E17.92714
G1 X130.013 Y127.075 E17.94031
G1 X129.503 Y127.42 E17.96898
G1 X129.242 Y127.526 E17.98209
G1 X129.053 Y127.555 E17.991
G1 X128.256 Y127.597 E18.02816
G1 X127.529 Y129.021 E18.10261
G1 X128.002 Y129.751 E18.14311
G1 X128.121 Y130.007 E18.15626
G1 X128.176 Y130.556 E18.18195
G1 X128.149 Y130.837 E18.1951
G1 X128.068 Y131.056 E18.20597
G1 X125.465 Y136.16 E18.47275
G1 X125.425 Y136.231 E18.47655
G1 X125.119 Y136.727 E18.50369
G1 X125.001 Y136.882 E18.51276
G1 X124.638 Y137.273 E18.5376
G1 X124.531 Y137.373 E18.54442
G1 X114.509 Y145.415 E19.14276
G1 X114.14 Y145.656 E19.16328
G1 X113.83 Y145.785 E19.17891
G1 X113.354 Y145.895 E19.20166
G1 X113.053 Y145.918 E19.21572
G1 X112.565 Y145.875 E19.23853
G1 X103.229 Y144.139 E19.6807
G1 X101.758 Y143.863 E19.7504
G1 X101.627 Y143.829 E19.7567
G1 X101.142 Y143.668 E19.78049
G1 X100.89 Y143.543 E19.79359
G1 X100.467 Y143.252 E19.8175
G1 X100.123 Y142.927 E19.83953
G1 X98.751 Y141.342 E19.93715
G1 X89.517 Y130.703 E20.59312
G1 X89.199 Y130.275 E20.61795
G1 X89.054 Y129.993 E20.63271
G1 X88.855 Y129.381 E20.66268
G1 X88.811 Y129.175 E20.67249
G1 X88.547 Y126.631 E20.79158
G1 X88.543 Y126.48 E20.79861
G1 X88.571 Y125.893 E20.82598
G1 X88.594 Y125.722 E20.83401
G1 X88.738 Y125.081 E20.8646
G1 X88.989 Y124.503 E20.89395
G1 X89.189 Y124.225 E20.90989
G1 X89.552 Y123.869 E20.93357
G1 X89.802 Y123.69 E20.94789
G1 X90.331 Y123.446 E20.97501
G1 X90.621 Y123.367 E20.98901
G1 X93.553 Y122.554 E21.13069
G1 X93.727 Y122.522 E21.13892
G1 X94.243 Y122.474 E21.16305
G1 X94.525 Y122.488 E21.1762
G1 X94.885 Y122.634 E21.19429
G1 X95.285 Y122.944 E21.21786
G1 X95.436 Y123.183 E21.23102
G1 X95.547 Y123.623 E21.25215
G1 X95.559 Y123.901 E21.26511
G1 X95.424 Y125.304 E21.33074
G1 X95.358 Y125.578 E21.34386
G1 X95.025 Y126.068 E21.37145
G1 X94.567 Y126.474 E21.39995
G1 X94.484 Y126.612 E21.40745
G1 X94.476 Y126.759 E21.4143
G1 X94.595 Y126.969 E21.42554
G1 X94.727 Y127.041 E21.43254
G1 X95.634 Y127.154 E21.4751
G1 X96.014 Y127.251 E21.49336
G1 X96.47 Y127.525 E21.51814
G1 X96.616 Y127.678 E21.52798
G1 X103.851 Y137.076 E22.08025
G1 X104.112 Y137.353 E22.09797
G1 X104.391 Y137.55 E22.11388
G1 X104.908 Y137.737 E22.13948
G1 X111.017 Y138.97 E22.42967
G1 X111.035 Y138.969 E22.43051
G1 X111.649 Y138.48 E22.46706
G1 X117.472 Y133.806 E22.81475
G1 X117.635 Y133.649 E22.82529
G1 X117.833 Y133.361 E22.84156
G1 X119.923 Y129.267 E23.0556
G1 X120.086 Y129.037 E23.06873
G1 X120.523 Y128.719 E23.09389
G1 X120.779 Y128.6 E23.10704
G1 X121.015 Y128.559 E23.11819
G1 X122.634 Y128.475 E23.19368
G1 X124.943 Y123.952 E23.43015
G1 X124.084 Y122.628 E23.50364
G1 X123.908 Y122.19 E23.52562
G1 X123.911 Y121.718 E23.54759
G1 X124.018 Y121.325 E23.56656
G1 X125.877 Y117.678 E23.75717
G1 X125.939 Y117.498 E23.76603
G1 X125.906 Y117.278 E23.77639
G1 X116.221 Y87.393 E25.23921
G1 X116.059 Y87.216 E25.25039
G1 X106.305 Y82.236 E25.76035
G1 X101.479 Y85.076 E26.02109
G1 X101.23 Y85.291 E26.03641
G1 X101.085 Y85.633 E26.0537
G1 X100.887 Y86.4 E26.09059
G1 X100.777 Y86.806 E26.11018
G1 X98.431 Y95.858 E26.5456
G1 X98.405 Y95.944 E26.54978
G1 X98.149 Y96.66 E26.58519
G1 X98.093 Y96.787 E26.59165
G1 X97.798 Y97.35 E26.62125
G1 X97.714 Y97.483 E26.62858
G1 X97.3 Y98.039 E26.66085
G1 X97.23 Y98.124 E26.66598
G1 X96.736 Y98.654 E26.69972
G1 X96.629 Y98.753 E26.70651
G1 X96.213 Y99.086 E26.73132
G1 X96.072 Y99.18 E26.73921
G1 X95.367 Y99.57 E26.77673
G1 X94.818 Y99.803 E26.8045
G1 X94.687 Y99.846 E26.81092
G1 X93.995 Y100.024 E26.84419
G1 X93.877 Y100.047 E26.84979
G1 X93.376 Y100.113 E26.87332
G1 X93.267 Y100.122 E26.87841
G1 X92.733 Y100.134 E26.90328
G1 X92.622 Y100.13 E26.90845
G1 X92.116 Y100.085 E26.93211
G1 X91.988 Y100.065 E26.93814
G1 X91.483 Y99.953 E26.96223
G1 X91.406 Y99.933 E26.96593
G1 X90.882 Y99.772 E26.99146
G1 X90.741 Y99.716 E26.99852
G1 X90.172 Y99.441 E27.02795
G1 X90.09 Y99.397 E27.03228
G1 X89.62 Y99.113 E27.05785
G1 X89.478 Y99.009 E27.06605
G1 X89.034 Y98.62 E27.09353
G1 X88.965 Y98.553 E27.09801
G1 X88.435 Y97.99 E27.13402
G1 X88.317 Y97.838 E27.14298
G1 X87.976 Y97.296 E27.17279
G1 X87.751 Y96.922 E27.19312
G1 X87.485 Y96.263 E27.22621
G1 X87.461 Y96.2 E27.22935
G1 X86.122 Y92.103 E27.43005
G1 X86.021 Y91.531 E27.4571
G1 X86.029 Y90.923 E27.48541
G1 X86.076 Y90.665 E27.49762
G1 X86.268 Y90.067 E27.52687
G1 X86.782 Y88.665 E27.5964
G1 X87.829 Y85.831 E27.73708
G1 X88.398 Y84.298 E27.81322
G1 X88.664 Y83.567 E27.84944
G1 X88.875 Y83.022 E27.87666
G1 X89.113 Y82.564 E27.90069
G1 X89.371 Y82.251 E27.91958
G0 F9000 X89.813 Y82.386
G1 F2400 X90.2 Y82.138 E27.94098
G1 X106.369 Y74.518 E28.7733
G1 X106.765 Y74.367 E28.79303
G1 X107.279 Y74.252 E28.81756
G1 X107.42 Y74.238 E28.82416
G1 X107.973 Y74.247 E28.84991
G1 X108.118 Y74.267 E28.85672
G1 X108.635 Y74.405 E28.88164
G1 X109.002 Y74.559 E28.90017
G1 X111.112 Y75.638 E29.01053
G1 X119.595 Y79.967 E29.45399
G1 X119.687 Y80.025 E29.45905
G1 X120.187 Y80.408 E29.48838
G1 X120.31 Y80.536 E29.49665
G1 X120.626 Y80.979 E29.52199
G1 X120.825 Y81.436 E29.5452
G1 X132.908 Y118.73 E31.37063
G1 X132.926 Y118.8 E31.374
G1 X133.025 Y119.307 E31.39805
G1 X133.015 Y119.918 E31.42651
G1 X132.999 Y120.032 E31.43187
G1 X132.856 Y120.627 E31.46036
G1 X132.65 Y121.113 E31.48494
G1 X129.819 Y126.663 E31.77505
G1 X129.587 Y126.908 E31.79076
G1 X129.302 Y127.074 E31.80612
G1 X129.032 Y127.155 E31.81925
G1 X128.004 Y127.21 E31.86718
G1 X127.068 Y129.044 E31.96306
G1 X127.667 Y129.969 E32.01437
G1 X127.762 Y130.268 E32.02898
G1 X127.776 Y130.575 E32.04329
G1 X127.712 Y130.875 E32.05758
G1 X125.109 Y135.979 E32.32436
G1 X125.085 Y136.021 E32.32662
G1 X124.779 Y136.517 E32.35375
G1 X124.708 Y136.61 E32.3592
G1 X124.345 Y137.001 E32.38404
G1 X124.281 Y137.061 E32.38813
G1 X114.259 Y145.103 E32.98646
G1 X113.926 Y145.318 E33.00492
G1 X113.264 Y145.506 E33.03697
G1 X112.702 Y145.49 E33.06315
G1 X112.638 Y145.482 E33.06615
G1 X103.303 Y143.746 E33.50828
G1 X101.832 Y143.47 E33.57797
G1 X101.753 Y143.449 E33.58178
G1 X101.268 Y143.288 E33.60557
G1 X101.117 Y143.213 E33.61342
G1 X100.694 Y142.922 E33.63733
G1 X100.425 Y142.666 E33.65462
G1 X99.053 Y141.081 E33.75223
G1 X89.818 Y130.441 E34.40827
G1 X89.434 Y129.87 E34.44031
G1 X89.235 Y129.258 E34.47028
G1 X89.209 Y129.134 E34.47618
G1 X88.945 Y126.59 E34.59527
G1 X88.943 Y126.499 E34.59951
G1 X88.971 Y125.912 E34.62687
G1 X88.985 Y125.809 E34.63171
G1 X89.129 Y125.168 E34.66231
G1 X89.349 Y124.677 E34.68736
G1 X89.469 Y124.511 E34.6969
G1 X89.832 Y124.155 E34.72057
G1 X90.323 Y123.875 E34.74689
G1 X90.731 Y123.752 E34.76673
G1 X93.66 Y122.94 E34.90826
G1 X93.764 Y122.921 E34.91319
G1 X94.28 Y122.873 E34.93732
G1 X94.498 Y122.892 E34.94751
G1 X94.854 Y123.092 E34.96652
G1 X95.012 Y123.243 E34.9767
G1 X95.115 Y123.485 E34.98894
G1 X95.161 Y123.862 E35.00663
G1 X95.026 Y125.265 E35.07226
G1 X94.901 Y125.578 E35.08795
G1 X94.617 Y125.917 E35.10855
G1 X94.275 Y126.196 E35.1291
G1 X94.095 Y126.506 E35.14579
G1 X94.082 Y126.853 E35.16196
G1 X94.188 Y127.109 E35.17486
G1 X94.338 Y127.282 E35.18552
G1 X94.644 Y127.434 E35.20143
G1 X95.585 Y127.551 E35.24559
G1 X95.902 Y127.635 E35.26086
G1 X96.212 Y127.83 E35.27791
G1 X96.299 Y127.922 E35.28381
G1 X103.544 Y137.334 E35.83687
G1 X103.851 Y137.659 E35.85769
G1 X104.195 Y137.902 E35.8773
G1 X104.82 Y138.128 E35.90825
G1 X110.988 Y139.372 E36.20124
G1 X111.146 Y139.365 E36.20861
G1 X111.243 Y139.314 E36.21371
G1 X111.899 Y138.792 E36.25275
G1 X117.741 Y134.103 E36.60156
G1 X117.939 Y133.911 E36.6144
G1 X118.195 Y133.532 E36.6357
G1 X120.28 Y129.449 E36.84917
G1 X120.488 Y129.219 E36.86361
G1 X120.741 Y129.055 E36.87765
G1 X121.036 Y128.959 E36.8921
G1 X122.886 Y128.863 E36.97836
G1 X125.405 Y123.928 E37.23636
G1 X124.42 Y122.41 E37.32062
G1 X124.354 Y122.285 E37.3272
G1 X124.295 Y121.987 E37.34135
G1 X124.374 Y121.507 E37.364
G1 X126.246 Y117.833 E37.556
G1 X126.347 Y117.52 E37.57132
G1 X126.298 Y117.192 E37.58676
G1 X116.592 Y87.24 E39.05285
G1 X116.518 Y87.087 E39.06076
G1 X116.235 Y86.856 E39.07777
G1 X106.427 Y81.849 E39.59055
G1 X106.242 Y81.825 E39.59923
G1 X106.159 Y81.858 E39.60339
G1 X101.243 Y84.75 E39.86897
G1 X100.922 Y85.028 E39.88875
G1 X100.793 Y85.239 E39.90026
G1 X100.697 Y85.529 E39.91449
G1 X100.501 Y86.295 E39.9513
G1 X100.391 Y86.701 E39.97089
G1 X98.044 Y95.758 E40.40655
G1 X98.028 Y95.809 E40.40904
G1 X97.772 Y96.525 E40.44445
G1 X97.738 Y96.601 E40.44832
G1 X97.443 Y97.164 E40.47792
G1 X97.393 Y97.244 E40.48231
G1 X96.979 Y97.8 E40.51459
G1 X96.937 Y97.851 E40.51767
G1 X96.443 Y98.381 E40.55141
G1 X96.379 Y98.44 E40.55546
G1 X95.963 Y98.773 E40.58027
G1 X95.878 Y98.83 E40.58504
G1 X95.173 Y99.22 E40.62255
G1 X94.666 Y99.433 E40.64816
G1 X94.587 Y99.459 E40.65203
G1 X93.895 Y99.637 E40.6853
G1 X93.824 Y99.651 E40.68867
G1 X93.323 Y99.717 E40.7122
G1 X93.258 Y99.722 E40.71524
G1 X92.724 Y99.734 E40.74011
G1 X92.658 Y99.732 E40.74319
G1 X92.152 Y99.687 E40.76684
G1 X92.075 Y99.675 E40.77047
G1 X91.57 Y99.563 E40.79456
G1 X91.524 Y99.551 E40.79677
G1 X91 Y99.39 E40.82229
G1 X90.915 Y99.356 E40.82656
