;FLAVOR:Marlin
;TIME:5879
;Filament used: 3.57114m
;Layer height: 0.2
;MINX:78.042
;MINY:61.832
;MINZ:0.28
;MAXX:141.353
;MAXY:157.964
;MAXZ:11.68
;Generated with Cura_SteamEngine 4.7.1
M140 S110
M105
M190 S110
M104 S240
M105
M109 S240
M82 ;absolute extrusion mode
M201 X500.00 Y500.00 Z100.00 E5000.00 ;Setup machine max acceleration
M203 X500.00 Y500.00 Z10.00 E50.00 ;Setup machine max feedrate
M204 P500.00 R1000.00 T500.00 ;Setup Print/Retract/Travel acceleration
M205 X8.00 Y8.00 Z0.40 E5.00 ;Setup Jerk
M220 S100 ;Reset Feedrate
M221 S100 ;Reset Flowrate

G28 ;Home

G92 E0 ;Reset Extruder
G1 Z2.0 F3000 ;Move Z Axis up
G1 X10.1 Y20 Z0.28 F5000.0 ;Move to start position
G1 X10.1 Y200.0 Z0.28 F1500.0 E15 ;Draw the first line
G1 X10.4 Y200.0 Z0.28 F5000.0 ;Move to side a little
G1 X10.4 Y20 Z0.28 F1500.0 E30 ;Draw the second line
G92 E0 ;Reset Extruder
G1 Z2.0 F3000 ;Move Z Axis up

G92 E0
G92 E0
G1 F1800 E-3
;LAYER_COUNT:74
;LAYER:0
M107
M205 X6 Y6
G0 F9000 X82.424 Y73.124 Z0.28
;TYPE:SKIRT
G1 F1800 E0
G1 F2400 X82.738 Y72.821 E0.02032
G1 X83.186 Y72.508 E0.04577
G1 X83.391 Y72.39 E0.05678
G1 X104.901 Y62.252 E1.16405
G1 X105.538 Y62.012 E1.19574
G1 X106.123 Y61.875 E1.22372
G1 X106.432 Y61.838 E1.23821
G1 X107.253 Y61.832 E1.27644
G1 X107.604 Y61.874 E1.2929
G1 X108.261 Y62.039 E1.32445
G1 X108.854 Y62.274 E1.35415
G1 X108.941 Y62.315 E1.35863
G1 X110.519 Y63.122 E1.44116
G1 X122.985 Y69.486 E2.09289
G1 X123.188 Y69.61 E2.10397
G1 X123.703 Y69.973 E2.13331
G1 X124.158 Y70.416 E2.16288
G1 X124.31 Y70.609 E2.17432
G1 X124.614 Y71.075 E2.20022
G1 X124.886 Y71.683 E2.23124
G1 X124.919 Y71.772 E2.23566
G1 X141.027 Y121.484 E4.66894
G1 X141.077 Y121.7 E4.67927
G1 X141.199 Y122.319 E4.70865
G1 X141.221 Y122.67 E4.72502
G1 X141.208 Y123.207 E4.75003
G1 X141.185 Y123.428 E4.76038
G1 X141.089 Y123.947 E4.78496
G1 X141.015 Y124.203 E4.79737
G1 X140.717 Y124.963 E4.83538
G1 X140.661 Y125.088 E4.84176
G1 X136.919 Y132.425 E5.22527
G1 X136.571 Y132.882 E5.25201
G1 X136.318 Y133.101 E5.26759
G1 X135.744 Y133.344 E5.29662
G1 X135.391 Y133.408 E5.31332
G1 X134.309 Y133.465 E5.36378
G1 X133.355 Y135.335 E5.46153
G1 X133.984 Y136.305 E5.51536
G1 X134.21 Y136.864 E5.54344
G1 X134.268 Y137.193 E5.55899
G1 X134.197 Y137.762 E5.58569
G1 X134.074 Y138.108 E5.60279
G1 X130.628 Y144.865 E5.95598
G1 X130.546 Y145.009 E5.9637
G1 X130.164 Y145.614 E5.99701
G1 X129.945 Y145.894 E6.01357
G1 X129.497 Y146.353 E6.04343
G1 X129.371 Y146.467 E6.05134
G1 X116.03 Y157.171 E6.84779
G1 X115.525 Y157.499 E6.87583
G1 X115.114 Y157.674 E6.89663
G1 X114.519 Y157.82 E6.92516
G1 X114.102 Y157.858 E6.94466
G1 X113.594 Y157.828 E6.96835
G1 X113.421 Y157.806 E6.97647
G1 X100.149 Y155.337 E7.60508
G1 X99.047 Y155.13 E7.65729
G1 X98.869 Y155.085 E7.66584
G1 X98.252 Y154.883 E7.69607
G1 X97.888 Y154.707 E7.71489
G1 X97.385 Y154.372 E7.74303
G1 X96.917 Y153.952 E7.77232
G1 X96.829 Y153.86 E7.77824
G1 X95.803 Y152.674 E7.85127
G1 X82.679 Y137.551 E8.78365
G1 X82.586 Y137.431 E8.79072
G1 X82.276 Y136.984 E8.81605
G1 X82.137 Y136.732 E8.82945
G1 X81.934 Y136.253 E8.85367
G1 X81.836 Y135.897 E8.87087
G1 X81.741 Y135.205 E8.90339
G1 X81.406 Y131.993 E9.05377
G1 X81.4 Y131.776 E9.06388
G1 X81.439 Y131.016 E9.09931
G1 X81.474 Y130.769 E9.11093
G1 X81.599 Y130.235 E9.13646
G1 X81.762 Y129.727 E9.16131
G1 X81.963 Y129.339 E9.18165
G1 X82.291 Y128.894 E9.2074
G1 X82.746 Y128.459 E9.23671
G1 X83.053 Y128.26 E9.25374
G1 X83.712 Y127.973 E9.28721
G1 X83.932 Y127.914 E9.29782
G1 X88.297 Y126.704 E9.50874
G1 X88.714 Y126.654 E9.52829
G1 X89.399 Y126.715 E9.56031
G1 X89.944 Y126.986 E9.58866
G1 X90.206 Y127.194 E9.60423
G1 X90.411 Y127.458 E9.6198
G1 X90.584 Y127.908 E9.64225
G1 X90.648 Y128.542 E9.67192
G1 X90.56 Y129.45 E9.7144
G1 X90.452 Y130.487 E9.76294
G1 X90.378 Y130.813 E9.77851
G1 X90.18 Y131.182 E9.79801
G1 X89.708 Y131.766 E9.83298
G1 X89.411 Y132.042 E9.85185
G1 X89.356 Y132.239 E9.86138
G1 X89.38 Y132.458 E9.87164
G1 X89.521 Y132.621 E9.88167
G1 X89.941 Y132.702 E9.90159
G1 X90.052 Y132.712 E9.90678
G1 X90.732 Y132.797 E9.93869
G1 X91.208 Y132.911 E9.96148
G1 X91.518 Y133.036 E9.97705
G1 X91.879 Y133.306 E9.99804
G1 X92.08 Y133.518 E10.01164
G1 X101.797 Y146.14 E10.75336
G1 X102.152 Y146.517 E10.77748
G1 X102.483 Y146.754 E10.79643
G1 X103.154 Y146.998 E10.82968
G1 X111.324 Y148.645 E11.21776
G1 X111.398 Y148.645 E11.22121
G1 X111.784 Y148.339 E11.24414
G1 X119.948 Y141.789 E11.73152
G1 X120.14 Y141.6 E11.74407
G1 X120.427 Y141.181 E11.76771
G1 X123.208 Y135.726 E12.05283
G1 X123.57 Y135.256 E12.08045
G1 X123.825 Y135.04 E12.09601
G1 X124.351 Y134.813 E12.12269
G1 X124.724 Y134.742 E12.14037
G1 X126.877 Y134.632 E12.24075
G1 X129.94 Y128.629 E12.55456
G1 X128.797 Y126.869 E12.65228
G1 X128.67 Y126.63 E12.66488
G1 X128.564 Y126.314 E12.6804
G1 X128.556 Y125.621 E12.71267
G1 X128.615 Y125.292 E12.72824
G1 X128.707 Y125.065 E12.73964
G1 X131.202 Y120.169 E12.99552
G1 X131.278 Y119.957 E13.006
G1 X131.256 Y119.768 E13.01486
G1 X118.305 Y79.801 E14.97116
G1 X118.264 Y79.717 E14.97551
G1 X118.15 Y79.628 E14.98225
G1 X105.073 Y72.952 E15.66593
G1 X98.538 Y76.798 E16.01901
G1 X98.251 Y77.066 E16.0373
G1 X98.125 Y77.359 E16.05215
G1 X97.865 Y78.346 E16.09968
G1 X94.548 Y91.138 E16.71502
G1 X94.508 Y91.268 E16.72136
G1 X94.27 Y91.917 E16.75355
G1 X94.048 Y92.484 E16.7819
G1 X93.956 Y92.674 E16.79173
G1 X93.665 Y93.178 E16.81883
G1 X93.617 Y93.255 E16.82305
G1 X93.334 Y93.679 E16.84679
G1 X93.262 Y93.778 E16.85249
G1 X92.828 Y94.319 E16.88479
G1 X92.712 Y94.447 E16.89283
G1 X92.345 Y94.804 E16.91667
G1 X92.289 Y94.855 E16.9202
G1 X91.861 Y95.228 E16.94663
G1 X91.734 Y95.327 E16.95413
G1 X91.312 Y95.617 E16.97797
G1 X90.999 Y95.79 E16.99463
G1 X90.468 Y96.082 E17.02284
G1 X90.16 Y96.225 E17.03866
G1 X89.502 Y96.463 E17.07124
G1 X89.353 Y96.507 E17.07847
G1 X88.575 Y96.694 E17.11573
G1 X88.428 Y96.721 E17.12269
G1 X87.789 Y96.804 E17.1527
G1 X87.633 Y96.816 E17.15998
G1 X87.052 Y96.826 E17.18704
G1 X86.945 Y96.824 E17.19202
G1 X86.426 Y96.793 E17.21623
G1 X86.278 Y96.776 E17.22317
G1 X85.693 Y96.678 E17.25079
G1 X85.248 Y96.549 E17.27236
G1 X84.649 Y96.387 E17.30126
G1 X84.426 Y96.306 E17.3123
G1 X83.781 Y96.007 E17.34541
G1 X83.697 Y95.964 E17.3498
G1 X83.245 Y95.716 E17.37381
G1 X83.115 Y95.637 E17.38089
G1 X82.53 Y95.228 E17.41413
G1 X82.214 Y94.945 E17.43388
G1 X81.62 Y94.387 E17.47183
G1 X81.25 Y93.953 E17.49839
G1 X80.934 Y93.528 E17.52305
G1 X80.852 Y93.406 E17.52989
G1 X80.558 Y92.908 E17.55682
G1 X80.309 Y92.445 E17.5813
G1 X80.072 Y91.866 E17.61043
G1 X79.971 Y91.591 E17.62407
G1 X78.194 Y86.152 E17.89051
G1 X78.064 Y85.503 E17.92133
G1 X78.042 Y85.219 E17.93459
G1 X78.056 Y84.668 E17.96026
G1 X78.103 Y84.344 E17.9755
G1 X78.233 Y83.855 E17.99907
G1 X78.272 Y83.732 E18.00507
G1 X79.012 Y81.717 E18.10503
G1 X80.894 Y76.632 E18.3575
G1 X81.41 Y75.244 E18.42646
G1 X81.656 Y74.569 E18.45991
G1 X81.908 Y73.9 E18.4932
G1 X82.102 Y73.549 E18.51187
G1 X82.424 Y73.124 E18.5367
G0 F9000 X82.743 Y73.365
G1 F2400 X82.967 Y73.149 E18.55119
G1 X83.415 Y72.836 E18.57664
G1 X83.562 Y72.751 E18.58454
G1 X105.072 Y62.613 E19.69181
G1 X105.629 Y62.401 E19.71956
G1 X106.214 Y62.264 E19.74754
G1 X106.435 Y62.238 E19.7579
G1 X107.256 Y62.232 E19.79613
G1 X107.507 Y62.262 E19.8079
G1 X108.164 Y62.427 E19.83945
G1 X108.697 Y62.642 E19.86621
G1 X108.759 Y62.671 E19.8694
G1 X110.338 Y63.479 E19.95199
G1 X122.804 Y69.843 E20.60372
G1 X122.957 Y69.937 E20.61208
G1 X123.472 Y70.3 E20.64142
G1 X123.866 Y70.69 E20.66724
G1 X123.975 Y70.828 E20.67543
G1 X124.279 Y71.294 E20.70133
G1 X124.515 Y71.832 E20.72869
G1 X124.538 Y71.896 E20.73186
G1 X140.646 Y121.608 E23.16514
G1 X140.691 Y121.814 E23.17496
G1 X140.806 Y122.397 E23.20263
G1 X140.821 Y122.66 E23.2149
G1 X140.808 Y123.197 E23.23991
G1 X140.791 Y123.355 E23.24731
G1 X140.695 Y123.874 E23.27188
G1 X140.643 Y124.057 E23.28074
G1 X140.345 Y124.817 E23.31876
G1 X140.305 Y124.906 E23.3233
G1 X136.563 Y132.243 E23.70681
G1 X136.274 Y132.613 E23.72867
G1 X136.057 Y132.793 E23.7418
G1 X135.622 Y132.963 E23.76355
G1 X135.37 Y133.009 E23.77547
G1 X134.057 Y133.078 E23.8367
G1 X132.893 Y135.359 E23.95594
G1 X133.648 Y136.523 E24.02054
G1 X133.827 Y136.98 E24.0434
G1 X133.87 Y137.259 E24.05654
G1 X133.805 Y137.679 E24.07633
G1 X133.718 Y137.926 E24.08853
G1 X130.248 Y144.728 E24.44409
G1 X130.208 Y144.796 E24.44776
G1 X129.826 Y145.401 E24.48108
G1 X129.659 Y145.614 E24.49368
G1 X129.211 Y146.073 E24.52355
G1 X129.121 Y146.155 E24.52922
G1 X115.78 Y156.859 E25.32567
G1 X115.312 Y157.161 E25.3516
G1 X115.018 Y157.285 E25.36646
G1 X114.423 Y157.431 E25.39499
G1 X114.126 Y157.458 E25.40887
G1 X113.618 Y157.428 E25.43257
G1 X113.494 Y157.413 E25.43839
G1 X100.222 Y154.944 E26.06699
G1 X99.12 Y154.737 E26.1192
G1 X98.994 Y154.704 E26.12526
G1 X98.377 Y154.502 E26.1555
G1 X98.11 Y154.374 E26.16928
G1 X97.607 Y154.039 E26.19742
G1 X97.194 Y153.664 E26.2234
G1 X97.132 Y153.598 E26.22762
G1 X96.106 Y152.412 E26.30064
G1 X82.981 Y137.288 E27.23309
G1 X82.914 Y137.203 E27.23813
G1 X82.604 Y136.756 E27.26346
G1 X82.505 Y136.576 E27.27302
G1 X82.302 Y136.097 E27.29725
G1 X82.232 Y135.843 E27.30951
G1 X82.133 Y135.119 E27.34354
G1 X81.803 Y131.952 E27.49181
G1 X81.799 Y131.797 E27.49903
G1 X81.838 Y131.037 E27.53446
G1 X81.863 Y130.86 E27.54279
G1 X81.988 Y130.326 E27.56832
G1 X82.141 Y129.854 E27.59143
G1 X82.285 Y129.577 E27.60597
G1 X82.613 Y129.132 E27.63171
G1 X83.005 Y128.763 E27.65677
G1 X83.647 Y128.421 E27.69065
G1 X84.028 Y128.302 E27.70923
G1 X88.404 Y127.089 E27.92068
G1 X89.056 Y127.064 E27.95106
G1 X89.334 Y127.113 E27.96421
G1 X89.735 Y127.327 E27.98537
G1 X89.952 Y127.507 E27.9985
G1 X90.109 Y127.741 E28.01162
G1 X90.236 Y128.214 E28.03443
G1 X90.25 Y128.503 E28.0479
G1 X90.163 Y129.409 E28.09028
G1 X90.055 Y130.446 E28.13883
G1 X89.986 Y130.719 E28.15194
G1 X89.576 Y131.321 E28.18586
G1 X89.142 Y131.734 E28.21375
G1 X89.045 Y131.864 E28.22131
G1 X88.954 Y132.195 E28.23729
G1 X88.965 Y132.477 E28.25043
G1 X89.122 Y132.803 E28.26728
G1 X89.304 Y132.963 E28.27856
G1 X89.475 Y133.037 E28.28724
G1 X90.002 Y133.109 E28.31201
G1 X90.682 Y133.194 E28.34392
G1 X91.104 Y133.298 E28.36416
G1 X91.491 Y133.502 E28.38453
G1 X91.763 Y133.762 E28.40205
G1 X101.49 Y146.397 E29.14453
G1 X101.887 Y146.818 E29.17148
G1 X102.294 Y147.108 E29.19475
G1 X102.749 Y147.303 E29.2178
G1 X103.059 Y147.387 E29.23276
G1 X111.285 Y149.045 E29.6235
G1 X111.547 Y149.038 E29.6357
G1 X112.032 Y148.653 E29.66453
G1 X120.217 Y142.086 E30.15317
G1 X120.449 Y141.858 E30.16832
G1 X120.759 Y141.404 E30.19391
G1 X120.78 Y141.368 E30.19585
G1 X123.564 Y135.908 E30.48124
G1 X123.864 Y135.528 E30.50378
G1 X124.083 Y135.349 E30.51695
G1 X124.478 Y135.192 E30.53674
G1 X124.745 Y135.141 E30.5494
G1 X127.128 Y135.019 E30.66051
G1 X130.4 Y128.605 E30.99579
G1 X129.132 Y126.652 E31.10421
G1 X128.948 Y126.19 E31.12737
G1 X128.956 Y125.644 E31.1528
G1 X129.063 Y125.247 E31.17194
G1 X131.571 Y120.325 E31.42917
G1 X131.684 Y119.992 E31.44554
G1 X131.647 Y119.677 E31.46031
G1 X118.679 Y79.657 E33.4192
G1 X118.583 Y79.458 E33.42949
G1 X118.365 Y79.289 E33.44234
G1 X105.146 Y72.54 E34.13345
G1 X105.03 Y72.526 E34.13889
G1 X104.963 Y72.552 E34.14224
G1 X98.32 Y76.462 E34.50117
G1 X98.06 Y76.662 E34.51644
G1 X97.905 Y76.859 E34.52812
G1 X97.745 Y77.23 E34.54693
G1 X97.478 Y78.244 E34.59575
G1 X94.161 Y91.038 E35.21119
G1 X94.132 Y91.131 E35.21573
G1 X93.897 Y91.772 E35.24752
G1 X93.675 Y92.339 E35.27587
G1 X93.61 Y92.474 E35.28285
G1 X93.319 Y92.978 E35.30995
G1 X93.285 Y93.033 E35.31296
G1 X93.002 Y93.457 E35.3367
G1 X92.95 Y93.528 E35.34079
G1 X92.516 Y94.069 E35.37309
G1 X92.433 Y94.16 E35.37883
G1 X92.066 Y94.517 E35.40267
G1 X92.026 Y94.554 E35.4052
G1 X91.598 Y94.927 E35.43164
G1 X91.507 Y94.997 E35.43698
G1 X91.085 Y95.287 E35.46083
G1 X90.276 Y95.731 E35.5038
G1 X90.024 Y95.848 E35.51674
G1 X89.366 Y96.086 E35.54932
G1 X89.26 Y96.118 E35.55447
G1 X88.482 Y96.305 E35.59173
G1 X88.377 Y96.325 E35.59671
G1 X87.738 Y96.408 E35.62671
G1 X87.626 Y96.416 E35.63194
G1 X87.045 Y96.426 E35.659
G1 X86.968 Y96.424 E35.66259
G1 X86.449 Y96.393 E35.6868
G1 X86.344 Y96.381 E35.69172
G1 X85.759 Y96.283 E35.71934
G1 X85.357 Y96.164 E35.73886
G1 X84.754 Y96.001 E35.76794
G1 X84.594 Y95.943 E35.77587
G1 X83.949 Y95.644 E35.80897
G1 X83.889 Y95.614 E35.8121
G1 X83.437 Y95.366 E35.8361
G1 X83.344 Y95.31 E35.84116
G1 X82.759 Y94.901 E35.8744
G1 X82.512 Y94.677 E35.88992
G1 X81.894 Y94.096 E35.92942
G1 X81.571 Y93.715 E35.95268
G1 X81.255 Y93.29 E35.97734
G1 X81.196 Y93.202 E35.98227
G1 X80.906 Y92.711 E36.00882
G1 X80.68 Y92.294 E36.03091
G1 X80.429 Y91.68 E36.0618
G1 X80.351 Y91.467 E36.07236
G1 X78.574 Y86.028 E36.3388
G1 X78.458 Y85.432 E36.36707
G1 X78.442 Y85.23 E36.37651
G1 X78.456 Y84.679 E36.40217
G1 X78.49 Y84.447 E36.41309
G1 X78.62 Y83.958 E36.43665
G1 X78.647 Y83.87 E36.44094
G1 X79.387 Y81.856 E36.54085
G1 X81.269 Y76.772 E36.79328
G1 X81.785 Y75.384 E36.86223
G1 X82.03 Y74.71 E36.89562
G1 X82.282 Y74.041 E36.92891
G1 X82.421 Y73.79 E36.94227
G1 X82.743 Y73.365 E36.9671
G0 F9000 X83.062 Y73.607
G1 F2400 X83.196 Y73.477 E36.97579
G1 X83.644 Y73.164 E37.00124
G1 X83.732 Y73.113 E37.00598
G1 X105.242 Y62.975 E38.11325
G1 X105.72 Y62.791 E38.1371
G1 X106.305 Y62.654 E38.16507
G1 X106.438 Y62.638 E38.17131
G1 X107.259 Y62.632 E38.20954
G1 X107.409 Y62.65 E38.21658
G1 X108.066 Y62.815 E38.24812
G1 X108.539 Y63.009 E38.27192
G1 X122.621 Y70.199 E39.00817
G1 X122.727 Y70.264 E39.01396
G1 X123.242 Y70.627 E39.04329
G1 X123.64 Y71.046 E39.0702
G1 X123.944 Y71.512 E39.09611
G1 X124.144 Y71.981 E39.11985
G1 X124.158 Y72.019 E39.12174
G1 X140.266 Y121.731 E41.55502
G1 X140.414 Y122.474 E41.5903
G1 X140.421 Y122.67 E41.59943
G1 X140.408 Y123.188 E41.62356
G1 X140.398 Y123.282 E41.62796
G1 X140.302 Y123.801 E41.65254
G1 X140.271 Y123.911 E41.65786
G1 X139.973 Y124.671 E41.69587
G1 X139.948 Y124.725 E41.69864
G1 X136.206 Y132.062 E42.08215
G1 X135.978 Y132.344 E42.09904
G1 X135.717 Y132.513 E42.11352
G1 X135.349 Y132.609 E42.13123
G1 X133.806 Y132.69 E42.20318
G1 X132.436 Y135.374 E42.34349
G1 X132.444 Y135.402 E42.34485
G1 X133.312 Y136.741 E42.41915
G1 X133.444 Y137.096 E42.43679
G1 X133.457 Y137.393 E42.45063
G1 X133.362 Y137.745 E42.46761
G1 X129.916 Y144.502 E42.8208
G1 X129.869 Y144.582 E42.82512
G1 X129.487 Y145.187 E42.85843
G1 X129.372 Y145.335 E42.86716
G1 X128.924 Y145.794 E42.89703
G1 X128.87 Y145.843 E42.90042
G1 X115.529 Y156.547 E43.69687
G1 X115.099 Y156.822 E43.72064
G1 X114.923 Y156.897 E43.72955
G1 X114.328 Y157.043 E43.75808
G1 X114.15 Y157.059 E43.7664
G1 X113.642 Y157.029 E43.79009
G1 X113.567 Y157.02 E43.79361
G1 X100.296 Y154.551 E44.42217
G1 X99.194 Y154.344 E44.47438
G1 X99.118 Y154.324 E44.47804
G1 X98.501 Y154.122 E44.50827
G1 X98.331 Y154.041 E44.51704
G1 X97.828 Y153.706 E44.54518
G1 X97.434 Y153.337 E44.57031
G1 X96.408 Y152.151 E44.64334
G1 X83.282 Y137.026 E45.57585
G1 X83.243 Y136.975 E45.57884
G1 X82.933 Y136.528 E45.60417
G1 X82.874 Y136.42 E45.6099
G1 X82.671 Y135.941 E45.63412
G1 X82.629 Y135.789 E45.64147
G1 X82.531 Y135.077 E45.67493
G1 X82.201 Y131.91 E45.8232
G1 X82.199 Y131.817 E45.82753
G1 X82.238 Y131.057 E45.86297
G1 X82.253 Y130.951 E45.86795
G1 X82.378 Y130.417 E45.89349
G1 X82.607 Y129.814 E45.92353
G1 X82.935 Y129.369 E45.94927
G1 X83.264 Y129.068 E45.97003
G1 X83.818 Y128.783 E45.99904
G1 X84.14 Y128.687 E46.01469
G1 X88.511 Y127.475 E46.2259
G1 X89.044 Y127.464 E46.25072
G1 X89.34 Y127.553 E46.26511
G1 X89.687 Y127.814 E46.28533
G1 X89.799 Y128.062 E46.298
G1 X89.852 Y128.465 E46.31693
G1 X89.765 Y129.367 E46.35913
G1 X89.657 Y130.404 E46.40767
G1 X89.54 Y130.702 E46.42258
G1 X89.175 Y131.169 E46.45018
G1 X88.843 Y131.465 E46.47089
G1 X88.679 Y131.686 E46.48371
G1 X88.551 Y132.148 E46.50603
G1 X88.568 Y132.55 E46.52477
G1 X88.647 Y132.794 E46.53671
G1 X88.813 Y133.063 E46.55143
G1 X89.088 Y133.305 E46.56848
G1 X89.359 Y133.423 E46.58225
G1 X89.905 Y133.502 E46.60794
G1 X89.952 Y133.506 E46.61013
G1 X90.632 Y133.591 E46.64204
G1 X90.999 Y133.684 E46.65967
