;FLAVOR:Marlin
;TIME:5621
;Filament used: 3.96353m
;Layer height: 0.2
;MINX:78.644
;MINY:62.054
;MINZ:0.24
;MAXX:141.351
;MAXY:157.946
;MAXZ:11.76
;Generated with Cura_SteamEngine 4.5.0
M140 S50
M105
M190 S50
M104 S215
M105
M109 S215
M82 ;absolute extrusion mode
M201 X500.00 Y500.00 Z100.00 E5000.00 ;Setup machine max acceleration
M203 X500.00 Y500.00 Z10.00 E50.00 ;Setup machine max feedrate
M204 P500.00 R1000.00 T500.00 ;Setup Print/Retract/Travel acceleration
M205 X8.00 Y8.00 Z0.40 E5.00 ;Setup Jerk
M220 S100 ;Reset Feedrate
M221 S100 ;Reset Flowrate

G28 ;Home

G92 E0 ;Reset Extruder
G1 Z2.0 F3000 ;Move Z Axis up
G1 X10.1 Y20 Z0.28 F5000.0 ;Move to start position
G1 X10.1 Y200.0 Z0.28 F1500.0 E15 ;Draw the first line
G1 X10.4 Y200.0 Z0.28 F5000.0 ;Move to side a little
G1 X10.4 Y20 Z0.28 F1500.0 E30 ;Draw the second line
G92 E0 ;Reset Extruder
G1 Z2.0 F3000 ;Move Z Axis up

G92 E0
G92 E0
G1 F1800 E-3
;LAYER_COUNT:74
;LAYER:0
M106 S63.8
M204 S500
M205 X6 Y6
;MESH:CarabinerHook.STL
G0 F9000 X79.752 Y85.674 Z0.24
;TYPE:WALL-OUTER
G1 F1800 E0
G1 X79.659 Y85.189 E0.01971
G1 X79.691 Y84.71 E0.03887
G1 X79.829 Y84.252 E0.05796
G1 X83.244 Y74.983 E0.45222
G1 X83.436 Y74.519 E0.47226
G1 X83.73 Y74.139 E0.49144
G1 X84.15 Y73.857 E0.51163
G1 X85.709 Y73.124 E0.58038
G1 X105.579 Y63.762 E1.45706
G1 X106.178 Y63.549 E1.48243
G1 X106.701 Y63.475 E1.50351
G1 X107.204 Y63.488 E1.5236
G1 X107.842 Y63.644 E1.54981
G1 X109.262 Y64.34 E1.61293
G1 X122.211 Y70.948 E2.19315
G1 X122.7 Y71.28 E2.21675
G1 X123.03 Y71.648 E2.23647
G1 X123.243 Y72.009 E2.2532
G1 X124.15 Y74.739 E2.36802
G1 X139.461 Y121.976 E4.34991
G1 X139.583 Y122.597 E4.37517
G1 X139.57 Y123.145 E4.39705
G1 X139.476 Y123.654 E4.41771
G1 X139.194 Y124.374 E4.44857
G1 X135.489 Y131.632 E4.77382
G1 X135.373 Y131.751 E4.78045
G1 X135.28 Y131.774 E4.78427
G1 X133.607 Y131.862 E4.85114
G1 X133.282 Y131.972 E4.86483
G1 X133.108 Y132.197 E4.87618
G1 X131.606 Y135.145 E5.00824
G1 X131.556 Y135.443 E5.0203
G1 X131.656 Y135.701 E5.03134
G1 X132.588 Y137.137 E5.09967
G1 X132.632 Y137.295 E5.10621
G1 X132.605 Y137.393 E5.11027
G1 X129.193 Y144.079 E5.40986
G1 X128.801 Y144.703 E5.43927
G1 X128.326 Y145.191 E5.46645
G1 X127.393 Y145.937 E5.51413
G1 X115.027 Y155.857 E6.14687
G1 X114.68 Y156.072 E6.16316
G1 X114.237 Y156.198 E6.18154
G1 X113.737 Y156.18 E6.20151
G1 X99.375 Y153.508 E6.78457
G1 X98.794 Y153.316 E6.80899
G1 X98.507 Y153.152 E6.82218
G1 X98.054 Y152.752 E6.8463
G1 X96.992 Y151.525 E6.91107
G1 X83.872 Y136.412 E7.70985
G1 X83.646 Y136.09 E7.72555
G1 X83.457 Y135.629 E7.74544
G1 X83.377 Y135.085 E7.76738
G1 X83.042 Y131.87 E7.89639
G1 X83.031 Y131.382 E7.91588
G1 X83.13 Y130.731 E7.94216
G1 X83.296 Y130.229 E7.96326
G1 X83.52 Y129.934 E7.97805
G1 X83.74 Y129.737 E7.98983
G1 X84.121 Y129.554 E8.0067
G1 X88.66 Y128.299 E8.19466
G1 X88.888 Y128.279 E8.20379
G1 X88.962 Y128.317 E8.20712
G1 X88.983 Y128.372 E8.20946
G1 X88.834 Y129.967 E8.2734
G1 X88.769 Y130.376 E8.28993
G1 X88.42 Y130.745 E8.3102
G1 X88.07 Y131.152 E8.33163
G1 X87.818 Y131.682 E8.35505
G1 X87.729 Y132.273 E8.3789
G1 X87.818 Y132.863 E8.40272
G1 X88.075 Y133.402 E8.42655
G1 X88.479 Y133.843 E8.45042
G1 X88.994 Y134.147 E8.47429
G1 X89.568 Y134.284 E8.49784
G1 X90.295 Y134.342 E8.52695
G1 X90.633 Y134.398 E8.54063
G1 X90.779 Y134.506 E8.54787
G1 X100.558 Y147.203 E9.18752
G1 X101.071 Y147.749 E9.21742
G1 X101.538 Y148.087 E9.24043
G1 X102.029 Y148.348 E9.26262
G1 X102.718 Y148.565 E9.29145
G1 X111.162 Y150.269 E9.63527
G1 X111.616 Y150.307 E9.65345
G1 X112.06 Y150.176 E9.67193
G1 X112.606 Y149.767 E9.69915
G1 X121.005 Y143.027 E10.12897
G1 X121.435 Y142.602 E10.1531
G1 X121.79 Y142.067 E10.17872
G1 X124.633 Y136.503 E10.42811
G1 X124.703 Y136.413 E10.43266
G1 X124.853 Y136.356 E10.43906
G1 X127.576 Y136.215 E10.54789
G1 X127.905 Y136.105 E10.56173
G1 X128.097 Y135.836 E10.57492
G1 X131.686 Y128.802 E10.8901
G1 X131.735 Y128.505 E10.90211
G1 X131.636 Y128.248 E10.9131
G1 X130.19 Y126.019 E11.01915
G1 X130.146 Y125.859 E11.02577
G1 X130.173 Y125.763 E11.02975
G1 X132.705 Y120.802 E11.25205
G1 X132.883 Y120.33 E11.27219
G1 X132.935 Y119.852 E11.29138
G1 X132.849 Y119.366 E11.31108
G1 X132.427 Y118.065 E11.36567
G1 X119.824 Y79.184 E12.99698
G1 X119.627 Y78.77 E13.01528
G1 X119.285 Y78.412 E13.03504
G1 X118.543 Y77.999 E13.06893
G1 X105.635 Y71.411 E13.64734
G1 X105.257 Y71.282 E13.66328
G1 X104.81 Y71.293 E13.68113
G1 X104.437 Y71.439 E13.69711
G1 X97.862 Y75.304 E14.00152
G1 X97.397 Y75.598 E14.02348
G1 X96.988 Y76.001 E14.04639
G1 X96.69 Y76.505 E14.06976
G1 X96.521 Y77.041 E14.09219
G1 X96.385 Y77.56 E14.11361
G1 X92.966 Y90.737 E14.65694
G1 X92.824 Y91.202 E14.67635
G1 X92.638 Y91.673 E14.69656
G1 X92.422 Y92.11 E14.71602
G1 X92.161 Y92.539 E14.73606
G1 X91.88 Y92.927 E14.75518
G1 X91.552 Y93.31 E14.7753
G1 X91.199 Y93.656 E14.79503
G1 X90.811 Y93.978 E14.81516
G1 X90.421 Y94.253 E14.8342
G1 X89.982 Y94.509 E14.85449
G1 X89.542 Y94.721 E14.87398
G1 X89.074 Y94.897 E14.89394
G1 X88.606 Y95.032 E14.91338
G1 X88.111 Y95.133 E14.93354
G1 X87.627 Y95.186 E14.95297
G1 X87.132 Y95.201 E14.97274
G1 X86.633 Y95.175 E14.99268
G1 X86.145 Y95.109 E15.01234
G1 X85.666 Y95.004 E15.03191
G1 X85.185 Y94.854 E15.05202
G1 X84.742 Y94.674 E15.0711
G1 X84.29 Y94.447 E15.09129
G1 X83.862 Y94.185 E15.11132
G1 X83.474 Y93.9 E15.13053
G1 X83.099 Y93.575 E15.15034
G1 X82.754 Y93.222 E15.17004
G1 X82.434 Y92.831 E15.19021
G1 X82.156 Y92.433 E15.20958
G1 X81.91 Y92.005 E15.22929
G1 X81.699 Y91.556 E15.24909
G1 X81.52 Y91.085 E15.2692
G1 X79.752 Y85.674 E15.4964
G0 F9000 X80.178 Y85.565
G1 F1800 E12.4964
G0 F9000 X82.249 Y90.079
G0 X83.148 Y90.739
G0 X83.422 Y90.616
G1 F1800 E15.4964
G1 X83.673 Y91.169 E15.52064
G1 X84.004 Y91.675 E15.54477
G1 X84.38 Y92.099 E15.56739
G1 X84.89 Y92.524 E15.59388
G1 X85.401 Y92.827 E15.61759
G1 X85.97 Y93.062 E15.64216
G1 X86.55 Y93.2 E15.66596
G1 X87.163 Y93.253 E15.69052
G1 X87.768 Y93.212 E15.71472
G1 X88.31 Y93.094 E15.73686
G1 X88.924 Y92.861 E15.76307
G1 X89.407 Y92.586 E15.78525
G1 X89.923 Y92.182 E15.81141
G1 X90.306 Y91.773 E15.83377
G1 X90.675 Y91.236 E15.85978
G1 X90.921 Y90.728 E15.88231
G1 X91.932 Y86.959 E16.03805
G1 X92.888 Y83.269 E16.19019
G1 X92.994 Y82.681 E16.21404
G1 X93.012 Y82.076 E16.2382
G1 X92.943 Y81.516 E16.26072
G1 X92.773 Y80.892 E16.28653
G1 X92.519 Y80.335 E16.31096
G1 X92.191 Y79.832 E16.33493
G1 X91.815 Y79.409 E16.35752
G1 X91.305 Y78.983 E16.38404
G1 X90.793 Y78.681 E16.40776
G1 X90.225 Y78.446 E16.4323
G1 X89.645 Y78.307 E16.4561
G1 X89.032 Y78.254 E16.48066
G1 X88.427 Y78.296 E16.50487
G1 X87.885 Y78.414 E16.527
G1 X87.272 Y78.647 E16.55318
G1 X86.788 Y78.921 E16.57538
G1 X86.271 Y79.325 E16.60156
G1 X85.889 Y79.735 E16.62393
G1 X85.52 Y80.271 E16.6499
G1 X85.276 Y80.775 E16.67225
G1 X85.118 Y81.256 E16.69246
G1 X83.307 Y88.239 E16.98039
G1 X83.201 Y88.827 E17.00423
G1 X83.183 Y89.431 E17.02835
G1 X83.252 Y89.992 E17.05091
G1 X83.422 Y90.616 E17.07672
G0 F9000 X83.045 Y90.752
;TYPE:WALL-INNER
G1 F1800 X83.321 Y91.362 E17.10344
G1 X83.685 Y91.918 E17.12997
G1 X84.101 Y92.387 E17.15499
G1 X84.658 Y92.852 E17.18395
G1 X85.222 Y93.186 E17.21011
G1 X85.847 Y93.444 E17.2371
G1 X86.486 Y93.596 E17.26331
G1 X87.159 Y93.654 E17.29027
G1 X87.824 Y93.609 E17.31688
G1 X88.424 Y93.479 E17.34138
G1 X89.095 Y93.224 E17.37003
G1 X89.63 Y92.919 E17.39461
G1 X90.194 Y92.478 E17.42318
G1 X90.619 Y92.024 E17.448
G1 X91.022 Y91.438 E17.47639
G1 X91.298 Y90.868 E17.50167
G1 X92.319 Y87.061 E17.65898
G1 X93.279 Y83.355 E17.81178
G1 X93.393 Y82.723 E17.83741
G1 X93.413 Y82.057 E17.864
G1 X93.336 Y81.439 E17.88886
G1 X93.15 Y80.756 E17.91711
G1 X92.87 Y80.142 E17.94405
G1 X92.51 Y79.589 E17.97038
G1 X92.094 Y79.121 E17.99537
G1 X91.536 Y78.655 E18.02439
G1 X90.972 Y78.322 E18.05053
G1 X90.349 Y78.064 E18.07744
G1 X89.709 Y77.911 E18.10371
G1 X89.035 Y77.853 E18.13071
G1 X88.37 Y77.899 E18.15731
G1 X87.771 Y78.03 E18.18178
G1 X87.101 Y78.284 E18.21038
G1 X86.565 Y78.588 E18.23498
G1 X86 Y79.029 E18.26358
G1 X85.576 Y79.484 E18.28841
G1 X85.173 Y80.069 E18.31676
G1 X84.904 Y80.625 E18.34141
G1 X84.734 Y81.143 E18.36317
G1 X82.916 Y88.153 E18.65221
G1 X82.802 Y88.785 E18.67784
G1 X82.782 Y89.45 E18.7044
G1 X82.859 Y90.069 E18.72929
G1 X83.045 Y90.752 E18.75754
G0 F9000 X82.667 Y90.888
G1 F1800 X82.76 Y91.093 E18.76653
G1 X82.941 Y91.493 E18.78405
G1 X82.969 Y91.555 E18.78677
G1 X83.133 Y91.806 E18.79873
G1 X83.366 Y92.162 E18.81572
G1 X83.623 Y92.451 E18.83115
G1 X83.822 Y92.675 E18.84311
G1 X83.87 Y92.715 E18.8456
G1 X84.213 Y93.002 E18.86345
G1 X84.426 Y93.18 E18.87453
G1 X84.485 Y93.215 E18.87727
G1 X84.859 Y93.436 E18.89461
G1 X85.043 Y93.545 E18.90315
G1 X85.208 Y93.613 E18.91027
G1 X85.59 Y93.771 E18.92677
G1 X85.724 Y93.826 E18.93255
G1 X85.948 Y93.879 E18.94174
G1 X86.381 Y93.982 E18.9595
G1 X86.422 Y93.992 E18.96118
G1 X86.741 Y94.019 E18.97396
G1 X87.155 Y94.055 E18.99055
G1 X87.54 Y94.029 E19.00595
G1 X87.88 Y94.006 E19.01955
G1 X87.918 Y93.998 E19.0211
G1 X88.35 Y93.905 E19.03874
G1 X88.538 Y93.864 E19.04642
G1 X88.688 Y93.807 E19.05282
G1 X89.102 Y93.65 E19.07049
G1 X89.266 Y93.587 E19.0775
G1 X89.428 Y93.495 E19.08494
G1 X89.812 Y93.276 E19.10258
G1 X89.853 Y93.252 E19.10448
G1 X90.101 Y93.059 E19.11702
G1 X90.447 Y92.789 E19.13454
G1 X90.465 Y92.774 E19.13547
G1 X90.707 Y92.515 E19.14962
G1 X90.932 Y92.275 E19.16275
G1 X90.958 Y92.236 E19.16462
G1 X91.195 Y91.893 E19.18126
G1 X91.369 Y91.64 E19.19352
G1 X91.402 Y91.571 E19.19657
G1 X91.588 Y91.188 E19.21356
G1 X91.675 Y91.008 E19.22154
G1 X91.717 Y90.85 E19.22807
G1 X91.836 Y90.406 E19.24642
G1 X92.706 Y87.163 E19.38043
G1 X93.67 Y83.441 E19.53388
G1 X93.783 Y82.814 E19.55931
G1 X93.792 Y82.765 E19.5613
G1 X93.814 Y82.038 E19.59033
G1 X93.729 Y81.361 E19.61756
G1 X93.527 Y80.62 E19.64821
G1 X93.222 Y79.949 E19.67763
G1 X92.829 Y79.346 E19.70636
G1 X92.373 Y78.833 E19.73375
G1 X91.767 Y78.327 E19.76526
G1 X91.151 Y77.963 E19.79382
G1 X90.473 Y77.682 E19.82311
G1 X89.773 Y77.515 E19.85184
G1 X89.038 Y77.452 E19.88128
G1 X88.313 Y77.502 E19.91028
G1 X87.657 Y77.646 E19.93709
G1 X86.93 Y77.921 E19.96811
G1 X86.342 Y78.255 E19.9951
G1 X85.729 Y78.733 E20.02613
G1 X85.263 Y79.233 E20.05341
G1 X84.826 Y79.867 E20.08414
G1 X84.532 Y80.475 E20.1111
G1 X84.35 Y81.03 E20.13441
G1 X82.525 Y88.067 E20.42456
G1 X82.403 Y88.743 E20.45198
G1 X82.381 Y89.469 E20.48097
G1 X82.461 Y90.102 E20.50643
G1 X82.466 Y90.147 E20.50824
G1 X82.617 Y90.706 E20.53135
G1 X82.667 Y90.888 E20.53888
G1 F1800 E17.53888
G0 F9000 X87.136 Y94.962
G0 X92.737 Y90.669
G0 X96.47 Y76.407
G0 X96.798 Y75.853
G0 X97.248 Y75.409
G0 X104.332 Y71.224
G0 X104.763 Y71.055
G0 X105.294 Y71.042
G0 X105.728 Y71.19
G0 X119.433 Y78.221
G0 X119.826 Y78.633
G0 X120.047 Y79.096
G0 X133.082 Y119.308
G0 X133.176 Y119.844
G0 X133.117 Y120.386
G0 X132.924 Y120.899
G0 X130.411 Y125.92
G0 X131.85 Y128.139
G0 X131.98 Y128.48
G0 X131.915 Y128.877
G0 X128.302 Y135.96
G0 X128.053 Y136.306
G0 X127.621 Y136.452
G0 X124.835 Y136.633
G0 X121.997 Y142.188
G0 X121.62 Y142.755
G0 X121.362 Y143.009
G0 X112.242 Y150.539
G1 F1800 E20.53888
G1 X112.851 Y150.083 E20.56925
G1 X121.271 Y143.326 E21.00014
G1 X121.746 Y142.858 E21.02675
G1 X122.136 Y142.269 E21.05495
G1 X124.955 Y136.751 E21.30226
G1 X125.185 Y136.74 E21.31145
G1 X127.651 Y136.612 E21.41001
G1 X128.155 Y136.443 E21.43122
G1 X128.44 Y136.044 E21.45079
G1 X132.071 Y128.928 E21.76964
G1 X132.147 Y128.463 E21.78845
G1 X131.994 Y128.065 E21.80547
G1 X130.569 Y125.867 E21.91002
G1 X133.071 Y120.964 E22.12971
G1 X133.275 Y120.424 E22.15275
G1 X133.339 Y119.839 E22.17624
G1 X133.238 Y119.269 E22.19935
G1 X132.807 Y117.942 E22.25503
G1 X120.196 Y79.036 E23.88739
G1 X119.961 Y78.54 E23.9093
G1 X119.532 Y78.092 E23.93406
G1 X118.731 Y77.646 E23.97065
G1 X105.791 Y71.042 E24.55048
G1 X105.319 Y70.88 E24.5704
G1 X104.73 Y70.895 E24.59392
G1 X104.262 Y71.078 E24.61397
G1 X97.654 Y74.962 E24.9199
G1 X97.147 Y75.283 E24.94385
G1 X96.67 Y75.753 E24.97057
G1 X96.322 Y76.341 E24.99784
G1 X96.137 Y76.93 E25.02248
G1 X95.998 Y77.459 E25.04431
G1 X92.583 Y90.62 E25.58699
G1 X92.444 Y91.076 E25.60602
G1 X92.273 Y91.508 E25.62456
G1 X92.071 Y91.917 E25.64277
G1 X91.827 Y92.318 E25.66151
G1 X91.564 Y92.681 E25.6794
G1 X91.261 Y93.035 E25.69799
G1 X90.927 Y93.362 E25.71665
G1 X90.573 Y93.656 E25.73502
G1 X90.202 Y93.917 E25.75312
G1 X89.791 Y94.157 E25.77212
G1 X89.404 Y94.343 E25.78925
G1 X89.383 Y94.354 E25.7902
G1 X88.948 Y94.517 E25.80874
G1 X88.537 Y94.635 E25.82581
G1 X88.515 Y94.642 E25.82673
G1 X88.053 Y94.737 E25.84555
G1 X87.596 Y94.787 E25.8639
G1 X87.129 Y94.801 E25.88255
G1 X86.672 Y94.777 E25.90082
G1 X86.223 Y94.716 E25.9189
G1 X85.766 Y94.616 E25.93757
G1 X85.325 Y94.479 E25.956
G1 X84.899 Y94.305 E25.97437
G1 X84.486 Y94.098 E25.99281
G1 X84.084 Y93.852 E26.01162
G1 X83.724 Y93.587 E26.02946
G1 X83.377 Y93.287 E26.04777
G1 X83.052 Y92.954 E26.06634
G1 X82.752 Y92.588 E26.08523
G1 X82.494 Y92.218 E26.10323
G1 X82.265 Y91.819 E26.12159
G1 X82.068 Y91.401 E26.14003
G1 X81.894 Y90.943 E26.15959
G1 X80.141 Y85.577 E26.3849
G1 X80.062 Y85.164 E26.40168
G1 X80.087 Y84.782 E26.41696
G1 X80.212 Y84.367 E26.43426
G1 X83.614 Y75.136 E26.82691
G1 X83.786 Y74.72 E26.84488
G1 X84.006 Y74.435 E26.85925
G1 X84.348 Y74.206 E26.87567
G1 X85.879 Y73.486 E26.9432
G1 X105.73 Y64.133 E27.81903
G1 X106.275 Y63.939 E27.84212
G1 X106.316 Y63.934 E27.84377
G1 X106.723 Y63.876 E27.86018
G1 X107.149 Y63.887 E27.87719
G1 X107.708 Y64.023 E27.90015
G1 X109.08 Y64.696 E27.96114
G1 X122.004 Y71.291 E28.54025
G1 X122.435 Y71.584 E28.56105
G1 X122.705 Y71.885 E28.57718
G1 X122.876 Y72.175 E28.59062
G1 X123.769 Y74.862 E28.70363
G1 X139.075 Y122.084 E30.6849
G1 X139.182 Y122.628 E30.70703
G1 X139.171 Y123.106 E30.72611
G1 X139.09 Y123.544 E30.74389
G1 X138.83 Y124.208 E30.77235
G1 X135.169 Y131.38 E31.09373
G1 X134.939 Y131.391 E31.10293
G1 X133.531 Y131.465 E31.1592
G1 X133.039 Y131.632 E31.17994
G1 X132.769 Y131.982 E31.19758
G1 X131.222 Y135.018 E31.33358
G1 X131.143 Y135.485 E31.35248
G1 X131.298 Y135.884 E31.36956
G1 X132.209 Y137.289 E31.4364
G1 X128.848 Y143.876 E31.73154
G1 X128.484 Y144.455 E31.75884
G1 X128.054 Y144.897 E31.78345
G1 X127.143 Y145.625 E31.83
G1 X114.798 Y155.528 E32.46165
G1 X114.517 Y155.702 E32.47485
G1 X114.189 Y155.796 E32.48846
G1 X113.778 Y155.781 E32.50488
G1 X99.479 Y153.121 E33.08537
G1 X98.954 Y152.947 E33.10745
G1 X98.744 Y152.827 E33.1171
G1 X98.336 Y152.467 E33.13882
G1 X97.294 Y151.263 E33.20237
G1 X84.187 Y136.165 E34.00036
G1 X84 Y135.898 E34.01337
G1 X83.846 Y135.523 E34.02955
G1 X83.773 Y135.027 E34.04956
G1 X83.442 Y131.845 E34.17724
G1 X83.432 Y131.404 E34.19485
G1 X83.519 Y130.829 E34.21806
G1 X83.655 Y130.418 E34.23534
G1 X83.817 Y130.205 E34.24602
G1 X83.964 Y130.074 E34.25388
G1 X84.015 Y130.05 E34.25613
G1 X84.261 Y129.931 E34.26703
G1 X88.269 Y128.823 E34.433
G1 X88.547 Y128.746 E34.44452
G1 X88.521 Y129.033 E34.45128
G1 X88.438 Y129.913 E34.48656
G1 X88.393 Y130.191 E34.4978
G1 X88.123 Y130.477 E34.5135
G1 X87.732 Y130.932 E34.53745
G1 X87.431 Y131.564 E34.56538
G1 X87.324 Y132.273 E34.594
G1 X87.431 Y132.981 E34.62258
G1 X87.74 Y133.628 E34.6512
G1 X88.224 Y134.157 E34.67982
G1 X88.843 Y134.522 E34.7085
G1 X89.505 Y134.68 E34.73566
G1 X90.246 Y134.74 E34.76533
G1 X90.472 Y134.777 E34.77447
G1 X90.497 Y134.795 E34.7757
G1 X100.253 Y147.463 E35.41387
G1 X100.806 Y148.051 E35.44609
G1 X101.326 Y148.427 E35.4717
G1 X101.874 Y148.718 E35.49646
G1 X102.618 Y148.953 E35.5276
G1 X111.106 Y150.666 E35.87321
G1 X111.657 Y150.712 E35.89528
G1 X112.242 Y150.539 E35.91962
G0 F9000 X112.424 Y150.902
G1 F1800 X113.096 Y150.399 E35.95313
G1 X121.537 Y143.625 E36.3851
G1 X122.056 Y143.114 E36.41417
G1 X122.482 Y142.471 E36.44495
G1 X125.206 Y137.138 E36.68396
G1 X127.726 Y137.009 E36.78467
G1 X128.405 Y136.781 E36.81326
G1 X128.783 Y136.252 E36.83921
G1 X132.456 Y129.054 E37.16174
G1 X132.559 Y128.421 E37.18733
G1 X132.352 Y127.882 E37.21038
G1 X131.03 Y125.842 E37.3074
G1 X133.426 Y121.146 E37.51782
