;FLAVOR:Marlin
;TIME:2196
;Filament used: 1.15782m
;Layer height: 0.2
;MINX:93.759
;MINY:71.743
;MINZ:0.24
;MAXX:126.241
;MAXY:148.481
;MAXZ:8.92
;Generated with Cura_SteamEngine 4.10.0
M82 ;absolute extrusion mode
M201 X500.00 Y500.00 Z100.00 E5000.00 ;Setup machine max acceleration
M203 X500.00 Y500.00 Z10.00 E50.00 ;Setup machine max feedrate
M204 P500.00 R1000.00 T500.00 ;Setup Print/Retract/Travel acceleration
M205 X8.00 Y8.00 Z0.40 E5.00 ;Setup Jerk
M220 S100 ;Reset Feedrate
M221 S100 ;Reset Flowrate

;*** Start Dual Nozzle/Bed Preheating ***
M140 S50 ; start preheating the bed
M104 S200 ?T0 ; start preheating hotend
M190 S50 ; heat to Cura Bed setting and WAIT
M109 S200 ?T0 ; heat to Cura Hotend and WAIT
;*** End Preheating ***

;*** Single Print Start Tone
M300 S1000 P500 ; chirp to indicate starting to print
;*** End Single Start Tone

G28 ;Home

G92 E0 ;Reset Extruder
G1 Z2.0 F3000 ;Move Z Axis up

G1 X10.1 Y20 Z0.28 F5000.0 ;Move to start position
G1 X10.1 Y200.0 Z0.28 F1500.0 E15 ;Draw the first line
G1 X10.4 Y200.0 Z0.28 F5000.0 ;Move to side a little
G1 X10.4 Y20 Z0.28 F1500.0 E30 ;Draw the second line
G92 E0 ;Reset Extruder
G1 Z2.0 F3000 ;Move Z Axis up
G92 E0
G92 E0
G1 F2400 E-3.2
;LAYER_COUNT:56
;LAYER:0
M106 S63.8
M204 S500
M205 X6 Y6
G0 F9000 X96.229 Y79.435 Z0.24
;TYPE:SKIRT
G1 F1440 E0
G1 F1800 X96.634 Y78.95 E0.02522
G1 X96.782 Y78.783 E0.03413
G1 X97.422 Y78.121 E0.07088
G1 X98.117 Y77.517 E0.10763
G1 X98.862 Y76.976 E0.14437
G1 X99.651 Y76.501 E0.18113
G1 X100.478 Y76.097 E0.21787
G1 X101.225 Y75.804 E0.24989
G1 X101.717 Y75.632 E0.27069
G1 X104.146 Y74.749 E0.37385
G1 X106.499 Y73.818 E0.47484
G1 X109.091 Y72.703 E0.58746
G1 X110.057 Y72.342 E0.62862
G1 X110.336 Y72.253 E0.64031
G1 X111.224 Y72.012 E0.67703
G1 X112.13 Y71.848 E0.71378
G1 X113.415 Y71.753 E0.76521
G1 X114.227 Y71.743 E0.79762
G1 X114.507 Y71.743 E0.8088
G1 X115.383 Y71.755 E0.84376
G1 X116.302 Y71.809 E0.88051
G1 X117.213 Y71.943 E0.91726
G1 X118.109 Y72.155 E0.95401
G1 X118.983 Y72.445 E0.99076
G1 X119.828 Y72.809 E1.02748
G1 X120.639 Y73.245 E1.06423
G1 X121.292 Y73.666 E1.09524
G1 X121.488 Y73.803 E1.10478
G1 X122.219 Y74.363 E1.14154
G1 X122.898 Y74.984 E1.17826
G1 X123.522 Y75.661 E1.21501
G1 X124.084 Y76.391 E1.25178
G1 X124.58 Y77.166 E1.2885
G1 X125.008 Y77.981 E1.32525
G1 X125.287 Y78.631 E1.35348
G1 X125.391 Y78.897 E1.36488
G1 X125.689 Y79.768 E1.40162
G1 X125.84 Y80.343 E1.42535
G1 X125.88 Y80.514 E1.43236
G1 X126.022 Y81.23 E1.46149
G1 X126.078 Y81.575 E1.47544
G1 X126.203 Y82.767 E1.52328
G1 X126.224 Y83.324 E1.54552
G1 X126.241 Y84.399 E1.58843
G1 X126.238 Y87.545 E1.714
G1 X126.219 Y88.929 E1.76924
G1 X126.178 Y90.469 E1.83073
G1 X126.184 Y93.045 E1.93354
G1 X126.222 Y94.518 E1.99235
G1 X126.241 Y95.967 E2.05019
G1 X126.241 Y135.835 E3.64141
G1 X126.239 Y136.05 E3.64999
G1 X126.213 Y137.331 E3.70113
G1 X126.154 Y138.25 E3.73788
G1 X126.055 Y138.953 E3.76622
G1 X126.017 Y139.169 E3.77497
G1 X125.818 Y140.068 E3.81172
G1 X125.633 Y140.684 E3.83739
G1 X125.529 Y140.996 E3.85052
G1 X125.2 Y141.856 E3.88727
G1 X124.798 Y142.684 E3.924
G1 X124.326 Y143.474 E3.96073
G1 X124.041 Y143.885 E3.98069
G1 X123.915 Y144.058 E3.98924
G1 X123.341 Y144.777 E4.02596
G1 X122.707 Y145.445 E4.06271
G1 X122.018 Y146.055 E4.09944
G1 X121.278 Y146.603 E4.13619
G1 X120.493 Y147.084 E4.17294
G1 X119.67 Y147.496 E4.20967
G1 X118.46 Y147.949 E4.26124
G1 X118.281 Y148.004 E4.26871
G1 X117.39 Y148.236 E4.30546
G1 X116.483 Y148.39 E4.34218
G1 X115.311 Y148.471 E4.38907
G1 X114.498 Y148.481 E4.42152
G1 X105.332 Y148.479 E4.78735
G1 X104.719 Y148.47 E4.81182
G1 X103.8 Y148.416 E4.84857
G1 X102.768 Y148.259 E4.89023
G1 X102.556 Y148.216 E4.89886
G1 X101.662 Y147.994 E4.93563
G1 X100.792 Y147.696 E4.97233
G1 X99.95 Y147.323 E5.00909
G1 X99.144 Y146.878 E5.04583
G1 X98.379 Y146.365 E5.0826
G1 X97.662 Y145.787 E5.11935
G1 X96.964 Y145.113 E5.15808
G1 X96.876 Y145.02 E5.16319
G1 X96.272 Y144.325 E5.19994
G1 X95.732 Y143.58 E5.23667
G1 X95.258 Y142.79 E5.27344
G1 X94.954 Y142.189 E5.30032
G1 X94.588 Y141.344 E5.33707
G1 X94.289 Y140.444 E5.37492
G1 X94.219 Y140.197 E5.38517
G1 X94.006 Y139.301 E5.42193
G1 X93.907 Y138.682 E5.44695
G1 X93.865 Y138.361 E5.45987
G1 X93.777 Y137.166 E5.50769
G1 X93.759 Y136.045 E5.55244
G1 X93.762 Y87.263 E7.49943
G1 X93.769 Y86.748 E7.51999
G1 X93.774 Y86.592 E7.52622
G1 X93.805 Y86.06 E7.54749
G1 X93.832 Y85.733 E7.56059
G1 X94 Y84.536 E7.60883
G1 X94.084 Y84.114 E7.626
G1 X94.303 Y83.219 E7.66278
G1 X94.737 Y82.007 E7.71416
G1 X94.824 Y81.804 E7.72297
G1 X95.223 Y80.975 E7.75969
G1 X95.693 Y80.183 E7.79645
G1 X96.229 Y79.435 E7.83318
G0 F9000 X96.576 Y79.641
G1 F1800 X96.933 Y79.215 E7.85536
G1 X97.081 Y79.048 E7.86427
G1 X97.71 Y78.399 E7.90034
G1 X98.393 Y77.809 E7.93636
G1 X99.126 Y77.281 E7.97242
G1 X99.902 Y76.82 E8.00844
G1 X100.717 Y76.429 E8.04452
G1 X101.357 Y76.182 E8.0719
G1 X101.837 Y76.015 E8.09219
G1 X104.282 Y75.125 E8.19604
G1 X106.638 Y74.193 E8.29716
G1 X109.249 Y73.07 E8.4106
G1 X110.178 Y72.723 E8.45018
G1 X110.457 Y72.634 E8.46187
G1 X111.329 Y72.398 E8.49792
G1 X112.218 Y72.24 E8.53396
G1 X113.42 Y72.153 E8.58206
G1 X114.227 Y72.143 E8.61427
G1 X114.507 Y72.143 E8.62545
G1 X115.377 Y72.155 E8.66018
G1 X116.278 Y72.209 E8.6962
G1 X117.171 Y72.343 E8.73224
G1 X118.049 Y72.554 E8.76828
G1 X118.905 Y72.843 E8.80434
G1 X119.732 Y73.207 E8.8404
G1 X120.523 Y73.642 E8.87643
G1 X121.063 Y73.994 E8.90216
G1 X121.259 Y74.131 E8.91171
G1 X121.975 Y74.68 E8.94772
G1 X122.64 Y75.291 E8.98376
G1 X123.249 Y75.959 E9.01984
G1 X123.796 Y76.677 E9.05586
G1 X124.277 Y77.441 E9.0919
G1 X124.689 Y78.245 E9.12795
G1 X124.915 Y78.777 E9.15102
G1 X125.019 Y79.043 E9.16242
G1 X125.31 Y79.898 E9.19847
G1 X125.451 Y80.434 E9.22059
G1 X125.491 Y80.605 E9.2276
G1 X125.627 Y81.294 E9.25563
G1 X125.683 Y81.639 E9.26958
G1 X125.803 Y82.786 E9.31561
G1 X125.825 Y83.331 E9.33738
G1 X125.84 Y84.22 E9.37287
G1 X125.839 Y87.415 E9.50039
G1 X125.822 Y88.78 E9.55487
G1 X125.778 Y90.459 E9.62191
G1 X125.784 Y93.056 E9.72556
G1 X125.822 Y94.523 E9.78413
G1 X125.841 Y95.967 E9.84177
G1 X125.841 Y135.835 E11.43299
G1 X125.839 Y136.042 E11.44125
G1 X125.813 Y137.323 E11.49239
G1 X125.755 Y138.224 E11.52842
G1 X125.661 Y138.883 E11.55499
G1 X125.623 Y139.099 E11.56374
G1 X125.427 Y139.981 E11.5998
G1 X125.254 Y140.558 E11.62385
G1 X125.15 Y140.87 E11.63697
G1 X124.826 Y141.713 E11.67302
G1 X124.43 Y142.524 E11.70904
G1 X123.718 Y143.649 E11.76218
G1 X123.592 Y143.822 E11.77072
G1 X123.029 Y144.528 E11.80676
G1 X122.405 Y145.181 E11.84281
G1 X121.726 Y145.776 E11.87884
G1 X120.997 Y146.309 E11.91489
G1 X120.223 Y146.776 E11.95096
G1 X119.412 Y147.172 E11.98699
G1 X118.343 Y147.567 E12.03247
G1 X118.164 Y147.622 E12.03995
G1 X117.29 Y147.849 E12.07599
G1 X116.399 Y147.997 E12.11204
G1 X115.305 Y148.071 E12.1558
G1 X114.498 Y148.081 E12.18801
G1 X105.338 Y148.079 E12.55361
G1 X104.725 Y148.07 E12.57807
G1 X103.824 Y148.017 E12.6141
G1 X102.847 Y147.867 E12.65355
G1 X102.635 Y147.824 E12.66218
G1 X101.759 Y147.606 E12.69821
G1 X100.906 Y147.311 E12.73424
G1 X100.082 Y146.941 E12.77029
G1 X99.293 Y146.5 E12.80636
G1 X98.547 Y145.991 E12.84241
G1 X97.849 Y145.418 E12.87845
G1 X97.254 Y144.839 E12.91159
G1 X97.166 Y144.746 E12.9167
G1 X96.575 Y144.063 E12.95275
G1 X96.047 Y143.33 E12.9888
G1 X95.402 Y142.195 E13.0409
G1 X95.314 Y142.014 E13.04894
G1 X94.955 Y141.185 E13.08499
G1 X94.673 Y140.335 E13.12074
G1 X94.603 Y140.088 E13.13098
G1 X94.396 Y139.209 E13.16703
G1 X94.303 Y138.63 E13.19043
G1 X94.261 Y138.309 E13.20335
G1 X94.176 Y137.159 E13.24938
G1 X94.16 Y136.218 E13.28694
G1 X94.161 Y87.374 E15.23641
G1 X94.169 Y86.761 E15.26088
G1 X94.174 Y86.605 E15.26711
G1 X94.204 Y86.093 E15.28758
G1 X94.231 Y85.766 E15.30067
G1 X94.392 Y84.614 E15.3471
G1 X94.476 Y84.192 E15.36427
G1 X94.692 Y83.315 E15.40032
G1 X95.105 Y82.165 E15.44909
G1 X95.192 Y81.962 E15.45791
G1 X95.584 Y81.149 E15.49393
G1 X96.046 Y80.373 E15.52997
G1 X96.576 Y79.641 E15.56604
G1 F2400 E12.36604
;MESH:CarabinerDoor.STL
G0 F9000 X103.715 Y86.637
G0 X104.78 Y86.971
G0 X105.962 Y124.978
G0 X106.122 Y125.622
G0 X106.384 Y126.232
G0 X106.729 Y126.776
G0 X107.186 Y127.288
G0 X107.704 Y127.704
G0 X108.283 Y128.031
G0 X108.907 Y128.26
G0 X109.557 Y128.384
G0 X110.222 Y128.402
G0 X110.878 Y128.313
G0 X111.514 Y128.119
G0 X112.092 Y127.834
G0 X112.648 Y127.436
G0 X113.119 Y126.965
G0 X113.506 Y126.427
G0 X113.802 Y125.83
G0 X113.997 Y125.195
G0 X114.094 Y124.324
G0 X114.09 Y97.133
G0 X113.981 Y96.553
G0 X113.823 Y96.23
G0 X113.581 Y96.049
G0 X111.015 Y96.028
G0 X110.565 Y96.25
;TYPE:WALL-OUTER
G1 F1440 E15.56604
G1 F1800 X110.732 Y95.913 E15.58105
G1 X110.763 Y95.866 E15.5833
G1 X110.889 Y95.675 E15.59243
G1 X111.535 Y94.753 E15.63737
G1 X111.903 Y94.314 E15.66023
G1 X112.008 Y94.245 E15.66525
G1 X112.951 Y94.244 E15.70288
G1 X113.39 Y94.241 E15.7204
G1 X113.948 Y94.244 E15.74268
G1 X115.191 Y94.243 E15.79229
G1 X115.295 Y94.372 E15.7989
G1 X115.42 Y94.918 E15.82126
G1 X115.441 Y95.245 E15.83433
G1 X115.441 Y136.863 E17.4954
G1 X115.363 Y137.405 E17.51725
G1 X115.237 Y137.665 E17.52879
G1 X115.195 Y137.681 E17.53058
G1 X104.807 Y137.68 E17.94519
G1 X104.699 Y137.577 E17.95114
G1 X104.577 Y137.124 E17.96987
G1 X104.559 Y136.871 E17.97999
G1 X104.561 Y86.964 E19.97189
G1 X104.602 Y86.507 E19.9902
G1 X104.704 Y86.114 E20.00641
G1 X104.8 Y85.986 E20.01279
G1 X105.935 Y85.981 E20.05809
G1 X106.046 Y86.09 E20.0643
G1 X106.255 Y86.685 E20.08947
G1 X106.418 Y86.96 E20.10223
G1 X106.607 Y87.042 E20.11045
G1 X112.86 Y87.04 E20.36002
G1 X113.027 Y86.972 E20.36722
G1 X113.184 Y86.75 E20.37807
G1 X113.306 Y86.191 E20.40091
G1 X113.312 Y86.105 E20.40435
G1 X113.312 Y83.548 E20.50641
G1 X113.344 Y83.01 E20.52792
G1 X113.426 Y82.674 E20.54172
G1 X113.529 Y82.543 E20.54837
G1 X115.195 Y82.543 E20.61486
G1 X115.292 Y82.663 E20.62102
G1 X115.42 Y83.215 E20.64364
G1 X115.441 Y83.545 E20.65684
G1 X115.439 Y88.068 E20.83736
G1 X115.391 Y88.565 E20.85729
G1 X115.295 Y88.92 E20.87197
G1 X115.195 Y89.047 E20.87842
G1 X110.583 Y89.046 E21.06249
G1 X109.885 Y89.042 E21.09035
G1 X109.281 Y89.046 E21.11446
G1 X106.602 Y89.047 E21.22138
G1 X106.426 Y89.12 E21.22899
G1 X106.288 Y89.319 E21.23865
G1 X106.167 Y89.79 E21.25806
G1 X106.146 Y90.033 E21.2678
G1 X106.147 Y124.319 E22.63623
G1 X106.199 Y124.939 E22.66106
G1 X106.349 Y125.546 E22.68601
G1 X106.596 Y126.12 E22.71095
G1 X106.92 Y126.631 E22.7351
G1 X107.351 Y127.113 E22.76091
G1 X107.839 Y127.505 E22.78589
G1 X108.383 Y127.813 E22.81084
G1 X108.971 Y128.029 E22.83585
G1 X109.583 Y128.146 E22.86071
G1 X110.209 Y128.163 E22.88571
G1 X110.827 Y128.078 E22.91061
G1 X111.426 Y127.895 E22.93561
G1 X111.969 Y127.628 E22.95976
G1 X112.493 Y127.253 E22.98547
G1 X112.936 Y126.81 E23.01048
G1 X113.3 Y126.303 E23.03539
G1 X113.579 Y125.742 E23.0604
G1 X113.762 Y125.144 E23.08536
G1 X113.847 Y124.526 E23.11025
G1 X113.855 Y124.32 E23.11848
G1 X113.851 Y97.155 E24.2027
G1 X113.752 Y96.628 E24.2241
G1 X113.634 Y96.386 E24.23484
G1 X113.479 Y96.27 E24.24257
G1 X113.398 Y96.251 E24.24589
G1 X110.789 Y96.251 E24.35002
G1 X110.732 Y96.251
G1 X110.565 Y96.25 E24.35124
G0 F9000 X111.255 Y95.85
;TYPE:WALL-INNER
G1 F1800 X111.475 Y95.536 E24.36654
G1 X111.855 Y94.995 E24.39293
G1 X112.148 Y94.645 E24.41114
G1 X112.953 Y94.644 E24.44327
G1 X113.391 Y94.641 E24.46075
G1 X113.947 Y94.644 E24.48295
G1 X114.947 Y94.643 E24.52286
G1 X115.041 Y95.255 E24.54757
G1 X115.041 Y136.834 E26.20708
G1 X114.977 Y137.281 E26.2251
G1 X105.033 Y137.28 E26.62199
G1 X104.959 Y136.857 E26.63913
G1 X104.961 Y86.978 E28.62991
G1 X105.047 Y86.385 E28.65382
G1 X105.725 Y86.382 E28.68088
G1 X105.891 Y86.855 E28.70089
G1 X106.14 Y87.275 E28.72038
G1 X106.524 Y87.442 E28.73709
G1 X112.938 Y87.44 E28.99309
G1 X113.286 Y87.298 E29.00809
G1 X113.557 Y86.915 E29.02681
G1 X113.703 Y86.248 E29.05407
G1 X113.712 Y86.119 E29.05923
G1 X113.712 Y83.548 E29.16184
G1 X113.773 Y82.943 E29.18611
G1 X114.946 Y82.943 E29.23293
G1 X115.041 Y83.548 E29.25737
G1 X115.039 Y88.051 E29.43709
G1 X114.955 Y88.647 E29.46112
G1 X110.585 Y88.646 E29.63553
G1 X109.885 Y88.642 E29.66347
G1 X109.278 Y88.646 E29.6877
G1 X106.522 Y88.647 E29.7977
G1 X106.164 Y88.796 E29.81317
G1 X105.918 Y89.15 E29.83038
G1 X105.771 Y89.723 E29.85399
G1 X105.746 Y90.016 E29.86573
G1 X105.747 Y124.336 E31.23551
G1 X105.803 Y125.004 E31.26227
G1 X105.969 Y125.674 E31.28982
G1 X106.241 Y126.307 E31.31731
G1 X106.6 Y126.873 E31.34407
G1 X107.075 Y127.404 E31.3725
G1 X107.614 Y127.837 E31.4001
G1 X108.214 Y128.177 E31.42762
G1 X108.864 Y128.416 E31.45526
G1 X109.54 Y128.545 E31.48273
G1 X110.231 Y128.564 E31.51032
G1 X110.913 Y128.47 E31.5378
G1 X111.574 Y128.268 E31.56538
G1 X112.175 Y127.972 E31.59212
G1 X112.753 Y127.559 E31.62047
G1 X113.242 Y127.07 E31.64808
G1 X113.644 Y126.51 E31.67559
G1 X113.952 Y125.891 E31.70318
G1 X114.154 Y125.23 E31.73077
G1 X114.246 Y124.561 E31.75772
G1 X114.255 Y124.328 E31.76703
G1 X114.251 Y97.118 E32.85304
G1 X114.135 Y96.501 E32.8781
G1 X113.951 Y96.124 E32.89484
G1 X113.652 Y95.9 E32.90975
G1 X113.444 Y95.851 E32.91828
G1 X111.639 Y95.85 E32.99032
G1 X111.638 Y95.85 E32.99036
G1 X111.255 Y95.85 E32.99887
G0 F9000 X113.581 Y96.049
G0 X114.641 Y97.028
G1 F1800 X114.518 Y96.374 E33.02543
G1 X114.268 Y95.862 E33.04817
G1 X114.248 Y95.847 E33.04917
G1 X113.825 Y95.53 E33.07027
G1 X113.491 Y95.451 E33.08397
G1 X112.429 Y95.45 E33.12635
G1 X112.428 Y95.45 E33.12639
G1 X112.024 Y95.45 E33.14252
G1 X112.27 Y95.129 E33.15143
G1 X112.335 Y95.045 E33.15567
G1 X113.392 Y95.041 E33.19786
G1 X113.946 Y95.044 E33.21997
G1 X114.525 Y95.043 E33.24308
G1 X114.604 Y95.043 E33.24623
G1 X114.641 Y95.283 E33.25592
G1 X114.641 Y95.362 E33.25907
G1 X114.641 Y95.836 E33.27799
G1 X114.641 Y95.862 E33.279
G1 X114.641 Y96.374 E33.29144
G1 X114.641 Y97.028 E33.29537
G1 F2400 E30.09537
G0 F9000 X114.085 Y124.547
G0 X113.997 Y125.195
G0 X113.802 Y125.83
G0 X113.506 Y126.427
G0 X113.119 Y126.965
G0 X112.648 Y127.436
G0 X112.092 Y127.834
G0 X111.514 Y128.119
G0 X110.878 Y128.313
G0 X110.222 Y128.402
G0 X109.557 Y128.384
G0 X108.907 Y128.26
G0 X108.283 Y128.031
G0 X107.704 Y127.704
G0 X107.186 Y127.288
G0 X106.729 Y126.776
G0 X106.384 Y126.232
G0 X106.122 Y125.622
G0 X105.962 Y124.978
G0 X105.947 Y124.794
G0 X105.375 Y89.656
G1 F1440 E33.29537
G1 F1800 X105.372 Y88.982 E33.32227
G1 X105.371 Y88.629 E33.33636
G1 X105.364 Y87.458 E33.3831
G1 X105.362 Y87.026 E33.40034
G1 X105.361 Y87.007 E33.4011
G1 X105.393 Y86.783 E33.41013
G1 X105.442 Y86.783 E33.41209
G1 X105.503 Y86.957 E33.41345
G1 X105.527 Y87.025
G1 X105.747 Y87.397 E33.42581
G1 X105.862 Y87.59 E33.43478
G1 X106.441 Y87.842 E33.45998
G1 X113.017 Y87.84 E33.72244
G1 X113.545 Y87.624 E33.74521
G1 X113.93 Y87.08 E33.77181
G1 X114.1 Y86.305 E33.80348
G1 X114.112 Y86.133 E33.81036
G1 X114.112 Y83.568 E33.91274
G1 X114.135 Y83.343 E33.92176
G1 X114.523 Y83.343 E33.93725
G1 X114.604 Y83.343 E33.94048
G1 X114.641 Y83.578 E33.94998
G1 X114.641 Y83.659 E33.95321
G1 X114.639 Y88.023 E34.12739
G1 X114.607 Y88.247 E34.13642
G1 X110.587 Y88.246 E34.29686
G1 X109.885 Y88.242 E34.32488
G1 X109.275 Y88.246 E34.34923
G1 X106.442 Y88.247 E34.4623
G1 X105.902 Y88.472 E34.48565
G1 X105.749 Y88.691 E34.49631
G1 X105.548 Y88.981 E34.50663
G1 X105.375 Y89.656 E34.51326
G1 F2400 E31.31326
G0 F9000 X105.908 Y124.328
G0 X105.962 Y124.978
G0 X106.122 Y125.622
G0 X106.384 Y126.232
G0 X106.729 Y126.776
G0 X107.186 Y127.288
G0 X107.704 Y127.704
G0 X108.283 Y128.031
G0 X108.907 Y128.26
G0 X109.557 Y128.384
G0 X110.222 Y128.402
G0 X110.878 Y128.313
G0 X111.514 Y128.119
G0 X112.092 Y127.834
G0 X112.648 Y127.436
G0 X113.119 Y126.965
G0 X114.641 Y124.625
G1 F1440 E34.51326
G1 F1800 X114.641 Y125.316 E34.54084
G1 X114.641 Y126.04 E34.56973
G1 X114.641 Y126.218 E34.57684
G1 X114.641 Y136.643 E34.99292
G1 X114.641 Y136.805 E34.99939
G1 X114.63 Y136.881 E35.00245
G1 X114.468 Y136.881 E35.00892
G1 X105.369 Y136.88 E35.37208
G1 X105.359 Y136.822 E35.37443
G1 X105.359 Y126.215 E35.79778
G1 X105.359 Y125.802 E35.81426
