;FLAVOR:Marlin
;TIME:2820
;Filament used: 1.29086m
;Layer height: 0.16
;MINX:85.669
;MINY:73.483
;MINZ:0.24
;MAXX:133.777
;MAXY:146.274
;MAXZ:8.96
;Generated with Cura_SteamEngine 4.7.1
M140 S50
M105
M190 S50
M104 S215
M105
M109 S215
M82 ;absolute extrusion mode
M201 X500.00 Y500.00 Z100.00 E5000.00 ;Setup machine max acceleration
M203 X500.00 Y500.00 Z10.00 E50.00 ;Setup machine max feedrate
M204 P500.00 R1000.00 T500.00 ;Setup Print/Retract/Travel acceleration
M205 X8.00 Y8.00 Z0.40 E5.00 ;Setup Jerk
M220 S100 ;Reset Feedrate
M221 S100 ;Reset Flowrate

G28 ;Home

G92 E0 ;Reset Extruder
G1 Z2.0 F3000 ;Move Z Axis up
G1 X10.1 Y20 Z0.28 F5000.0 ;Move to start position
G1 X10.1 Y200.0 Z0.28 F1500.0 E15 ;Draw the first line
G1 X10.4 Y200.0 Z0.28 F5000.0 ;Move to side a little
G1 X10.4 Y20 Z0.28 F1500.0 E30 ;Draw the second line
G92 E0 ;Reset Extruder
G1 Z2.0 F3000 ;Move Z Axis up

G92 E0
G92 E0
G1 F2400 E-3
;LAYER_COUNT:72
;LAYER:0
M106 S63.8
M204 S500
M205 X6 Y6
G1 F300 Z0.44
G0 F9000 X89.083 Y82.045 Z0.44
;TYPE:SKIRT
G1 F300 Z0.24
G1 F2400 E0
G1 F1800 X89.411 Y81.745 E0.01774
G1 X89.897 Y81.441 E0.04062
G1 X106.024 Y73.84 E0.75219
G1 X106.601 Y73.629 E0.77672
G1 X107.114 Y73.516 E0.79768
G1 X107.434 Y73.483 E0.81052
G1 X107.962 Y73.49 E0.8316
G1 X108.282 Y73.532 E0.84448
G1 X108.771 Y73.654 E0.86459
G1 X109.276 Y73.849 E0.8862
G1 X109.366 Y73.892 E0.89018
G1 X119.915 Y79.277 E1.3629
G1 X120.15 Y79.425 E1.37398
G1 X120.644 Y79.805 E1.39886
G1 X120.961 Y80.137 E1.41718
G1 X121.392 Y80.814 E1.44921
G1 X121.554 Y81.219 E1.46662
G1 X122.74 Y84.885 E1.6204
G1 X133.633 Y118.505 E3.03093
G1 X133.677 Y118.676 E3.03797
G1 X133.773 Y119.183 E3.05857
G1 X133.777 Y119.963 E3.0897
G1 X133.739 Y120.235 E3.10066
G1 X133.596 Y120.825 E3.12489
G1 X133.494 Y121.112 E3.13705
G1 X133.179 Y121.776 E3.16638
G1 X130.521 Y126.987 E3.39986
G1 X130.335 Y127.264 E3.41317
G1 X130 Y127.548 E3.4307
G1 X129.403 Y127.863 E3.45764
G1 X129.056 Y127.926 E3.47172
G1 X128.475 Y127.957 E3.49494
G1 X127.95 Y128.987 E3.54108
G1 X128.299 Y129.524 E3.56665
G1 X128.447 Y129.824 E3.58
G1 X128.524 Y130.222 E3.59618
G1 X128.514 Y130.883 E3.62256
G1 X128.387 Y131.25 E3.63806
G1 X125.773 Y136.372 E3.86757
G1 X125.709 Y136.485 E3.87276
G1 X125.438 Y136.913 E3.89298
G1 X125.26 Y137.143 E3.90458
G1 X124.903 Y137.52 E3.92531
G1 X124.762 Y137.649 E3.93293
G1 X114.744 Y145.687 E4.44557
G1 X114.313 Y145.964 E4.46602
G1 X113.884 Y146.138 E4.48449
G1 X113.402 Y146.245 E4.5042
G1 X112.993 Y146.274 E4.52057
G1 X112.501 Y146.228 E4.54029
G1 X102.805 Y144.426 E4.9339
G1 X101.694 Y144.216 E4.97903
G1 X101.502 Y144.165 E4.98696
G1 X101.015 Y143.999 E5.00749
G1 X100.674 Y143.828 E5.02272
G1 X100.062 Y143.378 E5.05304
G1 X99.834 Y143.144 E5.06608
G1 X98.815 Y141.966 E5.12824
G1 X89.23 Y130.921 E5.71192
G1 X88.866 Y130.401 E5.73726
G1 X88.567 Y129.722 E5.76687
G1 X88.486 Y129.397 E5.78024
G1 X88.415 Y128.827 E5.80316
G1 X88.183 Y126.6 E5.89253
G1 X88.177 Y126.389 E5.90095
G1 X88.205 Y125.789 E5.92493
G1 X88.239 Y125.548 E5.93464
G1 X88.37 Y124.98 E5.95791
G1 X88.502 Y124.631 E5.9728
G1 X88.702 Y124.26 E5.98962
G1 X88.965 Y123.913 E6.007
G1 X89.568 Y123.391 E6.03883
G1 X89.761 Y123.298 E6.04738
G1 X90.284 Y123.094 E6.06979
G1 X90.419 Y123.049 E6.07547
G1 X93.54 Y122.184 E6.20473
G1 X94.172 Y122.114 E6.23011
G1 X94.506 Y122.133 E6.24346
G1 X95.001 Y122.322 E6.26461
G1 X95.433 Y122.638 E6.28597
G1 X95.637 Y122.903 E6.29932
G1 X95.834 Y123.412 E6.3211
G1 X95.892 Y123.741 E6.33443
G1 X95.868 Y124.136 E6.35023
G1 X95.75 Y125.339 E6.39847
G1 X95.678 Y125.665 E6.4118
G1 X95.501 Y126.009 E6.42724
G1 X95.051 Y126.574 E6.45607
G1 X94.942 Y126.667 E6.46179
G1 X95.618 Y126.751 E6.48898
G1 X96.109 Y126.88 E6.50924
G1 X96.413 Y127.017 E6.52255
G1 X96.703 Y127.242 E6.5372
G1 X96.886 Y127.438 E6.5479
G1 X104.132 Y136.851 E7.02201
G1 X104.358 Y137.091 E7.03517
G1 X104.56 Y137.233 E7.04502
G1 X104.964 Y137.382 E7.06221
G1 X110.939 Y138.586 E7.30548
G1 X111.244 Y138.344 E7.32102
G1 X117.22 Y133.549 E7.62682
G1 X117.503 Y133.191 E7.64504
G1 X119.577 Y129.126 E7.82717
G1 X119.763 Y128.848 E7.84053
G1 X120.064 Y128.586 E7.85645
G1 X120.639 Y128.263 E7.88277
G1 X121.024 Y128.187 E7.89844
G1 X122.415 Y128.114 E7.95403
G1 X124.521 Y123.986 E8.13899
G1 X123.769 Y122.827 E8.19413
G1 X123.622 Y122.527 E8.20747
G1 X123.544 Y122.029 E8.22759
G1 X123.601 Y121.39 E8.25319
G1 X123.705 Y121.122 E8.26467
G1 X125.551 Y117.498 E8.42699
G1 X125.557 Y117.368 E8.43218
G1 X115.892 Y87.545 E9.68343
G1 X115.866 Y87.522 E9.68482
G1 X106.317 Y82.647 E10.11273
G1 X101.669 Y85.382 E10.32798
G1 X101.501 Y85.533 E10.33699
G1 X101.345 Y86.062 E10.35901
G1 X101.206 Y86.585 E10.3806
G1 X98.777 Y95.957 E10.76702
G1 X98.739 Y96.08 E10.77216
G1 X98.481 Y96.797 E10.80257
G1 X98.4 Y96.981 E10.8106
G1 X98.115 Y97.516 E10.83479
G1 X98.014 Y97.678 E10.84241
G1 X97.653 Y98.178 E10.86702
G1 X97.554 Y98.3 E10.87329
G1 X97.125 Y98.772 E10.89875
G1 X97.005 Y98.889 E10.90544
G1 X96.57 Y99.265 E10.92839
G1 X96.336 Y99.432 E10.93986
G1 X95.555 Y99.881 E10.97582
G1 X95.364 Y99.972 E10.98426
G1 X94.844 Y100.174 E11.00653
G1 X94.675 Y100.228 E11.01361
G1 X94.043 Y100.385 E11.0396
G1 X93.883 Y100.415 E11.0461
G1 X93.351 Y100.483 E11.0675
G1 X93.158 Y100.494 E11.07522
G1 X92.511 Y100.487 E11.10104
G1 X92.32 Y100.472 E11.10869
G1 X91.694 Y100.379 E11.13395
G1 X91.499 Y100.335 E11.14193
G1 X90.833 Y100.136 E11.16967
G1 X90.616 Y100.053 E11.17894
G1 X90.005 Y99.762 E11.20595
G1 X89.874 Y99.691 E11.2119
G1 X89.415 Y99.409 E11.2334
G1 X88.891 Y98.977 E11.26051
G1 X88.854 Y98.944 E11.26249
G1 X88.463 Y98.578 E11.28386
G1 X88.315 Y98.416 E11.29262
G1 X87.932 Y97.924 E11.31751
G1 X87.847 Y97.802 E11.32344
G1 X87.566 Y97.349 E11.34472
G1 X87.471 Y97.168 E11.35287
G1 X87.224 Y96.598 E11.37767
G1 X87.116 Y96.306 E11.39009
G1 X85.78 Y92.212 E11.56198
G1 X85.669 Y91.627 E11.58574
G1 X85.674 Y90.893 E11.61504
G1 X85.737 Y90.536 E11.62951
G1 X85.907 Y90.006 E11.65172
G1 X86.559 Y88.232 E11.72716
G1 X87.675 Y85.214 E11.85558
G1 X88.14 Y83.961 E11.90892
G1 X88.363 Y83.352 E11.93481
G1 X88.571 Y82.8 E11.95835
G1 X88.782 Y82.426 E11.97549
G1 X89.083 Y82.045 E11.99487
G0 F9000 X89.397 Y82.293
G1 F1800 X89.631 Y82.078 E12.00755
G1 X90.068 Y81.802 E12.02818
G1 X106.195 Y74.201 E12.73976
G1 X106.687 Y74.019 E12.76069
G1 X107.2 Y73.906 E12.78166
G1 X107.428 Y73.883 E12.79081
G1 X107.956 Y73.89 E12.81188
G1 X108.185 Y73.92 E12.8211
G1 X108.674 Y74.042 E12.84122
G1 X109.184 Y74.248 E12.86317
G1 X110.762 Y75.055 E12.93391
G1 X119.734 Y79.634 E13.33594
G1 X119.906 Y79.742 E13.34405
G1 X120.4 Y80.122 E13.36892
G1 X120.632 Y80.365 E13.38233
G1 X121.022 Y80.966 E13.41093
G1 X121.173 Y81.342 E13.4271
G1 X122.359 Y85.008 E13.58088
G1 X133.252 Y118.628 E14.9914
G1 X133.284 Y118.75 E14.99644
G1 X133.38 Y119.257 E15.01703
G1 X133.377 Y119.946 E15.04453
G1 X133.35 Y120.141 E15.05239
G1 X133.207 Y120.731 E15.07662
G1 X133.132 Y120.941 E15.08552
G1 X132.823 Y121.594 E15.11435
G1 X130.165 Y126.805 E15.34783
G1 X130.002 Y127.036 E15.35911
G1 X129.5 Y127.383 E15.38347
G1 X129.241 Y127.494 E15.39472
G1 X129.035 Y127.527 E15.40304
G1 X128.224 Y127.57 E15.43546
G1 X127.489 Y129.011 E15.50002
G1 X127.964 Y129.742 E15.53481
G1 X128.083 Y129.998 E15.54608
G1 X128.139 Y130.568 E15.56894
G1 X128.112 Y130.849 E15.58021
G1 X128.031 Y131.069 E15.58957
G1 X125.417 Y136.191 E15.81908
G1 X125.371 Y136.271 E15.82276
G1 X125.1 Y136.699 E15.84298
G1 X124.969 Y136.868 E15.85152
G1 X124.612 Y137.245 E15.87224
G1 X124.512 Y137.337 E15.87766
G1 X114.494 Y145.375 E16.3903
G1 X114.104 Y145.623 E16.40874
G1 X113.798 Y145.747 E16.42192
G1 X113.316 Y145.854 E16.44163
G1 X112.681 Y145.849 E16.46697
G1 X112.574 Y145.835 E16.47128
G1 X102.879 Y144.033 E16.86485
G1 X101.768 Y143.823 E16.90998
G1 X101.631 Y143.787 E16.91563
G1 X101.144 Y143.621 E16.93617
G1 X100.489 Y143.215 E16.96693
G1 X100.137 Y142.882 E16.98627
G1 X99.118 Y141.704 E17.04843
G1 X89.532 Y130.658 E17.63217
G1 X89.198 Y130.177 E17.65554
G1 X88.941 Y129.579 E17.68152
G1 X88.883 Y129.347 E17.69106
G1 X88.812 Y128.786 E17.71363
G1 X88.58 Y126.559 E17.803
G1 X88.576 Y126.408 E17.80903
G1 X88.604 Y125.81 E17.83292
G1 X88.629 Y125.638 E17.83986
G1 X88.76 Y125.07 E17.86312
G1 X89.054 Y124.449 E17.89055
G1 X89.242 Y124.202 E17.90293
G1 X89.578 Y123.88 E17.92151
G1 X89.907 Y123.67 E17.93709
G1 X90.43 Y123.466 E17.95949
G1 X90.526 Y123.434 E17.96353
G1 X93.647 Y122.569 E18.09279
G1 X94.198 Y122.513 E18.1149
G1 X94.479 Y122.535 E18.12615
G1 X94.961 Y122.769 E18.14753
G1 X95.177 Y122.95 E18.15878
G1 X95.39 Y123.328 E18.1761
G1 X95.451 Y123.529 E18.18448
G1 X95.47 Y124.093 E18.207
G1 X95.352 Y125.3 E18.25541
G1 X95.285 Y125.574 E18.26667
G1 X94.957 Y126.087 E18.29097
G1 X94.569 Y126.46 E18.31245
G1 X94.479 Y126.612 E18.3195
G1 X94.474 Y126.774 E18.32597
G1 X94.601 Y126.983 E18.33573
G1 X94.844 Y127.058 E18.34588
G1 X95.568 Y127.148 E18.375
G1 X95.99 Y127.262 E18.39245
G1 X96.439 Y127.542 E18.41357
G1 X96.569 Y127.682 E18.42119
G1 X103.829 Y137.114 E18.89625
G1 X104.091 Y137.391 E18.91146
G1 X104.365 Y137.585 E18.92486
G1 X104.874 Y137.772 E18.94651
G1 X110.963 Y138.998 E19.19441
G1 X111.063 Y138.999 E19.1984
G1 X111.488 Y138.661 E19.22007
G1 X117.489 Y133.846 E19.52715
G1 X117.64 Y133.698 E19.53559
G1 X117.844 Y133.4 E19.55001
G1 X119.933 Y129.307 E19.73341
G1 X120.096 Y129.077 E19.74466
G1 X120.555 Y128.745 E19.76727
G1 X120.812 Y128.627 E19.77856
G1 X121.045 Y128.586 E19.788
G1 X122.667 Y128.501 E19.85283
G1 X124.982 Y123.962 E20.05619
G1 X124.105 Y122.609 E20.12055
G1 X123.986 Y122.353 E20.13181
G1 X123.952 Y121.731 E20.15668
G1 X124.061 Y121.303 E20.1743
G1 X125.922 Y117.65 E20.33793
G1 X125.978 Y117.487 E20.34481
G1 X125.949 Y117.279 E20.35319
G1 X116.252 Y87.357 E21.60859
G1 X116.094 Y87.19 E21.61777
G1 X106.303 Y82.191 E22.05654
G1 X101.433 Y85.056 E22.28205
G1 X101.196 Y85.264 E22.29464
G1 X101.132 Y85.37 E22.29958
G1 X100.958 Y85.96 E22.32413
G1 X100.82 Y86.483 E22.34572
G1 X98.39 Y95.857 E22.73222
G1 X98.363 Y95.945 E22.73589
G1 X98.105 Y96.662 E22.76631
G1 X98.047 Y96.793 E22.77203
G1 X97.762 Y97.328 E22.79622
G1 X97.69 Y97.443 E22.80163
G1 X97.329 Y97.943 E22.82625
G1 X97.258 Y98.031 E22.83076
G1 X96.829 Y98.503 E22.85622
G1 X96.743 Y98.587 E22.86102
G1 X96.308 Y98.963 E22.88397
G1 X96.136 Y99.085 E22.89238
G1 X95.355 Y99.534 E22.92834
G1 X95.219 Y99.599 E22.93435
G1 X94.699 Y99.801 E22.95662
G1 X94.578 Y99.84 E22.96169
G1 X93.946 Y99.997 E22.98768
G1 X93.832 Y100.018 E22.99231
G1 X93.3 Y100.086 E23.01372
G1 X93.162 Y100.094 E23.01923
G1 X92.515 Y100.087 E23.04506
G1 X92.379 Y100.076 E23.0505
G1 X91.753 Y99.983 E23.07576
G1 X91.614 Y99.952 E23.08145
G1 X90.948 Y99.753 E23.10919
G1 X90.788 Y99.692 E23.11602
G1 X90.177 Y99.401 E23.14304
G1 X90.084 Y99.35 E23.14727
G1 X89.625 Y99.068 E23.16877
G1 X89.154 Y98.676 E23.19323
G1 X88.737 Y98.286 E23.21602
G1 X88.631 Y98.17 E23.22229
G1 X88.248 Y97.678 E23.24717
G1 X88.187 Y97.591 E23.25141
G1 X87.906 Y97.138 E23.27269
G1 X87.838 Y97.009 E23.27851
G1 X87.591 Y96.439 E23.3033
G1 X87.496 Y96.182 E23.31424
G1 X86.16 Y92.088 E23.48612
G1 X86.064 Y91.564 E23.50738
G1 X86.073 Y90.912 E23.53341
G1 X86.268 Y90.187 E23.56337
G1 X86.282 Y90.144 E23.56518
G1 X86.934 Y88.371 E23.64057
G1 X88.05 Y85.353 E23.769
G1 X88.516 Y84.1 E23.82236
G1 X88.737 Y83.493 E23.84814
G1 X88.945 Y82.941 E23.87168
G1 X89.096 Y82.674 E23.88393
G1 X89.397 Y82.293 E23.90331
G0 F9000 X89.711 Y82.541
G1 F1800 X90.163 Y82.206 E23.92576
G1 X90.238 Y82.164 E23.92919
G1 X106.365 Y74.563 E24.64077
G1 X106.773 Y74.41 E24.65816
G1 X107.286 Y74.297 E24.67912
G1 X107.423 Y74.283 E24.68462
G1 X107.951 Y74.29 E24.70569
G1 X108.088 Y74.308 E24.71121
G1 X108.577 Y74.43 E24.73132
G1 X109.002 Y74.604 E24.74965
G1 X110.58 Y75.411 E24.82039
G1 X119.552 Y79.99 E25.22243
G1 X119.662 Y80.059 E25.22761
G1 X120.156 Y80.439 E25.25248
G1 X120.304 Y80.594 E25.26104
G1 X120.652 Y81.118 E25.28614
G1 X120.793 Y81.465 E25.30109
G1 X121.979 Y85.131 E25.45488
G1 X132.872 Y118.751 E26.8654
G1 X132.891 Y118.824 E26.86841
G1 X132.987 Y119.331 E26.889
G1 X132.977 Y119.93 E26.91292
G1 X132.961 Y120.046 E26.91759
G1 X132.818 Y120.636 E26.94182
G1 X132.77 Y120.77 E26.9475
G1 X132.466 Y121.413 E26.97589
G1 X129.808 Y126.624 E27.20936
G1 X129.585 Y126.864 E27.22244
G1 X129.293 Y127.041 E27.23607
G1 X129.014 Y127.127 E27.24772
G1 X127.973 Y127.182 E27.28933
G1 X127.029 Y129.035 E27.37233
G1 X127.628 Y129.959 E27.41628
G1 X127.724 Y130.259 E27.42885
G1 X127.739 Y130.587 E27.44195
G1 X127.674 Y130.887 E27.45421
G1 X125.06 Y136.009 E27.68372
G1 X125.033 Y136.057 E27.68592
G1 X124.762 Y136.485 E27.70614
G1 X124.679 Y136.593 E27.71157
G1 X124.322 Y136.97 E27.7323
G1 X124.261 Y137.025 E27.73557
G1 X114.243 Y145.063 E28.24821
G1 X113.895 Y145.282 E28.26462
G1 X113.229 Y145.464 E28.29217
G1 X112.712 Y145.45 E28.31282
G1 X112.647 Y145.442 E28.31543
G1 X102.954 Y143.64 E28.70893
G1 X101.843 Y143.43 E28.75406
G1 X101.76 Y143.408 E28.75748
G1 X101.273 Y143.242 E28.77802
G1 X100.715 Y142.886 E28.80444
G1 X100.439 Y142.621 E28.81971
G1 X99.42 Y141.443 E28.88187
G1 X89.833 Y130.396 E29.46566
G1 X89.529 Y129.953 E29.48711
G1 X89.315 Y129.436 E29.50944
G1 X89.28 Y129.297 E29.51516
G1 X89.21 Y128.744 E29.53741
G1 X88.978 Y126.517 E29.62677
G1 X88.976 Y126.427 E29.63037
G1 X89.004 Y125.831 E29.65418
G1 X89.018 Y125.728 E29.65833
G1 X89.149 Y125.16 E29.6816
G1 X89.406 Y124.639 E29.70478
G1 X89.855 Y124.169 E29.73073
G1 X90.052 Y124.043 E29.74006
G1 X90.575 Y123.839 E29.76246
G1 X90.633 Y123.82 E29.7649
G1 X93.754 Y122.955 E29.89416
G1 X94.223 Y122.912 E29.91296
G1 X94.44 Y122.938 E29.92168
G1 X94.75 Y123.109 E29.93581
G1 X94.911 Y123.256 E29.94451
G1 X95.068 Y123.645 E29.96126
G1 X95.072 Y124.05 E29.97742
G1 X94.954 Y125.261 E30.02598
G1 X94.847 Y125.549 E30.03825
G1 X94.531 Y125.966 E30.05913
G1 X94.267 Y126.192 E30.073
G1 X94.088 Y126.513 E30.08767
G1 X94.08 Y126.871 E30.10196
G1 X94.182 Y127.113 E30.11244
G1 X94.345 Y127.297 E30.12225
G1 X94.515 Y127.396 E30.13011
G1 X94.781 Y127.453 E30.14096
G1 X95.519 Y127.545 E30.17065
G1 X95.871 Y127.644 E30.18524
G1 X96.174 Y127.842 E30.19969
G1 X96.252 Y127.926 E30.20426
G1 X103.522 Y137.371 E30.67997
G1 X103.83 Y137.697 E30.69787
G1 X104.169 Y137.937 E30.71445
G1 X104.786 Y138.162 E30.74066
G1 X110.923 Y139.398 E30.99052
G1 X111.173 Y139.399 E31.0005
G1 X111.255 Y139.357 E31.00418
G1 X111.738 Y138.973 E31.0288
G1 X117.758 Y134.142 E31.33688
G1 X117.946 Y133.958 E31.34737
G1 X118.21 Y133.566 E31.36624
G1 X120.29 Y129.489 E31.54891
G1 X120.498 Y129.258 E31.56132
G1 X120.772 Y129.081 E31.57434
G1 X121.066 Y128.986 E31.58667
G1 X122.91 Y128.889 E31.66037
G1 X122.921 Y128.883 E31.66087
G1 X125.444 Y123.937 E31.88248
G1 X124.441 Y122.391 E31.95603
G1 X124.357 Y122.19 E31.96472
G1 X124.352 Y121.741 E31.98264
G1 X124.417 Y121.485 E31.99319
G1 X126.291 Y117.806 E32.15798
G1 X126.385 Y117.51 E32.17037
G1 X126.341 Y117.192 E32.18318
G1 X116.624 Y87.208 E33.44118
G1 X116.553 Y87.061 E33.4477
G1 X116.318 Y86.854 E33.4602
G1 X106.428 Y81.804 E33.90341
G1 X106.24 Y81.779 E33.91098
G1 X106.157 Y81.813 E33.91456
G1 X101.2 Y84.729 E34.1441
G1 X100.885 Y85.005 E34.16081
G1 X100.764 Y85.203 E34.17008
G1 X100.567 Y85.874 E34.19799
G1 X100.433 Y86.381 E34.21892
G1 X98.003 Y95.757 E34.6055
G1 X97.987 Y95.809 E34.60767
G1 X97.729 Y96.526 E34.63808
G1 X97.694 Y96.605 E34.64153
G1 X97.409 Y97.14 E34.66573
G1 X97.365 Y97.209 E34.66899
G1 X97.004 Y97.709 E34.69361
G1 X96.962 Y97.762 E34.6963
G1 X96.533 Y98.234 E34.72176
G1 X96.481 Y98.284 E34.72464
G1 X96.046 Y98.66 E34.74759
G1 X95.937 Y98.738 E34.75294
G1 X95.156 Y99.187 E34.78889
G1 X95.074 Y99.226 E34.79252
G1 X94.554 Y99.428 E34.81478
G1 X94.482 Y99.451 E34.8178
G1 X93.85 Y99.608 E34.84379
G1 X93.781 Y99.621 E34.84659
G1 X93.249 Y99.689 E34.868
G1 X93.167 Y99.694 E34.87128
G1 X92.52 Y99.687 E34.8971
G1 X92.438 Y99.68 E34.90039
G1 X91.812 Y99.587 E34.92565
G1 X91.728 Y99.569 E34.92908
G1 X91.062 Y99.37 E34.95682
G1 X90.96 Y99.331 E34.96118
G1 X90.349 Y99.04 E34.98819
G1 X90.293 Y99.009 E34.99074
