;FLAVOR:Marlin
;TIME:12808
;Filament used: 17.3314m
;Layer height: 0.2
;MINX:65.555
;MINY:68.813
;MINZ:0.24
;MAXX:154.445
;MAXY:151.187
;MAXZ:50.76
;Generated with Cura_SteamEngine 4.5.0
M140 S50
M105
M190 S50
M104 S230
M105
M109 S230
M82 ;absolute extrusion mode
M201 X500.00 Y500.00 Z100.00 E5000.00 ;Setup machine max acceleration
M203 X500.00 Y500.00 Z10.00 E50.00 ;Setup machine max feedrate
M204 P500.00 R1000.00 T500.00 ;Setup Print/Retract/Travel acceleration
M205 X8.00 Y8.00 Z0.40 E5.00 ;Setup Jerk
M220 S100 ;Reset Feedrate
M221 S100 ;Reset Flowrate

G28 ;Home

G92 E0 ;Reset Extruder
G1 Z2.0 F3000 ;Move Z Axis up
G1 X10.1 Y20 Z0.28 F5000.0 ;Move to start position
G1 X10.1 Y200.0 Z0.28 F1500.0 E15 ;Draw the first line
G1 X10.4 Y200.0 Z0.28 F5000.0 ;Move to side a little
G1 X10.4 Y20 Z0.28 F1500.0 E30 ;Draw the second line
G92 E0 ;Reset Extruder
G1 Z2.0 F3000 ;Move Z Axis up

G92 E0
G92 E0
G1 F1800 E-6
;LAYER_COUNT:245
;LAYER:0
M107
G0 F9000 X66.687 Y133.901 Z0.24
;TYPE:SKIRT
G1 F1800 E0
G1 F3600 X67.012 Y133.782 E0.02072
G1 X67.36 Y133.741 E0.0417
G1 X70.201 Y133.741 E0.21178
G1 X70.545 Y133.781 E0.23252
G1 X70.987 Y133.974 E0.26139
G1 X71.511 Y132.362 E0.36287
G1 X71.655 Y132.048 E0.38355
G1 X71.867 Y131.775 E0.40425
G1 X74.044 Y130.164 E0.56638
G1 X74.345 Y129.994 E0.58708
G1 X74.677 Y129.898 E0.60777
G1 X77.387 Y129.877 E0.77002
G1 X77.731 Y129.917 E0.79075
G1 X78.056 Y130.034 E0.81143
G1 X80.26 Y131.613 E0.97375
G1 X80.514 Y131.848 E0.99446
G1 X80.708 Y132.134 E1.01515
G1 X81.563 Y134.698 E1.17697
G1 X81.632 Y135.037 E1.19768
G1 X81.621 Y135.383 E1.2184
G1 X80.803 Y137.962 E1.38038
G1 X80.659 Y138.276 E1.40106
G1 X80.447 Y138.549 E1.42176
G1 X78.27 Y140.16 E1.5839
G1 X77.969 Y140.33 E1.60459
G1 X77.637 Y140.426 E1.62528
G1 X74.927 Y140.447 E1.78753
G1 X74.583 Y140.407 E1.80826
G1 X74.258 Y140.29 E1.82894
G1 X72.31 Y138.898 E1.97228
G1 X72.662 Y139.708 E2.02516
G1 X72.963 Y140.227 E2.06108
G1 X73.331 Y140.737 E2.09873
G1 X73.777 Y141.232 E2.13862
G1 X74.307 Y141.704 E2.18111
G1 X74.929 Y142.146 E2.22679
G1 X75.344 Y142.374 E2.25514
G1 X75.823 Y142.576 E2.28626
G1 X76.701 Y142.835 E2.34106
G1 X77.665 Y143.015 E2.39977
G1 X79.092 Y143.142 E2.48554
G1 X81.387 Y143.122 E2.62295
G1 X84.778 Y142.761 E2.82711
G1 X87.722 Y142.214 E3.00637
G1 X89.084 Y141.888 E3.09022
G1 X89.803 Y141.709 E3.13458
G1 X104.774 Y137.964 E4.05848
G1 X126.725 Y132.472 E5.41316
G1 X148.27 Y107.849 E7.37194
G1 X148.27 Y93.345 E8.24027
G1 X138.897 Y74.145 E9.51939
G1 X138.782 Y73.819 E9.54009
G1 X138.745 Y73.475 E9.5608
G1 X138.788 Y73.132 E9.5815
G1 X138.908 Y72.808 E9.60218
G1 X139.185 Y72.426 E9.63043
G1 X142.36 Y69.252 E9.89921
G1 X142.631 Y69.037 E9.91992
G1 X142.944 Y68.891 E9.94059
G1 X143.42 Y68.813 E9.96947
G1 X152.945 Y68.813 E10.53972
G1 X153.289 Y68.853 E10.56045
G1 X153.614 Y68.97 E10.58113
G1 X153.904 Y69.159 E10.60185
G1 X154.142 Y69.409 E10.62252
G1 X154.317 Y69.708 E10.64326
G1 X154.42 Y70.038 E10.66395
G1 X154.445 Y146.512 E15.24232
G1 X154.405 Y146.856 E15.26305
G1 X154.288 Y147.181 E15.28373
G1 X154.099 Y147.471 E15.30446
G1 X153.849 Y147.709 E15.32512
G1 X153.55 Y147.884 E15.34586
G1 X153.22 Y147.987 E15.36656
G1 X144.042 Y148.012 E15.91603
G1 X141.306 Y150.748 E16.14768
G1 X141.035 Y150.962 E16.16835
G1 X140.721 Y151.109 E16.18911
G1 X140.245 Y151.187 E16.21799
G1 X130.725 Y151.187 E16.78793
G1 X130.381 Y151.147 E16.80866
G1 X130.055 Y151.029 E16.82942
G1 X124.016 Y148.012 E17.23357
G1 X111.919 Y148.012 E17.9578
G1 X103.136 Y151.02 E18.5136
G1 X102.798 Y151.094 E18.53432
G1 X102.452 Y151.088 E18.55504
G1 X102.117 Y151.003 E18.57573
G1 X101.525 Y150.64 E18.6173
G1 X101.269 Y150.407 E18.63803
G1 X101.073 Y150.122 E18.65873
G1 X100.948 Y149.8 E18.67941
G1 X100.899 Y149.421 E18.70229
G1 X100.899 Y148.012 E18.78665
G1 X90.691 Y148.012 E19.39778
G1 X90.691 Y149.507 E19.48728
G1 X90.651 Y149.851 E19.50802
G1 X90.534 Y150.176 E19.5287
G1 X90.24 Y150.58 E19.55861
G1 X89.786 Y150.967 E19.59433
G1 X89.471 Y151.111 E19.61506
G1 X88.981 Y151.183 E19.64471
G1 X85.467 Y151.113 E19.85513
G1 X80.673 Y150.642 E20.14352
G1 X77.001 Y149.919 E20.36758
G1 X74.43 Y149.125 E20.52867
G1 X72.95 Y148.502 E20.62481
G1 X71.586 Y147.757 E20.71785
G1 X70.739 Y147.18 E20.77921
G1 X69.637 Y146.206 E20.86726
G1 X68.466 Y144.851 E20.97448
G1 X67.563 Y143.553 E21.06914
G1 X66.853 Y142.277 E21.15656
G1 X66.323 Y141.045 E21.23686
G1 X65.957 Y139.895 E21.30911
G1 X65.717 Y138.798 E21.37634
G1 X65.576 Y137.615 E21.44766
G1 X65.555 Y136.588 E21.50916
G1 X65.625 Y135.663 E21.5647
G1 X65.72 Y135.108 E21.59841
G1 X65.821 Y134.777 E21.61913
G1 X65.995 Y134.478 E21.63984
G1 X66.398 Y134.09 E21.67333
G1 X66.687 Y133.901 E21.694
G0 F9000 X67.011 Y134.411
G1 F3600 X67.36 Y134.341 E21.71531
G1 X70.201 Y134.341 E21.8854
G1 X70.466 Y134.381 E21.90144
G1 X70.707 Y134.497 E21.91745
G1 X71.042 Y134.827 E21.94561
G1 X71.192 Y135.048 E21.9616
G1 X71.279 Y135.456 E21.98657
G1 X71.253 Y136.58 E22.05388
G1 X71.348 Y137.538 E22.11152
G1 X71.537 Y138.443 E22.16687
G1 X71.78 Y139.209 E22.21498
G1 X72.127 Y139.984 E22.26582
G1 X72.458 Y140.553 E22.30522
G1 X72.863 Y141.116 E22.34675
G1 X73.355 Y141.66 E22.39066
G1 X73.925 Y142.169 E22.43641
G1 X74.608 Y142.653 E22.48652
G1 X75.089 Y142.918 E22.5194
G1 X75.625 Y143.144 E22.55423
G1 X76.555 Y143.418 E22.61227
G1 X77.588 Y143.61 E22.67517
G1 X79.063 Y143.743 E22.76384
G1 X81.425 Y143.721 E22.90525
G1 X84.861 Y143.356 E23.11212
G1 X87.854 Y142.8 E23.29437
G1 X89.237 Y142.469 E23.37951
G1 X89.947 Y142.292 E23.42331
G1 X127.053 Y133.008 E25.71326
G1 X148.87 Y108.075 E27.69673
G1 X148.87 Y93.207 E28.58685
G1 X139.436 Y73.882 E29.87431
G1 X139.356 Y73.627 E29.89031
G1 X139.354 Y73.359 E29.90635
G1 X139.431 Y73.103 E29.92236
G1 X139.609 Y72.851 E29.94083
G1 X142.784 Y69.677 E30.2096
G1 X142.999 Y69.518 E30.22561
G1 X143.251 Y69.429 E30.24161
G1 X152.945 Y69.413 E30.82197
G1 X153.451 Y69.569 E30.85367
G1 X153.647 Y69.75 E30.86965
G1 X153.782 Y69.982 E30.88572
G1 X153.845 Y70.313 E30.90589
G1 X153.845 Y146.512 E35.46779
G1 X153.805 Y146.777 E35.48383
G1 X153.689 Y147.018 E35.49985
G1 X153.508 Y147.214 E35.51582
G1 X153.276 Y147.349 E35.53189
G1 X152.945 Y147.412 E35.55206
G1 X143.792 Y147.412 E36.10003
G1 X140.881 Y150.323 E36.3465
G1 X140.666 Y150.482 E36.36251
G1 X140.414 Y150.571 E36.37851
G1 X130.725 Y150.587 E36.95857
G1 X130.323 Y150.492 E36.9833
G1 X124.158 Y147.412 E37.39589
G1 X111.819 Y147.412 E38.1346
G1 X102.942 Y150.452 E38.69635
G1 X102.678 Y150.501 E38.71243
G1 X102.413 Y150.469 E38.72841
G1 X102.126 Y150.332 E38.74745
G1 X101.683 Y149.966 E38.78185
G1 X101.554 Y149.731 E38.7979
G1 X101.499 Y149.421 E38.81675
G1 X101.499 Y147.412 E38.93702
G1 X90.091 Y147.412 E39.62
G1 X90.091 Y149.507 E39.74542
G1 X90.051 Y149.772 E39.76147
G1 X89.935 Y150.013 E39.77748
G1 X89.64 Y150.327 E39.80327
G1 X89.423 Y150.483 E39.81927
G1 X89.17 Y150.569 E39.83527
G1 X85.479 Y150.513 E40.05627
G1 X80.732 Y150.045 E40.34184
G1 X77.118 Y149.331 E40.56239
G1 X74.609 Y148.552 E40.71967
G1 X73.185 Y147.95 E40.81223
G1 X71.876 Y147.232 E40.90161
G1 X71.081 Y146.687 E40.95932
G1 X70.038 Y145.76 E41.04286
G1 X68.923 Y144.462 E41.1453
G1 X68.057 Y143.213 E41.23629
G1 X67.379 Y141.988 E41.32012
G1 X66.875 Y140.811 E41.39677
G1 X66.53 Y139.717 E41.46544
G1 X66.304 Y138.673 E41.52939
G1 X66.172 Y137.547 E41.59727
G1 X66.155 Y136.58 E41.65517
G1 X66.223 Y135.712 E41.70729
G1 X66.31 Y135.216 E41.73744
G1 X66.397 Y134.963 E41.75346
G1 X66.618 Y134.689 E41.77453
G1 X67.011 Y134.411 E41.80335
G0 F9000 X67.168 Y135.011
G1 F3600 X67.36 Y134.941 E41.81559
G1 X70.201 Y134.941 E41.98567
G1 X70.422 Y135.038 E42.00012
G1 X70.6 Y135.232 E42.01589
G1 X70.679 Y135.442 E42.02932
G1 X70.652 Y136.604 E42.0989
G1 X70.754 Y137.628 E42.16051
G1 X70.957 Y138.601 E42.22002
G1 X71.216 Y139.416 E42.27122
G1 X71.596 Y140.263 E42.32679
G1 X71.956 Y140.883 E42.36972
G1 X72.392 Y141.489 E42.41441
G1 X72.928 Y142.082 E42.46227
G1 X73.554 Y142.641 E42.51251
G1 X74.293 Y143.165 E42.56675
G1 X74.83 Y143.46 E42.60343
G1 X75.413 Y143.707 E42.64133
G1 X76.423 Y144.004 E42.70436
G1 X77.498 Y144.204 E42.76982
G1 X79.046 Y144.343 E42.86287
G1 X81.463 Y144.321 E43.00758
G1 X84.944 Y143.951 E43.21716
G1 X87.966 Y143.389 E43.40118
G1 X89.376 Y143.052 E43.48797
G1 X90.093 Y142.874 E43.5322
G1 X105.194 Y139.096 E44.46413
G1 X127.38 Y133.545 E45.83331
G1 X149.47 Y108.3 E47.8416
G1 X149.47 Y93.069 E48.75346
G1 X139.975 Y73.619 E50.04924
G1 X139.946 Y73.468 E50.05844
G1 X140.033 Y73.275 E50.07112
G1 X143.208 Y70.101 E50.33989
G1 X143.42 Y70.013 E50.35363
G1 X152.945 Y70.013 E50.92388
G1 X153.094 Y70.052 E50.9331
G1 X153.203 Y70.16 E50.94229
G1 X153.245 Y70.313 E50.95178
G1 X153.245 Y146.512 E55.51369
G1 X153.206 Y146.661 E55.52291
G1 X153.098 Y146.77 E55.53209
G1 X152.945 Y146.812 E55.54159
G1 X143.544 Y146.812 E56.10441
G1 X140.457 Y149.899 E56.36578
G1 X140.245 Y149.987 E56.37952
G1 X130.725 Y149.987 E56.94947
G1 X130.591 Y149.955 E56.95771
G1 X124.3 Y146.812 E57.37873
G1 X111.72 Y146.812 E58.13188
G1 X102.747 Y149.885 E58.6997
G1 X102.594 Y149.896 E58.70889
G1 X102.224 Y149.665 E58.735
G1 X102.126 Y149.546 E58.74423
G1 X102.099 Y149.421 E58.75189
G1 X102.099 Y146.812 E58.90808
G1 X89.491 Y146.812 E59.6629
G1 X89.491 Y149.507 E59.82425
G1 X89.401 Y149.722 E59.8382
G1 X89.221 Y149.898 E59.85327
G1 X89.005 Y149.983 E59.86717
G1 X85.491 Y149.913 E60.07759
G1 X80.791 Y149.448 E60.36034
G1 X77.235 Y148.742 E60.57739
G1 X74.788 Y147.979 E60.73084
G1 X73.42 Y147.398 E60.81982
G1 X72.166 Y146.707 E60.90554
G1 X71.423 Y146.194 E60.9596
G1 X70.439 Y145.313 E61.03867
G1 X69.38 Y144.073 E61.13629
G1 X68.551 Y142.872 E61.22366
G1 X67.905 Y141.699 E61.30383
G1 X67.428 Y140.577 E61.37682
G1 X67.103 Y139.538 E61.442
G1 X66.891 Y138.548 E61.50261
G1 X66.768 Y137.48 E61.56697
G1 X66.755 Y136.573 E61.62128
G1 X66.821 Y135.762 E61.66999
G1 X66.9 Y135.325 E61.69658
G1 X67.003 Y135.149 E61.70879
G1 X67.168 Y135.011 E61.72166
G1 F1800 E55.72166
G0 F9000 X67.168 Y134.576
G0 X70.492 Y134.58
G0 X71.321 Y134.884
G1 F1800 E61.72166
G1 F3600 X72.081 Y132.548 E61.86873
G1 X72.201 Y132.308 E61.8848
G1 X72.407 Y132.098 E61.90241
G1 X74.397 Y130.649 E62.04978
G1 X74.635 Y130.526 E62.06582
G1 X74.927 Y130.477 E62.08355
G1 X77.387 Y130.477 E62.23082
G1 X77.917 Y130.649 E62.26418
G1 X79.907 Y132.098 E62.41156
G1 X80.097 Y132.286 E62.42756
G1 X80.233 Y132.548 E62.44523
G1 X80.993 Y134.884 E62.5923
G1 X81.037 Y135.147 E62.60826
G1 X80.993 Y135.44 E62.626
G1 X80.233 Y137.776 E62.77307
G1 X80.113 Y138.016 E62.78913
G1 X79.907 Y138.226 E62.80674
G1 X77.917 Y139.675 E62.95412
G1 X77.679 Y139.798 E62.97016
G1 X77.387 Y139.847 E62.98788
G1 X74.927 Y139.847 E63.13516
G1 X74.662 Y139.807 E63.1512
G1 X74.397 Y139.675 E63.16893
G1 X72.407 Y138.226 E63.3163
G1 X72.217 Y138.038 E63.33231
G1 X72.081 Y137.776 E63.34998
G1 X71.321 Y135.44 E63.49705
G1 X71.277 Y135.177 E63.51301
G1 X71.321 Y134.884 E63.53075
G0 F9000 X71.892 Y135.069
G1 F3600 X72.652 Y132.733 E63.67782
G1 X72.76 Y132.583 E63.68888
G1 X74.75 Y131.134 E63.83626
G1 X74.927 Y131.077 E63.84739
G1 X77.387 Y131.077 E63.99466
G1 X77.564 Y131.134 E64.0058
G1 X79.554 Y132.583 E64.15317
G1 X79.662 Y132.733 E64.16424
G1 X80.422 Y135.069 E64.31131
G1 X80.422 Y135.255 E64.32244
G1 X79.662 Y137.591 E64.46951
G1 X79.554 Y137.741 E64.48057
G1 X77.564 Y139.19 E64.62795
G1 X77.387 Y139.247 E64.63908
G1 X74.927 Y139.247 E64.78636
G1 X74.75 Y139.19 E64.79749
G1 X72.76 Y137.741 E64.94486
G1 X72.652 Y137.591 E64.95593
G1 X71.892 Y135.255 E65.103
G1 X71.892 Y135.069 E65.11413
G0 F9000 X72.492 Y135.162
G1 F3600 X73.192 Y133.013 E65.24944
G1 X75.026 Y131.677 E65.38529
G1 X77.288 Y131.677 E65.52071
G1 X79.122 Y133.013 E65.65655
G1 X79.822 Y135.162 E65.79186
G1 X79.122 Y137.311 E65.92717
G1 X77.288 Y138.647 E66.06301
G1 X75.026 Y138.647 E66.19843
G1 X73.192 Y137.311 E66.33428
G1 X72.492 Y135.162 E66.46959
G0 F9000 X73.123 Y135.162
G1 F3600 X73.702 Y133.383 E66.58159
G1 X75.221 Y132.277 E66.69408
G1 X77.093 Y132.277 E66.80616
G1 X78.612 Y133.383 E66.91865
G1 X79.191 Y135.162 E67.03065
G1 X78.612 Y136.941 E67.14266
G1 X77.093 Y138.047 E67.25515
G1 X75.221 Y138.047 E67.36722
G1 X73.702 Y136.941 E67.47971
G1 X73.123 Y135.162 E67.59172
G0 F9000 X73.754 Y135.162
G1 F3600 X74.212 Y133.753 E67.68042
G1 X75.416 Y132.877 E67.76956
G1 X76.898 Y132.877 E67.85828
G1 X78.102 Y133.753 E67.94742
G1 X78.56 Y135.162 E68.03612
G1 X78.102 Y136.571 E68.12482
G1 X76.898 Y137.447 E68.21396
G1 X75.416 Y137.447 E68.30269
G1 X74.212 Y136.571 E68.39183
G1 X73.754 Y135.162 E68.48053
G0 F9000 X74.385 Y135.162
G1 F3600 X74.723 Y134.123 E68.54594
G1 X75.611 Y133.477 E68.61168
G1 X76.703 Y133.477 E68.67706
G1 X77.591 Y134.123 E68.7428
G1 X77.929 Y135.162 E68.80821
G1 X77.591 Y136.201 E68.87362
G1 X76.703 Y136.847 E68.93937
G1 X75.611 Y136.847 E69.00474
G1 X74.723 Y136.201 E69.07048
G1 X74.385 Y135.162 E69.1359
G0 F9000 X75.017 Y135.162
G1 F3600 X75.234 Y134.493 E69.178
G1 X75.806 Y134.077 E69.22035
G1 X76.508 Y134.077 E69.26237
G1 X77.08 Y134.493 E69.30472
G1 X77.297 Y135.162 E69.34682
G1 X77.08 Y135.831 E69.38893
G1 X76.508 Y136.247 E69.43127
G1 X75.806 Y136.247 E69.4733
G1 X75.234 Y135.831 E69.51564
G1 X75.017 Y135.162 E69.55775
G0 F9000 X75.647 Y135.162
G1 F3600 X75.744 Y134.864 E69.57651
G1 X76.001 Y134.677 E69.59554
G1 X76.313 Y134.677 E69.61422
G1 X76.57 Y134.864 E69.63325
G1 X76.667 Y135.162 E69.65201
G1 X76.57 Y135.46 E69.67077
G1 X76.313 Y135.647 E69.6898
G1 X76.001 Y135.647 E69.70848
G1 X75.744 Y135.46 E69.72751
G1 X75.647 Y135.162 E69.74627
G1 F1800 E63.74627
;MESH:AA-Base.stl
G0 F9000 X107.617 Y142.689
G0 X105.972 Y143.951
G0 X106.003 Y147.713
G0 X105.658 Y148.254
;TYPE:WALL-OUTER
G1 F1800 E69.74627
G1 F3600 X105.658 Y143.637 E70.02268
G1 X150.07 Y143.637 E72.68155
G1 X150.07 Y113.374 E74.49334
G1 X149.681 Y113.228 E74.51822
G1 X129.292 Y136.605 E76.37529
G1 X105.658 Y142.198 E77.82929
G1 X105.658 Y139.598 E77.98495
G1 X127.709 Y134.08 E79.34581
G1 X150.07 Y108.525 E81.37875
G1 X150.07 Y92.929 E82.31246
G1 X140.609 Y73.547 E83.60369
G1 X143.544 Y70.613 E83.85214
G1 X152.645 Y70.613 E84.397
G1 X152.645 Y146.212 E88.92298
G1 X143.296 Y146.212 E89.48269
G1 X140.121 Y149.387 E89.7515
G1 X130.795 Y149.387 E90.30984
G1 X124.441 Y146.212 E90.73509
G1 X111.62 Y146.212 E91.50266
G1 X105.658 Y148.254 E91.87995
G1 F1800 E85.87995
G0 F9000 X106.016 Y147.753
G0 X107.14 Y145.119
G0 X150.398 Y143.965
G0 X150.402 Y113.144
G0 X149.583 Y112.836
G0 X127.893 Y134.382
G0 X150.407 Y108.652
G0 X150.408 Y92.851
G0 X147.323 Y86.536
G0 X145.895 Y80.137
G0 X146.295 Y80.137
G1 F1800 E91.87995
G1 F3600 X150.074 Y80.137 E92.10619
G1 X150.067 Y73.187 E92.52227
G1 X146.295 Y73.187 E92.7481
G1 X146.295 Y80.137 E93.16418
G0 F9000 X145.695 Y80.737
;TYPE:WALL-INNER
G1 F3600 X150.376 Y80.737 E93.44442
G1 X150.675 Y80.737 E93.46232
G1 X150.675 Y80.438 E93.47391
G1 X150.666 Y72.587 E93.94393
G1 X145.695 Y72.587 E94.24154
G1 X145.695 Y80.737 E94.72947
G1 F1800 E88.72947
G0 F9000 X150.408 Y92.851
G0 X150.407 Y108.652
G0 X129.11 Y136.301
G0 X149.583 Y112.836
G0 X150.402 Y113.144
G0 X150.398 Y143.965
G0 X111.466 Y145.003
G0 X106.258 Y147.414
G1 F1800 E94.72947
G1 F3600 X106.258 Y146.996 E94.75449
G1 X106.258 Y146.995 E94.75455
G1 X106.258 Y144.237 E94.91967
G1 X150.67 Y144.237 E97.57854
G1 X150.67 Y112.958 E99.45115
G1 X149.502 Y112.52 E99.52584
G1 X128.967 Y136.065 E101.39623
G1 X106.625 Y141.352 E102.77075
G1 X106.258 Y141.439 E102.79333
G1 X106.258 Y141.062 E102.80705
G1 X106.258 Y141.061 E102.80711
G1 X106.258 Y140.066 E102.86668
G1 X128.037 Y134.616 E104.21076
G1 X150.67 Y108.75 E106.26843
G1 X150.67 Y92.79 E107.22393
G1 X141.336 Y73.668 E108.49784
G1 X143.792 Y71.213 E108.70573
G1 X152.045 Y71.213 E109.19983
G1 X152.045 Y145.612 E113.65396
G1 X143.047 Y145.612 E114.19266
G1 X139.873 Y148.787 E114.46143
G1 X130.937 Y148.787 E114.99642
G1 X124.583 Y145.612 E115.42167
G1 X111.52 Y145.612 E116.20372
G1 X106.654 Y147.279 E116.51166
G1 X106.258 Y147.414 E116.52652
G0 F9000 X106.858 Y146.574
G1 F3600 X106.858 Y146.156 E116.55155
G1 X106.858 Y146.155 E116.55161
