;FLAVOR:Marlin
;TIME:10702
;Filament used: 16.7537m
;Layer height: 0.24
;MINX:77.35
;MINY:80.405
;MINZ:0.24
;MAXX:142.65
;MAXY:139.595
;MAXZ:79.32
;Generated with Cura_SteamEngine 4.5.0
M140 S50
M105
M190 S50
M104 S230
M105
M109 S230
M82 ;absolute extrusion mode
M201 X500.00 Y500.00 Z100.00 E5000.00 ;Setup machine max acceleration
M203 X500.00 Y500.00 Z10.00 E50.00 ;Setup machine max feedrate
M204 P500.00 R1000.00 T500.00 ;Setup Print/Retract/Travel acceleration
M205 X8.00 Y8.00 Z0.40 E5.00 ;Setup Jerk
M220 S100 ;Reset Feedrate
M221 S100 ;Reset Flowrate

G28 ;Home

G92 E0 ;Reset Extruder
G1 Z2.0 F3000 ;Move Z Axis up
G1 X10.1 Y20 Z0.28 F5000.0 ;Move to start position
G1 X10.1 Y200.0 Z0.28 F1500.0 E15 ;Draw the first line
G1 X10.4 Y200.0 Z0.28 F5000.0 ;Move to side a little
G1 X10.4 Y20 Z0.28 F1500.0 E30 ;Draw the second line
G92 E0 ;Reset Extruder
G1 Z2.0 F3000 ;Move Z Axis up

G92 E0
G92 E0
G1 F1800 E-3
;LAYER_COUNT:301
;LAYER:0
M107
G0 F9000 X131.197 Y80.743 Z0.24
;TYPE:SKIRT
G1 F1800 E0
G1 F3600 X131.394 Y80.561 E0.01606
G1 X131.635 Y80.445 E0.03207
G1 X131.9 Y80.405 E0.04811
G1 X141.574 Y80.405 E0.62728
G1 X142.08 Y80.561 E0.65898
G1 X142.386 Y80.845 E0.68397
G1 X142.545 Y81.06 E0.69998
G1 X142.634 Y81.312 E0.71598
G1 X142.65 Y84.303 E0.89505
G1 X142.61 Y84.568 E0.9111
G1 X142.494 Y84.809 E0.92711
G1 X142.21 Y85.115 E0.9521
G1 X141.995 Y85.274 E0.96811
G1 X141.743 Y85.363 E0.98411
G1 X139.423 Y85.379 E1.12301
G1 X139.413 Y86.451 E1.18719
G1 X139.371 Y86.715 E1.2032
G1 X139.252 Y86.955 E1.21923
G1 X139.069 Y87.15 E1.23524
G1 X138.564 Y87.416 E1.26941
G1 X138.308 Y87.494 E1.28544
G1 X138.041 Y87.494 E1.30142
G1 X137.785 Y87.415 E1.31746
G1 X135.15 Y85.379 E1.51682
G1 X131.899 Y85.379 E1.71145
G1 X131.634 Y85.339 E1.72749
G1 X131.393 Y85.223 E1.74351
G1 X131.197 Y85.042 E1.75948
G1 X131.025 Y84.715 E1.7816
G1 X130.966 Y84.454 E1.79762
G1 X130.987 Y84.187 E1.81365
G1 X131.089 Y83.932 E1.8301
G1 X131.092 Y82.09 E1.94037
G1 X130.984 Y81.583 E1.97141
G1 X130.968 Y81.316 E1.98742
G1 X131.063 Y80.974 E2.00867
G1 X131.197 Y80.743 E2.02466
G0 F9000 X131.712 Y81.071
G1 F3600 X131.9 Y81.005 E2.03659
G1 X141.574 Y81.005 E2.61575
G1 X141.723 Y81.044 E2.62497
G1 X141.962 Y81.269 E2.64463
G1 X142.05 Y81.481 E2.65837
G1 X142.05 Y84.303 E2.82732
G1 X141.962 Y84.515 E2.84106
G1 X141.653 Y84.768 E2.86497
G1 X139.077 Y84.779 E3.01919
G1 X138.827 Y85.027 E3.04027
G1 X138.813 Y86.445 E3.12517
G1 X138.772 Y86.593 E3.13436
G1 X138.643 Y86.713 E3.14491
G1 X138.305 Y86.875 E3.16735
G1 X138.154 Y86.903 E3.17654
G1 X137.99 Y86.84 E3.18706
G1 X135.358 Y84.779 E3.3872
G1 X131.899 Y84.779 E3.59428
G1 X131.75 Y84.74 E3.6035
G1 X131.584 Y84.498 E3.62107
G1 X131.567 Y84.345 E3.63029
G1 X131.689 Y84.14 E3.64457
G1 X131.692 Y82.026 E3.77113
G1 X131.571 Y81.458 E3.8059
G1 X131.621 Y81.195 E3.82193
G1 X131.712 Y81.071 E3.83114
G0 F9000 X132.215 Y81.605
G1 F3600 X141.45 Y81.605 E4.38402
G1 X141.45 Y84.179 E4.53812
G1 X138.954 Y84.179 E4.68755
G1 X138.743 Y84.266 E4.70121
G1 X138.317 Y84.688 E4.73711
G1 X138.228 Y84.898 E4.75077
G1 X138.215 Y86.253 E4.83189
G1 X135.646 Y84.243 E5.02718
G1 X135.461 Y84.179 E5.0389
G1 X132.289 Y84.179 E5.2288
G1 X132.292 Y81.995 E5.35955
G1 X132.215 Y81.605 E5.38335
G0 F9000 X132.892 Y82.205
G1 F3600 X140.85 Y82.205 E5.85978
G1 X140.85 Y83.579 E5.94204
G1 X138.954 Y83.579 E6.05555
G1 X138.689 Y83.619 E6.0716
G1 X138.321 Y83.84 E6.09729
G1 X137.895 Y84.262 E6.13319
G1 X137.735 Y84.476 E6.14919
G1 X137.628 Y84.892 E6.17491
G1 X137.627 Y85.031 E6.18323
G1 X136.016 Y83.77 E6.30571
G1 X135.783 Y83.639 E6.32171
G1 X135.461 Y83.579 E6.34132
G1 X132.89 Y83.579 E6.49524
G1 X132.892 Y82.205 E6.5775
G0 F9000 X133.491 Y82.805
G1 F3600 X140.25 Y82.805 E6.98215
G1 X140.25 Y82.979 E6.99257
G1 X138.954 Y82.979 E7.07016
G1 X138.61 Y83.019 E7.09089
G1 X138.285 Y83.136 E7.11157
G1 X137.898 Y83.413 E7.14006
G1 X137.472 Y83.835 E7.17596
G1 X137.318 Y84.027 E7.1907
G1 X136.386 Y83.298 E7.26154
G1 X136.09 Y83.117 E7.28231
G1 X135.762 Y83.009 E7.30298
G1 X135.461 Y82.979 E7.32109
G1 X133.491 Y82.979 E7.43903
G1 X133.491 Y82.805 E7.44945
G0 F9000 X130.086 Y81.06
G1 F3600 X130.175 Y81.312 E7.46545
G1 X130.191 Y84.303 E7.64452
G1 X130.151 Y84.568 E7.66056
G1 X130.035 Y84.809 E7.67657
G1 X129.751 Y85.115 E7.70157
G1 X129.536 Y85.274 E7.71758
G1 X129.284 Y85.363 E7.73358
G1 X119.22 Y85.379 E8.33609
G1 X118.955 Y85.339 E8.35214
G1 X118.714 Y85.223 E8.36815
G1 X118.524 Y85.055 E8.38333
G1 X118.407 Y85.181 E8.39363
G1 X118.175 Y85.316 E8.4097
G1 X117.844 Y85.379 E8.42987
G1 X92.871 Y85.379 E9.92496
G1 X92.606 Y85.339 E9.941
G1 X92.365 Y85.223 E9.95702
G1 X92.187 Y85.059 E9.97151
G1 X91.916 Y85.274 E9.99222
G1 X91.85 Y85.297 E9.9964
G1 X91.85 Y134.705 E12.95437
G1 X92.13 Y134.885 E12.9743
G1 X92.19 Y134.945 E12.97938
G1 X92.307 Y134.819 E12.98967
G1 X92.538 Y134.684 E13.00569
G1 X92.87 Y134.621 E13.02592
G1 X117.844 Y134.621 E14.52107
G1 X118.109 Y134.661 E14.53712
G1 X118.35 Y134.777 E14.55313
G1 X118.528 Y134.941 E14.56762
G1 X118.799 Y134.726 E14.58833
G1 X119.051 Y134.637 E14.60433
G1 X129.115 Y134.621 E15.20684
G1 X129.38 Y134.661 E15.22289
G1 X129.621 Y134.777 E15.2389
G1 X129.927 Y135.061 E15.26389
G1 X130.086 Y135.276 E15.2799
G1 X130.175 Y135.528 E15.2959
G1 X130.191 Y138.519 E15.47497
G1 X130.151 Y138.784 E15.49102
G1 X130.035 Y139.025 E15.50703
G1 X129.751 Y139.331 E15.53202
G1 X129.536 Y139.49 E15.54803
G1 X129.284 Y139.579 E15.56403
G1 X119.22 Y139.595 E16.16655
G1 X118.955 Y139.555 E16.18259
G1 X118.714 Y139.439 E16.19861
G1 X118.524 Y139.271 E16.21379
G1 X118.407 Y139.397 E16.22408
G1 X118.175 Y139.532 E16.24015
G1 X117.844 Y139.595 E16.26033
G1 X92.871 Y139.595 E17.75541
G1 X92.606 Y139.555 E17.77146
G1 X92.365 Y139.439 E17.78747
G1 X92.187 Y139.275 E17.80196
G1 X91.916 Y139.49 E17.82267
G1 X91.664 Y139.579 E17.83867
G1 X78.426 Y139.595 E18.63121
G1 X78.161 Y139.555 E18.64725
G1 X77.92 Y139.439 E18.66327
G1 X77.614 Y139.155 E18.68826
G1 X77.455 Y138.94 E18.70427
G1 X77.366 Y138.688 E18.72027
G1 X77.35 Y81.481 E22.14515
G1 X77.39 Y81.216 E22.1612
G1 X77.506 Y80.975 E22.17721
G1 X77.79 Y80.669 E22.2022
G1 X78.005 Y80.51 E22.21821
G1 X78.257 Y80.421 E22.23421
G1 X91.494 Y80.405 E23.02669
G1 X92 Y80.561 E23.05839
G1 X92.19 Y80.729 E23.07357
G1 X92.307 Y80.603 E23.08387
G1 X92.538 Y80.468 E23.09989
G1 X92.87 Y80.405 E23.12012
G1 X117.844 Y80.405 E24.61527
G1 X118.109 Y80.445 E24.63131
G1 X118.35 Y80.561 E24.64732
G1 X118.528 Y80.725 E24.66181
G1 X118.799 Y80.51 E24.68252
G1 X119.051 Y80.421 E24.69852
G1 X129.115 Y80.405 E25.30104
G1 X129.38 Y80.445 E25.31708
G1 X129.621 Y80.561 E25.3331
G1 X129.927 Y80.845 E25.35809
G1 X130.086 Y81.06 E25.3741
G0 F9000 X129.591 Y81.481
G1 F3600 X129.591 Y84.303 E25.54305
G1 X129.503 Y84.515 E25.55679
G1 X129.194 Y84.768 E25.5807
G1 X119.22 Y84.779 E26.17782
G1 X119.008 Y84.691 E26.19157
G1 X118.755 Y84.382 E26.21548
G1 X118.744 Y81.481 E26.38915
G1 X118.832 Y81.269 E26.4029
G1 X119.141 Y81.016 E26.42681
G1 X129.115 Y81.005 E27.02393
G1 X129.264 Y81.044 E27.03315
G1 X129.503 Y81.269 E27.0528
G1 X129.591 Y81.481 E27.06655
G1 F1800 E24.06655
G0 F9000 X129.956 Y81.481
G0 X129.952 Y81.207
G0 X129.389 Y80.644
G0 X118.946 Y80.644
G0 X118.144 Y81.305
G1 F1800 E27.06655
G1 F3600 X118.144 Y84.479 E27.25657
G1 X118.105 Y84.628 E27.26579
G1 X117.997 Y84.737 E27.27498
G1 X117.844 Y84.779 E27.28447
G1 X92.871 Y84.779 E28.77956
G1 X92.722 Y84.74 E28.78878
G1 X92.613 Y84.632 E28.79797
G1 X92.571 Y84.479 E28.80747
G1 X92.57 Y81.305 E28.99749
G1 X92.609 Y81.157 E29.00665
G1 X92.717 Y81.047 E29.01588
G1 X92.87 Y81.005 E29.02538
G1 X117.844 Y81.005 E30.52053
G1 X118.102 Y81.152 E30.53831
G1 X118.144 Y81.305 E30.54781
G0 F9000 X117.544 Y81.605
G1 F3600 X117.544 Y84.179 E30.70191
G1 X96.77 Y84.179 E31.94561
G1 X96.77 Y81.605 E32.09971
G1 X117.544 Y81.605 E33.34342
G0 F9000 X116.944 Y82.205
G1 F3600 X116.944 Y83.579 E33.42567
G1 X97.37 Y83.579 E34.59754
G1 X97.37 Y82.205 E34.67979
G1 X116.944 Y82.205 E35.85166
G0 F9000 X116.344 Y82.805
G1 F3600 X97.97 Y82.979 E36.95172
G1 X97.97 Y82.805 E36.96214
G1 X116.344 Y82.805 E38.06216
G1 F1800 E35.06216
G0 F9000 X97.123 Y80.652
G0 X92.217 Y80.652
G0 X92.23 Y81.136
G0 X91.97 Y81.481
G1 F1800 E38.06216
G1 F3600 X91.971 Y84.303 E38.23111
G1 X91.883 Y84.515 E38.24485
G1 X91.574 Y84.768 E38.26876
G1 X91.25 Y84.779 E38.28817
G1 X91.25 Y135.221 E41.30804
G1 X91.643 Y135.26 E41.33169
G1 X91.882 Y135.485 E41.35134
G1 X91.97 Y135.697 E41.36508
G1 X91.971 Y138.519 E41.53403
G1 X91.883 Y138.731 E41.54777
G1 X91.574 Y138.984 E41.57168
G1 X78.426 Y138.995 E42.35883
G1 X78.214 Y138.907 E42.37257
G1 X77.961 Y138.598 E42.39648
G1 X77.95 Y81.481 E45.81597
G1 X78.038 Y81.269 E45.82971
G1 X78.347 Y81.016 E45.85362
G1 X91.494 Y81.005 E46.64071
G1 X91.643 Y81.044 E46.64993
G1 X91.882 Y81.269 E46.66958
G1 X91.97 Y81.481 E46.68333
G1 F1800 E43.68333
G0 F9000 X92.23 Y81.136
G0 X92.217 Y80.652
G0 X97.123 Y80.652
G0 X117.844 Y135.221
G1 F1800 E46.68333
G1 F3600 X118.102 Y135.368 E46.7011
G1 X118.144 Y135.521 E46.7106
G1 X118.144 Y138.695 E46.90062
G1 X118.105 Y138.844 E46.90984
G1 X117.997 Y138.953 E46.91903
G1 X117.844 Y138.995 E46.92853
G1 X92.871 Y138.995 E48.42362
G1 X92.722 Y138.956 E48.43284
G1 X92.613 Y138.848 E48.44203
G1 X92.571 Y138.695 E48.45153
G1 X92.57 Y135.521 E48.64155
G1 X92.609 Y135.373 E48.65071
G1 X92.717 Y135.263 E48.65994
G1 X92.87 Y135.221 E48.66944
G1 X117.844 Y135.221 E50.16459
G0 F9000 X117.544 Y135.821
G1 F3600 X117.544 Y138.395 E50.31869
G1 X96.77 Y138.395 E51.56239
G1 X96.77 Y135.821 E51.71649
G1 X117.544 Y135.821 E52.96019
G0 F9000 X116.944 Y136.421
G1 F3600 X116.944 Y137.795 E53.04245
G1 X97.37 Y137.795 E54.21431
G1 X97.37 Y136.421 E54.29657
G1 X116.944 Y136.421 E55.46843
G0 F9000 X116.344 Y137.021
G1 F3600 X116.344 Y137.195 E55.47885
G1 X97.97 Y137.195 E56.57887
G1 X97.97 Y137.021 E56.58929
G1 X116.344 Y137.021 E57.68931
G1 F1800 E54.68931
G0 F9000 X118.946 Y134.86
G0 X129.115 Y134.856
G0 X129.115 Y135.221
G1 F1800 E57.68931
G1 F3600 X129.264 Y135.26 E57.69853
G1 X129.503 Y135.485 E57.71818
G1 X129.591 Y135.697 E57.73192
G1 X129.591 Y138.519 E57.90087
G1 X129.503 Y138.731 E57.91461
G1 X129.194 Y138.984 E57.93852
G1 X119.22 Y138.995 E58.53565
G1 X119.008 Y138.907 E58.54939
G1 X118.755 Y138.598 E58.5733
G1 X118.744 Y135.697 E58.74698
G1 X118.832 Y135.485 E58.76072
G1 X119.141 Y135.232 E58.78463
G1 X129.115 Y135.221 E59.38175
G1 F1800 E56.38175
G0 F9000 X129.435 Y134.901
G0 X137.305 Y135.96
G1 F1800 E59.38175
G1 F3600 X137.872 Y136.582 E59.43214
G1 X138.143 Y136.796 E59.45282
G1 X138.457 Y136.943 E59.47357
G1 X138.933 Y137.021 E59.50245
G1 X140.25 Y137.021 E59.5813
G1 X140.25 Y137.195 E59.59171
G1 X133.491 Y137.195 E59.99636
G1 X133.491 Y137.021 E60.00678
G1 X135.428 Y137.021 E60.12274
G1 X135.772 Y136.981 E60.14348
G1 X136.097 Y136.864 E60.16416
G1 X137.305 Y135.96 E60.25449
G0 F9000 X137.609 Y134.963
G1 F3600 X137.649 Y135.362 E60.27849
G1 X137.765 Y135.603 E60.29451
G1 X138.297 Y136.157 E60.34049
G1 X138.512 Y136.316 E60.3565
G1 X138.764 Y136.405 E60.3725
G1 X140.85 Y136.421 E60.49739
G1 X140.85 Y137.795 E60.57965
G1 X132.89 Y137.795 E61.0562
G1 X132.892 Y136.421 E61.13846
G1 X135.428 Y136.421 E61.29028
G1 X135.693 Y136.381 E61.30633
G1 X135.981 Y136.231 E61.32577
G1 X137.609 Y134.963 E61.44931
G0 F9000 X138.209 Y133.735
G1 F3600 X138.209 Y135.097 E61.53085
G1 X138.297 Y135.309 E61.54459
G1 X138.721 Y135.733 E61.58049
G1 X138.933 Y135.821 E61.59423
G1 X141.45 Y135.821 E61.74492
G1 X141.45 Y138.395 E61.89902
G1 X132.289 Y138.395 E62.44747
G1 X132.292 Y136.211 E62.57823
G1 X132.215 Y135.821 E62.60203
G1 X135.428 Y135.821 E62.79438
G1 X135.612 Y135.758 E62.80603
G1 X138.209 Y133.735 E63.00311
G0 F9000 X138.13 Y133.087
G1 F3600 X138.641 Y133.278 E63.03577
G1 X138.757 Y133.379 E63.04498
G1 X138.809 Y133.548 E63.05556
G1 X138.809 Y134.973 E63.14088
G1 X139.057 Y135.221 E63.16187
G1 X141.574 Y135.221 E63.31256
G1 X141.786 Y135.309 E63.3263
G1 X142.039 Y135.618 E63.35021
G1 X142.05 Y138.519 E63.52389
G1 X141.962 Y138.731 E63.53763
G1 X141.653 Y138.984 E63.56154
G1 X131.899 Y138.995 E64.1455
G1 X131.75 Y138.956 E64.15472
G1 X131.584 Y138.714 E64.17229
G1 X131.567 Y138.561 E64.1815
G1 X131.689 Y138.356 E64.19579
G1 X131.692 Y136.242 E64.32235
G1 X131.571 Y135.674 E64.35712
G1 X131.621 Y135.411 E64.37314
G1 X131.712 Y135.287 E64.38235
G1 X131.9 Y135.221 E64.39428
G1 X135.325 Y135.221 E64.59933
G1 X137.989 Y133.147 E64.80145
G1 X138.13 Y133.087 E64.81063
G0 F9000 X138.115 Y132.486
G1 F3600 X138.381 Y132.508 E64.82661
G1 X138.904 Y132.739 E64.86084
G1 X139.124 Y132.891 E64.87684
G1 X139.29 Y133.101 E64.89287
G1 X139.387 Y133.35 E64.90887
G1 X139.409 Y134.621 E64.98497
G1 X141.574 Y134.621 E65.11459
G1 X141.839 Y134.661 E65.13063
G1 X142.08 Y134.777 E65.14664
G1 X142.386 Y135.061 E65.17164
G1 X142.545 Y135.276 E65.18765
G1 X142.634 Y135.528 E65.20365
G1 X142.65 Y138.519 E65.38272
G1 X142.61 Y138.784 E65.39876
G1 X142.494 Y139.025 E65.41477
G1 X142.21 Y139.331 E65.43977
G1 X141.995 Y139.49 E65.45578
G1 X141.743 Y139.579 E65.47178
G1 X131.899 Y139.595 E66.06112
G1 X131.634 Y139.555 E66.07717
G1 X131.393 Y139.439 E66.09318
G1 X131.197 Y139.258 E66.10915
G1 X131.025 Y138.931 E66.13127
G1 X130.966 Y138.67 E66.14729
G1 X130.987 Y138.403 E66.16332
G1 X131.089 Y138.148 E66.17977
G1 X131.092 Y136.306 E66.29004
G1 X130.984 Y135.799 E66.32108
G1 X130.968 Y135.532 E66.33709
G1 X131.063 Y135.19 E66.35834
G1 X131.197 Y134.959 E66.37433
G1 X131.394 Y134.777 E66.39039
G1 X131.635 Y134.661 E66.4064
G1 X131.9 Y134.621 E66.42244
G1 X135.119 Y134.621 E66.61516
G1 X137.62 Y132.674 E66.80491
G1 X137.853 Y132.543 E66.82092
G1 X138.115 Y132.486 E66.83697
G1 F1800 E63.83697
G0 F9000 X97.135 Y135.821
G0 X96.17 Y135.821
;TYPE:SUPPORT-INTERFACE
G1 F1800 E66.83697
G1 F3600 X96.17 Y138.395 E66.99107
G1 X93.171 Y138.395 E67.17061
G1 X93.17 Y135.821 E67.32472
G1 X96.17 Y135.821 E67.50432
G1 F1800 E64.50432
G0 F9000 X96.17 Y134.856
G0 X96.17 Y85.144
G0 X96.17 Y84.179
G1 F1800 E67.50432
G1 F3600 X93.171 Y84.179 E67.68386
G1 X93.17 Y81.605 E67.83797
G1 X96.17 Y81.605 E68.01757
G1 X96.17 Y84.179 E68.17167
G0 F9000 X95.868 Y82.322
G1 F3600 X94.311 Y83.879 E68.3035
G0 F9000 X94.061 Y83.879
G1 F3600 X93.469 Y83.287 E68.35362
G1 F1800 E65.35362
G0 F9000 X93.469 Y85.144
G0 X95.39 Y134.856
G0 X95.39 Y136.12
G1 F1800 E68.35362
G1 F3600 X95.87 Y136.599 E68.39422
G1 F1800 E65.39422
;MESH:AA-Cover.stl
G0 F9000 X97.135 Y136.599
G0 X118.379 Y136.599
G0 X119.664 Y136.599
G0 X119.744 Y138.025
G0 X119.344 Y138.395
;TYPE:WALL-OUTER
G1 F1800 E68.39422
G1 F3600 X119.344 Y135.821 E68.54832
G1 X128.991 Y135.821 E69.12587
G1 X128.991 Y138.395 E69.27997
G1 X119.344 Y138.395 E69.85752
G0 F9000 X119.944 Y137.795
;TYPE:WALL-INNER
G1 F3600 X119.944 Y136.421 E69.93978
G1 X128.391 Y136.421 E70.44548
G1 X128.391 Y137.795 E70.52774
G1 X119.944 Y137.795 E71.03345
G0 F9000 X120.544 Y137.195
G1 F3600 X120.544 Y137.021 E71.04387
G1 X127.791 Y137.021 E71.47773
G1 X127.791 Y137.195 E71.48815
G1 X120.544 Y137.195 E71.61418
G1 F1800 E68.61418
G0 F9000 X119.664 Y138.024
G0 X118.379 Y138.024
G0 X97.123 Y139.348
G0 X92.218 Y139.348
G0 X92.231 Y138.864
G0 X91.057 Y138.081
G0 X90.97 Y138.024
G0 X91.371 Y138.395
;TYPE:WALL-OUTER
G1 F1800 E71.61418
G1 F3600 X78.55 Y138.395 E72.38175
G1 X78.55 Y81.605 E75.78167
G1 X91.37 Y81.605 E76.54918
G1 X91.371 Y84.179 E76.70328
G1 X90.65 Y84.179 E76.74644
G1 X90.65 Y135.821 E79.83816
G1 X91.37 Y135.821 E79.88127
G1 X91.371 Y138.395 E80.03537
G0 F9000 X90.771 Y137.795
;TYPE:WALL-INNER
G1 F3600 X90.472 Y137.795 E80.05327
G1 X79.15 Y137.795 E80.73109
G1 X79.15 Y82.205 E84.05917
G1 X90.77 Y82.205 E84.75484
G1 X90.771 Y83.28 E84.8192
G1 X90.771 Y83.579 E84.8371
G1 X90.472 Y83.579 E84.84868
G1 X90.05 Y83.579 E84.87395
G1 X90.05 Y136.421 E88.03751
G1 X90.77 Y136.421 E88.08061
G1 X90.771 Y137.496 E88.14497
G1 X90.771 Y137.795 E88.15655
G0 F9000 X90.171 Y137.195
G1 F3600 X89.45 Y137.195 E88.19972
G1 X79.75 Y137.195 E88.78044
G1 X79.75 Y82.805 E92.03667
G1 X89.45 Y82.805 E92.6174
G1 X90.17 Y82.805 E92.6605
