;FLAVOR:Marlin
;TIME:420
;Filament used: 0.291269m
;Layer height: 0.16
;MINX:81.171
;MINY:81.682
;MINZ:0.24
;MAXX:138.805
;MAXY:138.311
;MAXZ:1.04
;Generated with Cura_SteamEngine 4.5.0
M140 S50
M105
M190 S50
M104 S215
M105
M109 S215
M82 ;absolute extrusion mode
M201 X500.00 Y500.00 Z100.00 E5000.00 ;Setup machine max acceleration
M203 X500.00 Y500.00 Z10.00 E50.00 ;Setup machine max feedrate
M204 P500.00 R1000.00 T500.00 ;Setup Print/Retract/Travel acceleration
M205 X8.00 Y8.00 Z0.40 E5.00 ;Setup Jerk
M220 S100 ;Reset Feedrate
M221 S100 ;Reset Flowrate

G28 ;Home

G92 E0 ;Reset Extruder
G1 Z2.0 F3000 ;Move Z Axis up
G1 X10.1 Y20 Z0.28 F5000.0 ;Move to start position
G1 X10.1 Y200.0 Z0.28 F1500.0 E15 ;Draw the first line
G1 X10.4 Y200.0 Z0.28 F5000.0 ;Move to side a little
G1 X10.4 Y20 Z0.28 F1500.0 E30 ;Draw the second line
G92 E0 ;Reset Extruder
G1 Z2.0 F3000 ;Move Z Axis up

G92 E0
G92 E0
G1 F1800 E-3
;LAYER_COUNT:6
;LAYER:0
M106 S63.8
M204 S500
M205 X6 Y6
G0 F9000 X84.373 Y84.7 Z0.24
;TYPE:SKIRT
G1 F1800 E0
G1 X85.059 Y84.086 E0.03675
G1 X85.796 Y83.534 E0.0735
G1 X86.577 Y83.047 E0.11023
G1 X87.398 Y82.63 E0.14698
G1 X88.252 Y82.287 E0.18371
G1 X89.133 Y82.018 E0.22048
G1 X90.034 Y81.827 E0.25724
G1 X90.947 Y81.715 E0.29395
G1 X91.867 Y81.682 E0.3307
G1 X92.97 Y81.749 E0.3748
G1 X95.556 Y82.072 E0.47882
G1 X98.012 Y82.313 E0.57731
G1 X100.587 Y82.492 E0.68033
G1 X103.095 Y82.595 E0.78052
G1 X105.61 Y82.628 E0.8809
G1 X108.16 Y82.588 E0.98269
G1 X110.668 Y82.479 E1.08289
G1 X113.204 Y82.297 E1.18436
G1 X115.715 Y82.044 E1.28509
G1 X117.287 Y81.841 E1.34835
G1 X117.966 Y81.763 E1.37563
G1 X118.84 Y81.7 E1.41061
G1 X119.491 Y81.685 E1.4366
G1 X120.003 Y81.685 E1.45703
G1 X121.546 Y81.706 E1.51862
G1 X122.995 Y81.746 E1.57648
G1 X124.647 Y81.754 E1.64241
G1 X125.38 Y81.751 E1.67167
G1 X126.193 Y81.773 E1.70413
G1 X127.11 Y81.849 E1.74085
G1 X127.607 Y81.925 E1.76092
G1 X128.189 Y82.032 E1.78454
G1 X129.302 Y82.306 E1.83029
G1 X130.112 Y82.587 E1.86451
G1 X130.878 Y82.904 E1.89759
G1 X132.042 Y83.479 E1.94941
G1 X133.069 Y84.141 E1.99818
G1 X133.498 Y84.454 E2.01937
G1 X134.217 Y85.028 E2.05609
G1 X135.194 Y85.998 E2.11104
G1 X135.581 Y86.436 E2.13437
G1 X136.16 Y87.152 E2.17112
G1 X136.758 Y88.054 E2.21431
G1 X137.178 Y88.786 E2.248
G1 X137.676 Y89.809 E2.29341
G1 X137.942 Y90.5 E2.32296
G1 X138.13 Y91.046 E2.34601
G1 X138.391 Y91.929 E2.38276
G1 X138.538 Y92.612 E2.41064
G1 X138.763 Y94.335 E2.48
G1 X138.793 Y94.907 E2.50286
G1 X138.805 Y95.723 E2.53543
G1 X138.784 Y96.362 E2.56095
G1 X138.719 Y97.555 E2.60863
G1 X138.611 Y100.258 E2.7166
G1 X138.581 Y102.724 E2.81503
G1 X138.619 Y104.54 E2.88753
G1 X138.641 Y106.295 E2.95758
G1 X138.642 Y113.277 E3.23625
G1 X138.631 Y114.15 E3.27109
G1 X138.578 Y115.069 E3.30783
G1 X138.446 Y115.98 E3.34457
G1 X138.235 Y116.876 E3.38131
G1 X137.948 Y117.751 E3.41806
G1 X137.585 Y118.597 E3.45481
G1 X137.151 Y119.409 E3.49155
G1 X136.647 Y120.18 E3.52832
G1 X136.079 Y120.904 E3.56505
G1 X135.45 Y121.576 E3.60178
G1 X134.765 Y122.191 E3.63853
G1 X134.029 Y122.744 E3.67527
G1 X133.248 Y123.232 E3.71202
G1 X132.019 Y123.826 E3.76651
G1 X131.546 Y124.018 E3.78688
G1 X96.175 Y137.398 E5.29624
G1 X95.36 Y137.691 E5.33081
G1 X94.481 Y137.963 E5.36753
G1 X93.581 Y138.158 E5.40429
G1 X92.668 Y138.274 E5.44102
G1 X91.748 Y138.311 E5.47777
G1 X90.828 Y138.267 E5.51453
G1 X89.916 Y138.144 E5.55126
G1 X89.017 Y137.943 E5.58803
G1 X88.14 Y137.664 E5.62476
G1 X87.29 Y137.309 E5.66152
G1 X86.474 Y136.883 E5.69826
G1 X85.698 Y136.387 E5.73502
G1 X84.969 Y135.826 E5.77173
G1 X84.29 Y135.204 E5.80849
G1 X83.668 Y134.525 E5.84524
G1 X83.108 Y133.795 E5.88196
G1 X82.612 Y133.018 E5.91875
G1 X82.187 Y132.202 E5.95547
G1 X81.833 Y131.352 E5.99222
G1 X81.555 Y130.475 E6.02894
G1 X81.353 Y129.576 E6.06572
G1 X81.231 Y128.664 E6.10244
G1 X81.19 Y127.907 E6.1327
G1 X81.173 Y126.989 E6.16935
G1 X81.171 Y120.41 E6.43193
G1 X81.182 Y119.56 E6.46586
G1 X81.208 Y118.952 E6.49014
G1 X81.419 Y116.394 E6.59259
G1 X81.559 Y113.904 E6.69212
G1 X81.63 Y111.357 E6.79382
G1 X81.63 Y108.844 E6.89412
G1 X81.557 Y106.295 E6.9959
G1 X81.412 Y103.755 E7.09744
G1 X81.217 Y101.42 E7.19096
G1 X81.181 Y100.677 E7.22065
G1 X81.172 Y99.99 E7.24807
G1 X81.171 Y92.945 E7.52925
G1 X81.182 Y92.122 E7.5621
G1 X81.236 Y91.203 E7.59884
G1 X81.369 Y90.292 E7.63559
G1 X81.581 Y89.396 E7.67234
G1 X81.87 Y88.522 E7.70908
G1 X82.234 Y87.676 E7.74584
G1 X82.67 Y86.865 E7.78259
G1 X83.174 Y86.095 E7.81932
G1 X83.743 Y85.372 E7.85604
G1 X84.373 Y84.7 E7.8928
G0 F9000 X84.764 Y84.879
G1 F1800 X85.447 Y84.287 E7.92888
G1 X86.179 Y83.758 E7.96493
G1 X86.955 Y83.296 E8.00097
G1 X87.768 Y82.904 E8.03699
G1 X88.614 Y82.586 E8.07307
G1 X89.484 Y82.344 E8.10911
G1 X90.372 Y82.18 E8.14515
G1 X91.271 Y82.095 E8.18119
G1 X92.174 Y82.09 E8.21723
G1 X92.925 Y82.146 E8.24729
G1 X95.503 Y82.469 E8.35099
G1 X98.016 Y82.715 E8.45177
G1 X100.543 Y82.891 E8.55287
G1 X103.073 Y82.995 E8.65393
G1 X105.61 Y83.028 E8.7552
G1 X108.183 Y82.988 E8.8579
G1 X110.68 Y82.879 E8.95766
G1 X113.237 Y82.695 E9.05998
G1 X115.77 Y82.44 E9.16159
G1 X117.338 Y82.238 E9.22469
G1 X118.011 Y82.16 E9.25173
G1 X118.852 Y82.1 E9.28538
G1 X119.491 Y82.085 E9.31089
G1 X120.003 Y82.085 E9.33132
G1 X121.54 Y82.106 E9.39267
G1 X122.982 Y82.146 E9.45025
G1 X124.646 Y82.154 E9.51666
G1 X125.381 Y82.151 E9.546
G1 X126.177 Y82.173 E9.57778
G1 X127.077 Y82.248 E9.61383
G1 X127.783 Y82.362 E9.64237
G1 X128.328 Y82.47 E9.66455
G1 X129.203 Y82.694 E9.7006
G1 X129.966 Y82.959 E9.73283
G1 X130.712 Y83.268 E9.76506
G1 X131.86 Y83.836 E9.81618
G1 X132.833 Y84.464 E9.8624
G1 X133.262 Y84.777 E9.8836
G1 X133.967 Y85.341 E9.91963
G1 X134.894 Y86.263 E9.97181
G1 X135.281 Y86.701 E9.99514
G1 X135.848 Y87.404 E10.03119
G1 X136.414 Y88.258 E10.07208
G1 X136.825 Y88.974 E10.10503
G1 X137.315 Y89.981 E10.14973
G1 X137.563 Y90.63 E10.17746
G1 X137.751 Y91.176 E10.20051
G1 X138.007 Y92.042 E10.23655
G1 X138.145 Y92.684 E10.26276
G1 X138.364 Y94.356 E10.33006
G1 X138.394 Y94.928 E10.35292
G1 X138.405 Y95.713 E10.38426
G1 X138.385 Y96.34 E10.40929
G1 X138.317 Y97.6 E10.45966
G1 X138.211 Y100.237 E10.56499
G1 X138.181 Y102.727 E10.66438
G1 X138.219 Y104.548 E10.73707
G1 X138.241 Y106.3 E10.80701
G1 X138.242 Y113.277 E11.08547
G1 X138.231 Y114.144 E11.12008
G1 X138.179 Y115.046 E11.15614
G1 X138.047 Y115.939 E11.19217
G1 X137.836 Y116.818 E11.22825
G1 X137.549 Y117.674 E11.26428
G1 X137.187 Y118.501 E11.30031
G1 X136.753 Y119.293 E11.33636
G1 X136.251 Y120.044 E11.37241
G1 X135.685 Y120.747 E11.40843
G1 X135.058 Y121.398 E11.44451
G1 X134.377 Y121.99 E11.48052
G1 X133.646 Y122.52 E11.51656
G1 X132.87 Y122.983 E11.55263
G1 X131.868 Y123.455 E11.59683
G1 X131.395 Y123.647 E11.61721
G1 X96.033 Y137.024 E13.12619
G1 X95.225 Y137.314 E13.16045
G1 X94.362 Y137.581 E13.19651
G1 X93.479 Y137.77 E13.23255
G1 X92.583 Y137.88 E13.26858
G1 X91.68 Y137.91 E13.30464
G1 X90.779 Y137.861 E13.34065
G1 X89.885 Y137.732 E13.37671
G1 X89.006 Y137.524 E13.41276
G1 X88.149 Y137.24 E13.44879
G1 X87.32 Y136.88 E13.48486
G1 X86.527 Y136.449 E13.52089
G1 X85.774 Y135.95 E13.55694
G1 X85.069 Y135.385 E13.593
G1 X84.417 Y134.761 E13.62902
G1 X83.822 Y134.081 E13.66508
G1 X83.29 Y133.352 E13.7011
G1 X82.824 Y132.578 E13.73716
G1 X82.429 Y131.766 E13.7732
G1 X82.107 Y130.922 E13.80926
G1 X81.861 Y130.053 E13.8453
G1 X81.692 Y129.166 E13.88134
G1 X81.59 Y127.9 E13.93203
G1 X81.573 Y126.982 E13.96868
G1 X81.571 Y120.41 E14.23098
G1 X81.582 Y119.566 E14.26467
G1 X81.607 Y118.981 E14.28804
G1 X81.816 Y116.45 E14.3894
G1 X81.959 Y113.903 E14.49122
G1 X82.03 Y111.368 E14.59244
G1 X82.03 Y108.833 E14.69361
G1 X81.957 Y106.268 E14.79603
G1 X81.814 Y103.773 E14.89577
G1 X81.615 Y101.386 E14.99137
G1 X81.581 Y100.672 E15.0199
G1 X81.572 Y99.985 E15.04733
G1 X81.571 Y92.945 E15.32831
G1 X81.582 Y92.128 E15.36092
G1 X81.636 Y91.227 E15.39694
G1 X81.769 Y90.333 E15.43302
G1 X81.98 Y89.455 E15.46906
G1 X82.269 Y88.6 E15.50508
G1 X82.632 Y87.773 E15.54113
G1 X83.067 Y86.981 E15.57719
G1 X83.57 Y86.231 E15.61323
G1 X84.137 Y85.528 E15.64928
G1 X84.764 Y84.879 E15.6853
G1 F1800 E12.6853
;MESH:AA-Label.stl
G0 F9000 X106.457 Y112.213
G0 X104.622 Y112.213
G0 X104.792 Y115.908
;TYPE:WALL-INNER
G1 F1800 E15.6853
G1 X104.792 Y115.909 E15.68534
G1 X104.792 Y116.19 E15.69655
G1 X105.057 Y116.096 E15.70319
G1 X120.102 Y110.756 E16.34037
G1 X120.102 Y109.234 E16.40112
G1 X105.055 Y104.067 E17.0361
G1 X104.792 Y103.977 E17.04719
G1 X104.792 Y104.254 E17.05375
G1 X104.792 Y104.256 E17.05383
G1 X104.792 Y115.908 E17.51889
G0 F9000 X105.192 Y115.624
G1 F1800 X105.457 Y115.53 E17.53011
G1 X119.702 Y110.474 E18.13341
G1 X119.702 Y109.52 E18.17148
G1 X105.455 Y104.627 E18.77271
G1 X105.192 Y104.537 E18.78381
G1 X105.192 Y104.814 E18.79036
G1 X105.192 Y104.816 E18.79044
G1 X105.192 Y115.342 E19.21056
G1 X105.192 Y115.343 E19.2106
G1 X105.192 Y115.624 E19.21723
G0 F9000 X105.592 Y115.058
;TYPE:WALL-OUTER
G1 F1800 X119.302 Y110.192 E19.79787
G1 X119.302 Y109.806 E19.81328
G1 X105.592 Y105.097 E20.39185
G1 X105.592 Y115.058 E20.78942
G1 F1800 E17.78942
G0 F9000 X105.292 Y115.058
G0 X105.369 Y115.373
G0 X108.216 Y115.155
G0 X107.602 Y113.428
G0 X106.948 Y122.7
G0 X106.285 Y120.948
G0 X92.771 Y126.282
;TYPE:WALL-INNER
G1 F1800 E20.78942
G1 X92.771 Y125.995 E20.80087
G1 X92.771 Y125.994 E20.80091
G1 X92.771 Y120.411 E21.02374
G1 X100.848 Y117.566 E21.36553
G1 X100.848 Y102.577 E21.96377
G1 X92.771 Y99.834 E22.30422
G1 X92.771 Y94 E22.53707
G1 X92.771 Y93.999 E22.53711
G1 X92.771 Y93.713 E22.54852
G1 X93.039 Y93.813 E22.55526
G1 X127.042 Y106.528 E24.00417
G1 X127.042 Y113.323 E24.27538
G1 X93.04 Y126.181 E25.72626
G1 X92.771 Y126.282 E25.73302
G0 F9000 X92.371 Y126.573
G1 F1800 X92.371 Y120.128 E25.99025
G1 X100.448 Y117.283 E26.33203
G1 X100.448 Y102.864 E26.90753
G1 X92.371 Y100.121 E27.24798
G1 X92.371 Y93.423 E27.51531
G1 X92.371 Y93.422 E27.51535
G1 X92.371 Y93.136 E27.52677
G1 X92.639 Y93.236 E27.5335
G1 X127.442 Y106.25 E29.0165
G1 X127.442 Y113.599 E29.30982
G1 X92.64 Y126.76 E30.79485
G1 X92.371 Y126.861 E30.80631
G1 X92.371 Y126.574 E30.81306
G1 X92.371 Y126.573 E30.8131
G0 F9000 X91.971 Y127.44
;TYPE:WALL-OUTER
G1 F1800 X91.971 Y119.845 E31.11623
G1 X100.048 Y117 E31.45802
G1 X100.048 Y103.151 E32.01076
G1 X91.971 Y100.408 E32.35121
G1 X91.971 Y92.559 E32.66448
G1 X127.842 Y105.972 E34.19299
G1 X127.842 Y113.875 E34.50841
G1 X91.971 Y127.44 E36.03905
G0 F9000 X92.227 Y127.069
G0 X92.881 Y125.718
G0 X93.161 Y125.718
;TYPE:SKIN
G1 F1800 X93.161 Y120.687 E36.23985
G1 X101.238 Y117.843 E36.58162
G1 X101.238 Y102.298 E37.20206
G1 X93.161 Y99.555 E37.54251
G1 X93.161 Y94.275 E37.75325
G1 X126.652 Y106.798 E39.18033
G1 X126.652 Y113.054 E39.43003
G1 X93.161 Y125.718 E40.85909
G1 F1800 E37.85909
G0 F9000 X92.881 Y125.718
G0 X92.959 Y126.011
G0 X106.349 Y120.924
G0 X107.012 Y122.676
G0 X107.602 Y113.428
G0 X108.216 Y115.155
G0 X104.626 Y116.365
G0 X104.402 Y116.742
G1 F1800 E40.85909
G1 X120.492 Y111.031 E41.54053
G1 X120.492 Y108.955 E41.62339
G1 X104.402 Y103.431 E42.30237
G1 X104.402 Y116.742 E42.83364
G1 F1800 E39.83364
G0 F9000 X104.626 Y116.365
G0 X108.216 Y115.155
G0 X107.602 Y113.428
G0 X106.948 Y122.7
G0 X106.285 Y120.948
G0 X93.827 Y125.766
G0 X93.673 Y125.352
G1 F1800 E42.83364
G1 X93.321 Y124.999 E42.85354
G0 F9000 X93.321 Y124.433
G1 F1800 X94.084 Y125.196 E42.89661
G0 F9000 X94.494 Y125.041
G1 F1800 X93.321 Y123.868 E42.96281
G0 F9000 X93.321 Y123.302
G1 F1800 X94.905 Y124.886 E43.05222
G0 F9000 X95.315 Y124.731
G1 F1800 X93.321 Y122.736 E43.1648
G0 F9000 X93.321 Y122.171
G1 F1800 X95.725 Y124.575 E43.30049
G0 F9000 X96.136 Y124.421
G1 F1800 X93.321 Y121.605 E43.45941
G0 F9000 X93.321 Y121.039
G1 F1800 X96.546 Y124.265 E43.64147
G0 F9000 X96.957 Y124.11
G1 F1800 X93.562 Y120.715 E43.8331
G0 F9000 X93.981 Y120.568
G1 F1800 X97.367 Y123.955 E44.02425
G0 F9000 X97.778 Y123.8
G1 F1800 X94.399 Y120.42 E44.215
G0 F9000 X94.818 Y120.273
G1 F1800 X98.188 Y123.644 E44.40525
G0 F9000 X98.599 Y123.489
G1 F1800 X95.236 Y120.126 E44.59507
G0 F9000 X95.654 Y119.979
G1 F1800 X99.009 Y123.334 E44.78444
G0 F9000 X99.42 Y123.179
G1 F1800 X96.073 Y119.831 E44.97339
G0 F9000 X96.491 Y119.684
G1 F1800 X99.83 Y123.023 E45.16186
G0 F9000 X100.241 Y122.868
G1 F1800 X96.909 Y119.537 E45.3499
G0 F9000 X97.328 Y119.39
G1 F1800 X100.651 Y122.713 E45.53747
G0 F9000 X101.062 Y122.558
G1 F1800 X97.746 Y119.242 E45.72464
G0 F9000 X98.164 Y119.095
G1 F1800 X101.472 Y122.403 E45.91135
G0 F9000 X101.883 Y122.248
G1 F1800 X98.583 Y118.948 E46.09762
G0 F9000 X99.001 Y118.8
G1 F1800 X102.293 Y122.092 E46.28343
G0 F9000 X102.704 Y121.937
G1 F1800 X99.419 Y118.653 E46.46883
G0 F9000 X99.838 Y118.506
G1 F1800 X103.114 Y121.782 E46.65374
G0 F9000 X103.525 Y121.627
G1 F1800 X100.256 Y118.358 E46.83825
G0 F9000 X100.675 Y118.211
G1 F1800 X103.935 Y121.471 E47.02226
G0 F9000 X104.346 Y121.316
G1 F1800 X101.093 Y118.064 E47.20585
G0 F9000 X101.398 Y117.803
G1 F1800 X104.756 Y121.161 E47.39539
G0 F9000 X105.167 Y121.006
G1 F1800 X101.398 Y117.237 E47.60813
G0 F9000 X101.398 Y116.671
G1 F1800 X105.577 Y120.85 E47.84401
G0 F9000 X105.988 Y120.696
G1 F1800 X101.398 Y116.106 E48.10309
G0 F9000 X101.398 Y115.54
G1 F1800 X106.398 Y120.54 E48.38531
G0 F9000 X106.809 Y120.385
G1 F1800 X101.398 Y114.974 E48.69073
G0 F9000 X101.398 Y114.409
G1 F1800 X107.219 Y120.23 E49.01929
G0 F9000 X107.63 Y120.075
G1 F1800 X104.449 Y116.894 E49.19884
G0 F9000 X104.242 Y116.687
G1 F1800 X101.398 Y113.843 E49.35937
G0 F9000 X101.398 Y113.277
G1 F1800 X104.242 Y116.121 E49.51989
G0 F9000 X104.242 Y115.556
G1 F1800 X101.398 Y112.712 E49.68042
G0 F9000 X101.398 Y112.146
G1 F1800 X104.242 Y114.99 E49.84095
G0 F9000 X104.242 Y114.424
G1 F1800 X101.398 Y111.58 E50.00148
G0 F9000 X101.398 Y111.015
G1 F1800 X104.242 Y113.859 E50.16201
G0 F9000 X104.242 Y113.293
G1 F1800 X101.398 Y110.449 E50.32253
G0 F9000 X101.398 Y109.883
G1 F1800 X104.242 Y112.727 E50.48306
G0 F9000 X104.242 Y112.161
G1 F1800 X101.398 Y109.318 E50.64356
G0 F9000 X101.398 Y108.752
G1 F1800 X104.242 Y111.596 E50.80409
G0 F9000 X104.242 Y111.03
G1 F1800 X101.398 Y108.186 E50.96462
G0 F9000 X101.398 Y107.62
G1 F1800 X104.242 Y110.464 E51.12514
G0 F9000 X104.241 Y109.898
G1 F1800 X101.398 Y107.055 E51.28561
G0 F9000 X101.398 Y106.489
G1 F1800 X104.241 Y109.332 E51.44609
G0 F9000 X104.241 Y108.767
G1 F1800 X101.398 Y105.923 E51.60659
G0 F9000 X101.398 Y105.358
G1 F1800 X104.241 Y108.201 E51.76706
G0 F9000 X104.241 Y107.635
G1 F1800 X101.398 Y104.792 E51.92753
G0 F9000 X101.398 Y104.226
G1 F1800 X104.241 Y107.07 E52.08803
G0 F9000 X104.241 Y106.504
G1 F1800 X101.398 Y103.661 E52.2485
G0 F9000 X101.398 Y103.095
G1 F1800 X104.241 Y105.938 E52.40897
G0 F9000 X104.241 Y105.373
G1 F1800 X101.398 Y102.529 E52.56947
G0 F9000 X100.873 Y102.005
G1 F1800 X93.405 Y94.536 E52.99102
G0 F9000 X93.321 Y95.018
G1 F1800 X100.016 Y101.713 E53.36892
G0 F9000 X99.16 Y101.423
G1 F1800 X93.321 Y95.583 E53.69852
G0 F9000 X93.321 Y96.149
G1 F1800 X98.304 Y101.132 E53.97979
G0 F9000 X97.447 Y100.841
G1 F1800 X93.321 Y96.715 E54.21268
G0 F9000 X93.321 Y97.28
G1 F1800 X96.59 Y100.55 E54.39722
G0 F9000 X95.733 Y100.259
G1 F1800 X93.321 Y97.846 E54.53339
G0 F9000 X93.321 Y98.412
G1 F1800 X94.877 Y99.968 E54.62122
G0 F9000 X94.021 Y99.678
G1 F1800 X93.321 Y98.977 E54.66076
G0 F9000 X92.881 Y98.977
G0 X92.959 Y93.984
G0 X95.365 Y94.802
G0 X95.211 Y95.211
G1 F1800 X104.241 Y104.241 E55.17045
G0 F9000 X104.241 Y103.675
G1 F1800 X96.115 Y95.549 E55.62912
G0 F9000 X97.019 Y95.887
G1 F1800 X104.389 Y103.258 E56.04514
G0 F9000 X105.25 Y103.553
G1 F1800 X97.922 Y96.225 E56.45876
G0 F9000 X98.826 Y96.563
G1 F1800 X106.111 Y103.849 E56.86999
G0 F9000 X106.973 Y104.144
G1 F1800 X99.729 Y96.901 E57.27884
G0 F9000 X100.633 Y97.239
G1 F1800 X107.835 Y104.441 E57.68536
G0 F9000 X108.696 Y104.736
G1 F1800 X101.536 Y97.577 E58.08947
G0 F9000 X102.44 Y97.915
G1 F1800 X109.557 Y105.032 E58.49118
G0 F9000 X110.419 Y105.328
G1 F1800 X103.344 Y98.253 E58.89053
G0 F9000 X104.248 Y98.591
