;FLAVOR:Marlin
;TIME:13344
;Filament used: 24.3857m
;Layer height: 0.24
;MINX:69.4
;MINY:80.3
;MINZ:0.24
;MAXX:150.6
;MAXY:139.7
;MAXZ:63.4
;Generated with Cura_SteamEngine 4.5.0
M140 S50
M105
M190 S50
M104 S230
M105
M109 S230
M82 ;absolute extrusion mode
M201 X500.00 Y500.00 Z100.00 E5000.00 ;Setup machine max acceleration
M203 X500.00 Y500.00 Z10.00 E50.00 ;Setup machine max feedrate
M204 P500.00 R1000.00 T500.00 ;Setup Print/Retract/Travel acceleration
M205 X8.00 Y8.00 Z0.40 E5.00 ;Setup Jerk
M220 S100 ;Reset Feedrate
M221 S100 ;Reset Flowrate

G28 ;Home

G92 E0 ;Reset Extruder
G1 Z2.0 F3000 ;Move Z Axis up
G1 X10.1 Y20 Z0.28 F5000.0 ;Move to start position
G1 X10.1 Y200.0 Z0.28 F1500.0 E15 ;Draw the first line
G1 X10.4 Y200.0 Z0.28 F5000.0 ;Move to side a little
G1 X10.4 Y20 Z0.28 F1500.0 E30 ;Draw the second line
G92 E0 ;Reset Extruder
G1 Z2.0 F3000 ;Move Z Axis up

G92 E0
G92 E0
G1 F1800 E-3
;LAYER_COUNT:238
;LAYER:0
M107
G0 F9000 X73.04 Y80.564 Z0.24
;TYPE:SKIRT
G1 F1800 E0
G1 F3600 X73.255 Y80.405 E0.01601
G1 X73.507 Y80.316 E0.03201
G1 X149.524 Y80.3 E4.58301
G1 X150.03 Y80.456 E4.61471
G1 X150.226 Y80.637 E4.63069
G1 X150.361 Y80.869 E4.64676
G1 X150.424 Y81.197 E4.66675
G1 X150.6 Y138.621 E8.10464
G1 X150.561 Y138.886 E8.12068
G1 X150.446 Y139.128 E8.13672
G1 X150.16 Y139.436 E8.16188
G1 X149.945 Y139.595 E8.17789
G1 X149.693 Y139.684 E8.19389
G1 X73.676 Y139.7 E12.7449
G1 X73.411 Y139.66 E12.76094
G1 X73.17 Y139.544 E12.77695
G1 X72.864 Y139.26 E12.80195
G1 X72.705 Y139.045 E12.81796
G1 X72.616 Y138.793 E12.83396
G1 X72.6 Y136.343 E12.98064
G1 X72.3 Y136.4 E12.99892
G1 X70.819 Y136.4 E13.08758
G1 X70.472 Y136.56 E13.11046
G1 X70.205 Y136.571 E13.12646
G1 X69.946 Y136.503 E13.14249
G1 X69.719 Y136.362 E13.15849
G1 X69.543 Y136.161 E13.17448
G1 X69.434 Y135.916 E13.19054
G1 X69.401 Y135.676 E13.20504
G1 X69.4 Y132.976 E13.36668
G1 X69.44 Y132.712 E13.38267
G1 X69.555 Y132.47 E13.39871
G1 X69.84 Y132.164 E13.42374
G1 X70.055 Y132.005 E13.43975
G1 X70.307 Y131.916 E13.45575
G1 X72.3 Y131.9 E13.57508
G1 X72.6 Y131.957 E13.59336
G1 X72.6 Y88.055 E16.22169
G1 X72.295 Y88.112 E16.24027
G1 X70.47 Y88.101 E16.34953
G1 X70.205 Y88.06 E16.36558
G1 X69.833 Y87.832 E16.39171
G1 X69.501 Y87.437 E16.4226
G1 X69.4 Y87.023 E16.44811
G1 X69.401 Y84.325 E16.60963
G1 X69.441 Y84.06 E16.62568
G1 X69.557 Y83.819 E16.64169
G1 X69.738 Y83.622 E16.65771
G1 X69.97 Y83.488 E16.67375
G1 X70.231 Y83.428 E16.68978
G1 X70.497 Y83.447 E16.70575
G1 X70.821 Y83.6 E16.7272
G1 X72.3 Y83.6 E16.81574
G1 X72.6 Y83.657 E16.83402
G1 X72.6 Y81.376 E16.97058
G1 X72.64 Y81.111 E16.98663
G1 X72.756 Y80.87 E17.00264
G1 X73.04 Y80.564 E17.02763
G0 F9000 X73.288 Y81.164
G1 F3600 X73.597 Y80.911 E17.05154
G1 X149.524 Y80.9 E21.59716
G1 X149.782 Y81.047 E21.61494
G1 X149.824 Y81.199 E21.62438
G1 X150 Y138.623 E25.06227
G1 X149.912 Y138.836 E25.07607
G1 X149.603 Y139.089 E25.09997
G1 X73.676 Y139.1 E29.64559
G1 X73.464 Y139.012 E29.65933
G1 X73.211 Y138.703 E29.68324
G1 X73.2 Y81.376 E33.11531
G1 X73.288 Y81.164 E33.12905
G1 F1800 E30.12905
G0 F9000 X72.3 Y84.2
G1 F1800 E33.12905
G1 F3600 X72.449 Y84.239 E33.13827
G1 X72.558 Y84.347 E33.14746
G1 X72.6 Y84.5 E33.15696
G1 X72.6 Y87.212 E33.31932
G1 X72.561 Y87.361 E33.32854
G1 X72.453 Y87.47 E33.33773
G1 X72.298 Y87.512 E33.34734
G1 X70.473 Y87.501 E33.4566
G1 X70.261 Y87.411 E33.47039
G1 X70.01 Y87.1 E33.49432
G1 X70.001 Y84.325 E33.66045
G1 X70.04 Y84.176 E33.66967
G1 X70.148 Y84.067 E33.67886
G1 X70.296 Y84.025 E33.68807
G1 X70.6 Y84.2 E33.70907
G1 X72.3 Y84.2 E33.81085
G0 F9000 X72 Y84.8
G1 F3600 X72 Y86.91 E33.93717
G1 X70.601 Y86.902 E34.02093
G1 X70.601 Y84.8 E34.14677
G1 X72 Y84.8 E34.23052
G0 F9000 X71.4 Y85.4
G1 F3600 X71.4 Y86.307 E34.28483
G1 X71.2 Y86.305 E34.2968
G1 X71.201 Y85.4 E34.35098
G1 X71.4 Y85.4 E34.36289
G1 F1800 E31.36289
G0 F9000 X72.835 Y106.915
G0 X81.143 Y106.915
G1 F1800 E34.36289
G1 F3600 X81.143 Y114.677 E34.82759
G1 X116.814 Y128.166 E37.11074
G1 X116.814 Y120.789 E37.55239
G1 X109.046 Y118.051 E38.04549
G1 X108.901 Y117.941 E38.05638
G1 X108.792 Y117.786 E38.06773
G1 X108.737 Y117.613 E38.0786
G1 X108.737 Y104.286 E38.87646
G1 X108.793 Y104.112 E38.8874
G1 X108.905 Y103.955 E38.89895
G1 X109.053 Y103.845 E38.90999
G1 X116.814 Y101.209 E39.4007
G1 X116.814 Y93.575 E39.85773
G1 X81.143 Y106.915 E42.13774
G0 F9000 X81.938 Y107.258
G1 F3600 X115.809 Y94.592 E44.30268
G1 X115.962 Y94.577 E44.31189
G1 X116.193 Y94.763 E44.32964
G1 X116.214 Y100.564 E44.67694
G1 X116.175 Y100.713 E44.68616
G1 X116.01 Y100.848 E44.69892
G1 X108.585 Y103.37 E45.16839
G1 X108.137 Y103.998 E45.21457
G1 X108.137 Y117.898 E46.04674
G1 X108.576 Y118.521 E46.09237
G1 X116.014 Y121.143 E46.56453
G1 X116.141 Y121.23 E46.57374
G1 X116.214 Y121.426 E46.58626
G1 X116.214 Y126.865 E46.91189
G1 X116.175 Y127.014 E46.92111
G1 X116.067 Y127.123 E46.93029
G1 X115.919 Y127.165 E46.9395
G1 X81.937 Y114.337 E49.11408
G1 X81.812 Y114.247 E49.1233
G1 X81.743 Y114.056 E49.13546
G1 X81.743 Y107.539 E49.52562
G1 X81.782 Y107.39 E49.53484
G1 X81.938 Y107.258 E49.54707
G0 F9000 X89.354 Y110.018
G1 F3600 X89.346 Y111.721 E49.64903
G1 X102.978 Y116.562 E50.51509
G1 X103.993 Y115.842 E50.58959
G1 X103.993 Y106.054 E51.17558
G1 X102.989 Y105.334 E51.24955
G1 X89.354 Y110.018 E52.11267
G0 F9000 X90.154 Y110.377
G1 F3600 X102.745 Y106.052 E52.9097
G1 X102.898 Y106.041 E52.91889
G1 X103.268 Y106.272 E52.945
G1 X103.366 Y106.391 E52.95423
G1 X103.393 Y106.516 E52.96189
G1 X103.393 Y115.378 E53.49244
G1 X103.354 Y115.527 E53.50166
G1 X103.012 Y115.803 E53.52797
G1 X102.869 Y115.857 E53.53712
G1 X102.739 Y115.841 E53.54496
G1 X90.149 Y111.37 E54.34482
G1 X90.022 Y111.283 E54.35404
G1 X89.949 Y111.086 E54.36662
G1 X89.951 Y110.66 E54.39212
G1 X89.991 Y110.511 E54.40136
G1 X90.154 Y110.377 E54.41399
G1 F1800 E51.41399
G0 F9000 X87.631 Y98.937
G0 X72.3 Y132.5
G1 F1800 E54.41399
G1 F3600 X72.558 Y132.647 E54.43177
G1 X72.6 Y132.8 E54.44127
G1 X72.6 Y135.5 E54.60291
G1 X72.561 Y135.649 E54.61213
G1 X72.453 Y135.758 E54.62132
G1 X72.3 Y135.8 E54.63082
G1 X70.602 Y135.8 E54.73247
G1 X70.381 Y135.965 E54.74898
G1 X70.228 Y135.967 E54.75814
G1 X70.093 Y135.892 E54.76739
G1 X70.001 Y135.676 E54.78145
G1 X70 Y132.976 E54.94309
G1 X70.088 Y132.764 E54.95683
G1 X70.397 Y132.511 E54.98074
G1 X72.3 Y132.5 E55.09467
G0 F9000 X72 Y133.1
G1 F3600 X72 Y135.2 E55.2204
G1 X70.6 Y135.2 E55.30421
G1 X70.6 Y133.1 E55.42993
G1 X72 Y133.1 E55.51375
G0 F9000 X71.4 Y133.7
G1 F3600 X71.4 Y134.6 E55.56763
G1 X71.2 Y134.6 E55.57961
G1 X71.2 Y133.7 E55.63349
G1 X71.4 Y133.7 E55.64546
G1 F1800 E52.64546
G0 F9000 X72.835 Y113.848
G0 X82.343 Y113.848
;TYPE:SUPPORT-INTERFACE
G1 F1800 E55.64546
G1 F3600 X82.343 Y107.747 E56.01072
G1 X115.614 Y95.305 E58.13731
G1 X115.614 Y100.349 E58.43929
G1 X108.209 Y102.864 E58.90749
G1 X107.537 Y103.806 E58.97676
G1 X107.537 Y118.088 E59.8318
G1 X108.197 Y119.023 E59.90032
G1 X115.614 Y121.638 E60.37115
G1 X115.614 Y126.43 E60.65804
G1 X82.343 Y113.848 E62.78759
G0 F9000 X88.744 Y112.144
G1 F3600 X103.071 Y117.232 E63.6978
G1 X104.593 Y116.153 E63.8095
G1 X104.593 Y105.746 E64.43255
G1 X103.087 Y104.666 E64.54349
G1 X88.756 Y109.588 E65.45066
G1 X88.744 Y112.144 E65.60368
G0 F9000 X90.545 Y113.101
G1 F3600 X87.986 Y115.66 E65.82034
G0 F9000 X91.553 Y117.009
G1 F3600 X82.643 Y108.098 E66.57477
G0 F9000 X82.643 Y110.821
G1 F3600 X87.222 Y106.242 E66.96245
G0 F9000 X86.243 Y106.608
G1 F3600 X88.866 Y109.231 E67.18453
G0 F9000 X89.563 Y108.992
G1 F3600 X95.355 Y103.2 E67.67492
G0 F9000 X93.654 Y103.837
G1 F3600 X96.445 Y106.628 E67.91123
G0 F9000 X97.316 Y106.329
G1 F3600 X103.487 Y100.158 E68.4337
G0 F9000 X104.771 Y99.68
G1 F3600 X107.888 Y102.797 E68.69761
G0 F9000 X107.236 Y106.592
G1 F3600 X104.892 Y108.936 E68.89607
G0 F9000 X104.892 Y109.984
G1 F3600 X107.237 Y112.328 E69.09457
G0 F9000 X107.236 Y111.683
G1 F3600 X104.892 Y114.027 E69.29303
G0 F9000 X104.892 Y115.075
G1 F3600 X107.237 Y117.42 E69.49157
G0 F9000 X107.236 Y116.774
G1 F3600 X102.763 Y121.248 E69.87032
G0 F9000 X99.74 Y120.104
G1 F3600 X93.943 Y114.308 E70.36109
G0 F9000 X94.302 Y114.435
G1 F3600 X91.679 Y117.057 E70.58313
G0 F9000 X95.374 Y118.454
G1 F3600 X98.059 Y115.769 E70.81046
G0 F9000 X101.816 Y117.103
G1 F3600 X99.068 Y119.851 E71.04312
G0 F9000 X101.838 Y117.112
G1 F3600 X107.927 Y123.2 E71.55862
G0 F9000 X106.457 Y122.645
G1 F3600 X109.354 Y119.747 E71.80394
G0 F9000 X109.68 Y119.863
G1 F3600 X115.314 Y125.496 E72.28091
G0 F9000 X113.845 Y125.439
G1 F3600 X115.314 Y123.97 E72.40528
G0 F9000 X113.118 Y121.075
G1 F3600 X110.15 Y124.042 E72.65653
G0 F9000 X107.236 Y107.236
G1 F3600 X101.065 Y101.065 E73.17901
G0 F9000 X97.36 Y102.451
G1 F3600 X100.235 Y105.327 E73.42246
G0 F9000 X103.875 Y104.862
G1 F3600 X111.62 Y97.117 E74.07821
G0 F9000 X112.181 Y96.908
G1 F3600 X115.313 Y100.04 E74.34338
G0 F9000 X115.312 Y98.516
G1 F3600 X112.862 Y100.966 E74.55081
G0 F9000 X111.582 Y101.4
G1 F3600 X108.476 Y98.294 E74.81379
G0 F9000 X92.655 Y107.929
G1 F3600 X89.949 Y105.223 E75.0429
G0 F9000 X88.453 Y110.102
G1 F3600 X84.292 Y114.263 E75.39519
G0 F9000 X83.365 Y113.912
G1 F3600 X82.643 Y113.19 E75.45632
G1 F1800 E72.45632
;MESH:AAA_Cover.stl
G0 F9000 X75.31 Y113.19
G0 X74.05 Y138.28
G0 X73.8 Y138.5
;TYPE:WALL-OUTER
G1 F1800 E75.45632
G1 F3600 X73.8 Y81.5 E78.86881
G1 X149.4 Y81.5 E83.39485
G1 X149.4 Y138.5 E86.80734
G1 X73.8 Y138.5 E91.33338
G1 F1800 E88.33338
G0 F9000 X74.05 Y138.28
G0 X75.31 Y100.042
G0 X79.847 Y99.473
G0 X83.575 Y99.985
G0 X86.113 Y100.042
G0 X86.363 Y100.042
G1 F1800 E91.33338
G1 F3600 X87.358 Y99.981 E91.39306
G1 X87.915 Y99.862 E91.42716
G1 X88.425 Y99.657 E91.46007
G1 X88.908 Y99.358 E91.49408
G1 X89.383 Y98.905 E91.53337
G1 X89.735 Y98.389 E91.57077
G1 X89.957 Y97.885 E91.60374
G1 X90.109 Y97.297 E91.6401
G1 X90.184 Y96.55 E91.68504
G1 X90.171 Y96.01 E91.71738
G1 X90.078 Y95.424 E91.7529
G1 X89.902 Y94.857 E91.78845
G1 X89.622 Y94.288 E91.82641
G1 X89.244 Y93.786 E91.86403
G1 X88.784 Y93.377 E91.90089
G1 X88.205 Y93.054 E91.94058
G1 X87.641 Y92.88 E91.97591
G1 X87.025 Y92.82 E92.01297
G1 X86.455 Y92.866 E92.0472
G1 X85.898 Y93.05 E92.08232
G1 X85.485 Y93.301 E92.11126
G1 X85.069 Y93.723 E92.14673
G1 X84.924 Y93.992 E92.16503
G1 X84.675 Y93.694 E92.18828
G1 X84.248 Y93.405 E92.21915
G1 X83.692 Y93.21 E92.25442
G1 X83.118 Y93.147 E92.28899
G1 X82.481 Y93.225 E92.32741
G1 X81.955 Y93.432 E92.36125
G1 X81.495 Y93.752 E92.3948
G1 X81.092 Y94.176 E92.42982
G1 X80.778 Y94.665 E92.46461
G1 X80.555 Y95.198 E92.4992
G1 X80.397 Y95.899 E92.54222
G1 X80.355 Y96.434 E92.57435
G1 X80.401 Y97.039 E92.61068
G1 X80.523 Y97.575 E92.64359
G1 X80.728 Y98.075 E92.67594
G1 X81.028 Y98.551 E92.70962
G1 X81.439 Y98.98 E92.74519
G1 X81.906 Y99.314 E92.77957
G1 X82.37 Y99.541 E92.81049
G1 X82.934 Y99.707 E92.84569
G1 X83.589 Y99.796 E92.88526
G1 X84.03 Y99.833 E92.91176
G1 X84.03 Y97.522 E93.05011
G1 X83.27 Y97.445 E93.09584
G1 X82.897 Y97.297 E93.11987
G1 X82.663 Y97.106 E93.13795
G1 X82.535 Y96.905 E93.15222
G1 X82.45 Y96.536 E93.17489
G1 X82.464 Y96.207 E93.1946
G1 X82.558 Y95.93 E93.21212
G1 X82.726 Y95.689 E93.2297
G1 X82.944 Y95.538 E93.24558
G1 X83.237 Y95.47 E93.26359
G1 X83.499 Y95.482 E93.27929
G1 X83.726 Y95.576 E93.294
G1 X83.897 Y95.748 E93.30852
G1 X84.051 Y96.063 E93.32951
G1 X84.128 Y96.465 E93.35402
G1 X84.133 Y96.947 E93.38287
G1 X84.111 Y97.356 E93.4074
G1 X85.99 Y97.356 E93.51989
G1 X86.015 Y96.438 E93.57487
G1 X86.088 Y95.956 E93.60405
G1 X86.204 Y95.68 E93.62198
G1 X86.381 Y95.476 E93.63815
G1 X86.601 Y95.358 E93.65309
G1 X86.864 Y95.306 E93.66914
G1 X87.281 Y95.325 E93.69413
G1 X87.556 Y95.419 E93.71153
G1 X87.803 Y95.608 E93.73015
G1 X87.991 Y95.878 E93.74985
G1 X88.089 Y96.174 E93.76852
G1 X88.107 Y96.595 E93.79374
G1 X88.039 Y96.912 E93.81315
G1 X87.894 Y97.175 E93.83113
G1 X87.629 Y97.426 E93.85298
G1 X87.256 Y97.604 E93.87773
G1 X86.703 Y97.704 E93.91137
G1 X86.363 Y97.736 E93.93182
G1 X86.363 Y100.042 E94.06987
G0 F9000 X85.763 Y100.362
;TYPE:WALL-INNER
G1 F3600 X85.763 Y100.363 E94.06993
G1 X85.763 Y100.68 E94.08891
G1 X86.08 Y100.661 E94.10101
G1 X87.439 Y100.577 E94.18253
G1 X88.091 Y100.438 E94.22244
G1 X88.697 Y100.194 E94.26155
G1 X89.277 Y99.835 E94.30239
G1 X89.843 Y99.295 E94.34922
G1 X90.262 Y98.681 E94.39372
G1 X90.526 Y98.082 E94.43291
G1 X90.701 Y97.403 E94.47489
G1 X90.785 Y96.573 E94.52484
G1 X90.77 Y95.956 E94.56179
G1 X90.664 Y95.287 E94.60234
G1 X90.461 Y94.634 E94.64328
G1 X90.135 Y93.972 E94.68745
G1 X89.687 Y93.377 E94.73204
G1 X89.134 Y92.885 E94.77636
G1 X88.442 Y92.499 E94.8238
G1 X87.76 Y92.289 E94.86652
G1 X87.03 Y92.218 E94.91043
G1 X86.335 Y92.274 E94.95217
G1 X85.645 Y92.502 E94.99568
G1 X85.11 Y92.827 E95.03315
G1 X84.852 Y93.089 E95.05517
G1 X84.52 Y92.865 E95.07914
G1 X83.826 Y92.621 E95.12319
G1 X83.114 Y92.543 E95.16607
G1 X82.332 Y92.639 E95.21324
G1 X81.67 Y92.899 E95.25582
G1 X81.102 Y93.294 E95.29724
G1 X80.618 Y93.804 E95.33933
G1 X80.245 Y94.385 E95.38066
G1 X79.981 Y95.015 E95.42156
G1 X79.802 Y95.809 E95.47029
G1 X79.753 Y96.433 E95.50776
G1 X79.806 Y97.129 E95.54955
G1 X79.949 Y97.757 E95.58811
G1 X80.193 Y98.351 E95.62655
G1 X80.553 Y98.922 E95.66696
G1 X81.044 Y99.435 E95.70948
G1 X81.598 Y99.831 E95.75025
G1 X82.152 Y100.102 E95.78717
G1 X82.808 Y100.295 E95.82811
G1 X83.523 Y100.393 E95.87131
G1 X84.306 Y100.459 E95.91836
G1 X84.307 Y100.46 E95.91844
G1 X84.63 Y100.485 E95.93784
G1 X84.63 Y100.161 E95.95012
G1 X84.63 Y100.16 E95.95018
G1 X84.63 Y97.956 E96.08213
G1 X85.763 Y97.956 E96.14996
G1 X85.763 Y100.362 E96.29401
G0 F9000 X87.52 Y101.173
G1 F3600 X88.267 Y101.014 E96.33973
G1 X88.969 Y100.731 E96.38505
G1 X89.646 Y100.312 E96.43271
G1 X90.303 Y99.685 E96.48708
G1 X90.789 Y98.974 E96.53864
G1 X91.095 Y98.279 E96.5841
G1 X91.293 Y97.509 E96.6317
G1 X91.386 Y96.596 E96.68665
G1 X91.369 Y95.902 E96.72821
G1 X91.25 Y95.15 E96.77379
G1 X91.02 Y94.411 E96.82012
G1 X90.648 Y93.656 E96.87051
G1 X90.13 Y92.968 E96.92207
G1 X89.484 Y92.393 E96.97385
G1 X88.679 Y91.944 E97.02903
G1 X87.879 Y91.698 E97.07914
G1 X87.818 Y91.693 E97.0828
G1 X87.089 Y91.622 E97.12665
G1 X87.035 Y91.616 E97.12991
G1 X86.215 Y91.682 E97.17916
G1 X85.392 Y91.954 E97.23105
G1 X84.785 Y92.323 E97.27358
G1 X83.96 Y92.032 E97.32595
G1 X83.11 Y91.939 E97.37714
G1 X82.183 Y92.053 E97.43306
G1 X81.385 Y92.366 E97.48438
G1 X80.709 Y92.836 E97.53367
G1 X80.144 Y93.432 E97.58284
G1 X79.712 Y94.105 E97.63071
G1 X79.407 Y94.832 E97.67791
G1 X79.207 Y95.719 E97.73235
G1 X79.151 Y96.432 E97.77517
G1 X79.211 Y97.219 E97.82242
G1 X79.375 Y97.939 E97.86663
G1 X79.658 Y98.627 E97.91117
G1 X80.078 Y99.293 E97.95831
G1 X80.649 Y99.89 E98.00776
G1 X81.29 Y100.348 E98.05493
G1 X81.934 Y100.663 E98.09785
G1 X82.682 Y100.883 E98.14453
G1 X83.457 Y100.99 E98.19136
G1 X85.163 Y101.131 E98.29385
G1 X85.163 Y101.318 E98.30504
G1 X85.174 Y101.318
G1 X87.52 Y101.173 E98.44576
G1 F1800 E95.44576
G0 F9000 X89.101 Y100.992
G0 X87.989 Y98.793
G0 X131.365 Y100.992
G0 X128.89 Y100.992
G0 X130.15 Y133.1
G0 X130.4 Y133.1
;TYPE:WALL-OUTER
G1 F1800 E98.44576
G1 F3600 X146.8 Y133.1 E99.4276
G1 X146.8 Y86.9 E102.19351
G1 X130.4 Y86.9 E103.17535
G1 X130.4 Y133.1 E105.94127
G0 F9000 X129.8 Y133.7
;TYPE:WALL-INNER
G1 F3600 X147.4 Y133.7 E106.99495
G1 X147.4 Y86.3 E109.8327
G1 X129.8 Y86.3 E110.88638
G1 X129.8 Y133.7 E113.72414
G0 F9000 X129.2 Y134.3
G1 F3600 X148 Y134.3 E114.84966
G1 X148 Y85.7 E117.75926
G1 X129.2 Y85.7 E118.88478
G1 X129.2 Y134.3 E121.79438
G1 F1800 E118.79438
G0 F9000 X128.89 Y129.036
G0 X118.904 Y129.036
G0 X117.664 Y129.036
G0 X117.414 Y129.036
;TYPE:WALL-OUTER
G1 F1800 E121.79438
G1 F3600 X117.414 Y120.363 E122.31361
G1 X109.337 Y117.517 E122.82631
G1 X109.337 Y104.382 E123.61268
G1 X117.414 Y101.639 E124.12336
G1 X117.414 Y92.711 E124.65786
G1 X80.543 Y106.499 E127.01456
G1 X80.543 Y115.093 E127.52907
G1 X117.414 Y129.036 E129.88903
G0 F9000 X118.014 Y129.471
;TYPE:WALL-INNER
G1 F3600 X118.014 Y119.938 E130.45975
G1 X109.937 Y117.092 E130.97245
G1 X109.937 Y104.812 E131.70763
G1 X118.014 Y102.069 E132.21831
