;FLAVOR:Marlin
;TIME:11868
;Filament used: 15.5369m
;Layer height: 0.2
;MINX:59.816
;MINY:60
;MINZ:0.24
;MAXX:160.2
;MAXY:159.999
;MAXZ:45.2
;Generated with Cura_SteamEngine 4.5.0
M140 S50
M105
M190 S50
M104 S230
M105
M109 S230
M82 ;absolute extrusion mode
M201 X500.00 Y500.00 Z100.00 E5000.00 ;Setup machine max acceleration
M203 X500.00 Y500.00 Z10.00 E50.00 ;Setup machine max feedrate
M204 P500.00 R1000.00 T500.00 ;Setup Print/Retract/Travel acceleration
M205 X8.00 Y8.00 Z0.40 E5.00 ;Setup Jerk
M220 S100 ;Reset Feedrate
M221 S100 ;Reset Flowrate

G28 ;Home

G92 E0 ;Reset Extruder
G1 Z2.0 F3000 ;Move Z Axis up
G1 X10.1 Y20 Z0.28 F5000.0 ;Move to start position
G1 X10.1 Y200.0 Z0.28 F1500.0 E15 ;Draw the first line
G1 X10.4 Y200.0 Z0.28 F5000.0 ;Move to side a little
G1 X10.4 Y20 Z0.28 F1500.0 E30 ;Draw the second line
G92 E0 ;Reset Extruder
G1 Z2.0 F3000 ;Move Z Axis up

G92 E0
G92 E0
G1 F1800 E-6
;LAYER_COUNT:212
;LAYER:0
M107
G0 F9000 X95.502 Y97.763 Z0.24
;TYPE:SKIRT
G1 F1800 E0
G1 F3600 X96.178 Y97.158 E0.05431
G1 X96.904 Y96.614 E0.10862
G1 X97.684 Y96.131 E0.16355
G1 X100.296 Y94.628 E0.34397
G1 X102.473 Y93.284 E0.49714
G1 X104.568 Y91.91 E0.64713
G1 X106.627 Y90.472 E0.79748
G1 X108.706 Y88.933 E0.95234
G1 X110.698 Y87.37 E1.10393
G1 X112.618 Y85.772 E1.25348
G1 X114.553 Y84.066 E1.40792
G1 X116.394 Y82.351 E1.55855
G1 X118.192 Y80.577 E1.70977
G1 X119.956 Y78.734 E1.8625
G1 X121.66 Y76.851 E2.01454
G1 X123.314 Y74.915 E2.16698
G1 X124.904 Y72.946 E2.3185
G1 X126.419 Y70.953 E2.46838
G1 X128.248 Y68.388 E2.65698
G1 X128.797 Y67.591 E2.71492
G1 X129.345 Y66.867 E2.76928
G1 X129.901 Y66.247 E2.81914
G1 X130.378 Y65.757 E2.86008
G1 X132.636 Y63.498 E3.0513
G1 X133.225 Y62.924 E3.10054
G1 X133.903 Y62.321 E3.15486
G1 X134.632 Y61.78 E3.20921
G1 X135.406 Y61.306 E3.26354
G1 X136.218 Y60.901 E3.31787
G1 X137.063 Y60.57 E3.3722
G1 X137.934 Y60.314 E3.42655
G1 X138.823 Y60.135 E3.48084
G1 X140.143 Y60.017 E3.56018
G1 X140.705 Y60.003 E3.59384
G1 X149.142 Y60 E4.09895
G1 X149.97 Y60.011 E4.14852
G1 X150.876 Y60.065 E4.20286
G1 X151.773 Y60.197 E4.25714
G1 X152.905 Y60.484 E4.32705
G1 X153.828 Y60.816 E4.38578
G1 X154.651 Y61.2 E4.44015
G1 X155.436 Y61.654 E4.49444
G1 X156.178 Y62.177 E4.54879
G1 X156.872 Y62.762 E4.60313
G1 X157.511 Y63.406 E4.65744
G1 X158.091 Y64.104 E4.71178
G1 X158.607 Y64.85 E4.76608
G1 X159.056 Y65.639 E4.82043
G1 X159.433 Y66.465 E4.87479
G1 X159.737 Y67.32 E4.92911
G1 X159.964 Y68.199 E4.98346
G1 X160.112 Y69.094 E5.03777
G1 X160.185 Y70.155 E5.10144
G1 X160.198 Y70.911 E5.14671
G1 X160.2 Y145.764 E9.62803
G1 X160.189 Y146.633 E9.68006
G1 X160.137 Y147.539 E9.73439
G1 X160.005 Y148.437 E9.78873
G1 X159.794 Y149.319 E9.84302
G1 X159.507 Y150.18 E9.89736
G1 X159.145 Y151.012 E9.95168
G1 X158.711 Y151.809 E10.00601
G1 X158.208 Y152.565 E10.06037
G1 X157.641 Y153.274 E10.11472
G1 X157.014 Y153.93 E10.16905
G1 X156.332 Y154.528 E10.22335
G1 X155.599 Y155.064 E10.27772
G1 X154.823 Y155.533 E10.332
G1 X154.008 Y155.932 E10.38633
G1 X153.16 Y156.258 E10.44072
G1 X151.937 Y156.586 E10.51652
G1 X151.074 Y156.761 E10.56924
G1 X150.19 Y156.926 E10.62308
G1 X147.676 Y157.467 E10.77703
G1 X145.274 Y158.057 E10.92511
G1 X142.784 Y158.742 E11.07972
G1 X141.501 Y159.14 E11.16014
G1 X140.183 Y159.536 E11.24253
G1 X139.303 Y159.758 E11.29687
G1 X138.407 Y159.902 E11.3512
G1 X137.683 Y159.96 E11.39468
G1 X137.047 Y159.979 E11.43278
G1 X128.453 Y159.999 E11.94728
G1 X127.646 Y159.99 E11.9956
G1 X126.487 Y159.911 E12.06515
G1 X125.325 Y159.765 E12.13526
G1 X124.771 Y159.688 E12.16875
G1 X122.245 Y159.407 E12.32091
G1 X119.713 Y159.197 E12.47302
G1 X117.155 Y159.058 E12.62639
G1 X114.663 Y158.992 E12.77563
G1 X112.099 Y158.998 E12.92913
G1 X109.574 Y159.075 E13.08037
G1 X107.051 Y159.223 E13.23168
G1 X104.509 Y159.445 E13.38444
G1 X101.577 Y159.79 E13.56119
G1 X100.768 Y159.898 E13.61005
G1 X99.864 Y159.979 E13.66439
G1 X98.87 Y159.975 E13.7239
G1 X96.016 Y159.827 E13.89499
G1 X93.513 Y159.772 E14.04488
G1 X90.962 Y159.786 E14.1976
G1 X87.437 Y159.922 E14.40879
G1 X86.074 Y159.959 E14.49043
G1 X84.932 Y159.921 E14.55883
G1 X83.615 Y159.852 E14.63779
G1 X82.772 Y159.795 E14.68837
G1 X81.93 Y159.702 E14.73909
G1 X81.249 Y159.593 E14.78038
G1 X79.52 Y159.275 E14.88562
G1 X78.807 Y159.135 E14.92913
G1 X77.885 Y158.908 E14.98597
G1 X76.8 Y158.587 E15.05371
G1 X75.295 Y158.111 E15.14821
G1 X74.526 Y157.855 E15.19674
G1 X73.744 Y157.557 E15.24684
G1 X73.141 Y157.293 E15.28625
G1 X71.281 Y156.423 E15.40918
G1 X70.51 Y156.049 E15.46048
G1 X69.803 Y155.67 E15.50851
G1 X69.259 Y155.343 E15.54651
G1 X67.488 Y154.212 E15.67231
G1 X66.772 Y153.739 E15.72369
G1 X66.038 Y153.206 E15.77799
G1 X65.354 Y152.609 E15.83235
G1 X64.846 Y152.09 E15.87582
G1 X64.309 Y151.494 E15.92385
G1 X63.936 Y151.059 E15.95816
G1 X63.305 Y150.243 E16.01991
G1 X62.849 Y149.578 E16.06819
G1 X62.53 Y149.084 E16.10339
G1 X62.1 Y148.354 E16.15411
G1 X61.73 Y147.639 E16.20231
G1 X61.417 Y146.982 E16.24588
G1 X61.076 Y146.179 E16.29811
G1 X60.852 Y145.557 E16.33769
G1 X60.598 Y144.784 E16.3864
G1 X60.346 Y143.88 E16.44259
G1 X60.187 Y143.148 E16.48743
G1 X60.052 Y142.422 E16.53164
G1 X59.925 Y141.519 E16.58623
G1 X59.868 Y140.836 E16.62727
G1 X59.826 Y140.077 E16.67278
G1 X59.816 Y139.17 E16.72708
G1 X59.885 Y138.265 E16.78142
G1 X60.034 Y137.37 E16.83574
G1 X60.262 Y136.491 E16.8901
G1 X60.566 Y135.636 E16.94443
G1 X60.943 Y134.811 E16.99873
G1 X61.392 Y134.022 E17.05308
G1 X61.909 Y133.276 E17.10742
G1 X62.49 Y132.578 E17.16179
G1 X63.129 Y131.934 E17.21611
G1 X63.823 Y131.349 E17.27045
G1 X64.46 Y130.896 E17.31724
G1 X66.806 Y129.329 E17.48614
G1 X68.86 Y127.869 E17.63701
G1 X70.911 Y126.325 E17.79071
G1 X72.879 Y124.752 E17.94154
G1 X74.823 Y123.107 E18.094
G1 X76.697 Y121.427 E18.24467
G1 X78.533 Y119.687 E18.39611
G1 X80.348 Y117.863 E18.55016
G1 X82.079 Y116.026 E18.70128
G1 X83.752 Y114.143 E18.85208
G1 X85.395 Y112.19 E19.00487
G1 X86.984 Y110.186 E19.15798
G1 X88.491 Y108.171 E19.30863
G1 X89.958 Y106.088 E19.46115
G1 X91.343 Y103.999 E19.61121
G1 X92.705 Y101.814 E19.76535
G1 X93.829 Y99.902 E19.89814
G1 X94.323 Y99.141 E19.95245
G1 X94.882 Y98.426 E20.00679
G1 X95.502 Y97.763 E20.06113
G1 F1800 E14.06113
;MESH:Object 1
G0 F9000 X138.229 Y76.978
G0 X139.383 Y76.416
G0 X142.7 Y80.7
;TYPE:WALL-INNER
G1 F1800 E20.06113
G1 F3600 X147.7 Y80.7 E20.36047
G1 X147.7 Y72.5 E20.85139
G1 X142.7 Y72.5 E21.15073
G1 X142.7 Y80.7 E21.64165
G0 F9000 X143.3 Y80.1
;TYPE:WALL-OUTER
G1 F3600 X147.1 Y80.1 E21.86915
G1 X147.1 Y73.1 E22.28823
G1 X143.3 Y73.1 E22.51573
G1 X143.3 Y80.1 E22.93481
G1 F1800 E16.93481
G0 F9000 X142.9 Y80.1
G0 X142.527 Y82.838
G0 X139.567 Y100.565
G0 X109.934 Y105.613
;TYPE:WALL-INNER
G1 F1800 E22.93481
G1 F3600 X112.043 Y105.317 E23.06231
G1 X140.32 Y101.337 E24.77189
G1 X143.422 Y82.708 E25.90253
G1 X142.946 Y81.73 E25.96765
G1 X142.737 Y81.3 E25.99627
G1 X143.215 Y81.3 E26.01277
G1 X148.3 Y81.3 E26.3172
G1 X148.3 Y71.9 E26.87996
G1 X142.1 Y71.9 E27.25114
G1 X142.1 Y78.689 E27.65759
G1 X142.1 Y78.69 E27.65765
G1 X142.1 Y79.989 E27.73541
G1 X141.532 Y78.82 E27.77531
G1 X139.067 Y73.753 E28.11265
G1 X141.02 Y71.8 E28.27801
G1 X142.1 Y71.8 E28.34266
G1 X148.3 Y71.8 E28.40463
G1 X148.4 Y71.8 E28.40823
G1 X148.4 Y71.9 E28.41182
G1 X148.4 Y81.3 E28.50577
G1 X148.4 Y110.673 E30.26428
G1 X148.4 Y110.674 E30.26434
G1 X148.4 Y111.017 E30.28488
G1 X148.06 Y110.97 E30.29768
G1 X112.043 Y105.909 E32.47514
G1 X109.934 Y105.613 E32.53949
G0 F9000 X107.734 Y105.909
G1 F3600 X105.626 Y105.613 E32.66693
G1 X107.734 Y105.317 E32.73125
G1 X139.8 Y100.804 E34.6699
G1 X142.799 Y82.798 E35.76274
G1 X138.341 Y73.631 E36.37301
G1 X140.772 Y71.2 E36.57883
G1 X149 Y71.2 E37.07143
G1 X149 Y145.6 E41.52563
G1 X140.027 Y145.6 E42.06282
G1 X136.845 Y148.782 E42.33223
G1 X127.967 Y148.8 E42.86374
G1 X121.752 Y145.618 E43.28176
G1 X108.519 Y145.6 E44.07399
G1 X100.697 Y148.299 E44.56938
G1 X100.3 Y148.436 E44.59452
G1 X100.3 Y148.017 E44.60938
G1 X100.3 Y148.016 E44.60944
G1 X100.3 Y145.619 E44.75295
G1 X86.659 Y145.6 E45.56961
G1 X85.456 Y145.599 E45.64163
G1 X85.4 Y145.599 E45.64498
G1 X85.4 Y145.655 E45.64715
G1 X85.4 Y148.416 E45.81245
G1 X85.4 Y148.417 E45.81251
G1 X85.4 Y148.732 E45.83137
G1 X85.085 Y148.715 E45.8434
G1 X83.576 Y148.633 E45.93388
G1 X80.911 Y148.143 E46.0961
G1 X78.102 Y147.25 E46.27257
G1 X75.441 Y146.003 E46.4485
G1 X73.039 Y144.466 E46.61922
G1 X72.462 Y143.811 E46.67148
G1 X71.951 Y143.045 E46.72661
G1 X71.539 Y142.209 E46.78241
G1 X71.243 Y141.337 E46.83754
G1 X71.13 Y140.756 E46.87297
G1 X71.061 Y140.4 E46.89468
G1 X71.423 Y140.4 E46.90799
G1 X71.424 Y140.4 E46.90805
G1 X72.303 Y140.4 E46.96067
G1 X72.394 Y141.028 E46.99866
G1 X72.982 Y142.449 E47.09073
G1 X73.926 Y143.681 E47.18365
G1 X75.153 Y144.621 E47.27619
G1 X76.582 Y145.209 E47.3687
G1 X78.06 Y145.4 E47.45792
G1 X84.17 Y145.203 E47.82391
G1 X85.304 Y145.11 E47.89203
G1 X85.359 Y145.106 E47.89533
G1 X86.614 Y145.003 E47.97071
G1 X87.988 Y144.89 E48.05325
G1 X91.765 Y144.432 E48.28103
G1 X143.68 Y137.136 E51.41963
G1 X147.889 Y111.861 E52.95364
G1 X147.939 Y111.559 E52.97197
G1 X147.635 Y111.517 E52.98375
G1 X107.734 Y105.909 E55.39603
G1 F1800 E49.39603
G0 F9000 X147.624 Y111.791
G0 X148.4 Y112.443
G1 F1800 E55.39603
G1 F3600 X148.4 Y116.064 E55.61281
G1 X148.4 Y116.065 E55.61287
G1 X148.4 Y145 E57.34516
G1 X139.778 Y145 E57.86135
G1 X136.596 Y148.183 E58.1308
G1 X128.111 Y148.2 E58.63878
G1 X121.897 Y145.018 E59.05674
G1 X108.419 Y145 E59.86364
G1 X101.297 Y147.458 E60.31471
G1 X100.9 Y147.594 E60.33983
G1 X100.9 Y147.175 E60.35471
G1 X100.9 Y147.174 E60.35477
G1 X100.9 Y145.02 E60.48372
G1 X96.222 Y145.013 E60.76379
G1 X96.221 Y145.012 E60.76387
G1 X91.98 Y145.008 E61.01777
G1 X96.18 Y144.418 E61.14504
G1 X144.2 Y137.669 E64.04817
G1 X147.806 Y116.015 E65.36241
G1 X148.4 Y112.443 E65.47118
G1 F1800 E59.47118
G0 F9000 X143.447 Y136.897
G0 X84.8 Y145.753
G1 F1800 E65.47118
G1 F3600 X84.8 Y145.802 E65.47411
G1 X84.8 Y147.783 E65.59271
G1 X84.8 Y147.784 E65.59277
G1 X84.8 Y148.099 E65.61163
G1 X84.485 Y148.082 E65.62367
G1 X83.647 Y148.036 E65.67391
G1 X81.059 Y147.56 E65.83145
G1 X78.319 Y146.689 E66.00358
G1 X77.819 Y146.455 E66.03663
G1 X76.424 Y145.802 E66.12884
G1 X76.278 Y145.733 E66.13851
G1 X76.427 Y145.794 E66.13857
G1 X77.983 Y145.994 E66.17868
G1 X78.031 Y146.001 E66.18158
G1 X84.204 Y145.802 E66.55133
G1 X84.8 Y145.753 E66.57805
G0 F9000 X78.073 Y145.139
G0 X76.649 Y144.954
G0 X75.545 Y144.5
G0 X72.598 Y142.933
G1 F3600 X72.969 Y143.418 E66.61461
G1 X73.323 Y143.881 E66.6495
G1 X72.938 Y143.443 E66.65066
G1 X72.598 Y142.933 E66.65192
G0 F9000 X71.894 Y141.388
G1 F3600 X72.132 Y141.964 E66.68923
G1 X72.37 Y142.539 E66.72649
G1 X72.095 Y141.98 E66.72773
G1 X71.894 Y141.388 E66.72907
G1 F1800 E60.72907
G0 F9000 X74.112 Y143.495
G0 X75.285 Y144.392
G0 X76.649 Y144.954
G0 X78.073 Y145.139
G0 X100.028 Y145.89
G0 X100.058 Y148.776
G0 X99.7 Y149.278
;TYPE:WALL-OUTER
G1 F1800 E66.72907
G1 F3600 X99.7 Y146.218 E66.91226
G1 X86 Y146.2 E67.73246
G1 X86 Y149.365 E67.92194
G1 X83.504 Y149.23 E68.07159
G1 X80.763 Y148.726 E68.23844
G1 X77.885 Y147.811 E68.41924
G1 X75.154 Y146.531 E68.59981
G1 X72.643 Y144.924 E68.77829
G1 X71.986 Y144.179 E68.83776
G1 X71.431 Y143.347 E68.89763
G1 X70.983 Y142.438 E68.9583
G1 X70.661 Y141.488 E69.01836
G1 X70.466 Y140.503 E69.07847
G1 X70.42 Y139.8 E69.12065
G1 X72.823 Y139.8 E69.26451
G1 X72.977 Y140.868 E69.32911
G1 X73.506 Y142.147 E69.41198
G1 X74.354 Y143.253 E69.49541
G1 X75.455 Y144.096 E69.57843
G1 X76.737 Y144.624 E69.66144
G1 X78.089 Y144.799 E69.74305
G1 X84.136 Y144.604 E70.10526
G1 X87.927 Y144.293 E70.33299
G1 X91.687 Y143.837 E70.55974
G1 X143.16 Y136.603 E73.67162
G1 X147.246 Y112.068 E75.16072
G1 X103 Y105.85 E77.83568
G1 X103 Y105.377 E77.864
G1 X139.28 Y100.271 E80.05742
G1 X142.176 Y82.888 E81.11246
G1 X137.614 Y73.51 E81.73681
G1 X140.524 Y70.6 E81.98319
G1 X149.6 Y70.6 E82.52655
G1 X149.6 Y146.2 E87.05259
G1 X140.276 Y146.2 E87.6108
G1 X137.094 Y149.382 E87.88021
G1 X127.823 Y149.4 E88.43525
G1 X121.607 Y146.218 E88.85332
G1 X108.619 Y146.2 E89.63089
G1 X99.7 Y149.278 E90.19575
G0 F9000 X100.058 Y148.776
G0 X101.11 Y146.766
G0 X101.49 Y146.766
;TYPE:SKIN
G1 F3600 X101.49 Y144.43 E90.33561
G1 X100.342 Y144.429 E90.40433
G1 X144.711 Y138.193 E93.08674
G1 X147.81 Y119.58 E94.2164
G1 X147.81 Y144.41 E95.70293
G1 X139.534 Y144.41 E96.1984
G1 X136.352 Y147.593 E96.46785
G1 X128.252 Y147.61 E96.95279
G1 X122.04 Y144.428 E97.37064
G1 X108.321 Y144.41 E98.19197
G1 X101.49 Y146.766 E98.62457
G0 F9000 X102.156 Y146.279
G1 F3600 X101.73 Y145.853 E98.66064
G0 F9000 X101.73 Y145.004
G1 F3600 X102.787 Y146.062 E98.75018
G0 F9000 X103.418 Y145.845
G1 F3600 X102.009 Y144.435 E98.86951
G0 F9000 X102.753 Y144.331
G1 F3600 X104.05 Y145.627 E98.97928
G0 F9000 X104.68 Y145.41
G1 F3600 X103.497 Y144.226 E99.07949
G0 F9000 X104.241 Y144.122
G1 F3600 X105.311 Y145.192 E99.17008
G0 F9000 X105.942 Y144.975
G1 F3600 X104.985 Y144.017 E99.25115
G0 F9000 X105.729 Y143.913
G1 F3600 X106.573 Y144.757 E99.32261
G0 F9000 X107.204 Y144.539
G1 F3600 X106.473 Y143.808 E99.3845
G0 F9000 X107.217 Y143.703
G1 F3600 X107.835 Y144.322 E99.43686
G0 F9000 X108.53 Y144.169
G1 F3600 X107.961 Y143.599 E99.48508
G0 F9000 X108.705 Y143.495
G1 F3600 X109.38 Y144.17 E99.54223
G0 F9000 X109.449 Y143.39
G1 F3600 X110.23 Y144.171 E99.60836
G0 F9000 X111.08 Y144.172
G1 F3600 X110.193 Y143.285 E99.68345
G0 F9000 X110.937 Y143.181
G1 F3600 X111.929 Y144.173 E99.76744
G0 F9000 X112.779 Y144.174
G1 F3600 X111.681 Y143.076 E99.86041
G0 F9000 X112.425 Y142.972
G1 F3600 X113.629 Y144.176 E99.96235
G0 F9000 X114.478 Y144.176
G1 F3600 X113.168 Y142.867 E100.07322
G0 F9000 X113.913 Y142.763
G1 F3600 X115.328 Y144.178 E100.19302
G0 F9000 X116.177 Y144.179
G1 F3600 X114.657 Y142.658 E100.32176
G0 F9000 X115.401 Y142.554
G1 F3600 X117.027 Y144.18 E100.45942
G0 F9000 X117.877 Y144.181
G1 F3600 X116.145 Y142.449 E100.60607
G0 F9000 X116.888 Y142.344
G1 F3600 X118.726 Y144.182 E100.76168
G0 F9000 X119.576 Y144.184
G1 F3600 X117.632 Y142.24 E100.92627
G0 F9000 X118.377 Y142.136
G1 F3600 X120.425 Y144.184 E101.09967
G0 F9000 X121.275 Y144.186
G1 F3600 X119.121 Y142.031 E101.28208
G0 F9000 X119.865 Y141.926
G1 F3600 X122.151 Y144.213 E101.47567
G0 F9000 X121.949 Y144.805
G0 X123.609 Y145.658
G0 X123.892 Y145.105
G1 F3600 X120.609 Y141.822 E101.75363
G0 F9000 X121.352 Y141.717
G1 F3600 X125.633 Y145.997 E102.11605
G0 F9000 X125.35 Y146.55
G0 X127.09 Y147.441
G0 X127.373 Y146.889
G1 F3600 X122.096 Y141.612 E102.56283
G0 F9000 X122.841 Y141.509
G1 F3600 X128.7 Y147.368 E103.0589
G0 F9000 X129.547 Y147.366
G1 F3600 X123.585 Y141.404 E103.56368
G0 F9000 X124.329 Y141.299
G1 F3600 X130.394 Y147.364 E104.07718
G0 F9000 X131.24 Y147.362
G1 F3600 X125.073 Y141.195 E104.59932
G0 F9000 X125.816 Y141.09
G1 F3600 X132.087 Y147.361 E105.13026
G0 F9000 X132.933 Y147.358
G1 F3600 X126.56 Y140.985 E105.66984
G0 F9000 X127.305 Y140.881
G1 F3600 X133.78 Y147.356 E106.21806
G0 F9000 X134.627 Y147.355
G1 F3600 X128.049 Y140.777 E106.77499
G0 F9000 X128.793 Y140.672
G1 F3600 X135.473 Y147.353 E107.34061
G0 F9000 X136.287 Y147.317
G1 F3600 X129.537 Y140.567 E107.91211
G0 F9000 X130.28 Y140.463
G1 F3600 X136.711 Y146.893 E108.45655
G0 F9000 X137.135 Y146.469
G1 F3600 X131.024 Y140.358 E108.97395
G0 F9000 X131.769 Y140.254
G1 F3600 X137.559 Y146.045 E109.46421
G0 F9000 X137.984 Y145.62
G1 F3600 X132.513 Y140.149 E109.92742
G0 F9000 X133.257 Y140.045
G1 F3600 X138.408 Y145.196 E110.36354
G0 F9000 X138.832 Y144.772
G1 F3600 X134 Y139.94 E110.77265
G0 F9000 X134.744 Y139.836
G1 F3600 X139.256 Y144.348 E111.15466
G0 F9000 X139.926 Y144.169
G1 F3600 X135.488 Y139.731 E111.53041
G0 F9000 X136.233 Y139.627
G1 F3600 X140.775 Y144.169 E111.91497
G0 F9000 X141.623 Y144.169
G1 F3600 X136.977 Y139.522 E112.30837
G0 F9000 X137.721 Y139.418
G1 F3600 X142.472 Y144.169 E112.71062
G0 F9000 X143.32 Y144.169
G1 F3600 X138.464 Y139.313 E113.12176
G0 F9000 X139.208 Y139.208
G1 F3600 X144.169 Y144.169 E113.54179
