;FLAVOR:Marlin
;TIME:365
;Filament used: 0.24887m
;Layer height: 0.16
;MINX:81.171
;MINY:81.676
;MINZ:0.2
;MAXX:138.808
;MAXY:138.323
;MAXZ:1
;Generated with Cura_SteamEngine 4.5.0
M140 S50
M105
M190 S50
M104 S225
M105
M109 S225
M82 ;absolute extrusion mode
M201 X500.00 Y500.00 Z100.00 E5000.00 ;Setup machine max acceleration
M203 X500.00 Y500.00 Z10.00 E50.00 ;Setup machine max feedrate
M204 P500.00 R1000.00 T500.00 ;Setup Print/Retract/Travel acceleration
M205 X8.00 Y8.00 Z0.40 E5.00 ;Setup Jerk
M220 S100 ;Reset Feedrate
M221 S100 ;Reset Flowrate

G28 ;Home

G92 E0 ;Reset Extruder
G1 Z2.0 F3000 ;Move Z Axis up
G1 X10.1 Y20 Z0.28 F5000.0 ;Move to start position
G1 X10.1 Y200.0 Z0.28 F1500.0 E15 ;Draw the first line
G1 X10.4 Y200.0 Z0.28 F5000.0 ;Move to side a little
G1 X10.4 Y20 Z0.28 F1500.0 E30 ;Draw the second line
G92 E0 ;Reset Extruder
G1 Z2.0 F3000 ;Move Z Axis up

G92 E0
G92 E0
G1 F1800 E-3
;LAYER_COUNT:6
;LAYER:0
M106 S127.5
M204 S500
M205 X6 Y6
G0 F9000 X84.372 Y84.713 Z0.2
;TYPE:SKIRT
G1 F1800 E0
G1 F3000 X85.058 Y84.099 E0.02756
G1 X85.794 Y83.546 E0.05512
G1 X86.576 Y83.06 E0.08268
G1 X87.397 Y82.643 E0.11024
G1 X88.251 Y82.299 E0.1378
G1 X89.132 Y82.03 E0.16537
G1 X90.032 Y81.839 E0.19292
G1 X90.946 Y81.727 E0.22048
G1 X91.866 Y81.694 E0.24804
G1 X92.785 Y81.742 E0.27558
G1 X94.064 Y81.912 E0.31421
G1 X96.596 Y82.234 E0.39061
G1 X99.152 Y82.486 E0.46749
G1 X101.634 Y82.659 E0.54197
G1 X104.189 Y82.766 E0.61852
G1 X106.7 Y82.8 E0.69369
G1 X109.245 Y82.762 E0.76988
G1 X111.753 Y82.654 E0.84502
G1 X114.29 Y82.472 E0.92116
G1 X116.808 Y82.22 E0.99691
G1 X118.962 Y81.947 E1.06191
G1 X119.68 Y81.848 E1.0836
G1 X120.719 Y81.733 E1.11489
G1 X121.638 Y81.676 E1.14246
G1 X122.245 Y81.682 E1.16063
G1 X123.117 Y81.73 E1.18677
G1 X125.502 Y81.944 E1.25845
G1 X126.616 Y82.032 E1.2919
G1 X127.614 Y82.146 E1.32197
G1 X128.915 Y82.388 E1.36158
G1 X129.799 Y82.647 E1.38916
G1 X130.66 Y82.982 E1.41681
G1 X131.942 Y83.591 E1.4593
G1 X133.079 Y84.313 E1.49961
G1 X133.665 Y84.755 E1.52159
G1 X134.691 Y85.635 E1.56205
G1 X135.327 Y86.301 E1.58961
G1 X135.705 Y86.759 E1.60739
G1 X136.091 Y87.254 E1.62618
G1 X136.625 Y88.004 E1.65374
G1 X137.168 Y88.943 E1.68621
G1 X137.703 Y90.077 E1.72374
G1 X137.899 Y90.597 E1.74038
G1 X138.125 Y91.249 E1.76103
G1 X138.389 Y92.132 E1.78862
G1 X138.575 Y93.037 E1.81628
G1 X138.673 Y93.646 E1.83474
G1 X138.78 Y94.56 E1.86229
G1 X138.808 Y95.306 E1.88464
G1 X138.792 Y96.379 E1.91676
G1 X138.752 Y97.087 E1.93799
G1 X138.631 Y99.657 E2.015
G1 X138.584 Y102.169 E2.09021
G1 X138.609 Y104.756 E2.16765
G1 X138.628 Y105.356 E2.18562
G1 X138.641 Y106.312 E2.21424
G1 X138.642 Y113.289 E2.42309
G1 X138.631 Y114.162 E2.44923
G1 X138.578 Y115.081 E2.47678
G1 X138.446 Y115.992 E2.50434
G1 X138.235 Y116.888 E2.53189
G1 X137.948 Y117.763 E2.55946
G1 X137.585 Y118.609 E2.58701
G1 X137.151 Y119.421 E2.61457
G1 X136.647 Y120.192 E2.64215
G1 X136.079 Y120.916 E2.66969
G1 X135.45 Y121.588 E2.69725
G1 X134.765 Y122.203 E2.7248
G1 X134.029 Y122.756 E2.75236
G1 X133.248 Y123.244 E2.77993
G1 X132.019 Y123.838 E2.82079
G1 X131.546 Y124.03 E2.83607
G1 X96.175 Y137.41 E3.96809
G1 X95.36 Y137.703 E3.99401
G1 X94.481 Y137.975 E4.02156
G1 X93.581 Y138.17 E4.04912
G1 X92.668 Y138.286 E4.07667
G1 X91.748 Y138.323 E4.10423
G1 X90.828 Y138.279 E4.1318
G1 X89.916 Y138.156 E4.15935
G1 X89.017 Y137.955 E4.18693
G1 X88.14 Y137.676 E4.21448
G1 X87.29 Y137.321 E4.24205
G1 X86.474 Y136.895 E4.2696
G1 X85.698 Y136.399 E4.29717
G1 X84.969 Y135.838 E4.32471
G1 X84.29 Y135.216 E4.35227
G1 X83.668 Y134.537 E4.37984
G1 X83.108 Y133.807 E4.40738
G1 X82.612 Y133.03 E4.43497
G1 X82.187 Y132.214 E4.46251
G1 X81.833 Y131.364 E4.49007
G1 X81.555 Y130.487 E4.51761
G1 X81.353 Y129.588 E4.5452
G1 X81.231 Y128.676 E4.57274
G1 X81.19 Y127.919 E4.59543
G1 X81.173 Y127.001 E4.62292
G1 X81.171 Y120.422 E4.81985
G1 X81.182 Y119.572 E4.8453
G1 X81.208 Y118.964 E4.86352
G1 X81.419 Y116.406 E4.94035
G1 X81.559 Y113.916 E5.015
G1 X81.63 Y111.369 E5.09127
G1 X81.63 Y108.856 E5.1665
G1 X81.557 Y106.312 E5.24268
G1 X81.412 Y103.767 E5.31899
G1 X81.217 Y101.432 E5.38913
G1 X81.181 Y100.689 E5.41139
G1 X81.172 Y100.002 E5.43196
G1 X81.171 Y92.963 E5.64267
G1 X81.182 Y92.136 E5.66742
G1 X81.236 Y91.216 E5.69501
G1 X81.369 Y90.306 E5.72254
G1 X81.581 Y89.41 E5.7501
G1 X81.87 Y88.535 E5.77769
G1 X82.233 Y87.69 E5.80522
G1 X82.669 Y86.878 E5.8328
G1 X83.173 Y86.108 E5.86035
G1 X83.742 Y85.385 E5.88789
G1 X84.372 Y84.713 E5.91547
G0 F9000 X84.763 Y84.892
G1 F3000 X85.446 Y84.3 E5.94252
G1 X86.178 Y83.771 E5.96956
G1 X86.953 Y83.309 E5.99657
G1 X87.767 Y82.917 E6.02361
G1 X88.612 Y82.599 E6.05064
G1 X89.482 Y82.356 E6.07768
G1 X90.37 Y82.192 E6.10471
G1 X91.269 Y82.107 E6.13174
G1 X92.172 Y82.102 E6.15877
G1 X93.215 Y82.195 E6.19011
G1 X94.033 Y82.311 E6.21484
G1 X96.541 Y82.63 E6.29052
G1 X99.115 Y82.884 E6.36795
G1 X101.626 Y83.06 E6.4433
G1 X104.168 Y83.166 E6.51946
G1 X106.7 Y83.2 E6.59526
G1 X109.233 Y83.162 E6.67109
G1 X111.798 Y83.052 E6.74794
G1 X114.325 Y82.871 E6.82378
G1 X116.863 Y82.616 E6.90013
G1 X118.975 Y82.349 E6.96386
G1 X119.735 Y82.244 E6.98682
G1 X120.761 Y82.131 E7.01772
G1 X121.662 Y82.075 E7.04474
G1 X122.23 Y82.082 E7.06175
G1 X123.081 Y82.128 E7.08726
G1 X125.431 Y82.339 E7.15789
G1 X126.585 Y82.43 E7.19254
G1 X127.552 Y82.541 E7.22167
G1 X128.837 Y82.781 E7.2608
G1 X129.703 Y83.037 E7.28784
G1 X130.499 Y83.349 E7.31343
G1 X131.765 Y83.95 E7.35538
G1 X132.843 Y84.636 E7.39363
G1 X133.414 Y85.067 E7.41504
G1 X134.427 Y85.935 E7.45498
G1 X135.048 Y86.59 E7.48199
G1 X135.39 Y87.005 E7.49809
G1 X135.776 Y87.5 E7.51688
G1 X136.299 Y88.236 E7.54391
G1 X136.812 Y89.125 E7.57463
G1 X137.339 Y90.243 E7.61163
G1 X137.521 Y90.728 E7.62714
G1 X137.747 Y91.38 E7.64779
G1 X138.005 Y92.246 E7.67484
G1 X138.18 Y93.1 E7.70094
G1 X138.278 Y93.709 E7.7194
G1 X138.382 Y94.607 E7.74646
G1 X138.408 Y95.307 E7.76743
G1 X138.393 Y96.356 E7.79883
G1 X138.358 Y96.969 E7.81721
G1 X138.231 Y99.668 E7.8981
G1 X138.184 Y102.165 E7.97285
G1 X138.209 Y104.773 E8.05093
G1 X138.228 Y105.369 E8.06878
G1 X138.241 Y106.317 E8.09716
G1 X138.242 Y113.289 E8.30586
G1 X138.231 Y114.156 E8.33181
G1 X138.179 Y115.058 E8.35886
G1 X138.047 Y115.951 E8.38588
G1 X137.836 Y116.83 E8.41294
G1 X137.549 Y117.686 E8.43996
G1 X137.187 Y118.513 E8.46699
G1 X136.753 Y119.305 E8.49402
G1 X136.251 Y120.056 E8.52106
G1 X135.685 Y120.759 E8.54808
G1 X135.058 Y121.41 E8.57513
G1 X134.377 Y122.002 E8.60214
G1 X133.646 Y122.532 E8.62917
G1 X132.87 Y122.995 E8.65622
G1 X131.868 Y123.467 E8.68938
G1 X131.395 Y123.659 E8.70466
G1 X96.033 Y137.036 E9.8364
G1 X95.225 Y137.326 E9.86209
G1 X94.362 Y137.593 E9.88913
G1 X93.479 Y137.782 E9.91617
G1 X92.583 Y137.892 E9.94319
G1 X91.68 Y137.922 E9.97023
G1 X90.779 Y137.873 E9.99724
G1 X89.885 Y137.744 E10.02428
G1 X89.006 Y137.536 E10.05132
G1 X88.149 Y137.252 E10.07835
G1 X87.32 Y136.892 E10.1054
G1 X86.527 Y136.461 E10.13242
G1 X85.774 Y135.962 E10.15946
G1 X85.069 Y135.397 E10.1865
G1 X84.417 Y134.773 E10.21352
G1 X83.822 Y134.093 E10.24056
G1 X83.29 Y133.364 E10.26758
G1 X82.824 Y132.59 E10.29462
G1 X82.429 Y131.778 E10.32165
G1 X82.107 Y130.934 E10.34869
G1 X81.861 Y130.065 E10.37573
G1 X81.692 Y129.178 E10.40276
G1 X81.59 Y127.912 E10.44078
G1 X81.573 Y126.994 E10.46826
G1 X81.571 Y120.422 E10.66499
G1 X81.582 Y119.578 E10.69026
G1 X81.607 Y118.993 E10.70778
G1 X81.816 Y116.462 E10.7838
G1 X81.959 Y113.915 E10.86017
G1 X82.03 Y111.38 E10.93608
G1 X82.03 Y108.845 E11.01196
G1 X81.957 Y106.28 E11.08877
G1 X81.814 Y103.785 E11.16358
G1 X81.615 Y101.398 E11.23528
G1 X81.581 Y100.684 E11.25668
G1 X81.572 Y99.997 E11.27725
G1 X81.571 Y92.963 E11.4878
G1 X81.582 Y92.142 E11.51238
G1 X81.636 Y91.24 E11.53943
G1 X81.769 Y90.347 E11.56646
G1 X81.98 Y89.469 E11.59349
G1 X82.268 Y88.613 E11.62052
G1 X82.631 Y87.786 E11.64756
G1 X83.066 Y86.994 E11.67461
G1 X83.569 Y86.244 E11.70164
G1 X84.136 Y85.542 E11.72865
G1 X84.763 Y84.892 E11.75568
G1 F1800 E8.75568
;MESH:Object 1
G0 F9000 X106.457 Y112.225
G0 X104.622 Y112.225
G0 X104.792 Y115.92
;TYPE:WALL-INNER
G1 F1800 E11.75568
G1 F3000 X104.792 Y115.921 E11.75571
G1 X104.792 Y116.202 E11.76413
G1 X105.057 Y116.108 E11.76911
G1 X120.102 Y110.768 E12.24699
G1 X120.102 Y109.246 E12.29255
G1 X105.055 Y104.079 E12.76879
G1 X104.792 Y103.989 E12.77711
G1 X104.792 Y104.266 E12.78202
G1 X104.792 Y104.268 E12.78208
G1 X104.792 Y115.92 E13.13088
G0 F9000 X105.192 Y115.636
G1 F3000 X105.457 Y115.542 E13.13929
G1 X119.702 Y110.486 E13.59177
G1 X119.702 Y109.532 E13.62032
G1 X105.455 Y104.639 E14.07125
G1 X105.192 Y104.549 E14.07957
G1 X105.192 Y104.826 E14.08448
G1 X105.192 Y104.828 E14.08454
G1 X105.192 Y115.354 E14.39963
G1 X105.192 Y115.355 E14.39966
G1 X105.192 Y115.636 E14.40464
G0 F9000 X105.592 Y115.07
;TYPE:WALL-OUTER
G1 F3000 X119.302 Y110.204 E14.84011
G1 X119.302 Y109.818 E14.85167
G1 X105.592 Y105.109 E15.2856
G1 X105.592 Y115.07 E15.58377
G1 F1800 E12.58377
G0 F9000 X105.292 Y115.07
G0 X105.369 Y115.385
G0 X108.216 Y115.167
G0 X107.602 Y113.44
G0 X106.948 Y122.712
G0 X106.285 Y120.96
G0 X92.771 Y126.294
;TYPE:WALL-INNER
G1 F1800 E15.58377
G1 F3000 X92.771 Y126.007 E15.59236
G1 X92.771 Y126.006 E15.59239
G1 X92.771 Y120.423 E15.75952
G1 X100.848 Y117.578 E16.01585
G1 X100.848 Y102.589 E16.46454
G1 X92.771 Y99.846 E16.71988
G1 X92.771 Y94.012 E16.89451
G1 X92.771 Y94.011 E16.89454
G1 X92.771 Y93.725 E16.9031
G1 X93.039 Y93.825 E16.90816
G1 X127.042 Y106.54 E17.99484
G1 X127.042 Y113.335 E18.19824
G1 X93.04 Y126.193 E19.28641
G1 X92.771 Y126.294 E19.29147
G0 F9000 X92.371 Y126.585
G1 F3000 X92.371 Y120.14 E19.4844
G1 X100.448 Y117.295 E19.74074
G1 X100.448 Y102.876 E20.17236
G1 X92.371 Y100.133 E20.4277
G1 X92.371 Y93.435 E20.62819
G1 X92.371 Y93.434 E20.62822
G1 X92.371 Y93.148 E20.63679
G1 X92.639 Y93.248 E20.64184
G1 X127.442 Y106.262 E21.75409
G1 X127.442 Y113.611 E21.97407
G1 X92.64 Y126.772 E23.08784
G1 X92.371 Y126.873 E23.09645
G1 X92.371 Y126.586 E23.1015
G1 X92.371 Y126.585 E23.10153
G0 F9000 X91.971 Y127.452
;TYPE:WALL-OUTER
G1 F3000 X91.971 Y119.857 E23.32888
G1 X100.048 Y117.012 E23.58522
G1 X100.048 Y103.163 E23.99978
G1 X91.971 Y100.42 E24.25512
G1 X91.971 Y92.571 E24.49007
G1 X127.842 Y105.984 E25.63645
G1 X127.842 Y113.887 E25.87302
G1 X91.971 Y127.452 E27.021
G0 F9000 X92.227 Y127.081
G0 X92.881 Y125.73
G0 X93.161 Y125.73
;TYPE:SKIN
G1 F3000 X93.161 Y120.699 E27.1716
G1 X101.238 Y117.855 E27.42793
G1 X101.238 Y102.31 E27.89325
G1 X93.161 Y99.567 E28.14859
G1 X93.161 Y94.287 E28.30664
G1 X126.652 Y106.81 E29.37696
G1 X126.652 Y113.066 E29.56423
G1 X93.161 Y125.73 E30.63603
G1 F1800 E27.63603
G0 F9000 X92.881 Y125.73
G0 X106.349 Y120.936
G0 X107.012 Y122.688
G0 X107.602 Y113.44
G0 X108.216 Y115.167
G0 X104.626 Y116.377
G0 X104.402 Y116.754
G1 F1800 E30.63603
G1 F3000 X120.492 Y111.043 E31.14711
G1 X120.492 Y108.967 E31.20925
G1 X104.402 Y103.443 E31.71849
G1 X104.402 Y116.754 E32.11694
G1 F1800 E29.11694
G0 F9000 X104.626 Y116.377
G0 X108.216 Y115.167
G0 X107.602 Y113.44
G0 X106.948 Y122.712
G0 X106.285 Y120.96
G0 X93.837 Y125.774
G0 X93.683 Y125.361
G1 F1800 E32.11694
G1 F3000 X93.321 Y124.999 E32.13227
G0 F9000 X93.321 Y124.433
G1 F3000 X94.093 Y125.205 E32.16495
G0 F9000 X94.504 Y125.051
G1 F3000 X93.321 Y123.868 E32.21503
G0 F9000 X93.321 Y123.302
G1 F3000 X94.914 Y124.895 E32.28246
G0 F9000 X95.325 Y124.74
G1 F3000 X93.321 Y122.736 E32.3673
G0 F9000 X93.321 Y122.171
G1 F3000 X95.735 Y124.585 E32.46949
G0 F9000 X96.146 Y124.43
G1 F3000 X93.321 Y121.605 E32.58908
G0 F9000 X93.321 Y121.039
G1 F3000 X96.556 Y124.274 E32.72603
G0 F9000 X96.966 Y124.119
G1 F3000 X93.571 Y120.724 E32.86975
G0 F9000 X93.99 Y120.577
G1 F3000 X97.377 Y123.964 E33.01314
G0 F9000 X97.787 Y123.809
G1 F3000 X94.407 Y120.429 E33.15622
G0 F9000 X94.826 Y120.282
G1 F3000 X98.198 Y123.653 E33.29895
G0 F9000 X98.608 Y123.499
G1 F3000 X95.245 Y120.135 E33.44134
G0 F9000 X95.663 Y119.987
G1 F3000 X99.018 Y123.343 E33.58339
G0 F9000 X99.429 Y123.188
G1 F3000 X96.081 Y119.84 E33.72512
G0 F9000 X96.5 Y119.693
G1 F3000 X99.839 Y123.033 E33.86649
G0 F9000 X100.25 Y122.878
G1 F3000 X96.918 Y119.545 E34.00757
G0 F9000 X97.336 Y119.398
G1 F3000 X100.66 Y122.722 E34.14828
G0 F9000 X101.071 Y122.567
G1 F3000 X97.755 Y119.251 E34.28866
G0 F9000 X98.173 Y119.103
G1 F3000 X101.481 Y122.412 E34.42872
G0 F9000 X101.892 Y122.257
G1 F3000 X98.591 Y118.956 E34.56846
G0 F9000 X99.01 Y118.809
G1 F3000 X102.302 Y122.101 E34.70782
G0 F9000 X102.713 Y121.946
G1 F3000 X99.428 Y118.661 E34.84689
G0 F9000 X99.847 Y118.514
G1 F3000 X103.123 Y121.791 E34.98559
G0 F9000 X103.534 Y121.636
G1 F3000 X100.265 Y118.367 E35.12398
G0 F9000 X100.683 Y118.219
G1 F3000 X103.944 Y121.48 E35.26203
G0 F9000 X104.355 Y121.326
G1 F3000 X101.102 Y118.072 E35.39976
G0 F9000 X101.397 Y117.802
G1 F3000 X104.765 Y121.17 E35.54234
G0 F9000 X105.176 Y121.015
G1 F3000 X101.397 Y117.236 E35.70231
G0 F9000 X101.397 Y116.671
G1 F3000 X105.586 Y120.86 E35.87965
G0 F9000 X105.997 Y120.705
G1 F3000 X101.397 Y116.105 E36.07438
G0 F9000 X101.397 Y115.539
G1 F3000 X106.407 Y120.549 E36.28647
G0 F9000 X106.818 Y120.394
G1 F3000 X101.397 Y114.974 E36.51594
G0 F9000 X101.397 Y114.408
G1 F3000 X107.228 Y120.239 E36.76278
G0 F9000 X107.639 Y120.084
G1 F3000 X104.458 Y116.903 E36.89744
G0 F9000 X104.241 Y116.686
G1 F3000 X101.397 Y113.842 E37.01784
G0 F9000 X101.397 Y113.277
G1 F3000 X104.241 Y116.121 E37.13824
G0 F9000 X104.241 Y115.555
G1 F3000 X101.397 Y112.711 E37.25863
G0 F9000 X101.397 Y112.145
G1 F3000 X104.241 Y114.989 E37.37903
G0 F9000 X104.241 Y114.424
G1 F3000 X101.397 Y111.58 E37.49942
G0 F9000 X101.397 Y111.014
G1 F3000 X104.241 Y113.858 E37.61982
G0 F9000 X104.241 Y113.292
G1 F3000 X101.397 Y110.448 E37.74021
G0 F9000 X101.397 Y109.882
G1 F3000 X104.241 Y112.726 E37.86061
G0 F9000 X104.241 Y112.161
G1 F3000 X101.397 Y109.317 E37.98101
G0 F9000 X101.397 Y108.751
G1 F3000 X104.241 Y111.595 E38.1014
G0 F9000 X104.241 Y111.029
G1 F3000 X101.397 Y108.185 E38.2218
G0 F9000 X101.397 Y107.62
G1 F3000 X104.241 Y110.464 E38.34219
G0 F9000 X104.241 Y109.898
G1 F3000 X101.397 Y107.054 E38.46259
G0 F9000 X101.397 Y106.488
G1 F3000 X104.241 Y109.332 E38.58298
G0 F9000 X104.241 Y108.767
G1 F3000 X101.397 Y105.923 E38.70338
G0 F9000 X101.397 Y105.357
G1 F3000 X104.241 Y108.201 E38.82378
G0 F9000 X104.241 Y107.635
G1 F3000 X101.397 Y104.791 E38.94417
G0 F9000 X101.397 Y104.226
G1 F3000 X104.241 Y107.07 E39.06457
G0 F9000 X104.241 Y106.504
G1 F3000 X101.397 Y103.66 E39.18496
G0 F9000 X101.397 Y103.094
G1 F3000 X104.241 Y105.938 E39.30536
G0 F9000 X104.241 Y105.373
G1 F3000 X101.397 Y102.529 E39.42575
G0 F9000 X100.892 Y102.023
G1 F3000 X93.422 Y94.554 E39.74196
G0 F9000 X93.321 Y95.018
G1 F3000 X100.035 Y101.732 E40.02619
G0 F9000 X99.178 Y101.441
G1 F3000 X93.321 Y95.583 E40.27415
G0 F9000 X93.321 Y96.149
G1 F3000 X98.321 Y101.15 E40.48584
G0 F9000 X97.464 Y100.858
G1 F3000 X93.321 Y96.715 E40.66123
G0 F9000 X93.321 Y97.28
G1 F3000 X96.608 Y100.568 E40.8004
G0 F9000 X95.751 Y100.276
G1 F3000 X93.321 Y97.846 E40.90327
G0 F9000 X93.321 Y98.412
G1 F3000 X94.895 Y99.986 E40.9699
G0 F9000 X94.038 Y99.694
G1 F3000 X93.321 Y98.977 E41.00025
G0 F9000 X92.881 Y98.977
G0 X92.959 Y93.996
G0 X95.384 Y94.821
G0 X95.23 Y95.23
G1 F3000 X104.241 Y104.241 E41.38172
G0 F9000 X104.241 Y103.675
G1 F3000 X96.133 Y95.568 E41.72494
G0 F9000 X97.037 Y95.906
G1 F3000 X104.407 Y103.275 E42.03691
G0 F9000 X105.268 Y103.571
G1 F3000 X97.941 Y96.244 E42.34709
G0 F9000 X98.844 Y96.581
G1 F3000 X106.129 Y103.866 E42.65548
G0 F9000 X106.991 Y104.163
G1 F3000 X99.748 Y96.919 E42.96213
G0 F9000 X100.651 Y97.257
G1 F3000 X107.852 Y104.458 E43.26697
G0 F9000 X108.714 Y104.754
G1 F3000 X101.555 Y97.595 E43.57003
G0 F9000 X102.459 Y97.933
G1 F3000 X109.575 Y105.049 E43.87127
G0 F9000 X110.437 Y105.346
G1 F3000 X103.362 Y98.271 E44.17078
G0 F9000 X104.265 Y98.608
G1 F3000 X111.298 Y105.641 E44.46851
G0 F9000 X112.159 Y105.937
G1 F3000 X105.169 Y98.946 E44.76444
G0 F9000 X106.073 Y99.284
G1 F3000 X113.021 Y106.232 E45.05857
