;FLAVOR:Marlin
;TIME:426
;Filament used: 0.290848m
;Layer height: 0.16
;MINX:81.171
;MINY:81.68
;MINZ:0.24
;MAXX:138.808
;MAXY:138.323
;MAXZ:1.04
;Generated with Cura_SteamEngine 4.5.0
M140 S50
M105
M190 S50
M104 S215
M105
M109 S215
M82 ;absolute extrusion mode
M201 X500.00 Y500.00 Z100.00 E5000.00 ;Setup machine max acceleration
M203 X500.00 Y500.00 Z10.00 E50.00 ;Setup machine max feedrate
M204 P500.00 R1000.00 T500.00 ;Setup Print/Retract/Travel acceleration
M205 X8.00 Y8.00 Z0.40 E5.00 ;Setup Jerk
M220 S100 ;Reset Feedrate
M221 S100 ;Reset Flowrate

G28 ;Home

G92 E0 ;Reset Extruder
G1 Z2.0 F3000 ;Move Z Axis up
G1 X10.1 Y20 Z0.28 F5000.0 ;Move to start position
G1 X10.1 Y200.0 Z0.28 F1500.0 E15 ;Draw the first line
G1 X10.4 Y200.0 Z0.28 F5000.0 ;Move to side a little
G1 X10.4 Y20 Z0.28 F1500.0 E30 ;Draw the second line
G92 E0 ;Reset Extruder
G1 Z2.0 F3000 ;Move Z Axis up

G92 E0
G92 E0
G1 F1800 E-3
;LAYER_COUNT:6
;LAYER:0
M106 S63.8
M204 S500
M205 X6 Y6
G0 F9000 X84.372 Y84.713 Z0.24
;TYPE:SKIRT
G1 F1800 E0
G1 X85.058 Y84.099 E0.03675
G1 X85.794 Y83.546 E0.07349
G1 X86.576 Y83.06 E0.11024
G1 X87.397 Y82.643 E0.14699
G1 X88.251 Y82.299 E0.18373
G1 X89.132 Y82.03 E0.2205
G1 X90.032 Y81.839 E0.25722
G1 X90.946 Y81.727 E0.29397
G1 X91.866 Y81.694 E0.33072
G1 X92.785 Y81.742 E0.36745
G1 X94.031 Y81.907 E0.41761
G1 X96.585 Y82.232 E0.52037
G1 X99.133 Y82.484 E0.62256
G1 X101.622 Y82.658 E0.72214
G1 X104.175 Y82.764 E0.82413
G1 X106.686 Y82.798 E0.92436
G1 X109.232 Y82.76 E1.02598
G1 X111.74 Y82.652 E1.12618
G1 X114.28 Y82.47 E1.22781
G1 X116.799 Y82.218 E1.32885
G1 X118.69 Y81.981 E1.40492
G1 X119.77 Y81.835 E1.44842
G1 X120.691 Y81.734 E1.48539
G1 X121.995 Y81.68 E1.53748
G1 X123.032 Y81.724 E1.57891
G1 X126.722 Y82.04 E1.72673
G1 X127.343 Y82.111 E1.75167
G1 X127.914 Y82.194 E1.7747
G1 X128.818 Y82.366 E1.81143
G1 X129.704 Y82.616 E1.84817
G1 X130.684 Y82.993 E1.89008
G1 X131.958 Y83.601 E1.94642
G1 X133.015 Y84.269 E1.99633
G1 X133.708 Y84.787 E2.03086
G1 X134.701 Y85.642 E2.08316
G1 X135.335 Y86.309 E2.11989
G1 X135.718 Y86.773 E2.1439
G1 X136.104 Y87.27 E2.16902
G1 X136.636 Y88.021 E2.20575
G1 X137.168 Y88.943 E2.24824
G1 X137.703 Y90.077 E2.29828
G1 X137.899 Y90.597 E2.32046
G1 X138.125 Y91.249 E2.348
G1 X138.389 Y92.132 E2.38479
G1 X138.575 Y93.037 E2.42166
G1 X138.673 Y93.646 E2.44628
G1 X138.78 Y94.56 E2.48301
G1 X138.808 Y95.306 E2.51281
G1 X138.792 Y96.379 E2.55564
G1 X138.752 Y97.087 E2.58394
G1 X138.631 Y99.657 E2.68663
G1 X138.584 Y102.169 E2.7869
G1 X138.609 Y104.756 E2.89016
G1 X138.628 Y105.356 E2.91412
G1 X138.641 Y106.312 E2.95228
G1 X138.642 Y113.289 E3.23075
G1 X138.631 Y114.162 E3.26559
G1 X138.578 Y115.081 E3.30233
G1 X138.446 Y115.992 E3.33907
G1 X138.235 Y116.888 E3.37581
G1 X137.948 Y117.763 E3.41257
G1 X137.585 Y118.609 E3.44931
G1 X137.151 Y119.421 E3.48606
G1 X136.647 Y120.192 E3.52282
G1 X136.079 Y120.916 E3.55955
G1 X135.45 Y121.588 E3.59629
G1 X134.765 Y122.203 E3.63303
G1 X134.029 Y122.756 E3.66977
G1 X133.248 Y123.244 E3.70653
G1 X132.019 Y123.838 E3.76101
G1 X131.546 Y124.03 E3.78138
G1 X96.175 Y137.41 E5.29074
G1 X95.36 Y137.703 E5.32531
G1 X94.481 Y137.975 E5.36203
G1 X93.581 Y138.17 E5.39879
G1 X92.668 Y138.286 E5.43552
G1 X91.748 Y138.323 E5.47227
G1 X90.828 Y138.279 E5.50903
G1 X89.916 Y138.156 E5.54576
G1 X89.017 Y137.955 E5.58253
G1 X88.14 Y137.676 E5.61926
G1 X87.29 Y137.321 E5.65603
G1 X86.474 Y136.895 E5.69276
G1 X85.698 Y136.399 E5.72952
G1 X84.969 Y135.838 E5.76624
G1 X84.29 Y135.216 E5.80299
G1 X83.668 Y134.537 E5.83974
G1 X83.108 Y133.807 E5.87646
G1 X82.612 Y133.03 E5.91325
G1 X82.187 Y132.214 E5.94998
G1 X81.833 Y131.364 E5.98673
G1 X81.555 Y130.487 E6.02344
G1 X81.353 Y129.588 E6.06022
G1 X81.231 Y128.676 E6.09694
G1 X81.19 Y127.919 E6.1272
G1 X81.173 Y127.001 E6.16385
G1 X81.171 Y120.422 E6.42643
G1 X81.182 Y119.572 E6.46036
G1 X81.208 Y118.964 E6.48465
G1 X81.419 Y116.406 E6.58709
G1 X81.559 Y113.916 E6.68663
G1 X81.63 Y111.369 E6.78832
G1 X81.63 Y108.856 E6.88862
G1 X81.557 Y106.312 E6.9902
G1 X81.412 Y103.767 E7.09194
G1 X81.217 Y101.432 E7.18546
G1 X81.181 Y100.689 E7.21515
G1 X81.172 Y100.002 E7.24257
G1 X81.171 Y92.963 E7.52351
G1 X81.182 Y92.136 E7.55652
G1 X81.236 Y91.216 E7.59331
G1 X81.369 Y90.306 E7.63001
G1 X81.581 Y89.41 E7.66676
G1 X81.87 Y88.535 E7.70354
G1 X82.233 Y87.69 E7.74025
G1 X82.669 Y86.878 E7.77703
G1 X83.173 Y86.108 E7.81376
G1 X83.742 Y85.385 E7.85048
G1 X84.372 Y84.713 E7.88725
G0 F9000 X84.763 Y84.892
G1 F1800 X85.446 Y84.3 E7.92332
G1 X86.178 Y83.771 E7.95937
G1 X86.953 Y83.309 E7.99538
G1 X87.767 Y82.917 E8.03144
G1 X88.612 Y82.599 E8.06747
G1 X89.482 Y82.356 E8.10353
G1 X90.37 Y82.192 E8.13957
G1 X91.269 Y82.107 E8.17561
G1 X92.172 Y82.102 E8.21165
G1 X93.213 Y82.195 E8.25336
G1 X93.992 Y82.305 E8.28476
G1 X96.532 Y82.629 E8.38696
G1 X99.102 Y82.882 E8.49003
G1 X101.612 Y83.058 E8.59046
G1 X104.154 Y83.164 E8.692
G1 X106.687 Y83.198 E8.79311
G1 X109.22 Y83.16 E8.89422
G1 X111.785 Y83.05 E8.99669
G1 X114.315 Y82.868 E9.09793
G1 X116.844 Y82.615 E9.19937
G1 X118.694 Y82.384 E9.27378
G1 X119.823 Y82.231 E9.31925
G1 X120.732 Y82.132 E9.35575
G1 X121.987 Y82.08 E9.40588
G1 X122.998 Y82.122 E9.44626
G1 X126.688 Y82.438 E9.59408
G1 X127.285 Y82.507 E9.61807
G1 X127.856 Y82.59 E9.6411
G1 X128.743 Y82.759 E9.67713
G1 X129.612 Y83.007 E9.7132
G1 X130.522 Y83.359 E9.75215
G1 X131.78 Y83.96 E9.80779
G1 X132.782 Y84.594 E9.85512
G1 X133.456 Y85.098 E9.88871
G1 X134.436 Y85.942 E9.94033
G1 X135.057 Y86.598 E9.97638
G1 X135.402 Y87.018 E9.99807
G1 X135.788 Y87.515 E10.02319
G1 X136.31 Y88.252 E10.05923
G1 X136.812 Y89.125 E10.09943
G1 X137.339 Y90.243 E10.14876
G1 X137.521 Y90.728 E10.16943
G1 X137.747 Y91.38 E10.19698
G1 X138.005 Y92.246 E10.23304
G1 X138.18 Y93.1 E10.26783
G1 X138.278 Y93.709 E10.29245
G1 X138.382 Y94.607 E10.32853
G1 X138.408 Y95.307 E10.35649
G1 X138.393 Y96.356 E10.39836
G1 X138.358 Y96.969 E10.42287
G1 X138.231 Y99.668 E10.53071
G1 X138.184 Y102.165 E10.63039
G1 X138.209 Y104.773 E10.73449
G1 X138.228 Y105.369 E10.75829
G1 X138.241 Y106.317 E10.79613
G1 X138.242 Y113.289 E11.07439
G1 X138.231 Y114.156 E11.109
G1 X138.179 Y115.058 E11.14506
G1 X138.047 Y115.951 E11.18109
G1 X137.836 Y116.83 E11.21717
G1 X137.549 Y117.686 E11.2532
G1 X137.187 Y118.513 E11.28923
G1 X136.753 Y119.305 E11.32528
G1 X136.251 Y120.056 E11.36133
G1 X135.685 Y120.759 E11.39736
G1 X135.058 Y121.41 E11.43343
G1 X134.377 Y122.002 E11.46944
G1 X133.646 Y122.532 E11.50548
G1 X132.87 Y122.995 E11.54155
G1 X131.868 Y123.467 E11.58575
G1 X131.395 Y123.659 E11.60613
G1 X96.033 Y137.036 E13.11511
G1 X95.225 Y137.326 E13.14938
G1 X94.362 Y137.593 E13.18543
G1 X93.479 Y137.782 E13.22147
G1 X92.583 Y137.892 E13.2575
G1 X91.68 Y137.922 E13.29356
G1 X90.779 Y137.873 E13.32958
G1 X89.885 Y137.744 E13.36563
G1 X89.006 Y137.536 E13.40168
G1 X88.149 Y137.252 E13.43771
G1 X87.32 Y136.892 E13.47378
G1 X86.527 Y136.461 E13.50981
G1 X85.774 Y135.962 E13.54586
G1 X85.069 Y135.397 E13.58192
G1 X84.417 Y134.773 E13.61794
G1 X83.822 Y134.093 E13.654
G1 X83.29 Y133.364 E13.69002
G1 X82.824 Y132.59 E13.72608
G1 X82.429 Y131.778 E13.76212
G1 X82.107 Y130.934 E13.79818
G1 X81.861 Y130.065 E13.83422
G1 X81.692 Y129.178 E13.87026
G1 X81.59 Y127.912 E13.92095
G1 X81.573 Y126.994 E13.9576
G1 X81.571 Y120.422 E14.2199
G1 X81.582 Y119.578 E14.25359
G1 X81.607 Y118.993 E14.27696
G1 X81.816 Y116.462 E14.37832
G1 X81.959 Y113.915 E14.48014
G1 X82.03 Y111.38 E14.58136
G1 X82.03 Y108.845 E14.68253
G1 X81.957 Y106.28 E14.78495
G1 X81.814 Y103.785 E14.88469
G1 X81.615 Y101.398 E14.9803
G1 X81.581 Y100.684 E15.00882
G1 X81.572 Y99.997 E15.03625
G1 X81.571 Y92.963 E15.31699
G1 X81.582 Y92.142 E15.34976
G1 X81.636 Y91.24 E15.38582
G1 X81.769 Y90.347 E15.42186
G1 X81.98 Y89.469 E15.4579
G1 X82.268 Y88.613 E15.49395
G1 X82.631 Y87.786 E15.52999
G1 X83.066 Y86.994 E15.56606
G1 X83.569 Y86.244 E15.6021
G1 X84.136 Y85.542 E15.63812
G1 X84.763 Y84.892 E15.67416
G1 F1800 E12.67416
;MESH:AAA_Label.stl
G0 F9000 X106.457 Y112.225
G0 X104.622 Y112.225
G0 X104.792 Y115.92
;TYPE:WALL-INNER
G1 F1800 E15.67416
G1 X104.792 Y115.921 E15.6742
G1 X104.792 Y116.202 E15.68542
G1 X105.057 Y116.108 E15.69206
G1 X120.102 Y110.768 E16.32924
G1 X120.102 Y109.246 E16.38998
G1 X105.055 Y104.079 E17.02496
G1 X104.792 Y103.989 E17.03606
G1 X104.792 Y104.266 E17.04261
G1 X104.792 Y104.268 E17.04269
G1 X104.792 Y115.92 E17.50775
G0 F9000 X105.192 Y115.636
G1 F1800 X105.457 Y115.542 E17.51897
G1 X119.702 Y110.486 E18.12227
G1 X119.702 Y109.532 E18.16035
G1 X105.455 Y104.639 E18.76158
G1 X105.192 Y104.549 E18.77267
G1 X105.192 Y104.826 E18.77923
G1 X105.192 Y104.828 E18.77931
G1 X105.192 Y115.354 E19.19942
G1 X105.192 Y115.355 E19.19946
G1 X105.192 Y115.636 E19.2061
G0 F9000 X105.592 Y115.07
;TYPE:WALL-OUTER
G1 F1800 X119.302 Y110.204 E19.78674
G1 X119.302 Y109.818 E19.80214
G1 X105.592 Y105.109 E20.38072
G1 X105.592 Y115.07 E20.77828
G1 F1800 E17.77828
G0 F9000 X105.292 Y115.07
G0 X105.369 Y115.385
G0 X108.216 Y115.167
G0 X107.602 Y113.44
G0 X106.948 Y122.712
G0 X106.285 Y120.96
G0 X92.771 Y126.294
;TYPE:WALL-INNER
G1 F1800 E20.77828
G1 X92.771 Y126.007 E20.78974
G1 X92.771 Y126.006 E20.78978
G1 X92.771 Y120.423 E21.01261
G1 X100.848 Y117.578 E21.35439
G1 X100.848 Y102.589 E21.95263
G1 X92.771 Y99.846 E22.29309
G1 X92.771 Y94.012 E22.52593
G1 X92.771 Y94.011 E22.52597
G1 X92.771 Y93.725 E22.53739
G1 X93.039 Y93.825 E22.54413
G1 X127.042 Y106.54 E23.99304
G1 X127.042 Y113.335 E24.26424
G1 X93.04 Y126.193 E25.71513
G1 X92.771 Y126.294 E25.72188
G0 F9000 X92.371 Y126.585
G1 F1800 X92.371 Y120.14 E25.97911
G1 X100.448 Y117.295 E26.3209
G1 X100.448 Y102.876 E26.89639
G1 X92.371 Y100.133 E27.23684
G1 X92.371 Y93.435 E27.50418
G1 X92.371 Y93.434 E27.50422
G1 X92.371 Y93.148 E27.51563
G1 X92.639 Y93.248 E27.52237
G1 X127.442 Y106.262 E29.00537
G1 X127.442 Y113.611 E29.29868
G1 X92.64 Y126.772 E30.78371
G1 X92.371 Y126.873 E30.79518
G1 X92.371 Y126.586 E30.80192
G1 X92.371 Y126.585 E30.80196
G0 F9000 X91.971 Y127.452
;TYPE:WALL-OUTER
G1 F1800 X91.971 Y119.857 E31.1051
G1 X100.048 Y117.012 E31.44688
G1 X100.048 Y103.163 E31.99962
G1 X91.971 Y100.42 E32.34008
G1 X91.971 Y92.571 E32.65335
G1 X127.842 Y105.984 E34.18185
G1 X127.842 Y113.887 E34.49728
G1 X91.971 Y127.452 E36.02792
G0 F9000 X92.227 Y127.081
G0 X92.881 Y125.73
G0 X93.161 Y125.73
;TYPE:SKIN
G1 F1800 X93.161 Y120.699 E36.22872
G1 X101.238 Y117.855 E36.57049
G1 X101.238 Y102.31 E37.19092
G1 X93.161 Y99.567 E37.53137
G1 X93.161 Y94.287 E37.74211
G1 X126.652 Y106.81 E39.1692
G1 X126.652 Y113.066 E39.41889
G1 X93.161 Y125.73 E40.84796
G1 F1800 E37.84796
G0 F9000 X92.881 Y125.73
G0 X106.349 Y120.936
G0 X107.012 Y122.688
G0 X107.602 Y113.44
G0 X108.216 Y115.167
G0 X104.626 Y116.377
G0 X104.402 Y116.754
G1 F1800 E40.84796
G1 X120.492 Y111.043 E41.5294
G1 X120.492 Y108.967 E41.61226
G1 X104.402 Y103.443 E42.29124
G1 X104.402 Y116.754 E42.82251
G1 F1800 E39.82251
G0 F9000 X104.626 Y116.377
G0 X108.216 Y115.167
G0 X107.602 Y113.44
G0 X106.948 Y122.712
G0 X106.285 Y120.96
G0 X93.837 Y125.774
G0 X93.683 Y125.361
G1 F1800 E42.82251
G1 X93.321 Y124.999 E42.84294
G0 F9000 X93.321 Y124.433
G1 F1800 X94.093 Y125.205 E42.88651
G0 F9000 X94.504 Y125.051
G1 F1800 X93.321 Y123.868 E42.95329
G0 F9000 X93.321 Y123.302
G1 F1800 X94.914 Y124.895 E43.0432
G0 F9000 X95.325 Y124.74
G1 F1800 X93.321 Y122.736 E43.15632
G0 F9000 X93.321 Y122.171
G1 F1800 X95.735 Y124.585 E43.29257
G0 F9000 X96.146 Y124.43
G1 F1800 X93.321 Y121.605 E43.45203
G0 F9000 X93.321 Y121.039
G1 F1800 X96.556 Y124.274 E43.63463
G0 F9000 X96.966 Y124.119
G1 F1800 X93.571 Y120.724 E43.82626
G0 F9000 X93.99 Y120.577
G1 F1800 X97.377 Y123.964 E44.01743
G0 F9000 X97.787 Y123.809
G1 F1800 X94.407 Y120.429 E44.20821
G0 F9000 X94.826 Y120.282
G1 F1800 X98.198 Y123.653 E44.39852
G0 F9000 X98.608 Y123.499
G1 F1800 X95.245 Y120.135 E44.58837
G0 F9000 X95.663 Y119.987
G1 F1800 X99.018 Y123.343 E44.77777
G0 F9000 X99.429 Y123.188
G1 F1800 X96.081 Y119.84 E44.96674
G0 F9000 X96.5 Y119.693
G1 F1800 X99.839 Y123.033 E45.15524
G0 F9000 X100.25 Y122.878
G1 F1800 X96.918 Y119.545 E45.34334
G0 F9000 X97.336 Y119.398
G1 F1800 X100.66 Y122.722 E45.53096
G0 F9000 X101.071 Y122.567
G1 F1800 X97.755 Y119.251 E45.71813
G0 F9000 X98.173 Y119.103
G1 F1800 X101.481 Y122.412 E45.90487
G0 F9000 X101.892 Y122.257
G1 F1800 X98.591 Y118.956 E46.0912
G0 F9000 X99.01 Y118.809
G1 F1800 X102.302 Y122.101 E46.27701
G0 F9000 X102.713 Y121.946
G1 F1800 X99.428 Y118.661 E46.46243
G0 F9000 X99.847 Y118.514
G1 F1800 X103.123 Y121.791 E46.64737
G0 F9000 X103.534 Y121.636
G1 F1800 X100.265 Y118.367 E46.83189
G0 F9000 X100.683 Y118.219
G1 F1800 X103.944 Y121.48 E47.01595
G0 F9000 X104.355 Y121.326
G1 F1800 X101.102 Y118.072 E47.19959
G0 F9000 X101.397 Y117.802
G1 F1800 X104.765 Y121.17 E47.3897
G0 F9000 X105.176 Y121.015
G1 F1800 X101.397 Y117.236 E47.603
G0 F9000 X101.397 Y116.671
G1 F1800 X105.586 Y120.86 E47.83945
G0 F9000 X105.997 Y120.705
G1 F1800 X101.397 Y116.105 E48.09909
G0 F9000 X101.397 Y115.539
G1 F1800 X106.407 Y120.549 E48.38188
G0 F9000 X106.818 Y120.394
G1 F1800 X101.397 Y114.974 E48.68783
G0 F9000 X101.397 Y114.408
G1 F1800 X107.228 Y120.239 E49.01696
G0 F9000 X107.639 Y120.084
G1 F1800 X104.458 Y116.903 E49.19651
G0 F9000 X104.241 Y116.686
G1 F1800 X101.397 Y113.842 E49.35704
G0 F9000 X101.397 Y113.277
G1 F1800 X104.241 Y116.121 E49.51756
G0 F9000 X104.241 Y115.555
G1 F1800 X101.397 Y112.711 E49.67809
G0 F9000 X101.397 Y112.145
G1 F1800 X104.241 Y114.989 E49.83862
G0 F9000 X104.241 Y114.424
G1 F1800 X101.397 Y111.58 E49.99915
G0 F9000 X101.397 Y111.014
G1 F1800 X104.241 Y113.858 E50.15968
G0 F9000 X104.241 Y113.292
G1 F1800 X101.397 Y110.448 E50.3202
G0 F9000 X101.397 Y109.882
G1 F1800 X104.241 Y112.726 E50.48073
G0 F9000 X104.241 Y112.161
G1 F1800 X101.397 Y109.317 E50.64126
G0 F9000 X101.397 Y108.751
G1 F1800 X104.241 Y111.595 E50.80179
G0 F9000 X104.241 Y111.029
G1 F1800 X101.397 Y108.185 E50.96231
G0 F9000 X101.397 Y107.62
G1 F1800 X104.241 Y110.464 E51.12284
G0 F9000 X104.241 Y109.898
G1 F1800 X101.397 Y107.054 E51.28337
G0 F9000 X101.397 Y106.488
G1 F1800 X104.241 Y109.332 E51.4439
G0 F9000 X104.241 Y108.767
G1 F1800 X101.397 Y105.923 E51.60442
G0 F9000 X101.397 Y105.357
G1 F1800 X104.241 Y108.201 E51.76495
G0 F9000 X104.241 Y107.635
G1 F1800 X101.397 Y104.791 E51.92548
G0 F9000 X101.397 Y104.226
G1 F1800 X104.241 Y107.07 E52.08601
G0 F9000 X104.241 Y106.504
G1 F1800 X101.397 Y103.66 E52.24653
G0 F9000 X101.397 Y103.094
G1 F1800 X104.241 Y105.938 E52.40706
G0 F9000 X104.241 Y105.373
G1 F1800 X101.397 Y102.529 E52.56759
G0 F9000 X100.892 Y102.023
G1 F1800 X93.422 Y94.554 E52.9892
G0 F9000 X93.321 Y95.018
G1 F1800 X100.035 Y101.732 E53.36817
G0 F9000 X99.178 Y101.441
G1 F1800 X93.321 Y95.583 E53.69879
G0 F9000 X93.321 Y96.149
G1 F1800 X98.321 Y101.15 E53.98104
G0 F9000 X97.464 Y100.858
G1 F1800 X93.321 Y96.715 E54.21489
G0 F9000 X93.321 Y97.28
G1 F1800 X96.608 Y100.568 E54.40045
G0 F9000 X95.751 Y100.276
G1 F1800 X93.321 Y97.846 E54.53761
G0 F9000 X93.321 Y98.412
G1 F1800 X94.895 Y99.986 E54.62645
G0 F9000 X94.038 Y99.694
G1 F1800 X93.321 Y98.977 E54.66692
G0 F9000 X92.881 Y98.977
G0 X92.959 Y93.996
G0 X95.384 Y94.821
G0 X95.23 Y95.23
G1 F1800 X104.241 Y104.241 E55.17554
G0 F9000 X104.241 Y103.675
G1 F1800 X96.133 Y95.568 E55.63317
G0 F9000 X97.037 Y95.906
G1 F1800 X104.407 Y103.275 E56.04913
G0 F9000 X105.268 Y103.571
G1 F1800 X97.941 Y96.244 E56.4627
G0 F9000 X98.844 Y96.581
G1 F1800 X106.129 Y103.866 E56.8739
G0 F9000 X106.991 Y104.163
G1 F1800 X99.748 Y96.919 E57.28275
G0 F9000 X100.651 Y97.257
G1 F1800 X107.852 Y104.458 E57.68921
G0 F9000 X108.714 Y104.754
G1 F1800 X101.555 Y97.595 E58.09329
G0 F9000 X102.459 Y97.933
G1 F1800 X109.575 Y105.049 E58.49495
G0 F9000 X110.437 Y105.346
G1 F1800 X103.362 Y98.271 E58.89429
G0 F9000 X104.265 Y98.608
G1 F1800 X111.298 Y105.641 E59.29127
G0 F9000 X112.159 Y105.937
G1 F1800 X105.169 Y98.946 E59.68584
G0 F9000 X106.073 Y99.284
G1 F1800 X113.021 Y106.232 E60.07801
G0 F9000 X113.882 Y106.528
