;FLAVOR:Marlin
;TIME:750
;Filament used: 0.909261m
;Layer height: 0.2
;MINX:69.417
;MINY:89.412
;MINZ:0.28
;MAXX:150.583
;MAXY:130.588
;MAXZ:4.84
;Generated with Cura_SteamEngine 4.5.0
M140 S50
M105
M190 S50
M104 S215
M105
M109 S215
M82 ;absolute extrusion mode
M201 X500.00 Y500.00 Z100.00 E5000.00 ;Setup machine max acceleration
M203 X500.00 Y500.00 Z10.00 E50.00 ;Setup machine max feedrate
M204 P500.00 R1000.00 T500.00 ;Setup Print/Retract/Travel acceleration
M205 X8.00 Y8.00 Z0.40 E5.00 ;Setup Jerk
M220 S100 ;Reset Feedrate
M221 S100 ;Reset Flowrate

G28 ;Home

G92 E0 ;Reset Extruder
G1 Z2.0 F3000 ;Move Z Axis up
G1 X10.1 Y20 Z0.28 F5000.0 ;Move to start position
G1 X10.1 Y200.0 Z0.28 F1500.0 E15 ;Draw the first line
G1 X10.4 Y200.0 Z0.28 F5000.0 ;Move to side a little
G1 X10.4 Y20 Z0.28 F1500.0 E30 ;Draw the second line
G92 E0 ;Reset Extruder
G1 Z2.0 F3000 ;Move Z Axis up

G92 E0
G92 E0
G1 F1800 E-3
;LAYER_COUNT:21
;LAYER:0
M107
G0 F9000 X74.817 Y98.678 Z0.28
;TYPE:SKIRT
G1 F1800 E0
G1 F3000 X75.5 Y98.172 E0.03958
G1 X76.322 Y97.612 E0.08589
G1 X79.356 Y95.624 E0.2548
G1 X80.064 Y95.175 E0.29383
G1 X80.863 Y94.717 E0.33672
G1 X81.698 Y94.331 E0.37955
G1 X82.216 Y94.134 E0.40536
G1 X82.937 Y93.881 E0.44094
G1 X88.311 Y92.089 E0.70472
G1 X89.05 Y91.853 E0.74084
G1 X90.263 Y91.544 E0.79913
G1 X91.416 Y91.322 E0.8538
G1 X98.252 Y90.158 E1.1767
G1 X99.077 Y90.029 E1.21558
G1 X99.99 Y89.927 E1.25836
G1 X100.819 Y89.871 E1.29705
G1 X108.717 Y89.453 E1.66533
G1 X109.597 Y89.418 E1.70634
G1 X110.141 Y89.412 E1.73167
G1 X110.968 Y89.436 E1.77019
G1 X119.16 Y89.869 E2.15218
G1 X119.952 Y89.921 E2.18914
G1 X120.851 Y90.02 E2.23125
G1 X121.645 Y90.142 E2.26866
G1 X128.717 Y91.342 E2.60267
G1 X129.462 Y91.478 E2.63793
G1 X130.699 Y91.783 E2.69725
G1 X131.742 Y92.108 E2.74812
G1 X136.981 Y93.852 E3.00524
G1 X137.74 Y94.115 E3.04264
G1 X138.595 Y94.455 E3.08548
G1 X139.418 Y94.868 E3.12836
G1 X139.916 Y95.165 E3.15536
G1 X140.59 Y95.591 E3.19249
G1 X143.745 Y97.653 E3.36799
G1 X144.452 Y98.13 E3.4077
G1 X145.191 Y98.679 E3.45057
G1 X145.88 Y99.29 E3.49345
G1 X146.513 Y99.959 E3.53634
G1 X147.086 Y100.679 E3.57919
G1 X147.594 Y101.447 E3.62206
G1 X147.987 Y102.162 E3.66005
G1 X148.435 Y103.057 E3.70666
G1 X149.225 Y104.715 E3.79218
G1 X149.616 Y105.564 E3.8357
G1 X149.963 Y106.416 E3.87854
G1 X150.235 Y107.296 E3.92143
G1 X150.43 Y108.195 E3.96426
G1 X150.546 Y109.109 E4.00716
G1 X150.583 Y110.029 E4.05004
G1 X150.539 Y110.948 E4.09288
G1 X150.416 Y111.861 E4.13578
G1 X150.214 Y112.759 E4.17864
G1 X149.935 Y113.636 E4.22149
G1 X149.647 Y114.344 E4.25708
G1 X149.226 Y115.278 E4.30478
G1 X148.394 Y117.035 E4.39531
G1 X148.039 Y117.756 E4.43273
G1 X147.596 Y118.563 E4.4756
G1 X147.085 Y119.329 E4.51847
G1 X146.51 Y120.048 E4.56134
G1 X145.874 Y120.714 E4.60422
G1 X145.183 Y121.322 E4.64708
G1 X144.504 Y121.825 E4.68643
G1 X143.699 Y122.374 E4.7318
G1 X140.664 Y124.362 E4.90074
G1 X139.966 Y124.807 E4.93928
G1 X139.168 Y125.266 E4.98215
G1 X138.333 Y125.654 E5.02503
G1 X137.821 Y125.85 E5.05055
G1 X137.078 Y126.113 E5.08725
G1 X131.689 Y127.911 E5.35179
G1 X130.95 Y128.147 E5.38791
G1 X129.737 Y128.456 E5.4462
G1 X128.584 Y128.678 E5.50087
G1 X121.748 Y129.842 E5.82376
G1 X120.918 Y129.972 E5.86288
G1 X120.004 Y130.074 E5.90571
G1 X119.204 Y130.128 E5.94304
G1 X111.3 Y130.546 E6.3116
G1 X110.402 Y130.581 E6.35345
G1 X109.854 Y130.588 E6.37897
G1 X109.32 Y130.576 E6.40384
G1 X100.857 Y130.132 E6.79845
G1 X100.05 Y130.079 E6.83611
G1 X99.141 Y129.979 E6.87869
G1 X98.344 Y129.856 E6.91625
G1 X91.284 Y128.658 E7.24969
G1 X90.538 Y128.522 E7.285
G1 X89.301 Y128.217 E7.34432
G1 X88.258 Y127.892 E7.39519
G1 X83.019 Y126.148 E7.6523
G1 X82.26 Y125.885 E7.68971
G1 X81.405 Y125.545 E7.73255
G1 X80.582 Y125.132 E7.77543
G1 X80.084 Y124.836 E7.8024
G1 X79.44 Y124.429 E7.83788
G1 X76.181 Y122.297 E8.01922
G1 X75.555 Y121.875 E8.05437
G1 X74.815 Y121.327 E8.09725
G1 X74.126 Y120.717 E8.1401
G1 X73.492 Y120.049 E8.18298
G1 X72.919 Y119.328 E8.22587
G1 X72.411 Y118.561 E8.26871
G1 X72.009 Y117.83 E8.30755
G1 X71.561 Y116.933 E8.35424
G1 X70.772 Y115.277 E8.43965
G1 X70.386 Y114.439 E8.48262
G1 X70.038 Y113.586 E8.52551
G1 X69.766 Y112.707 E8.56836
G1 X69.57 Y111.807 E8.61125
G1 X69.454 Y110.894 E8.6541
G1 X69.417 Y109.974 E8.69698
G1 X69.46 Y109.054 E8.73986
G1 X69.583 Y108.142 E8.78271
G1 X69.785 Y107.244 E8.82557
G1 X70.063 Y106.366 E8.86846
G1 X70.355 Y105.651 E8.90442
G1 X70.776 Y104.718 E8.95208
G1 X71.606 Y102.965 E9.0424
G1 X71.961 Y102.244 E9.07982
G1 X72.404 Y101.437 E9.12268
G1 X72.915 Y100.671 E9.16556
G1 X73.49 Y99.952 E9.20843
G1 X74.126 Y99.286 E9.25131
G1 X74.817 Y98.678 E9.29417
G0 F9000 X75.135 Y98.936
G1 F3000 X75.725 Y98.502 E9.32827
G1 X76.547 Y97.942 E9.37459
G1 X79.575 Y95.958 E9.54315
G1 X80.278 Y95.513 E9.5819
G1 X81.062 Y95.065 E9.62394
G1 X81.882 Y94.688 E9.66597
G1 X83.07 Y94.258 E9.7248
G1 X88.437 Y92.469 E9.98823
G1 X89.172 Y92.234 E10.02416
G1 X90.339 Y91.937 E10.08023
G1 X91.492 Y91.715 E10.1349
G1 X98.319 Y90.552 E10.45738
G1 X99.138 Y90.424 E10.49598
G1 X100.017 Y90.326 E10.53716
G1 X100.846 Y90.27 E10.57585
G1 X108.738 Y89.852 E10.94385
G1 X109.612 Y89.818 E10.98458
G1 X110.135 Y89.812 E11.00893
G1 X110.951 Y89.836 E11.04695
G1 X119.139 Y90.268 E11.42874
G1 X119.925 Y90.32 E11.46542
G1 X120.79 Y90.415 E11.50594
G1 X121.584 Y90.537 E11.54335
G1 X128.65 Y91.736 E11.87707
G1 X129.39 Y91.871 E11.9121
G1 X130.58 Y92.165 E11.96918
G1 X131.623 Y92.49 E12.02005
G1 X136.855 Y94.231 E12.27681
G1 X137.608 Y94.493 E12.31393
G1 X138.447 Y94.827 E12.35598
G1 X139.253 Y95.235 E12.39804
G1 X139.703 Y95.503 E12.42243
G1 X140.377 Y95.929 E12.45956
G1 X143.526 Y97.988 E12.63475
G1 X144.228 Y98.462 E12.6742
G1 X144.952 Y99.001 E12.71622
G1 X145.626 Y99.602 E12.75827
G1 X146.245 Y100.26 E12.80034
G1 X146.802 Y100.97 E12.84236
G1 X147.295 Y101.727 E12.88443
G1 X147.629 Y102.341 E12.91697
G1 X148.077 Y103.236 E12.96358
G1 X148.863 Y104.886 E13.04868
G1 X149.252 Y105.731 E13.092
G1 X149.592 Y106.567 E13.13402
G1 X149.857 Y107.431 E13.1761
G1 X150.045 Y108.314 E13.21814
G1 X150.153 Y109.211 E13.26021
G1 X150.182 Y110.113 E13.30223
G1 X150.131 Y111.015 E13.3443
G1 X150.001 Y111.908 E13.38632
G1 X149.791 Y112.787 E13.4284
G1 X149.505 Y113.644 E13.47047
G1 X149.282 Y114.18 E13.4975
G1 X148.861 Y115.114 E13.54521
G1 X148.032 Y116.863 E13.63533
G1 X147.68 Y117.579 E13.67248
G1 X147.245 Y118.371 E13.71456
G1 X146.742 Y119.121 E13.75661
G1 X146.175 Y119.823 E13.79863
G1 X145.547 Y120.473 E13.84071
G1 X144.865 Y121.064 E13.88273
G1 X144.279 Y121.495 E13.91661
G1 X143.474 Y122.044 E13.96198
G1 X140.445 Y124.027 E14.13056
G1 X139.751 Y124.469 E14.16887
G1 X138.968 Y124.919 E14.21092
G1 X138.149 Y125.298 E14.25294
G1 X136.945 Y125.736 E14.3126
G1 X131.563 Y127.531 E14.57678
G1 X130.828 Y127.766 E14.61271
G1 X129.661 Y128.063 E14.66879
G1 X128.508 Y128.285 E14.72346
G1 X121.681 Y129.448 E15.04593
G1 X120.857 Y129.577 E15.08477
G1 X119.977 Y129.675 E15.126
G1 X119.177 Y129.729 E15.16334
G1 X111.279 Y130.147 E15.53161
G1 X110.387 Y130.182 E15.57318
G1 X109.859 Y130.188 E15.59777
G1 X109.337 Y130.176 E15.62208
G1 X100.878 Y129.733 E16.01651
G1 X100.076 Y129.68 E16.05393
G1 X99.202 Y129.584 E16.09488
G1 X98.405 Y129.461 E16.13243
G1 X91.351 Y128.264 E16.46559
G1 X90.61 Y128.129 E16.50066
G1 X89.42 Y127.835 E16.55774
G1 X88.377 Y127.51 E16.60861
G1 X83.145 Y125.769 E16.86536
G1 X82.392 Y125.507 E16.90249
G1 X81.553 Y125.173 E16.94454
G1 X80.747 Y124.765 E16.9866
G1 X80.298 Y124.497 E17.01095
G1 X79.654 Y124.09 E17.04643
G1 X76.4 Y121.963 E17.22744
G1 X75.779 Y121.544 E17.26233
G1 X75.054 Y121.005 E17.30439
G1 X74.379 Y120.405 E17.34645
G1 X73.761 Y119.747 E17.38848
G1 X73.202 Y119.037 E17.43056
G1 X72.709 Y118.281 E17.47258
G1 X72.367 Y117.652 E17.50592
G1 X71.919 Y116.755 E17.55261
G1 X71.134 Y115.106 E17.63765
G1 X70.749 Y114.272 E17.68042
G1 X70.409 Y113.435 E17.72249
G1 X70.144 Y112.572 E17.76453
G1 X69.956 Y111.688 E17.80661
G1 X69.847 Y110.792 E17.84864
G1 X69.818 Y109.889 E17.89071
G1 X69.868 Y108.988 E17.93273
G1 X69.999 Y108.094 E17.9748
G1 X70.208 Y107.215 E18.01687
G1 X70.493 Y106.359 E18.05888
G1 X70.72 Y105.816 E18.08629
G1 X71.141 Y104.883 E18.13395
G1 X71.968 Y103.137 E18.22391
G1 X72.32 Y102.421 E18.26106
G1 X72.755 Y101.629 E18.30314
G1 X73.258 Y100.879 E18.34519
G1 X73.825 Y100.177 E18.3872
G1 X74.453 Y99.527 E18.42929
G1 X75.135 Y98.936 E18.47131
G1 F1800 E15.47131
;MESH:Logo_ElementumEnergy_base.stl
G0 F9000 X81.205 Y106.288
G0 X81.798 Y107.194
G0 X81.301 Y110
G0 X82.386 Y112.288
G0 X86.248 Y114.818
G0 X92.65 Y116.951
G0 X100.854 Y118.344
G0 X110 Y118.999
;TYPE:WALL-INNER
G1 F1800 E18.47131
G1 F3000 X100.838 Y118.515 E18.89853
G1 X92.61 Y117.118 E19.28714
G1 X86.171 Y114.972 E19.60318
G1 X82.251 Y112.406 E19.82134
G1 X81.108 Y110 E19.94537
G1 X82.251 Y107.594 E20.06941
G1 X86.171 Y105.028 E20.28757
G1 X92.61 Y102.882 E20.60361
G1 X100.838 Y101.485 E20.99222
G1 X110.002 Y101.001 E21.41953
G1 X110.469 Y101.025 E21.4413
G1 X119.162 Y101.485 E21.84665
G1 X127.39 Y102.882 E22.23527
G1 X133.829 Y105.028 E22.55131
G1 X137.749 Y107.594 E22.76947
G1 X138.892 Y110 E22.8935
G1 X137.749 Y112.406 E23.01753
G1 X133.829 Y114.972 E23.23569
G1 X127.39 Y117.118 E23.55173
G1 X119.162 Y118.515 E23.94035
G1 X110 Y118.999 E24.36756
G0 F9000 X110.022 Y119.397
G1 F3000 X110 Y119.399 E24.36859
G1 X100.793 Y118.913 E24.79791
G1 X92.512 Y117.507 E25.18902
G1 X85.994 Y115.334 E25.50895
G1 X81.938 Y112.68 E25.73465
G1 X80.665 Y110 E25.87281
G1 X81.938 Y107.32 E26.01096
G1 X85.994 Y104.666 E26.23667
G1 X86.044 Y104.65 E26.23911
G1 X92.512 Y102.493 E26.55659
G1 X100.793 Y101.087 E26.94771
G1 X109.98 Y100.603 E27.37609
G1 X110.001 Y100.601 E27.37707
G1 X110.489 Y100.626 E27.39982
G1 X119.207 Y101.087 E27.80634
G1 X127.488 Y102.493 E28.19746
G1 X134.006 Y104.666 E28.51738
G1 X138.062 Y107.32 E28.74309
G1 X139.335 Y110 E28.88124
G1 X138.062 Y112.68 E29.0194
G1 X134.006 Y115.334 E29.2451
G1 X133.956 Y115.35 E29.24754
G1 X127.488 Y117.507 E29.56503
G1 X119.207 Y118.913 E29.95614
G1 X110.022 Y119.397 E30.38443
G0 F9000 X110 Y119.799
;TYPE:WALL-OUTER
G1 F3000 X100.748 Y119.311 E30.81584
G1 X92.416 Y117.896 E31.20937
G1 X85.816 Y115.696 E31.53332
G1 X81.625 Y112.954 E31.76652
G1 X80.222 Y110 E31.9188
G1 X81.625 Y107.046 E32.07108
G1 X85.816 Y104.304 E32.30428
G1 X92.416 Y102.104 E32.62823
G1 X100.748 Y100.689 E33.02176
G1 X110 Y100.201 E33.45317
G1 X110.509 Y100.227 E33.4769
G1 X119.252 Y100.689 E33.88458
G1 X127.584 Y102.104 E34.27811
G1 X134.184 Y104.304 E34.60206
G1 X138.375 Y107.046 E34.83526
G1 X139.778 Y110 E34.98754
G1 X138.375 Y112.954 E35.13982
G1 X134.184 Y115.696 E35.37302
G1 X127.584 Y117.896 E35.69697
G1 X119.252 Y119.311 E36.0905
G1 X110 Y119.799 E36.52191
G0 F9000 X110 Y119.359
G0 X110 Y118.607
;TYPE:SKIN
G1 F3000 X100.871 Y118.125 E36.94759
G1 X92.707 Y116.739 E37.33317
G1 X86.342 Y114.618 E37.64558
G1 X82.558 Y112.141 E37.85617
G1 X81.541 Y110 E37.96654
G1 X82.558 Y107.859 E38.07691
G1 X86.342 Y105.382 E38.2875
G1 X92.707 Y103.261 E38.59991
G1 X100.871 Y101.875 E38.9855
G1 X110.003 Y101.393 E39.41131
G1 X110.449 Y101.415 E39.4321
G1 X119.128 Y101.875 E39.8368
G1 X127.293 Y103.261 E40.22244
G1 X133.658 Y105.382 E40.53484
G1 X137.442 Y107.859 E40.74543
G1 X138.459 Y110 E40.8558
G1 X137.442 Y112.141 E40.96617
G1 X133.658 Y114.618 E41.17677
G1 X127.293 Y116.739 E41.48917
G1 X119.129 Y118.125 E41.87476
G1 X110 Y118.607 E42.30043
G1 F1800 E39.30043
G0 F9000 X109.985 Y118.886
G0 X100.854 Y118.344
G0 X92.65 Y116.951
G0 X86.248 Y114.818
G0 X82.386 Y112.288
G0 X81.835 Y111.271
G0 X82.233 Y111.083
G1 F1800 E42.30043
G1 F3000 X84.125 Y112.975 E42.42503
G0 F9000 X83.884 Y113.342
G0 X85.522 Y114.413
G0 X85.762 Y114.047
G1 F3000 X81.722 Y110.006 E42.6911
G0 F9000 X81.899 Y109.617
G1 F3000 X86.923 Y114.641 E43.02194
G0 F9000 X87.771 Y114.924
G1 F3000 X82.081 Y109.234 E43.39663
G0 F9000 X82.264 Y108.851
G1 F3000 X88.62 Y115.207 E43.81519
G0 F9000 X89.468 Y115.49
G1 F3000 X82.445 Y108.467 E44.27766
G0 F9000 X82.628 Y108.084
G1 F3000 X90.317 Y115.773 E44.784
G0 F9000 X91.165 Y116.056
G1 F3000 X82.922 Y107.812 E45.32685
G0 F9000 X83.263 Y107.588
G1 F3000 X92.014 Y116.338 E45.90308
G0 F9000 X92.84 Y116.599
G1 F3000 X83.605 Y107.364 E46.51122
G0 F9000 X83.947 Y107.14
G1 F3000 X93.521 Y116.714 E47.14169
G0 F9000 X94.202 Y116.83
G1 F3000 X84.289 Y106.916 E47.79451
G0 F9000 X84.631 Y106.693
G1 F3000 X94.883 Y116.945 E48.46962
G0 F9000 X95.565 Y117.061
G1 F3000 X84.973 Y106.469 E49.16712
G0 F9000 X85.315 Y106.245
G1 F3000 X96.246 Y117.176 E49.88695
G0 F9000 X96.928 Y117.292
G1 F3000 X85.656 Y106.021 E50.62919
G0 F9000 X85.999 Y105.798
G1 F3000 X97.609 Y117.408 E51.39373
G0 F9000 X98.29 Y117.523
G1 F3000 X86.34 Y105.573 E52.18066
G0 F9000 X86.747 Y105.415
G1 F3000 X98.972 Y117.639 E52.98566
G0 F9000 X99.653 Y117.755
G1 F3000 X87.172 Y105.274 E53.80756
G0 F9000 X87.596 Y105.132
G1 F3000 X100.334 Y117.871 E54.64641
G0 F9000 X100.999 Y117.97
G1 F3000 X88.02 Y104.991 E55.5011
G0 F9000 X88.444 Y104.849
G1 F3000 X101.597 Y118.001 E56.36722
G0 F9000 X102.193 Y118.033
G1 F3000 X88.869 Y104.708 E57.24466
G0 F9000 X89.293 Y104.566
G1 F3000 X102.791 Y118.064 E58.13352
G0 F9000 X103.388 Y118.096
G1 F3000 X89.717 Y104.425 E59.03378
G0 F9000 X90.141 Y104.284
G1 F3000 X103.985 Y118.127 E59.9454
G0 F9000 X104.582 Y118.158
G1 F3000 X90.566 Y104.142 E60.86838
G0 F9000 X90.99 Y104.001
G1 F3000 X105.18 Y118.19 E61.80278
G0 F9000 X105.777 Y118.222
G1 F3000 X91.414 Y103.859 E62.74861
G0 F9000 X91.839 Y103.718
G1 F3000 X106.374 Y118.253 E63.70576
G0 F9000 X106.971 Y118.285
G1 F3000 X92.263 Y103.577 E64.67431
G0 F9000 X92.687 Y103.435
G1 F3000 X107.568 Y118.316 E65.65425
G0 F9000 X108.166 Y118.348
G1 F3000 X93.162 Y103.345 E66.64225
G0 F9000 X93.646 Y103.263
G1 F3000 X108.762 Y118.379 E67.63767
G0 F9000 X109.36 Y118.411
G1 F3000 X94.13 Y103.181 E68.64059
G0 F9000 X94.613 Y103.098
G1 F3000 X109.957 Y118.442 E69.65102
G0 F9000 X110.498 Y118.418
G1 F3000 X95.097 Y103.016 E70.66523
G0 F9000 X95.581 Y102.934
G1 F3000 X111.036 Y118.39 E71.68301
G0 F9000 X111.573 Y118.361
G1 F3000 X96.064 Y102.852 E72.7043
G0 F9000 X96.547 Y102.77
G1 F3000 X112.111 Y118.333 E73.72918
G0 F9000 X112.648 Y118.305
G1 F3000 X97.031 Y102.688 E74.75759
G0 F9000 X97.514 Y102.606
G1 F3000 X113.185 Y118.277 E75.78955
G0 F9000 X113.723 Y118.248
G1 F3000 X97.998 Y102.524 E76.82504
G0 F9000 X98.482 Y102.442
G1 F3000 X114.26 Y118.22 E77.86404
G0 F9000 X114.798 Y118.192
G1 F3000 X98.965 Y102.36 E78.90664
G0 F9000 X99.449 Y102.278
G1 F3000 X115.335 Y118.163 E79.95273
G0 F9000 X115.872 Y118.135
G1 F3000 X99.933 Y102.196 E81.00234
G0 F9000 X100.416 Y102.113
G1 F3000 X116.41 Y118.107 E82.05557
G0 F9000 X116.947 Y118.079
G1 F3000 X100.902 Y102.033 E83.11219
G0 F9000 X101.439 Y102.005
G1 F3000 X117.485 Y118.05 E84.16882
G0 F9000 X118.022 Y118.022
G1 F3000 X101.976 Y101.976 E85.22547
G0 F9000 X102.514 Y101.948
G1 F3000 X118.559 Y117.994 E86.2821
G0 F9000 X119.097 Y117.965
G1 F3000 X103.051 Y101.92 E87.33872
G0 F9000 X103.589 Y101.891
G1 F3000 X119.582 Y117.885 E88.39192
G0 F9000 X120.066 Y117.803
G1 F3000 X104.126 Y101.863 E89.4416
G0 F9000 X104.663 Y101.835
G1 F3000 X120.549 Y117.721 E90.48772
G0 F9000 X121.033 Y117.639
G1 F3000 X105.201 Y101.807 E91.53028
G0 F9000 X105.738 Y101.778
G1 F3000 X121.517 Y117.557 E92.56936
G0 F9000 X122 Y117.475
G1 F3000 X106.276 Y101.75 E93.60484
G0 F9000 X106.813 Y101.722
G1 F3000 X122.484 Y117.393 E94.6368
G0 F9000 X122.967 Y117.311
G1 F3000 X107.35 Y101.693 E95.66524
G0 F9000 X107.888 Y101.665
G1 F3000 X123.451 Y117.229 E96.69013
G0 F9000 X123.934 Y117.146
G1 F3000 X108.425 Y101.637 E97.71142
G0 F9000 X108.963 Y101.609
G1 F3000 X124.418 Y117.064 E98.72916
G0 F9000 X124.901 Y116.982
G1 F3000 X109.5 Y101.58 E99.74337
G0 F9000 X110.041 Y101.556
G1 F3000 X125.385 Y116.9 E100.7538
G0 F9000 X125.869 Y116.818
G1 F3000 X110.636 Y101.585 E101.75692
G0 F9000 X111.233 Y101.616
G1 F3000 X126.352 Y116.736 E102.75257
G0 F9000 X126.836 Y116.654
G1 F3000 X111.831 Y101.648 E103.7407
G0 F9000 X112.428 Y101.68
