;FLAVOR:Marlin
;TIME:2888
;Filament used: 3.54738m
;Layer height: 0.2
;MINX:72.95
;MINY:68.075
;MINZ:0.28
;MAXX:147.05
;MAXY:151.92
;MAXZ:10.12
;Generated with Cura_SteamEngine 4.5.0
M140 S50
M105
M190 S50
M104 S215
M105
M109 S215
M82 ;absolute extrusion mode
M201 X500.00 Y500.00 Z100.00 E5000.00 ;Setup machine max acceleration
M203 X500.00 Y500.00 Z10.00 E50.00 ;Setup machine max feedrate
M204 P500.00 R1000.00 T500.00 ;Setup Print/Retract/Travel acceleration
M205 X8.00 Y8.00 Z0.40 E5.00 ;Setup Jerk
M220 S100 ;Reset Feedrate
M221 S100 ;Reset Flowrate

G28 ;Home

G92 E0 ;Reset Extruder
G1 Z2.0 F3000 ;Move Z Axis up
G1 X10.1 Y20 Z0.28 F5000.0 ;Move to start position
G1 X10.1 Y200.0 Z0.28 F1500.0 E15 ;Draw the first line
G1 X10.4 Y200.0 Z0.28 F5000.0 ;Move to side a little
G1 X10.4 Y20 Z0.28 F1500.0 E30 ;Draw the second line
G92 E0 ;Reset Extruder
G1 Z2.0 F3000 ;Move Z Axis up

G92 E0
G92 E0
G1 F1800 E-3
;LAYER_COUNT:43
;LAYER:0
M107
G0 F9000 X79.949 Y75.023 Z0.28
;TYPE:SKIRT
G1 F1800 E0
G1 F3000 X84.438 Y71.542 E0.26451
G1 X84.898 Y71.238 E0.29018
G1 X90.105 Y69.053 E0.55313
G1 X90.628 Y68.88 E0.57878
G1 X96.251 Y68.108 E0.84306
G1 X96.801 Y68.075 E0.86872
G1 X97.35 Y68.123 E0.89438
G1 X97.886 Y68.249 E0.92002
G1 X98.399 Y68.451 E0.94569
G1 X98.877 Y68.725 E0.97135
G1 X99.31 Y69.066 E0.99701
G1 X99.689 Y69.465 E1.02264
G1 X100.007 Y69.916 E1.04833
G1 X100.256 Y70.407 E1.07397
G1 X100.431 Y70.929 E1.0996
G1 X100.53 Y71.472 E1.1253
G1 X100.543 Y81.382 E1.58676
G1 X100.503 Y81.932 E1.61243
G1 X100.383 Y82.47 E1.6381
G1 X100.187 Y82.985 E1.66376
G1 X99.919 Y83.466 E1.6894
G1 X99.584 Y83.903 E1.71504
G1 X99.189 Y84.287 E1.74069
G1 X98.742 Y84.61 E1.76637
G1 X98.254 Y84.866 E1.79203
G1 X97.734 Y85.048 E1.81768
G1 X97.238 Y85.147 E1.84123
G1 X95.023 Y85.438 E1.94526
G1 X93.428 Y86.099 E2.02566
G1 X92.045 Y87.158 E2.10677
G1 X91.345 Y88.069 E2.16026
G1 X99.667 Y88.073 E2.54777
G1 X99.911 Y86.22 E2.6348
G1 X100.023 Y85.681 E2.66043
G1 X102.167 Y80.427 E2.92467
G1 X102.414 Y79.934 E2.95034
G1 X105.844 Y75.421 E3.21429
G1 X106.21 Y75.009 E3.23995
G1 X110.69 Y71.54 E3.50379
G1 X111.15 Y71.237 E3.52944
G1 X116.369 Y69.047 E3.79298
G1 X116.892 Y68.873 E3.81865
G1 X122.488 Y68.11 E4.08163
G1 X123.038 Y68.078 E4.10729
G1 X123.587 Y68.126 E4.13295
G1 X124.123 Y68.253 E4.1586
G1 X124.636 Y68.456 E4.18429
G1 X125.113 Y68.731 E4.20993
G1 X125.546 Y69.072 E4.23559
G1 X125.925 Y69.472 E4.26125
G1 X126.242 Y69.922 E4.28688
G1 X126.491 Y70.414 E4.31256
G1 X126.666 Y70.937 E4.33824
G1 X126.763 Y71.479 E4.36387
G1 X126.801 Y81.371 E4.82449
G1 X126.762 Y81.921 E4.85017
G1 X126.644 Y82.459 E4.87581
G1 X126.449 Y82.975 E4.9015
G1 X126.182 Y83.456 E4.92711
G1 X125.848 Y83.895 E4.9528
G1 X125.454 Y84.28 E4.97845
G1 X125.009 Y84.604 E5.00408
G1 X124.521 Y84.861 E5.02976
G1 X124.002 Y85.044 E5.05539
G1 X123.496 Y85.146 E5.07943
G1 X121.273 Y85.438 E5.18383
G1 X119.678 Y86.099 E5.26422
G1 X118.295 Y87.158 E5.34533
G1 X117.594 Y88.07 E5.39889
G1 X122.753 Y88.075 E5.63912
G1 X123.303 Y88.115 E5.6648
G1 X123.841 Y88.235 E5.69046
G1 X124.356 Y88.431 E5.71612
G1 X124.837 Y88.699 E5.74176
G1 X125.274 Y89.035 E5.76743
G1 X125.658 Y89.429 E5.79305
G1 X125.982 Y89.876 E5.81875
G1 X126.237 Y90.364 E5.84439
G1 X126.419 Y90.884 E5.87005
G1 X126.523 Y91.425 E5.8957
G1 X126.55 Y91.875 E5.91669
G1 X126.55 Y101.875 E6.38233
G1 X126.51 Y102.425 E6.40801
G1 X126.391 Y102.963 E6.43367
G1 X126.195 Y103.478 E6.45933
G1 X125.927 Y103.959 E6.48496
G1 X125.593 Y104.397 E6.51061
G1 X125.198 Y104.781 E6.53627
G1 X124.752 Y105.105 E6.56193
G1 X124.264 Y105.36 E6.58757
G1 X123.744 Y105.543 E6.61324
G1 X123.203 Y105.648 E6.6389
G1 X122.75 Y105.675 E6.66003
G1 X115.833 Y105.675 E6.98212
G1 X115.588 Y107.531 E7.06929
G1 X115.477 Y108.07 E7.09492
G1 X113.333 Y113.323 E7.35911
G1 X113.086 Y113.816 E7.38478
G1 X109.656 Y118.329 E7.64873
G1 X109.29 Y118.741 E7.67439
G1 X106.55 Y120.876 E7.83614
G1 X106.55 Y122.625 E7.91758
G1 X106.51 Y123.175 E7.94326
G1 X106.391 Y123.713 E7.96891
G1 X106.195 Y124.228 E7.99457
G1 X105.929 Y124.706 E8.02005
G1 X113.05 Y124.33 E8.35209
G1 X119.797 Y124.665 E8.66665
G1 X119.515 Y124.139 E8.69444
G1 X119.332 Y123.619 E8.72011
G1 X119.227 Y123.078 E8.74577
G1 X119.2 Y122.625 E8.7669
G1 X119.199 Y112.4 E9.24302
G1 X119.239 Y111.851 E9.26865
G1 X119.345 Y111.356 E9.29222
G1 X119.543 Y110.811 E9.31922
G1 X119.805 Y110.326 E9.34489
G1 X120.134 Y109.884 E9.37055
G1 X120.524 Y109.495 E9.3962
G1 X120.966 Y109.166 E9.42185
G1 X121.451 Y108.905 E9.4475
G1 X121.969 Y108.716 E9.47317
G1 X122.511 Y108.605 E9.49894
G1 X124.723 Y108.313 E9.60283
G1 X126.322 Y107.651 E9.68341
G1 X127.705 Y106.592 E9.76452
G1 X128.773 Y105.202 E9.84615
G1 X129.435 Y103.606 E9.9266
G1 X129.729 Y101.383 E10.03102
G1 X129.841 Y100.844 E10.05665
G1 X130.029 Y100.326 E10.08231
G1 X130.291 Y99.841 E10.10798
G1 X130.62 Y99.399 E10.13364
G1 X131.009 Y99.009 E10.15928
G1 X131.451 Y98.679 E10.18497
G1 X131.935 Y98.417 E10.2106
G1 X132.453 Y98.228 E10.23627
G1 X132.992 Y98.116 E10.26191
G1 X133.492 Y98.082 E10.28524
G1 X142.997 Y98.073 E10.72784
G1 X143.547 Y98.112 E10.75351
G1 X144.085 Y98.231 E10.77917
G1 X144.6 Y98.426 E10.80481
G1 X145.082 Y98.694 E10.83049
G1 X145.52 Y99.028 E10.85614
G1 X145.905 Y99.422 E10.88179
G1 X146.229 Y99.868 E10.90746
G1 X146.485 Y100.356 E10.93312
G1 X146.668 Y100.876 E10.95879
G1 X146.773 Y101.416 E10.9844
G1 X146.8 Y101.967 E11.01009
G1 X146.085 Y107.548 E11.27209
G1 X145.974 Y108.088 E11.29776
G1 X143.839 Y113.31 E11.56046
G1 X143.592 Y113.802 E11.58609
G1 X140.169 Y118.313 E11.84977
G1 X139.803 Y118.726 E11.87546
G1 X136.8 Y121.066 E12.05274
G1 X136.8 Y122.625 E12.12533
G1 X136.76 Y123.175 E12.15101
G1 X136.641 Y123.713 E12.17666
G1 X136.445 Y124.228 E12.20232
G1 X136.177 Y124.709 E12.22796
G1 X135.843 Y125.147 E12.25361
G1 X135.448 Y125.531 E12.27926
G1 X135.002 Y125.855 E12.30493
G1 X134.514 Y126.11 E12.33057
G1 X133.994 Y126.293 E12.35624
G1 X133.453 Y126.398 E12.3819
G1 X132.063 Y126.425 E12.44664
G1 X138.349 Y128.517 E12.75512
G1 X139.239 Y128.858 E12.7995
G1 X143.862 Y131.855 E13.05605
G1 X144.3 Y132.189 E13.0817
G1 X144.685 Y132.583 E13.10735
G1 X145.009 Y133.029 E13.13302
G1 X146.682 Y136.494 E13.31218
G1 X146.882 Y137.008 E13.33786
G1 X147.005 Y137.545 E13.36352
G1 X147.05 Y138.094 E13.38917
G1 X147.014 Y138.644 E13.41483
G1 X146.9 Y139.183 E13.44049
G1 X146.683 Y139.755 E13.46897
G1 X145.298 Y142.671 E13.61929
G1 X144.939 Y143.33 E13.65423
G1 X144.6 Y143.764 E13.67988
G1 X144.202 Y144.145 E13.70553
G1 X139.6 Y147.183 E13.9623
G1 X139.118 Y147.45 E13.98796
G1 X132.088 Y149.819 E14.33339
G1 X131.523 Y149.96 E14.36051
G1 X123.157 Y151.382 E14.75565
G1 X122.202 Y151.458 E14.80026
G1 X113.45 Y151.92 E15.20836
G1 X103.78 Y151.431 E15.65921
G1 X94.977 Y149.96 E16.0748
G1 X94.412 Y149.819 E16.10191
G1 X87.778 Y147.608 E16.42753
G1 X87.27 Y147.396 E16.45316
G1 X82.638 Y144.395 E16.71015
G1 X82.2 Y144.061 E16.7358
G1 X81.815 Y143.667 E16.76145
G1 X81.491 Y143.221 E16.78712
G1 X79.9 Y139.929 E16.95737
G1 X79.62 Y139.248 E16.99166
G1 X79.495 Y138.711 E17.01733
G1 X79.45 Y138.162 E17.04298
G1 X79.485 Y137.612 E17.06865
G1 X79.599 Y137.073 E17.0943
G1 X79.818 Y136.494 E17.12312
G1 X81.286 Y133.404 E17.28242
G1 X81.558 Y132.925 E17.30807
G1 X81.896 Y132.49 E17.33372
G1 X82.294 Y132.109 E17.35938
G1 X86.9 Y129.067 E17.6164
G1 X87.382 Y128.8 E17.64206
G1 X94.412 Y126.431 E17.98749
G1 X92.75 Y126.425 E18.06488
G1 X92.2 Y126.385 E18.09056
G1 X91.662 Y126.266 E18.11622
G1 X91.147 Y126.07 E18.14188
G1 X90.666 Y125.802 E18.16752
G1 X90.228 Y125.468 E18.19317
G1 X89.844 Y125.073 E18.21882
G1 X89.52 Y124.627 E18.24449
G1 X89.265 Y124.139 E18.27013
G1 X89.082 Y123.619 E18.29579
G1 X88.802 Y122.757 E18.338
G1 X88.713 Y122.214 E18.36362
G1 X88.698 Y112.4 E18.8206
G1 X88.738 Y111.85 E18.84628
G1 X88.844 Y111.356 E18.8698
G1 X89.042 Y110.811 E18.8968
G1 X89.304 Y110.326 E18.92247
G1 X89.633 Y109.884 E18.94813
G1 X90.023 Y109.495 E18.97378
G1 X90.465 Y109.166 E18.99944
G1 X90.95 Y108.905 E19.02508
G1 X91.468 Y108.716 E19.05076
G1 X92.01 Y108.605 E19.07652
G1 X94.223 Y108.313 E19.18046
G1 X95.828 Y107.648 E19.26136
G1 X97.212 Y106.587 E19.34256
G1 X97.906 Y105.682 E19.39566
G1 X76.829 Y105.675 E20.3771
G1 X76.2 Y105.635 E20.40645
G1 X75.662 Y105.516 E20.4321
G1 X75.147 Y105.32 E20.45776
G1 X74.666 Y105.052 E20.4834
G1 X74.228 Y104.718 E20.50905
G1 X73.844 Y104.323 E20.5347
G1 X73.52 Y103.877 E20.56037
G1 X73.265 Y103.389 E20.58601
G1 X73.082 Y102.869 E20.61168
G1 X72.977 Y102.328 E20.63734
G1 X72.95 Y101.875 E20.65847
G1 X72.95 Y91.909 E21.12253
G1 X72.982 Y91.416 E21.14553
G1 X73.664 Y86.206 E21.3902
G1 X73.775 Y85.666 E21.41587
G1 X75.918 Y80.424 E21.67957
G1 X76.166 Y79.932 E21.70523
G1 X79.583 Y75.434 E21.96825
G1 X79.949 Y75.023 E21.99388
G0 F9000 X80.248 Y75.29
G1 F3000 X84.682 Y71.859 E22.25494
G1 X85.118 Y71.574 E22.27919
G1 X90.258 Y69.423 E22.53865
G1 X90.753 Y69.261 E22.5629
G1 X96.304 Y68.505 E22.82376
G1 X96.824 Y68.476 E22.84801
G1 X97.343 Y68.527 E22.8723
G1 X97.847 Y68.657 E22.89653
G1 X98.326 Y68.862 E22.92079
G1 X98.768 Y69.138 E22.94506
G1 X99.163 Y69.479 E22.96936
G1 X99.501 Y69.875 E22.9936
G1 X99.774 Y70.319 E23.01787
G1 X99.976 Y70.799 E23.04212
G1 X100.103 Y71.305 E23.06641
G1 X100.151 Y71.878 E23.09319
G1 X100.143 Y81.382 E23.53573
G1 X100.103 Y81.901 E23.55997
G1 X99.983 Y82.409 E23.58428
G1 X99.788 Y82.892 E23.60853
G1 X99.521 Y83.339 E23.63278
G1 X99.189 Y83.741 E23.65705
G1 X98.799 Y84.087 E23.68133
G1 X98.361 Y84.369 E23.70559
G1 X97.885 Y84.582 E23.72987
G1 X97.186 Y84.75 E23.76334
G1 X94.922 Y85.047 E23.86967
G1 X93.224 Y85.751 E23.95526
G1 X91.76 Y86.872 E24.04112
G1 X90.627 Y88.347 E24.12773
G1 X90.577 Y88.468 E24.13382
G1 X100.018 Y88.473 E24.57343
G1 X100.308 Y86.272 E24.67681
G1 X100.415 Y85.762 E24.70107
G1 X102.537 Y80.58 E24.96182
G1 X102.772 Y80.115 E24.98608
G1 X106.161 Y75.664 E25.24657
G1 X106.509 Y75.276 E25.27084
G1 X110.934 Y71.857 E25.53123
G1 X111.37 Y71.573 E25.55546
G1 X116.522 Y69.416 E25.81553
G1 X117.018 Y69.254 E25.83983
G1 X122.54 Y68.507 E26.0993
G1 X123.061 Y68.479 E26.12359
G1 X123.579 Y68.531 E26.14783
G1 X124.084 Y68.661 E26.17212
G1 X124.563 Y68.867 E26.1964
G1 X125.004 Y69.143 E26.22062
G1 X125.399 Y69.484 E26.24492
G1 X125.736 Y69.881 E26.26917
G1 X126.009 Y70.326 E26.29348
G1 X126.211 Y70.806 E26.31773
G1 X126.337 Y71.312 E26.34201
G1 X126.384 Y71.872 E26.36818
G1 X126.401 Y81.372 E26.81054
G1 X126.362 Y81.892 E26.83482
G1 X126.244 Y82.399 E26.85906
G1 X126.05 Y82.883 E26.88334
G1 X125.784 Y83.331 E26.9076
G1 X125.453 Y83.734 E26.93188
G1 X125.064 Y84.081 E26.95615
G1 X124.627 Y84.364 E26.9804
G1 X124.151 Y84.577 E27.00468
G1 X123.444 Y84.749 E27.03856
G1 X121.172 Y85.047 E27.14526
G1 X119.474 Y85.751 E27.23085
G1 X118.01 Y86.872 E27.31671
G1 X116.877 Y88.347 E27.40332
G1 X116.826 Y88.47 E27.40952
G1 X122.753 Y88.475 E27.6855
G1 X123.273 Y88.515 E27.70979
G1 X123.78 Y88.635 E27.73405
G1 X124.263 Y88.83 E27.7583
G1 X124.711 Y89.097 E27.78259
G1 X125.112 Y89.429 E27.80683
G1 X125.458 Y89.819 E27.83111
G1 X125.74 Y90.257 E27.85536
G1 X125.953 Y90.733 E27.87964
G1 X126.089 Y91.236 E27.90391
G1 X126.15 Y91.875 E27.9338
G1 X126.15 Y101.875 E28.39944
G1 X126.11 Y102.395 E28.42372
G1 X125.991 Y102.902 E28.44797
G1 X125.796 Y103.385 E28.47223
G1 X125.53 Y103.833 E28.49649
G1 X125.198 Y104.235 E28.52077
G1 X124.808 Y104.581 E28.54504
G1 X124.37 Y104.864 E28.56932
G1 X123.895 Y105.077 E28.59356
G1 X123.392 Y105.214 E28.61784
G1 X122.75 Y105.275 E28.64787
G1 X115.482 Y105.275 E28.9863
G1 X115.192 Y107.478 E29.08976
G1 X115.084 Y107.988 E29.11404
G1 X112.963 Y113.17 E29.37476
G1 X112.728 Y113.635 E29.39902
G1 X109.339 Y118.086 E29.65952
G1 X108.991 Y118.474 E29.68379
G1 X106.15 Y120.678 E29.85122
G1 X106.15 Y122.625 E29.94188
G1 X106.11 Y123.145 E29.96616
G1 X105.991 Y123.652 E29.99041
G1 X105.796 Y124.135 E30.01467
G1 X105.53 Y124.583 E30.03893
G1 X105.198 Y124.985 E30.06321
G1 X105.006 Y125.155 E30.07515
G1 X113.071 Y124.73 E30.45121
G1 X120.688 Y125.113 E30.80634
G1 X120.294 Y124.683 E30.83349
G1 X120.011 Y124.245 E30.85777
G1 X119.798 Y123.77 E30.88201
G1 X119.661 Y123.267 E30.90629
G1 X119.6 Y122.625 E30.93632
G1 X119.599 Y112.4 E31.41244
G1 X119.639 Y111.881 E31.43667
G1 X119.738 Y111.438 E31.45781
G1 X119.919 Y110.949 E31.48209
G1 X120.173 Y110.494 E31.50636
G1 X120.493 Y110.083 E31.53061
G1 X120.872 Y109.726 E31.55485
G1 X121.302 Y109.43 E31.57916
G1 X121.771 Y109.204 E31.6034
G1 X122.27 Y109.053 E31.62768
G1 X124.828 Y108.703 E31.7479
G1 X126.526 Y107.999 E31.83349
G1 X127.99 Y106.878 E31.91935
G1 X129.124 Y105.402 E32.00602
G1 X129.823 Y103.713 E32.09114
G1 X130.125 Y101.436 E32.1981
G1 X130.233 Y100.926 E32.22237
G1 X130.418 Y100.438 E32.24667
G1 X130.675 Y99.985 E32.27092
G1 X130.998 Y99.576 E32.29519
G1 X131.379 Y99.221 E32.31944
G1 X131.811 Y98.929 E32.34372
G1 X132.282 Y98.706 E32.36798
G1 X132.782 Y98.558 E32.39226
G1 X133.493 Y98.482 E32.42556
G1 X142.998 Y98.473 E32.86815
G1 X143.517 Y98.512 E32.89239
G1 X144.025 Y98.631 E32.91668
G1 X144.508 Y98.825 E32.94092
G1 X144.956 Y99.092 E32.9652
G1 X145.359 Y99.423 E32.98949
G1 X145.705 Y99.812 E33.01373
G1 X145.988 Y100.25 E33.03801
G1 X146.201 Y100.725 E33.06225
G1 X146.339 Y101.228 E33.08654
G1 X146.399 Y101.746 E33.11082
G1 X146.372 Y102.318 E33.13749
G1 X145.689 Y107.496 E33.38068
G1 X145.581 Y108.006 E33.40496
G1 X143.469 Y113.157 E33.66419
G1 X143.234 Y113.622 E33.68845
G1 X139.851 Y118.07 E33.94866
G1 X139.504 Y118.459 E33.97294
G1 X136.4 Y120.869 E34.15592
G1 X136.4 Y122.625 E34.23769
G1 X136.36 Y123.145 E34.26197
G1 X136.241 Y123.652 E34.28622
G1 X136.046 Y124.135 E34.31048
G1 X135.78 Y124.583 E34.33474
G1 X135.448 Y124.985 E34.35902
G1 X135.058 Y125.331 E34.38329
G1 X134.62 Y125.614 E34.40757
G1 X134.145 Y125.827 E34.43181
G1 X133.642 Y125.964 E34.45609
G1 X133 Y126.025 E34.48612
G1 X127.579 Y126.025 E34.73854
G1 X131.456 Y126.684 E34.92166
G1 X131.961 Y126.81 E34.9459
G1 X138.223 Y128.896 E35.25324
G1 X139.083 Y129.227 E35.29614
G1 X143.643 Y132.19 E35.54937
G1 X144.056 Y132.508 E35.57364
G1 X144.416 Y132.885 E35.59791
G1 X144.713 Y133.313 E35.62217
G1 X146.321 Y136.666 E35.79532
G1 X146.508 Y137.152 E35.81957
G1 X146.618 Y137.662 E35.84386
G1 X146.65 Y138.182 E35.86812
G1 X146.601 Y138.701 E35.8924
G1 X146.473 Y139.206 E35.91666
G1 X144.936 Y142.5 E36.08591
G1 X144.591 Y143.131 E36.1194
G1 X144.265 Y143.537 E36.14365
G1 X143.881 Y143.89 E36.16793
G1 X139.381 Y146.848 E36.41869
G1 X138.925 Y147.099 E36.44293
G1 X131.961 Y149.44 E36.78503
G1 X131.456 Y149.566 E36.80927
G1 X123.09 Y150.988 E37.20441
G1 X122.181 Y151.058 E37.24686
G1 X113.429 Y151.52 E37.65496
G1 X103.801 Y151.031 E38.10386
G1 X95.044 Y149.566 E38.51729
G1 X94.539 Y149.44 E38.54152
G1 X87.905 Y147.229 E38.86713
G1 X87.425 Y147.026 E38.8914
G1 X82.857 Y144.06 E39.14501
G1 X82.444 Y143.742 E39.16928
G1 X82.084 Y143.365 E39.19355
G1 X81.787 Y142.937 E39.21781
G1 X80.262 Y139.758 E39.38199
G1 X79.994 Y139.103 E39.41494
G1 X79.882 Y138.593 E39.43926
G1 X79.85 Y138.073 E39.46352
G1 X79.898 Y137.554 E39.48779
G1 X80.025 Y137.049 E39.51203
G1 X81.647 Y133.576 E39.69052
G1 X81.906 Y133.124 E39.71478
G1 X82.231 Y132.716 E39.73907
G1 X82.615 Y132.364 E39.76332
G1 X87.119 Y129.402 E40.01434
G1 X87.575 Y129.151 E40.03857
G1 X94.539 Y126.81 E40.38068
G1 X95.044 Y126.684 E40.40491
G1 X98.921 Y126.025 E40.58803
G1 X92.75 Y126.025 E40.87538
G1 X92.23 Y125.985 E40.89966
G1 X91.723 Y125.866 E40.92391
G1 X91.24 Y125.671 E40.94817
G1 X90.792 Y125.405 E40.97243
G1 X90.39 Y125.073 E40.99671
G1 X90.044 Y124.683 E41.02098
G1 X89.761 Y124.245 E41.04526
G1 X89.548 Y123.77 E41.0695
G1 X89.428 Y123.328 E41.09083
G1 X89.254 Y122.895 E41.11256
G1 X89.137 Y122.388 E41.13679
G1 X89.098 Y121.876 E41.1607
G1 X89.098 Y112.4 E41.60194
G1 X89.138 Y111.88 E41.62623
G1 X89.237 Y111.438 E41.64732
G1 X89.418 Y110.949 E41.6716
G1 X89.672 Y110.494 E41.69586
G1 X89.992 Y110.083 E41.72012
G1 X90.371 Y109.726 E41.74436
G1 X90.801 Y109.43 E41.76867
G1 X91.27 Y109.204 E41.79291
G1 X91.769 Y109.053 E41.81719
