;FLAVOR:Marlin
;TIME:4222
;Filament used: 1.65228m
;Layer height: 0.16
;MINX:83.235
;MINY:103.012
;MINZ:0.2
;MAXX:148.008
;MAXY:167.73
;MAXZ:24.48
;Generated with Cura_SteamEngine 4.4.1
M140 S40
M105
M190 S40
M104 S215
M105
M109 S215
M82 ;absolute extrusion mode
M201 X500.00 Y500.00 Z100.00 E5000.00 ;Setup machine max acceleration
M203 X500.00 Y500.00 Z10.00 E50.00 ;Setup machine max feedrate
M204 P500.00 R1000.00 T500.00 ;Setup Print/Retract/Travel acceleration
M205 X8.00 Y8.00 Z0.40 E5.00 ;Setup Jerk
M220 S100 ;Reset Feedrate
M221 S100 ;Reset Flowrate

G28 ;Home

G92 E0 ;Reset Extruder
G1 Z2.0 F3000 ;Move Z Axis up
G1 X10.1 Y20 Z0.28 F5000.0 ;Move to start position
G1 X10.1 Y200.0 Z0.28 F1500.0 E15 ;Draw the first line
G1 X10.4 Y200.0 Z0.28 F5000.0 ;Move to side a little
G1 X10.4 Y20 Z0.28 F1500.0 E30 ;Draw the second line
G92 E0 ;Reset Extruder
G1 Z2.0 F3000 ;Move Z Axis up

G92 E0
G92 E0
G1 F1800 E-3
;LAYER_COUNT:193
;LAYER:0
M107
G0 F6000 X84.77 Y108.821 Z0.2
;TYPE:SKIRT
G1 F1800 E0
G1 F1200 X85.236 Y108.527 E0.01833
G1 X85.665 Y108.33 E0.03403
G1 X85.863 Y108.254 E0.04108
G1 X86.146 Y108.158 E0.05102
G1 X86.449 Y108.068 E0.06153
G1 X86.542 Y107.959 E0.0663
G1 X86.956 Y107.596 E0.08461
G1 X87.191 Y107.432 E0.09414
G1 X88.093 Y106.851 E0.12983
G1 X88.539 Y106.54 E0.14791
G1 X88.702 Y106.433 E0.1544
G1 X89.199 Y106.123 E0.17388
G1 X89.686 Y105.866 E0.1922
G1 X90.206 Y105.682 E0.21054
G1 X90.561 Y105.612 E0.22258
G1 X90.769 Y105.273 E0.2358
G1 X91.205 Y104.769 E0.25797
G1 X91.473 Y104.509 E0.27039
G1 X91.895 Y104.155 E0.28871
G1 X92.364 Y103.865 E0.30705
G1 X93.06 Y103.586 E0.33199
G1 X93.212 Y103.542 E0.33725
G1 X93.585 Y103.347 E0.35125
G1 X94.105 Y103.164 E0.36959
G1 X94.641 Y103.06 E0.38775
G1 X94.814 Y103.039 E0.39354
G1 X95.364 Y103.012 E0.41186
G1 X96.096 Y103.101 E0.43638
G1 X96.456 Y103.181 E0.44865
G1 X97.219 Y103.438 E0.47543
G1 X98.42 Y103.99 E0.51939
G1 X98.903 Y104.256 E0.53773
G1 X99.342 Y104.589 E0.55606
G1 X99.463 Y104.712 E0.5618
G1 X99.708 Y104.742 E0.57
G1 X100.214 Y104.881 E0.58746
G1 X100.251 Y104.887 E0.5887
G1 X100.789 Y105.008 E0.60705
G1 X100.949 Y105.07 E0.61275
G1 X101.342 Y105.116 E0.62591
G1 X101.912 Y105.27 E0.64555
G1 X102.847 Y105.604 E0.67857
G1 X103.202 Y105.726 E0.69106
G1 X103.776 Y105.978 E0.71191
G1 X103.885 Y106.037 E0.71603
G1 X104.143 Y106.133 E0.72519
G1 X104.874 Y106.498 E0.75236
G1 X105.422 Y106.851 E0.77404
G1 X105.595 Y106.64 E0.78312
G1 X105.951 Y106.263 E0.80037
G1 X106.264 Y105.974 E0.81453
G1 X106.474 Y105.738 E0.82504
G1 X106.87 Y105.354 E0.84339
G1 X107.316 Y105.031 E0.8617
G1 X107.805 Y104.777 E0.88003
G1 X108.065 Y104.675 E0.88932
G1 X108.812 Y104.416 E0.91562
G1 X109.657 Y104.068 E0.94601
G1 X110.307 Y103.866 E0.96865
G1 X110.792 Y103.762 E0.98515
G1 X111.392 Y103.621 E1.00565
G1 X111.936 Y103.534 E1.02397
G1 X112.58 Y103.533 E1.04539
G1 X113.379 Y103.6 E1.07206
G1 X113.962 Y103.589 E1.09145
G1 X114.626 Y103.634 E1.11359
G1 X116.749 Y103.968 E1.18507
G1 X117.211 Y104.071 E1.20081
G1 X117.981 Y104.293 E1.22747
G1 X120.754 Y104.998 E1.32263
G1 X121.375 Y105.215 E1.34451
G1 X123.663 Y106.243 E1.42794
G1 X124.148 Y106.504 E1.44626
G1 X124.59 Y106.833 E1.46458
G1 X124.925 Y107.16 E1.48015
G1 X126.727 Y109.153 E1.56952
G1 X127.066 Y109.588 E1.58786
G1 X127.338 Y110.067 E1.60618
G1 X127.575 Y110.706 E1.62885
G1 X127.989 Y112.232 E1.68144
G1 X128.014 Y112.287 E1.68345
G1 X128.252 Y113.002 E1.70851
G1 X128.634 Y114.703 E1.7665
G1 X128.715 Y115.248 E1.78482
G1 X128.723 Y115.685 E1.79936
G1 X128.719 Y115.776 E1.80239
G1 X128.734 Y115.837 E1.80448
G1 X128.753 Y115.918 E1.80725
G1 X128.957 Y116.862 E1.83937
G1 X129.055 Y117.086 E1.8475
G1 X129.462 Y118.168 E1.88595
G1 X129.952 Y119.021 E1.91867
G1 X130.012 Y119.129 E1.92278
G1 X130.062 Y119.222 E1.92629
G1 X131.037 Y120.361 E1.97616
G1 X131.479 Y120.845 E1.99796
G1 X131.827 Y121.289 E2.01672
G1 X132.267 Y121.944 E2.04297
G1 X132.297 Y121.988 E2.04474
G1 X132.819 Y122.789 E2.07654
G1 X132.927 Y122.967 E2.08346
G1 X133.864 Y124.593 E2.14588
G1 X133.941 Y124.732 E2.15116
G1 X134.563 Y125.924 E2.19588
G1 X134.744 Y126.326 E2.21055
G1 X135.008 Y127.017 E2.23515
G1 X135.163 Y127.529 E2.25294
G1 X135.416 Y128.639 E2.29081
G1 X135.482 Y129.015 E2.3035
G1 X135.646 Y130.334 E2.34771
G1 X135.714 Y130.634 E2.35794
G1 X135.781 Y131.013 E2.37074
G1 X135.894 Y131.932 E2.40154
G1 X136.001 Y132.258 E2.41295
G1 X136.009 Y132.284 E2.41386
G1 X136.019 Y132.296 E2.41438
G1 X136.315 Y132.715 E2.43144
G1 X136.656 Y133.274 E2.45322
G1 X136.683 Y133.319 E2.45496
G1 X137.015 Y133.881 E2.47667
G1 X137.193 Y134.073 E2.48538
G1 X137.263 Y134.125 E2.48828
G1 X137.725 Y134.361 E2.50554
G1 X138.007 Y134.525 E2.51639
G1 X139.165 Y134.949 E2.5574
G1 X139.21 Y134.965 E2.55899
G1 X139.909 Y135.231 E2.58387
G1 X140.188 Y135.351 E2.59397
G1 X141.535 Y135.991 E2.64357
G1 X141.888 Y136.182 E2.65692
G1 X142.462 Y136.533 E2.6793
G1 X142.812 Y136.723 E2.69254
G1 X143.276 Y137.02 E2.71087
G1 X143.739 Y137.428 E2.73139
G1 X144.083 Y137.786 E2.7479
G1 X144.395 Y138.063 E2.76178
G1 X144.728 Y138.399 E2.77752
G1 X145.302 Y139.055 E2.80651
G1 X145.574 Y139.406 E2.82128
G1 X146.019 Y140.054 E2.84742
G1 X146.406 Y140.771 E2.87452
G1 X146.929 Y142.054 E2.9206
G1 X147.086 Y142.527 E2.93718
G1 X147.788 Y145.212 E3.02948
G1 X147.843 Y145.45 E3.03761
G1 X147.943 Y145.966 E3.05509
G1 X148.008 Y146.513 E3.07341
G1 X148.006 Y146.899 E3.08625
G1 X147.929 Y148.291 E3.13262
G1 X147.876 Y148.749 E3.14795
G1 X147.729 Y149.572 E3.17576
G1 X147.593 Y150.106 E3.19409
G1 X147.33 Y150.714 E3.21612
G1 X147.256 Y150.85 E3.22127
G1 X147.175 Y151.216 E3.23374
G1 X147.098 Y151.916 E3.25716
G1 X147.078 Y152.599 E3.27989
G1 X147.072 Y152.736 E3.28445
G1 X147.029 Y153.386 E3.30611
G1 X147.015 Y153.548 E3.31152
G1 X146.909 Y154.518 E3.34398
G1 X146.841 Y154.926 E3.35773
G1 X146.665 Y155.721 E3.38482
G1 X146.418 Y156.464 E3.41086
G1 X146.32 Y156.681 E3.41878
G1 X146.058 Y157.165 E3.43708
G1 X145.87 Y157.433 E3.44797
G1 X145.591 Y157.796 E3.4632
G1 X145.224 Y158.207 E3.48153
G1 X144.925 Y158.445 E3.49424
G1 X144.859 Y159.021 E3.51352
G1 X144.974 Y159.791 E3.53941
G1 X145.016 Y160.341 E3.55776
G1 X144.978 Y160.89 E3.57606
G1 X144.86 Y161.429 E3.59442
G1 X144.708 Y161.85 E3.6093
G1 X144.298 Y162.806 E3.6439
G1 X144.045 Y163.295 E3.66221
G1 X143.724 Y163.743 E3.68054
G1 X143.622 Y163.846 E3.68536
G1 X142.793 Y165.299 E3.741
G1 X142.572 Y165.643 E3.7546
G1 X142.261 Y166.073 E3.77225
G1 X141.907 Y166.495 E3.79057
G1 X141.495 Y166.861 E3.8089
G1 X141.035 Y167.164 E3.82722
G1 X140.535 Y167.397 E3.84557
G1 X140.008 Y167.555 E3.86387
G1 X139.433 Y167.638 E3.88319
G1 X138.875 Y167.675 E3.90179
G1 X138.644 Y167.715 E3.90959
G1 X138.093 Y167.73 E3.92792
G1 X137.546 Y167.665 E3.94624
G1 X137.014 Y167.522 E3.96457
G1 X136.508 Y167.303 E3.9829
G1 X136.039 Y167.014 E4.00123
G1 X135.617 Y166.66 E4.01955
G1 X135.251 Y166.248 E4.03788
G1 X134.924 Y165.744 E4.05786
G1 X134.602 Y165.15 E4.08033
G1 X134.081 Y165.245 E4.09795
G1 X133.53 Y165.263 E4.11628
G1 X132.857 Y165.177 E4.13885
G1 X132.694 Y165.141 E4.1444
G1 X132.006 Y164.918 E4.16846
G1 X131.592 Y164.739 E4.18346
G1 X131.103 Y164.484 E4.2018
G1 X130.822 Y164.293 E4.2131
G1 X130.619 Y164.141 E4.22154
G1 X130.203 Y163.779 E4.23988
G1 X129.844 Y163.362 E4.25818
G1 X129.549 Y162.896 E4.27652
G1 X129.324 Y162.393 E4.29485
G1 X129.175 Y161.863 E4.31316
G1 X129.103 Y161.317 E4.33148
G1 X129.112 Y160.766 E4.34981
G1 X129.2 Y160.222 E4.36814
G1 X129.35 Y159.743 E4.38483
G1 X129.302 Y159.521 E4.39238
G1 X129.264 Y158.972 E4.41069
G1 X129.306 Y158.422 E4.42903
G1 X129.376 Y158.112 E4.4396
G1 X129.392 Y157.859 E4.44804
G1 X129.505 Y157.32 E4.46635
G1 X129.789 Y156.612 E4.49172
G1 X129.95 Y156.304 E4.50328
G1 X129.997 Y156.229 E4.50623
G1 X129.959 Y156.163 E4.50876
G1 X129.802 Y155.784 E4.52241
G1 X129.705 Y155.51 E4.53207
G1 X129.259 Y155.371 E4.54761
G1 X128.747 Y155.169 E4.56592
G1 X128.268 Y154.895 E4.58427
G1 X127.727 Y154.453 E4.60751
G1 X125.4 Y152.165 E4.71605
G1 X125.036 Y151.751 E4.73438
G1 X124.736 Y151.289 E4.75271
G1 X124.564 Y150.934 E4.76583
G1 X124.534 Y150.863 E4.76839
G1 X124.357 Y150.341 E4.78672
G1 X124.257 Y149.799 E4.80505
G1 X124.237 Y149.465 E4.81618
G1 X123.665 Y149.101 E4.83873
G1 X123.596 Y149.056 E4.84147
G1 X122.818 Y148.537 E4.87258
G1 X122.599 Y148.379 E4.88156
G1 X122.274 Y148.127 E4.89524
G1 X121.461 Y147.594 E4.92757
G1 X120.738 Y147.258 E4.95409
G1 X120.208 Y147.178 E4.97192
G1 X120.027 Y147.146 E4.97803
G1 X118.261 Y146.793 E5.03793
G1 X117.73 Y146.646 E5.05625
G1 X117.295 Y146.46 E5.07199
G1 X115.937 Y145.775 E5.12258
G1 X115.418 Y145.459 E5.14279
G1 X114.321 Y144.664 E5.18785
G1 X113.875 Y144.285 E5.20731
G1 X112.93 Y143.348 E5.25158
G1 X112.605 Y142.981 E5.26788
G1 X112.25 Y142.524 E5.28713
G1 X112.178 Y142.428 E5.29112
G1 X111.711 Y141.786 E5.31752
G1 X111.465 Y141.402 E5.33269
G1 X111.131 Y140.803 E5.3555
G1 X111.073 Y140.695 E5.35958
G1 X110.692 Y139.957 E5.3872
G1 X110.625 Y139.821 E5.39225
G1 X110.336 Y139.202 E5.41497
G1 X110.195 Y138.923 E5.42537
G1 X110.052 Y138.712 E5.43384
G1 X109.914 Y138.494 E5.44242
G1 X109.118 Y137.134 E5.49484
G1 X108.996 Y136.908 E5.50338
G1 X108.366 Y135.643 E5.55038
G1 X108.305 Y135.513 E5.55516
G1 X108.04 Y134.926 E5.57658
G1 X108.018 Y134.877 E5.57837
G1 X107.709 Y134.166 E5.60415
G1 X107.645 Y134.01 E5.60976
G1 X106.736 Y131.636 E5.69431
G1 X106.689 Y131.505 E5.69894
G1 X106.332 Y130.46 E5.73567
G1 X106.31 Y130.394 E5.73798
G1 X105.688 Y128.457 E5.80565
G1 X105.608 Y128.169 E5.81559
G1 X105.176 Y126.342 E5.87803
G1 X105.117 Y126.041 E5.88823
G1 X105.043 Y125.556 E5.90455
G1 X105 Y125.007 E5.92286
G1 X105.042 Y124.42 E5.94244
G1 X105.381 Y122.16 E6.01845
G1 X105.456 Y121.347 E6.0456
G1 X105.445 Y120.678 E6.06786
G1 X105.494 Y120.007 E6.09023
G1 X105.554 Y119.638 E6.10267
G1 X105.652 Y119.201 E6.11756
G1 X105.698 Y119.039 E6.12316
G1 X105.347 Y118.784 E6.13759
G1 X104.543 Y118.268 E6.16937
G1 X104.103 Y117.938 E6.18766
G1 X103.817 Y117.662 E6.20088
G1 X103.795 Y117.639 E6.20194
G1 X103.606 Y117.591 E6.20843
G1 X101.546 Y116.864 E6.28108
G1 X101.128 Y116.798 E6.29516
G1 X100.557 Y116.616 E6.31509
G1 X100.377 Y116.543 E6.32155
G1 X100.155 Y116.477 E6.32925
G1 X99.734 Y116.318 E6.34422
G1 X99.629 Y116.298 E6.34778
G1 X99.109 Y116.117 E6.36609
G1 X98.808 Y115.972 E6.3772
G1 X97.755 Y115.404 E6.417
G1 X97.585 Y115.362 E6.42282
G1 X97.074 Y115.154 E6.44117
G1 X96.6 Y114.875 E6.45946
G1 X96.239 Y114.591 E6.47474
G1 X95.581 Y114.007 E6.504
G1 X95.434 Y113.962 E6.50912
G1 X94.936 Y113.726 E6.52744
G1 X94.896 Y113.699 E6.52905
G1 X94.647 Y113.944 E6.54067
G1 X94.201 Y114.268 E6.559
G1 X93.594 Y114.574 E6.58161
G1 X92.664 Y114.943 E6.61489
G1 X92.268 Y115.068 E6.6287
G1 X92.542 Y115.877 E6.65711
G1 X92.681 Y116.41 E6.67543
G1 X92.744 Y117.049 E6.69679
G1 X92.761 Y118.37 E6.74073
G1 X92.733 Y118.839 E6.75635
G1 X92.73 Y119.59 E6.78133
G1 X92.688 Y120.14 E6.79968
G1 X92.511 Y120.848 E6.82395
G1 X92.369 Y121.248 E6.83807
G1 X92.148 Y121.753 E6.8564
G1 X91.855 Y122.22 E6.87474
G1 X91.46 Y122.678 E6.89486
G1 X91.181 Y122.954 E6.90791
G1 X90.763 Y123.313 E6.92624
G1 X90.297 Y123.606 E6.94454
G1 X89.793 Y123.83 E6.96289
G1 X89.262 Y123.978 E6.98122
G1 X88.902 Y124.033 E6.99334
G1 X88.777 Y124.046 E6.99752
G1 X88.226 Y124.063 E7.01585
G1 X87.679 Y124 E7.03416
G1 X87.146 Y123.859 E7.0525
G1 X86.576 Y123.608 E7.07322
G1 X86.223 Y123.417 E7.08657
G1 X85.758 Y123.12 E7.10492
G1 X85.342 Y122.76 E7.12322
G1 X84.982 Y122.343 E7.14154
G1 X84.686 Y121.878 E7.15987
G1 X84.46 Y121.375 E7.17821
G1 X84.31 Y120.845 E7.19653
G1 X84.238 Y120.299 E7.21485
G1 X84.245 Y119.748 E7.23318
G1 X84.264 Y119.606 E7.23794
G1 X84.1 Y118.119 E7.2877
G1 X84.093 Y117.925 E7.29416
G1 X83.883 Y116.917 E7.3284
G1 X83.719 Y116.615 E7.33983
G1 X83.572 Y116.282 E7.35194
G1 X83.386 Y115.763 E7.37028
G1 X83.278 Y115.222 E7.38863
G1 X83.249 Y114.672 E7.40694
G1 X83.299 Y114.124 E7.42525
G1 X83.429 Y113.588 E7.44359
G1 X83.461 Y113.509 E7.44643
G1 X83.378 Y113.256 E7.45528
G1 X83.277 Y112.641 E7.47601
G1 X83.24 Y112.186 E7.49119
G1 X83.235 Y111.635 E7.50952
G1 X83.31 Y111.089 E7.52785
G1 X83.463 Y110.56 E7.54617
G1 X83.691 Y110.058 E7.56451
G1 X83.989 Y109.595 E7.58282
G1 X84.351 Y109.18 E7.60114
G1 X84.77 Y108.821 E7.61949
G0 F6000 X85.17 Y109.03
G1 F1200 X85.809 Y108.704 E7.64335
G1 X86.007 Y108.628 E7.6504
G1 X86.26 Y108.542 E7.65929
G1 X86.664 Y108.422 E7.67331
G1 X86.991 Y108.084 E7.68895
G1 X87.407 Y107.768 E7.70632
G1 X88.331 Y107.173 E7.74288
G1 X88.768 Y106.868 E7.7606
G1 X88.914 Y106.772 E7.76641
G1 X89.411 Y106.462 E7.78589
G1 X89.873 Y106.221 E7.80323
G1 X90.366 Y106.053 E7.82055
G1 X90.814 Y105.987 E7.83561
G1 X90.888 Y105.828 E7.84144
G1 X91.178 Y105.395 E7.85878
G1 X91.484 Y105.056 E7.87397
G1 X91.752 Y104.796 E7.88639
G1 X92.152 Y104.463 E7.9037
G1 X92.599 Y104.195 E7.92103
G1 X93.172 Y103.971 E7.94149
G1 X93.354 Y103.918 E7.9478
G1 X93.77 Y103.702 E7.96339
G1 X94.264 Y103.536 E7.98072
G1 X94.689 Y103.457 E7.9951
G1 X94.862 Y103.436 E8.0009
G1 X95.383 Y103.413 E8.01824
G1 X96.01 Y103.492 E8.03926
G1 X96.37 Y103.572 E8.05153
G1 X97.052 Y103.802 E8.07546
G1 X98.253 Y104.354 E8.11943
G1 X98.708 Y104.607 E8.13674
G1 X99.12 Y104.927 E8.15409
G1 X99.255 Y105.07 E8.16063
G1 X99.375 Y105.104 E8.16478
G1 X99.658 Y105.14 E8.17427
G1 X100.115 Y105.268 E8.19006
G1 X100.126 Y105.272 E8.19045
G1 X100.192 Y105.282 E8.19267
G1 X100.699 Y105.399 E8.20997
G1 X100.854 Y105.461 E8.21552
G1 X101.295 Y105.514 E8.2303
G1 X101.778 Y105.647 E8.24696
G1 X102.694 Y105.974 E8.27931
G1 X103.072 Y106.104 E8.2926
G1 X103.586 Y106.329 E8.31127
G1 X103.719 Y106.401 E8.3163
G1 X104.004 Y106.507 E8.32641
G1 X104.658 Y106.835 E8.35074
G1 X105.505 Y107.38 E8.38424
G1 X105.904 Y106.894 E8.40516
G1 X106.222 Y106.557 E8.42057
G1 X106.557 Y106.247 E8.43575
G1 X106.773 Y106.004 E8.44656
G1 X107.148 Y105.642 E8.4639
G1 X107.575 Y105.342 E8.48126
G1 X108.197 Y105.053 E8.50407
G1 X108.954 Y104.79 E8.53072
G1 X109.81 Y104.438 E8.56151
G1 X110.391 Y104.257 E8.58175
G1 X110.87 Y104.154 E8.59804
G1 X111.484 Y104.01 E8.61902
G1 X111.999 Y103.93 E8.63635
G1 X112.547 Y103.932 E8.65458
G1 X113.363 Y104.001 E8.68182
G1 X113.97 Y103.989 E8.70201
G1 X114.563 Y104.029 E8.72178
G1 X116.686 Y104.363 E8.79326
G1 X117.1 Y104.455 E8.80736
G1 X117.89 Y104.683 E8.83471
G1 X120.656 Y105.386 E8.92963
G1 X121.211 Y105.58 E8.94919
G1 X123.499 Y106.608 E9.03261
G1 X123.957 Y106.857 E9.04995
G1 X124.371 Y107.173 E9.06728
G1 X124.628 Y107.429 E9.07934
G1 X126.43 Y109.422 E9.16871
G1 X126.749 Y109.834 E9.18604
G1 X127.001 Y110.29 E9.20337
G1 X127.189 Y110.811 E9.22179
G1 X127.611 Y112.365 E9.27535
G1 X127.649 Y112.45 E9.27844
G1 X127.861 Y113.09 E9.30087
G1 X128.243 Y114.791 E9.35885
G1 X128.318 Y115.307 E9.37619
G1 X128.323 Y115.669 E9.38823
G1 X128.317 Y115.814 E9.39306
G1 X128.345 Y115.93 E9.39703
G1 X128.362 Y116.003 E9.39952
G1 X128.573 Y116.983 E9.43287
G1 X128.681 Y117.227 E9.44174
G1 X129.098 Y118.336 E9.48115
G1 X129.606 Y119.22 E9.51506
G1 X129.659 Y119.317 E9.51873
G1 X129.729 Y119.449 E9.5237
G1 X130.75 Y120.641 E9.57591
G1 X131.183 Y121.115 E9.59726
G1 X131.495 Y121.512 E9.61405
G1 X131.935 Y122.167 E9.6403
G1 X131.962 Y122.207 E9.6419
G1 X132.484 Y123.008 E9.6737
G1 X132.581 Y123.166 E9.67987
G1 X133.518 Y124.792 E9.74229
G1 X133.586 Y124.917 E9.74702
G1 X134.208 Y126.109 E9.79174
G1 X134.37 Y126.469 E9.80487
G1 X134.634 Y127.16 E9.82947
G1 X134.773 Y127.617 E9.84536
G1 X135.026 Y128.727 E9.88322
G1 X135.085 Y129.064 E9.8946
G1 X135.251 Y130.403 E9.93948
G1 X135.324 Y130.723 E9.9504
G1 X135.384 Y131.062 E9.96185
G1 X135.502 Y132.02 E9.99395
G1 X135.621 Y132.383 E10.00666
G1 X135.651 Y132.478 E10.00997
G1 X135.708 Y132.548 E10.01297
G1 X135.974 Y132.923 E10.02826
G1 X136.315 Y133.482 E10.05004
G1 X136.339 Y133.523 E10.05162
G1 X136.692 Y134.12 E10.07469
G1 X136.927 Y134.375 E10.08622
G1 X137.051 Y134.465 E10.09132
G1 X137.543 Y134.717 E10.10971
G1 X137.838 Y134.889 E10.12106
G1 X139.027 Y135.324 E10.16317
G1 X139.067 Y135.339 E10.16459
G1 X139.766 Y135.605 E10.18947
