;FLAVOR:Marlin
;TIME:4964
;Filament used: 5.12252m
;Layer height: 0.2
;MINX:34.637
;MINY:37.095
;MINZ:0.24
;MAXX:186.934
;MAXY:180.809
;MAXZ:19.8
;Generated with Cura_SteamEngine 4.10.0
M82 ;absolute extrusion mode
M201 X500.00 Y500.00 Z100.00 E5000.00 ;Setup machine max acceleration
M203 X500.00 Y500.00 Z10.00 E50.00 ;Setup machine max feedrate
M204 P500.00 R1000.00 T500.00 ;Setup Print/Retract/Travel acceleration
M205 X8.00 Y8.00 Z0.40 E5.00 ;Setup Jerk
M220 S100 ;Reset Feedrate
M221 S100 ;Reset Flowrate

;*** Start Dual Nozzle/Bed Preheating ***
M140 S50 ; start preheating the bed
M104 S200 ?T0 ; start preheating hotend
M190 S50 ; heat to Cura Bed setting and WAIT
M109 S200 ?T0 ; heat to Cura Hotend and WAIT
;*** End Preheating ***

;*** Single Print Start Tone
M300 S1000 P500 ; chirp to indicate starting to print
;*** End Single Start Tone

G28 ;Home

G92 E0 ;Reset Extruder
G1 Z2.0 F3000 ;Move Z Axis up

G1 X10.1 Y20 Z0.28 F5000.0 ;Move to start position
G1 X10.1 Y200.0 Z0.28 F1500.0 E15 ;Draw the first line
G1 X10.4 Y200.0 Z0.28 F5000.0 ;Move to side a little
G1 X10.4 Y20 Z0.28 F1500.0 E30 ;Draw the second line
G92 E0 ;Reset Extruder
G1 Z2.0 F3000 ;Move Z Axis up
G92 E0
G92 E0
G1 F2400 E-3.2
;LAYER_COUNT:84
;LAYER:0
M106 S63.8
M204 S500
M205 X6 Y6
G0 F9000 X37.688 Y39.697 Z0.24
;TYPE:SKIRT
G1 F1440 E0
G1 F1800 X38.197 Y39.377 E0.024
G1 X38.748 Y39.176 E0.04741
G1 X39.326 Y39.095 E0.0707
G1 X39.525 Y39.095 E0.07864
G1 X40.102 Y39.176 E0.1019
G1 X40.653 Y39.377 E0.12531
G1 X41.162 Y39.697 E0.1493
G1 X41.565 Y40.089 E0.17174
G1 X41.895 Y40.577 E0.19525
G1 X42.116 Y41.122 E0.21873
G1 X42.149 Y41.254 E0.22416
G1 X40.939 Y40.044 E0.29246
G1 X40.615 Y39.778 E0.30919
G1 X40.248 Y39.577 E0.32589
G1 X39.848 Y39.45 E0.34264
G1 X39.432 Y39.401 E0.35936
G1 X39.014 Y39.431 E0.37608
G1 X38.61 Y39.54 E0.39278
G1 X38.233 Y39.724 E0.40953
G1 X37.827 Y40.044 E0.43016
G1 X36.729 Y41.142 E0.49214
G1 X36.955 Y40.577 E0.51642
G1 X37.285 Y40.089 E0.53994
G1 X37.688 Y39.697 E0.56237
G0 F9000 X37.449 Y39.376
G1 F1800 X38.023 Y39.016 E0.58942
G1 X38.648 Y38.788 E0.61597
G1 X39.314 Y38.695 E0.64281
G1 X39.537 Y38.695 E0.65171
G1 X40.202 Y38.788 E0.67851
G1 X40.827 Y39.016 E0.70506
G1 X41.401 Y39.376 E0.7321
G1 X41.879 Y39.841 E0.75872
G1 X42.256 Y40.402 E0.7857
G1 X42.502 Y41.018 E0.81217
G1 X42.615 Y41.664 E0.83835
G1 X42.6 Y42.271 E0.86258
G1 X40.656 Y40.327 E0.97231
G1 X40.361 Y40.089 E0.98744
G1 X40.023 Y39.918 E1.00255
G1 X39.657 Y39.821 E1.01767
G1 X39.278 Y39.803 E1.03281
G1 X38.904 Y39.865 E1.04794
G1 X38.552 Y40.003 E1.06303
G1 X38.11 Y40.327 E1.08491
G1 X36.242 Y42.195 E1.19034
G1 X36.235 Y41.664 E1.21154
G1 X36.348 Y41.018 E1.23771
G1 X36.594 Y40.402 E1.26419
G1 X36.971 Y39.841 E1.29116
G1 X37.449 Y39.376 E1.31778
G0 F9000 X37.023 Y39.211
G1 F1800 X37.635 Y38.77 E1.34789
G1 X38.326 Y38.465 E1.37803
G1 X39.04 Y38.313 E1.40717
G1 X39.55 Y38.295 E1.42754
G1 X40.048 Y38.347 E1.44752
G1 X40.788 Y38.56 E1.47826
G1 X41.444 Y38.913 E1.50799
G1 X42.017 Y39.395 E1.53787
G1 X42.342 Y39.783 E1.55807
G1 X42.712 Y40.423 E1.58758
G1 X42.886 Y40.904 E1.60799
G1 X43.015 Y41.636 E1.63766
G1 X43.015 Y42.151 E1.65822
G1 X42.945 Y42.647 E1.67821
G1 X42.826 Y43.063 E1.69548
G1 X40.373 Y40.61 E1.83393
G1 X40.11 Y40.404 E1.84727
G1 X39.806 Y40.265 E1.86061
G1 X39.478 Y40.203 E1.87393
G1 X39.144 Y40.221 E1.88728
G1 X38.824 Y40.316 E1.90061
G1 X38.393 Y40.61 E1.92143
G1 X36.046 Y42.957 E2.0539
G1 X36.006 Y43.008 E2.05649
G1 X35.861 Y42.392 E2.08175
G1 X35.826 Y41.892 E2.10175
G1 X35.862 Y41.379 E2.12228
G1 X36.041 Y40.666 E2.15162
G1 X36.245 Y40.205 E2.17174
G1 X36.67 Y39.577 E2.202
G1 X37.023 Y39.211 E2.2223
G0 F9000 X36.748 Y38.92
G1 F1800 X37.177 Y38.584 E2.24405
G1 X37.683 Y38.291 E2.26739
G1 X38.187 Y38.089 E2.28906
G1 X38.741 Y37.951 E2.31184
G1 X39.288 Y37.895 E2.33379
G1 X39.563 Y37.895 E2.34477
G1 X40.108 Y37.951 E2.36663
G1 X40.663 Y38.089 E2.38946
G1 X41.167 Y38.291 E2.41113
G1 X41.673 Y38.584 E2.43447
G1 X42.102 Y38.92 E2.45622
G1 X42.48 Y39.312 E2.47795
G1 X42.817 Y39.774 E2.50077
G1 X43.077 Y40.26 E2.52277
G1 X43.267 Y40.783 E2.54498
G1 X43.385 Y41.33 E2.56732
G1 X43.425 Y41.892 E2.5898
G1 X43.384 Y42.458 E2.61245
G1 X43.27 Y42.988 E2.63409
G1 X43.077 Y43.523 E2.65679
G1 X42.96 Y43.763 E2.66745
G1 X40.09 Y40.893 E2.82944
G1 X39.864 Y40.724 E2.8407
G1 X39.6 Y40.624 E2.85197
G1 X39.319 Y40.602 E2.86322
G1 X39.043 Y40.66 E2.87448
G1 X38.676 Y40.893 E2.89183
G1 X36.329 Y43.24 E3.0243
G1 X36.16 Y43.466 E3.03557
G1 X36.06 Y43.73 E3.04683
G1 X36.024 Y43.997 E3.05759
G1 X35.773 Y43.523 E3.07899
G1 X35.58 Y42.988 E3.10169
G1 X35.466 Y42.458 E3.12333
G1 X35.425 Y41.892 E3.14598
G1 X35.465 Y41.33 E3.16847
G1 X35.583 Y40.783 E3.1908
G1 X35.773 Y40.26 E3.21301
G1 X36.033 Y39.774 E3.23501
G1 X36.37 Y39.312 E3.25783
G1 X36.748 Y38.92 E3.27957
G0 F9000 X36.714 Y38.427
G1 F1800 X37.227 Y38.081 E3.30427
G1 X37.77 Y37.814 E3.32842
G1 X38.352 Y37.624 E3.35285
G1 X38.956 Y37.517 E3.37733
G1 X39.576 Y37.495 E3.40209
G1 X40.186 Y37.558 E3.42657
G1 X40.775 Y37.704 E3.45079
G1 X41.345 Y37.933 E3.47531
G1 X41.882 Y38.242 E3.50004
G1 X42.377 Y38.629 E3.52511
G1 X42.795 Y39.064 E3.54919
G1 X43.148 Y39.547 E3.57307
G1 X43.442 Y40.098 E3.59799
G1 X43.654 Y40.679 E3.62268
G1 X43.779 Y41.263 E3.64652
G1 X43.824 Y41.892 E3.67168
G1 X43.78 Y42.512 E3.69649
G1 X43.657 Y43.092 E3.72016
G1 X43.446 Y43.679 E3.74505
G1 X43.156 Y44.225 E3.76973
G1 X43.035 Y44.404 E3.77835
G1 X39.807 Y41.176 E3.96055
G1 X39.628 Y41.052 E3.96924
G1 X39.415 Y41.001 E3.97799
G1 X39.199 Y41.029 E3.98668
G1 X38.959 Y41.176 E3.99791
G1 X36.612 Y43.523 E4.13039
G1 X36.488 Y43.702 E4.13908
G1 X36.437 Y43.915 E4.14782
G1 X36.465 Y44.131 E4.15651
G1 X36.612 Y44.371 E4.16775
G1 X38.413 Y46.172 E4.2694
G1 X37.767 Y45.967 E4.29645
G1 X37.227 Y45.703 E4.32044
G1 X36.714 Y45.357 E4.34514
G1 X36.26 Y44.948 E4.36953
G1 X35.863 Y44.474 E4.39421
G1 X35.541 Y43.959 E4.41845
G1 X35.297 Y43.412 E4.44235
G1 X35.12 Y42.803 E4.46767
G1 X35.037 Y42.205 E4.49176
G1 X35.037 Y41.581 E4.51667
G1 X35.119 Y40.986 E4.54064
G1 X35.29 Y40.391 E4.56535
G1 X35.537 Y39.833 E4.5897
G1 X35.862 Y39.309 E4.61431
G1 X36.26 Y38.836 E4.63899
G1 X36.714 Y38.427 E4.66337
G0 F9000 X36.469 Y38.11
G1 F1800 X37.035 Y37.73 E4.69058
G1 X37.616 Y37.445 E4.71641
G1 X38.255 Y37.236 E4.74325
G1 X38.912 Y37.119 E4.76988
G1 X39.588 Y37.095 E4.79688
G1 X40.25 Y37.163 E4.82344
G1 X40.9 Y37.324 E4.85017
G1 X41.523 Y37.575 E4.87697
G1 X42.116 Y37.918 E4.90432
G1 X42.637 Y38.325 E4.9307
G1 X43.103 Y38.809 E4.95752
G1 X43.49 Y39.339 E4.98371
G1 X43.81 Y39.939 E5.01085
G1 X44.037 Y40.562 E5.03732
G1 X44.176 Y41.21 E5.06377
G1 X44.225 Y41.892 E5.09106
G1 X44.177 Y42.564 E5.11795
G1 X44.04 Y43.21 E5.1443
G1 X43.812 Y43.841 E5.17108
G1 X43.502 Y44.426 E5.19751
G1 X43.107 Y44.971 E5.22437
G1 X43.073 Y45.008 E5.22638
G1 X39.524 Y41.459 E5.4267
G1 X39.413 Y41.402 E5.43168
G1 X39.242 Y41.459 E5.43887
G1 X36.895 Y43.806 E5.57135
G1 X36.838 Y43.917 E5.57633
G1 X36.895 Y44.088 E5.58352
G1 X39.496 Y46.689 E5.73033
G1 X38.914 Y46.664 E5.75358
G1 X38.255 Y46.547 E5.7803
G1 X37.623 Y46.341 E5.80683
G1 X37.035 Y46.054 E5.83294
G1 X36.466 Y45.672 E5.86029
G1 X35.974 Y45.228 E5.88674
G1 X35.544 Y44.716 E5.91343
G1 X35.192 Y44.155 E5.93986
G1 X34.914 Y43.529 E5.9672
G1 X34.728 Y42.884 E5.99399
G1 X34.637 Y42.225 E6.02055
G1 X34.637 Y41.561 E6.04705
G1 X34.727 Y40.903 E6.07355
G1 X34.91 Y40.264 E6.10008
G1 X35.188 Y39.637 E6.12746
G1 X35.533 Y39.081 E6.15357
G1 X35.976 Y38.554 E6.18105
G1 X36.469 Y38.11 E6.20753
G1 F2400 E3.00753
G0 F9000 X36.338 Y43.947
G0 X72.62 Y80.224
G0 X167.45 Y172.673
G1 F1440 E6.20753
G1 F1800 X167.954 Y172.223 E6.2345
G1 X168.495 Y171.857 E6.26057
G1 X169.099 Y171.562 E6.2874
G1 X169.653 Y171.378 E6.3107
G1 X169.597 Y173.33 E6.38864
G1 X169.518 Y174.341 E6.42911
G1 X169.521 Y174.397 E6.43135
G1 X169.58 Y175.107 E6.45979
G1 X169.521 Y175.611 E6.48004
G1 X169.481 Y176.18 E6.5028
G1 X169.678 Y176.668 E6.52381
G1 X169.953 Y177.054 E6.54272
G1 X170.122 Y177.161 E6.55071
G1 X170.614 Y177.745 E6.58119
G1 X170.959 Y177.9 E6.59628
G1 X171.253 Y177.955 E6.60822
G1 X173.054 Y177.876 E6.68017
G1 X175.332 Y177.927 E6.77111
G1 X174.973 Y178.55 E6.79981
G1 X174.578 Y179.095 E6.82668
G1 X174.1 Y179.589 E6.85411
G1 X173.592 Y179.984 E6.87979
G1 X172.999 Y180.328 E6.90716
G1 X172.381 Y180.577 E6.93375
G1 X171.727 Y180.74 E6.96065
G1 X171.069 Y180.809 E6.98706
G1 X170.387 Y180.784 E7.01429
G1 X169.728 Y180.667 E7.04101
G1 X169.097 Y180.461 E7.0675
G1 X168.509 Y180.174 E7.09362
G1 X167.94 Y179.792 E7.12097
G1 X167.439 Y179.337 E7.14798
G1 X167.018 Y178.837 E7.17407
G1 X166.667 Y178.277 E7.20045
G1 X166.383 Y177.638 E7.22836
G1 X166.2 Y176.995 E7.25504
G1 X166.111 Y176.342 E7.28134
G1 X166.111 Y175.681 E7.30772
G1 X166.2 Y175.028 E7.33403
G1 X166.391 Y174.362 E7.36168
G1 X166.657 Y173.765 E7.38777
G1 X167.024 Y173.177 E7.41543
G1 X167.45 Y172.673 E7.44177
G0 F9000 X167.733 Y172.955
G1 F1800 X168.192 Y172.545 E7.46633
G1 X168.696 Y172.203 E7.49064
G1 X169.236 Y171.939 E7.51463
G1 X169.197 Y173.31 E7.56938
G1 X169.119 Y174.311 E7.60945
G1 X169.122 Y174.43 E7.6142
G1 X169.178 Y175.103 E7.64115
G1 X169.122 Y175.583 E7.66044
G1 X169.082 Y176.152 E7.68321
G1 X169.134 Y176.44 E7.69489
G1 X169.345 Y176.891 E7.71476
G1 X169.567 Y177.223 E7.7307
G1 X170.015 Y177.683 E7.75633
G1 X170.321 Y178.017 E7.77441
G1 X170.539 Y178.167 E7.78497
G1 X170.877 Y178.291 E7.79934
G1 X171.27 Y178.354 E7.81523
G1 X173.047 Y178.276 E7.88622
G1 X174.648 Y178.312 E7.95013
G1 X174.286 Y178.82 E7.97503
G1 X173.825 Y179.298 E8.00153
G1 X173.364 Y179.655 E8.02481
G1 X172.821 Y179.969 E8.04984
G1 X172.265 Y180.193 E8.07377
G1 X171.659 Y180.346 E8.09871
G1 X171.053 Y180.409 E8.12303
G1 X170.428 Y180.386 E8.14799
G1 X169.834 Y180.281 E8.17207
G1 X169.241 Y180.087 E8.19697
G1 X168.708 Y179.827 E8.22064
G1 X168.179 Y179.471 E8.24609
G1 X167.732 Y179.063 E8.27024
G1 X167.344 Y178.605 E8.2942
G1 X167.018 Y178.085 E8.31869
G1 X166.761 Y177.506 E8.34398
G1 X166.593 Y176.918 E8.36839
G1 X166.511 Y176.324 E8.39232
G1 X166.511 Y175.701 E8.41718
G1 X166.593 Y175.107 E8.44112
G1 X166.769 Y174.496 E8.46649
G1 X167.012 Y173.95 E8.49035
G1 X167.343 Y173.419 E8.51532
G1 X167.733 Y172.955 E8.53951
G0 F9000 X168.215 Y173.047
G1 F1800 X168.662 Y172.695 E8.56222
G1 X168.817 Y172.598 E8.56952
G1 X168.798 Y173.281 E8.59679
G1 X168.72 Y174.281 E8.63682
G1 X168.723 Y174.463 E8.64409
G1 X168.776 Y175.1 E8.6696
G1 X168.723 Y175.555 E8.68788
G1 X168.683 Y176.124 E8.71065
G1 X168.704 Y176.405 E8.7219
G1 X168.932 Y176.967 E8.7461
G1 X169.235 Y177.445 E8.76869
G1 X169.696 Y177.924 E8.79522
G1 X170.028 Y178.289 E8.81492
G1 X170.392 Y178.538 E8.83252
G1 X170.795 Y178.683 E8.84961
G1 X171.288 Y178.754 E8.86949
G1 X173.056 Y178.677 E8.94012
G1 X173.861 Y178.695 E8.97226
G1 X173.365 Y179.161 E8.99942
G1 X172.891 Y179.479 E9.02221
G1 X172.413 Y179.714 E9.04346
G1 X171.854 Y179.896 E9.06693
G1 X171.31 Y179.989 E9.08896
G1 X170.769 Y180.009 E9.11056
G1 X170.198 Y179.949 E9.13348
G1 X169.681 Y179.821 E9.15474
G1 X169.155 Y179.611 E9.17734
G1 X168.656 Y179.322 E9.20036
G1 X168.233 Y178.993 E9.22174
G1 X167.827 Y178.574 E9.24503
G1 X167.502 Y178.124 E9.26718
G1 X167.252 Y177.653 E9.28847
G1 X167.057 Y177.123 E9.31101
G1 X166.94 Y176.581 E9.33314
G1 X166.899 Y176.012 E9.35591
G1 X166.94 Y175.443 E9.37868
G1 X167.054 Y174.911 E9.40039
G1 X167.242 Y174.393 E9.42238
G1 X167.504 Y173.899 E9.4447
G1 X167.832 Y173.444 E9.46709
G1 X168.215 Y173.047 E9.48911
G0 F9000 X168.384 Y173.44
G1 F1800 X168.321 Y174.25 E9.52153
G1 X168.325 Y174.496 E9.53135
G1 X168.374 Y175.091 E9.55518
G1 X168.324 Y175.527 E9.5727
G1 X168.284 Y176.096 E9.59546
G1 X168.301 Y176.429 E9.60877
G1 X168.567 Y177.13 E9.6387
G1 X168.902 Y177.667 E9.66396
G1 X169.275 Y178.044 E9.68512
G1 X169.734 Y178.561 E9.71272
G1 X169.989 Y178.777 E9.72606
G1 X170.483 Y179.005 E9.74777
G1 X170.958 Y179.125 E9.76732
G1 X171.305 Y179.154 E9.78122
G1 X172.758 Y179.09 E9.83927
G1 X172.252 Y179.347 E9.86192
G1 X171.774 Y179.503 E9.88199
G1 X171.272 Y179.591 E9.90233
G1 X170.511 Y179.59 E9.93271
G1 X169.789 Y179.436 E9.96217
G1 X169.321 Y179.247 E9.98231
G1 X168.878 Y178.989 E10.00278
G1 X168.302 Y178.502 E10.03288
G1 X167.846 Y177.919 E10.06242
G1 X167.515 Y177.238 E10.09264
G1 X167.376 Y176.751 E10.11286
G1 X167.3 Y176.009 E10.14263
G1 X167.379 Y175.258 E10.17277
G1 X167.618 Y174.533 E10.20323
G1 X167.993 Y173.887 E10.23305
G1 X168.384 Y173.44 E10.25675
G0 F9000 X167.947 Y174.783
G1 F1800 X167.972 Y175.079 E10.2686
G1 X167.925 Y175.499 E10.28547
G1 X167.885 Y176.068 E10.30824
G1 X167.899 Y176.446 E10.32334
G1 X168.039 Y176.931 E10.34348
G1 X168.348 Y177.558 E10.37138
G1 X168.812 Y178.181 E10.40239
G1 X169.058 Y178.406 E10.41569
G1 X169.441 Y178.833 E10.43859
G1 X169.493 Y178.886 E10.44155
G1 X168.925 Y178.53 E10.4683
G1 X168.435 Y178.052 E10.49563
G1 X168.075 Y177.516 E10.5214
G1 X167.826 Y176.903 E10.5478
G1 X167.709 Y176.246 E10.57444
G1 X167.732 Y175.561 E10.60179
G1 X167.896 Y174.91 E10.62859
G1 X167.947 Y174.783 E10.63405
G1 F2400 E7.43405
G0 F9000 X169.702 Y177.249
G0 X170.47 Y178.036
G0 X171.203 Y178.261
G0 X181.46 Y178.99
G0 X183.554 Y175.217
G0 X182.766 Y174.432
G0 X182.206 Y174.13
G0 X181.63 Y174.003
G0 X173.859 Y172.757
G1 F1440 E10.63405
G1 F1800 X174.062 Y172.953 E10.64531
G1 X174.848 Y173.827 E10.69223
G1 X174.487 Y173.827 E10.70664
G1 X174.315 Y173.691 E10.71539
G1 X173.899 Y173.318 E10.73769
G1 X173.779 Y173.249 E10.74321
G1 X173.755 Y173.053 E10.75109
G1 X173.859 Y172.757 E10.76362
G0 F9000 X173.563 Y172.019
G1 F1800 X174.113 Y172.447 E10.79143
G1 X174.345 Y172.67 E10.80427
G1 X175.664 Y174.138 E10.88304
G1 X175.14 Y174.2 E10.9041
G1 X174.642 Y174.249 E10.92407
G1 X174.303 Y174.19 E10.93781
G1 X174.047 Y173.988 E10.95082
G1 X173.632 Y173.616 E10.97307
G1 X173.453 Y173.499 E10.9816
G1 X173.362 Y173.195 E10.99427
G1 X173.379 Y172.916 E11.00542
G1 X173.473 Y172.661 E11.01627
G1 X173.563 Y172.019 E11.04214
G1 F2400 E7.84214
G0 F9000 X173.865 Y172.06
G0 X178.47 Y171.655
G1 F1440 E11.04214
G1 F1800 X178.931 Y171.176 E11.06868
G1 X179.463 Y170.76 E11.09563
G1 X180.054 Y170.42 E11.12285
G1 X180.672 Y170.171 E11.14944
G1 X181.309 Y170.014 E11.17562
G1 X181.971 Y169.943 E11.2022
G1 X182.661 Y169.967 E11.22975
G1 X183.323 Y170.086 E11.2566
G1 X183.947 Y170.29 E11.2828
G1 X184.555 Y170.587 E11.30981
G1 X185.092 Y170.951 E11.3357
G1 X185.596 Y171.401 E11.36267
G1 X186.022 Y171.905 E11.38901
G1 X186.389 Y172.493 E11.41667
G1 X186.66 Y173.103 E11.44331
G1 X186.842 Y173.74 E11.46975
G1 X186.934 Y174.4 E11.49635
G1 X186.934 Y175.075 E11.52329
G1 X186.842 Y175.739 E11.55004
G1 X186.66 Y176.376 E11.57649
G1 X186.379 Y177.005 E11.60398
G1 X186.028 Y177.565 E11.63036
G1 X185.607 Y178.065 E11.65645
G1 X185.106 Y178.52 E11.68346
G1 X184.537 Y178.902 E11.71081
G1 X183.949 Y179.189 E11.73693
G1 X183.318 Y179.395 E11.76342
G1 X182.659 Y179.512 E11.79013
G1 X181.977 Y179.537 E11.81737
G1 X181.319 Y179.468 E11.84378
G1 X180.665 Y179.305 E11.87068
G1 X180.047 Y179.056 E11.89727
G1 X179.454 Y178.712 E11.92463
G1 X178.926 Y178.297 E11.95144
G1 X178.674 Y178.051 E11.96549
G1 X179.806 Y178.1 E12.01072
G1 X180.503 Y178.305 E12.03971
G1 X181.164 Y178.56 E12.06799
G1 X181.289 Y178.566 E12.07298
G1 X181.411 Y178.47 E12.07918
G1 X183.112 Y175.403 E12.21916
G1 X183.135 Y175.28 E12.22415
G1 X183.077 Y175.163 E12.22936
G1 X182.597 Y174.692 E12.2562
G1 X182.127 Y174.43 E12.27768
G1 X181.596 Y174.308 E12.29943
G1 X181.128 Y174.204 E12.31856
G1 X180.296 Y174.144 E12.35185
G1 X179.42 Y174.185 E12.38686
G1 X178.604 Y174.214 E12.41944
G1 X177.811 Y174.118 E12.45133
G1 X177.278 Y174.137 E12.47261
G1 X176.968 Y174.112 E12.48503
G1 X178.08 Y172.192 E12.57358
G1 X178.47 Y171.655 E12.60007
G0 F9000 X178.761 Y171.931
G1 F1800 X179.197 Y171.475 E12.62525
G1 X179.688 Y171.091 E12.65013
G1 X180.223 Y170.782 E12.67479
G1 X180.796 Y170.552 E12.69943
G1 X181.376 Y170.408 E12.72328
G1 X181.985 Y170.343 E12.74773
G1 X182.298 Y170.343 E12.76022
G1 X182.901 Y170.405 E12.78441
G1 X183.505 Y170.554 E12.80924
