;FLAVOR:Marlin
;TIME:11946
;Filament used: 2.62662m
;Layer height: 0.16
;MINX:67.97
;MINY:87.336
;MINZ:0.16
;MAXX:152.029
;MAXY:132.664
;MAXZ:30.44
;Generated with Cura_SteamEngine 4.5.0
M140 S70
M105
M190 S70
M104 S200
M105
M109 S200
M82 ;absolute extrusion mode
M201 X500.00 Y500.00 Z100.00 E5000.00 ;Setup machine max acceleration
M203 X500.00 Y500.00 Z10.00 E50.00 ;Setup machine max feedrate
M204 P500.00 R1000.00 T500.00 ;Setup Print/Retract/Travel acceleration
M205 X8.00 Y8.00 Z0.40 E5.00 ;Setup Jerk
M220 S100 ;Reset Feedrate
M221 S100 ;Reset Flowrate

G28 ;Home

G92 E0 ;Reset Extruder
G1 Z2.0 F3000 ;Move Z Axis up
G1 X10.1 Y20 Z0.28 F5000.0 ;Move to start position
G1 X10.1 Y200.0 Z0.28 F1500.0 E15 ;Draw the first line
G1 X10.4 Y200.0 Z0.28 F5000.0 ;Move to side a little
G1 X10.4 Y20 Z0.28 F1500.0 E30 ;Draw the second line
G92 E0 ;Reset Extruder
G1 Z2.0 F3000 ;Move Z Axis up

G92 E0
G92 E0
;LAYER_COUNT:169
;LAYER:0
M107
G0 F6000 X76.287 Y92.458 Z0.16
;TYPE:SKIRT
G1 F3000 X76.679 Y92.147 E0.02417
G1 X77.296 Y91.681 E0.06151
G1 X77.81 Y91.319 E0.09187
G1 X78.343 Y90.967 E0.12271
G1 X79.014 Y90.548 E0.16092
G1 X79.541 Y90.244 E0.1903
G1 X80.035 Y89.977 E0.21742
G1 X80.709 Y89.632 E0.25399
G1 X81.286 Y89.361 E0.28477
G1 X81.775 Y89.149 E0.31051
G1 X82.492 Y88.857 E0.3479
G1 X83.111 Y88.631 E0.37972
G1 X83.679 Y88.442 E0.40863
G1 X84.417 Y88.215 E0.44592
G1 X85.015 Y88.054 E0.47583
G1 X85.576 Y87.92 E0.50368
G1 X86.299 Y87.764 E0.5394
G1 X86.962 Y87.646 E0.57193
G1 X87.507 Y87.566 E0.59853
G1 X88.273 Y87.471 E0.6358
G1 X88.892 Y87.416 E0.66582
G1 X89.495 Y87.38 E0.69499
G1 X90.598 Y87.342 E0.74829
G1 X128.245 Y87.336 E2.5664
G1 X129.887 Y87.36 E2.64571
G1 X130.876 Y87.4 E2.69351
G1 X131.493 Y87.445 E2.72339
G1 X132.287 Y87.535 E2.76198
G1 X132.937 Y87.629 E2.7937
G1 X133.554 Y87.737 E2.82395
G1 X134.123 Y87.853 E2.85199
G1 X134.899 Y88.031 E2.89044
G1 X135.483 Y88.186 E2.91962
G1 X136.044 Y88.352 E2.94787
G1 X136.762 Y88.584 E2.98431
G1 X137.338 Y88.793 E3.0139
G1 X137.94 Y89.031 E3.04517
G1 X138.636 Y89.326 E3.08167
G1 X139.177 Y89.578 E3.1105
G1 X139.708 Y89.843 E3.13916
G1 X140.395 Y90.208 E3.17673
G1 X140.923 Y90.512 E3.20615
G1 X141.421 Y90.818 E3.23438
G1 X142.026 Y91.208 E3.26914
G1 X142.567 Y91.585 E3.30098
G1 X143.068 Y91.957 E3.33112
G1 X143.652 Y92.411 E3.36684
G1 X144.159 Y92.834 E3.39873
G1 X144.556 Y93.187 E3.42439
G1 X145.093 Y93.686 E3.45979
G1 X145.535 Y94.125 E3.48987
G1 X145.999 Y94.613 E3.52239
G1 X146.54 Y95.213 E3.56141
G1 X146.914 Y95.659 E3.58952
G1 X147.23 Y96.057 E3.61406
G1 X147.72 Y96.707 E3.65337
G1 X148.074 Y97.21 E3.68308
G1 X148.385 Y97.68 E3.7103
G1 X148.787 Y98.321 E3.74684
G1 X149.098 Y98.857 E3.77676
G1 X149.427 Y99.464 E3.81011
G1 X149.764 Y100.125 E3.84594
G1 X150.002 Y100.633 E3.87303
G1 X150.204 Y101.095 E3.89738
G1 X150.522 Y101.874 E3.93802
G1 X150.748 Y102.492 E3.96979
G1 X150.937 Y103.06 E3.9987
G1 X151.162 Y103.79 E4.03559
G1 X151.325 Y104.394 E4.06581
G1 X151.454 Y104.934 E4.09262
G1 X151.613 Y105.672 E4.12908
G1 X151.733 Y106.343 E4.162
G1 X151.813 Y106.888 E4.1886
G1 X151.91 Y107.67 E4.22666
G1 X151.964 Y108.285 E4.25647
G1 X151.999 Y108.866 E4.28458
G1 X152.027 Y109.557 E4.31798
G1 X152.029 Y110.225 E4.35024
G1 X152.012 Y110.852 E4.38053
G1 X151.973 Y111.617 E4.41752
G1 X151.92 Y112.236 E4.44753
G1 X151.855 Y112.802 E4.47504
G1 X151.749 Y113.564 E4.51219
G1 X151.64 Y114.189 E4.54283
G1 X151.528 Y114.735 E4.56975
G1 X151.348 Y115.516 E4.60846
G1 X151.193 Y116.102 E4.63773
G1 X151.038 Y116.627 E4.66417
G1 X150.804 Y117.357 E4.70119
G1 X150.583 Y117.966 E4.73247
G1 X150.344 Y118.57 E4.76384
G1 X150.053 Y119.258 E4.79992
G1 X149.802 Y119.797 E4.82863
G1 X149.563 Y120.277 E4.85453
G1 X149.204 Y120.96 E4.89179
G1 X148.878 Y121.527 E4.92338
G1 X148.547 Y122.065 E4.95389
G1 X148.143 Y122.689 E4.98979
G1 X147.776 Y123.214 E5.02072
G1 X147.429 Y123.681 E5.04882
G1 X146.961 Y124.283 E5.08564
G1 X146.545 Y124.78 E5.11694
G1 X146.193 Y125.176 E5.14253
G1 X145.693 Y125.714 E5.178
G1 X145.253 Y126.157 E5.20815
G1 X144.767 Y126.619 E5.24054
G1 X144.169 Y127.158 E5.27942
G1 X143.72 Y127.535 E5.30773
G1 X143.322 Y127.851 E5.33227
G1 X142.702 Y128.319 E5.36979
G1 X142.191 Y128.678 E5.39995
G1 X141.663 Y129.027 E5.43051
G1 X140.983 Y129.453 E5.46927
G1 X140.457 Y129.756 E5.49858
G1 X139.963 Y130.023 E5.5257
G1 X139.289 Y130.368 E5.56227
G1 X138.712 Y130.639 E5.59305
G1 X138.223 Y130.851 E5.61879
G1 X137.506 Y131.143 E5.65618
G1 X136.898 Y131.366 E5.68745
G1 X136.305 Y131.564 E5.71765
G1 X135.605 Y131.78 E5.75303
G1 X135.01 Y131.94 E5.78278
G1 X134.434 Y132.078 E5.81139
G1 X133.685 Y132.239 E5.84838
G1 X133.039 Y132.353 E5.88006
G1 X132.485 Y132.434 E5.9071
G1 X131.742 Y132.527 E5.94326
G1 X131.087 Y132.585 E5.97502
G1 X130.491 Y132.62 E6.00385
G1 X129.4 Y132.658 E6.05657
G1 X91.753 Y132.664 E7.87469
G1 X90.111 Y132.64 E7.95399
G1 X89.122 Y132.6 E8.0018
G1 X88.508 Y132.556 E8.03152
G1 X87.727 Y132.467 E8.06949
G1 X87.067 Y132.372 E8.10169
G1 X86.432 Y132.261 E8.13282
G1 X85.866 Y132.145 E8.16072
G1 X85.087 Y131.966 E8.19932
G1 X84.509 Y131.812 E8.22821
G1 X83.982 Y131.656 E8.25475
G1 X83.27 Y131.427 E8.29087
G1 X82.653 Y131.204 E8.32256
G1 X82.049 Y130.965 E8.35393
G1 X81.352 Y130.67 E8.39048
G1 X80.806 Y130.415 E8.41958
G1 X80.282 Y130.153 E8.44787
G1 X79.603 Y129.792 E8.48501
G1 X79.082 Y129.492 E8.51405
G1 X78.575 Y129.181 E8.54277
G1 X77.956 Y128.782 E8.57834
G1 X77.431 Y128.415 E8.60927
G1 X76.93 Y128.043 E8.63941
G1 X76.337 Y127.582 E8.67568
G1 X75.84 Y127.166 E8.70698
G1 X75.445 Y126.815 E8.7325
G1 X74.903 Y126.312 E8.76821
G1 X74.461 Y125.873 E8.7983
G1 X73.998 Y125.386 E8.83075
G1 X73.459 Y124.788 E8.86963
G1 X73.078 Y124.333 E8.89829
G1 X72.764 Y123.937 E8.92269
G1 X72.301 Y123.326 E8.95972
G1 X71.935 Y122.804 E8.9905
G1 X71.58 Y122.266 E9.02163
G1 X71.167 Y121.605 E9.05927
G1 X70.855 Y121.064 E9.08943
G1 X70.587 Y120.567 E9.1167
G1 X70.238 Y119.884 E9.15375
G1 X69.973 Y119.316 E9.18401
G1 X69.765 Y118.835 E9.20932
G1 X69.478 Y118.13 E9.24608
G1 X69.251 Y117.513 E9.27783
G1 X69.062 Y116.946 E9.3067
G1 X68.834 Y116.202 E9.34428
G1 X68.673 Y115.604 E9.37418
G1 X68.539 Y115.043 E9.40204
G1 X68.383 Y114.32 E9.43776
G1 X68.265 Y113.657 E9.47028
G1 X68.185 Y113.112 E9.49688
G1 X68.089 Y112.332 E9.53484
G1 X68.034 Y111.709 E9.56504
G1 X67.999 Y111.116 E9.59373
G1 X67.971 Y110.342 E9.63113
G1 X67.97 Y109.718 E9.66127
G1 X67.984 Y109.199 E9.68634
G1 X68.022 Y108.437 E9.72319
G1 X68.076 Y107.807 E9.75372
G1 X68.152 Y107.144 E9.78595
G1 X68.246 Y106.456 E9.81949
G1 X68.358 Y105.813 E9.85101
G1 X68.474 Y105.247 E9.87891
G1 X68.653 Y104.468 E9.91751
G1 X68.807 Y103.89 E9.9464
G1 X68.963 Y103.363 E9.97294
G1 X69.192 Y102.651 E10.00906
G1 X69.415 Y102.034 E10.04074
G1 X69.654 Y101.43 E10.07211
G1 X69.947 Y100.74 E10.10832
G1 X70.197 Y100.202 E10.13697
G1 X70.462 Y99.671 E10.16563
G1 X70.821 Y98.994 E10.20263
G1 X71.133 Y98.451 E10.23288
G1 X71.44 Y97.952 E10.26117
G1 X71.827 Y97.353 E10.29561
G1 X72.204 Y96.812 E10.32746
G1 X72.576 Y96.311 E10.35759
G1 X73.033 Y95.722 E10.3936
G1 X73.453 Y95.22 E10.42521
G1 X73.805 Y94.824 E10.45079
G1 X74.305 Y94.286 E10.48626
G1 X74.744 Y93.844 E10.51635
G1 X75.232 Y93.38 E10.54887
G1 X75.779 Y92.888 E10.5844
G0 F2700 X75.843 Y92.83
G0 X76.287 Y92.458
G0 F6000 X76.66 Y92.928
G1 F3000 X77.052 Y92.617 E10.60856
G1 X77.655 Y92.161 E10.64507
G1 X78.141 Y91.82 E10.67375
G1 X78.674 Y91.468 E10.70459
G1 X79.328 Y91.059 E10.74185
G1 X79.827 Y90.772 E10.76965
G1 X80.321 Y90.505 E10.79676
G1 X80.979 Y90.168 E10.83247
G1 X81.525 Y89.912 E10.86159
G1 X82.014 Y89.7 E10.88733
G1 X82.715 Y89.414 E10.92389
G1 X83.3 Y89.2 E10.95398
G1 X83.868 Y89.011 E10.98288
G1 X84.589 Y88.79 E11.0193
G1 X85.154 Y88.638 E11.04756
G1 X85.715 Y88.504 E11.07541
G1 X86.423 Y88.351 E11.1104
G1 X87.049 Y88.239 E11.14111
G1 X87.594 Y88.159 E11.16771
G1 X88.342 Y88.067 E11.20411
G1 X88.928 Y88.015 E11.23252
G1 X89.531 Y87.979 E11.26169
G1 X90.617 Y87.942 E11.31417
G1 X128.245 Y87.936 E13.13136
G1 X129.878 Y87.96 E13.21024
G1 X130.849 Y87.999 E13.25717
G1 X131.432 Y88.042 E13.2854
G1 X132.201 Y88.129 E13.32277
G1 X132.851 Y88.223 E13.35449
G1 X133.435 Y88.325 E13.38312
G1 X134.004 Y88.441 E13.41117
G1 X134.76 Y88.614 E13.44862
G1 X135.313 Y88.761 E13.47625
G1 X135.874 Y88.927 E13.50451
G1 X136.573 Y89.153 E13.53998
G1 X137.118 Y89.351 E13.56799
G1 X137.72 Y89.589 E13.59925
G1 X138.398 Y89.877 E13.63483
G1 X138.909 Y90.115 E13.66205
G1 X139.44 Y90.38 E13.69071
G1 X140.11 Y90.736 E13.72735
G1 X140.609 Y91.023 E13.75515
G1 X141.107 Y91.329 E13.78338
G1 X141.698 Y91.71 E13.81734
G1 X142.209 Y92.066 E13.84741
G1 X142.71 Y92.438 E13.87755
G1 X143.282 Y92.883 E13.91255
G1 X143.76 Y93.283 E13.94265
G1 X144.157 Y93.636 E13.9683
G1 X144.683 Y94.124 E14.00295
G1 X145.1 Y94.539 E14.03137
G1 X145.564 Y95.027 E14.06389
G1 X146.09 Y95.611 E14.10184
G1 X146.444 Y96.032 E14.12841
G1 X146.76 Y96.43 E14.15295
G1 X147.239 Y97.065 E14.19136
G1 X147.574 Y97.541 E14.21947
G1 X147.885 Y98.011 E14.24669
G1 X148.277 Y98.636 E14.28232
G1 X148.57 Y99.143 E14.3106
G1 X148.899 Y99.75 E14.34394
G1 X149.228 Y100.394 E14.37887
G1 X149.452 Y100.874 E14.40445
G1 X149.654 Y101.336 E14.4288
G1 X149.965 Y102.097 E14.4685
G1 X150.179 Y102.681 E14.49854
G1 X150.368 Y103.249 E14.52745
G1 X150.587 Y103.963 E14.56352
G1 X150.741 Y104.534 E14.59208
G1 X150.87 Y105.074 E14.61889
G1 X151.026 Y105.796 E14.65456
G1 X151.14 Y106.43 E14.68567
G1 X151.22 Y106.975 E14.71227
G1 X151.314 Y107.74 E14.7495
G1 X151.365 Y108.321 E14.77766
G1 X151.4 Y108.902 E14.80577
G1 X151.427 Y109.578 E14.83844
G1 X151.429 Y110.209 E14.86892
G1 X151.412 Y110.836 E14.89921
G1 X151.374 Y111.583 E14.93533
G1 X151.324 Y112.167 E14.96364
G1 X151.259 Y112.733 E14.99115
G1 X151.155 Y113.478 E15.02748
G1 X151.052 Y114.069 E15.05645
G1 X150.94 Y114.615 E15.08337
G1 X150.764 Y115.379 E15.12123
G1 X150.617 Y115.932 E15.14887
G1 X150.462 Y116.457 E15.1753
G1 X150.234 Y117.17 E15.21145
G1 X150.025 Y117.745 E15.241
G1 X149.786 Y118.349 E15.27237
G1 X149.502 Y119.02 E15.30756
G1 X149.265 Y119.53 E15.33472
G1 X149.026 Y120.01 E15.36061
G1 X148.675 Y120.676 E15.39697
G1 X148.367 Y121.212 E15.42682
G1 X148.036 Y121.75 E15.45733
G1 X147.641 Y122.36 E15.49243
G1 X147.295 Y122.856 E15.52163
G1 X146.948 Y123.323 E15.54973
G1 X146.489 Y123.912 E15.58579
G1 X146.096 Y124.381 E15.61534
G1 X145.744 Y124.777 E15.64093
G1 X145.255 Y125.304 E15.67565
G1 X144.84 Y125.722 E15.70409
G1 X144.354 Y126.184 E15.73648
G1 X143.771 Y126.708 E15.77433
G1 X143.347 Y127.065 E15.8011
G1 X142.949 Y127.381 E15.82565
G1 X142.343 Y127.839 E15.86233
G1 X141.861 Y128.178 E15.89079
G1 X141.333 Y128.527 E15.92135
G1 X140.668 Y128.941 E15.95918
G1 X140.171 Y129.228 E15.9869
G1 X139.677 Y129.495 E16.01402
G1 X139.019 Y129.832 E16.04972
G1 X138.473 Y130.088 E16.07884
G1 X137.984 Y130.3 E16.10458
G1 X137.283 Y130.586 E16.14115
G1 X136.708 Y130.797 E16.17073
G1 X136.115 Y130.995 E16.20092
G1 X135.432 Y131.205 E16.23543
G1 X134.87 Y131.357 E16.26354
G1 X134.294 Y131.495 E16.29215
G1 X133.563 Y131.651 E16.32825
G1 X132.952 Y131.76 E16.35822
G1 X132.398 Y131.841 E16.38526
G1 X131.671 Y131.931 E16.42064
G1 X131.052 Y131.986 E16.45065
G1 X130.456 Y132.021 E16.47948
G1 X129.382 Y132.058 E16.53138
G1 X91.753 Y132.064 E18.34862
G1 X90.12 Y132.04 E18.42749
G1 X89.149 Y132.001 E18.47443
G1 X88.569 Y131.959 E18.50251
G1 X87.813 Y131.873 E18.53925
G1 X87.153 Y131.778 E18.57146
G1 X86.552 Y131.673 E18.60092
G1 X85.986 Y131.557 E18.62882
G1 X85.225 Y131.382 E18.66653
G1 X84.679 Y131.236 E18.69383
G1 X84.152 Y131.08 E18.72037
G1 X83.457 Y130.857 E18.75562
G1 X82.874 Y130.646 E18.78556
G1 X82.27 Y130.407 E18.81693
G1 X81.591 Y130.119 E18.85255
G1 X81.075 Y129.879 E18.88004
G1 X80.551 Y129.617 E18.90833
G1 X79.888 Y129.264 E18.9446
G1 X79.395 Y128.981 E18.97206
G1 X78.888 Y128.67 E19.00078
G1 X78.285 Y128.28 E19.03546
G1 X77.789 Y127.934 E19.06467
G1 X77.288 Y127.562 E19.0948
G1 X76.708 Y127.111 E19.13029
G1 X76.238 Y126.717 E19.1599
G1 X75.843 Y126.366 E19.18542
G1 X75.313 Y125.874 E19.22035
G1 X74.896 Y125.46 E19.24872
G1 X74.433 Y124.973 E19.28118
G1 X73.909 Y124.39 E19.31903
G1 X73.548 Y123.961 E19.34611
G1 X73.234 Y123.565 E19.37052
G1 X72.782 Y122.966 E19.40676
G1 X72.436 Y122.474 E19.4358
G1 X72.081 Y121.936 E19.46693
G1 X71.678 Y121.291 E19.50366
G1 X71.383 Y120.78 E19.53216
G1 X71.115 Y120.283 E19.55943
G1 X70.775 Y119.615 E19.59563
G1 X70.524 Y119.078 E19.62425
G1 X70.316 Y118.597 E19.64956
G1 X70.035 Y117.906 E19.68559
G1 X69.821 Y117.323 E19.71558
G1 X69.632 Y116.756 E19.74444
G1 X69.409 Y116.03 E19.78112
G1 X69.257 Y115.465 E19.80938
G1 X69.123 Y114.904 E19.83723
G1 X68.97 Y114.196 E19.87221
G1 X68.858 Y113.57 E19.90292
G1 X68.778 Y113.025 E19.92953
G1 X68.685 Y112.263 E19.9666
G1 X68.633 Y111.674 E19.99515
G1 X68.598 Y111.081 E20.02384
G1 X68.571 Y110.324 E20.06042
G1 X68.57 Y109.734 E20.08892
G1 X68.584 Y109.215 E20.11399
G1 X68.621 Y108.47 E20.15001
G1 X68.672 Y107.875 E20.17885
G1 X68.748 Y107.212 E20.21108
G1 X68.84 Y106.541 E20.24379
G1 X68.946 Y105.933 E20.2736
G1 X69.062 Y105.367 E20.3015
G1 X69.237 Y104.606 E20.33921
G1 X69.383 Y104.06 E20.3665
G1 X69.539 Y103.533 E20.39305
G1 X69.762 Y102.838 E20.4283
G1 X69.973 Y102.255 E20.45824
G1 X70.212 Y101.651 E20.48961
G1 X70.497 Y100.978 E20.5249
G1 X70.734 Y100.47 E20.55198
G1 X70.999 Y99.939 E20.58064
G1 X71.349 Y99.278 E20.61676
G1 X71.644 Y98.766 E20.64529
G1 X71.951 Y98.267 E20.67359
G1 X72.329 Y97.681 E20.70727
G1 X72.685 Y97.17 E20.73734
G1 X73.057 Y96.669 E20.76748
G1 X73.505 Y96.093 E20.80272
G1 X73.902 Y95.619 E20.83258
G1 X74.254 Y95.223 E20.85817
G1 X74.743 Y94.696 E20.89288
G1 X75.158 Y94.279 E20.9213
G1 X75.646 Y93.815 E20.95382
G1 X76.153 Y93.359 E20.98675
G0 F2700 X76.24 Y93.28
G0 X76.66 Y92.928
;MESH:AirpodsPro_Bottom_tpu.stl
G0 F6000 X86.157 Y98.544
G0 X86.627 Y99.669
G0 X84.824 Y100.62
G0 X83.983 Y101.197
G0 X83.2 Y101.846
G0 X82.48 Y102.565
G0 X81.83 Y103.347
G0 X81.252 Y104.187
G0 X80.755 Y105.077
G0 X80.344 Y106.007
G0 X80.02 Y106.975
G0 X79.786 Y107.964
G0 X79.643 Y108.973
G0 X79.596 Y109.989
G0 X79.64 Y111.004
G0 X79.781 Y112.013
G0 X80.013 Y113.005
G0 X80.335 Y113.972
G0 X80.744 Y114.903
G0 X81.239 Y115.795
G0 X81.816 Y116.636
G0 X82.472 Y117.427
G0 X83.192 Y118.147
G0 X83.974 Y118.797
G0 X84.806 Y119.367
G0 X85.696 Y119.864
G0 X86.626 Y120.275
G0 X87.594 Y120.599
G0 X88.583 Y120.833
G0 X89.592 Y120.976
G0 X89.877 Y120.988
G0 X128.997 Y120.994
G0 X128.998 Y120.884
;TYPE:WALL-OUTER
G1 F600 X130.37 Y120.84 E21.05304
G1 X131.369 Y120.701 E21.10175
G1 X132.347 Y120.472 E21.15026
G1 X133.301 Y120.154 E21.19882
G1 X134.22 Y119.75 E21.24731
G1 X135.1 Y119.261 E21.29592
G1 X135.929 Y118.692 E21.34448
G1 X136.711 Y118.044 E21.39353
G1 X137.423 Y117.335 E21.44206
G1 X138.067 Y116.561 E21.49068
G1 X138.628 Y115.739 E21.53874
G1 X139.118 Y114.861 E21.5873
G1 X139.524 Y113.943 E21.63578
G1 X139.844 Y112.989 E21.68437
G1 X140.077 Y112.01 E21.73297
G1 X140.216 Y111.015 E21.78149
G1 X140.264 Y110.011 E21.83003
G1 X140.219 Y109.008 E21.87852
G1 X140.082 Y108.012 E21.92707
G1 X139.851 Y107.032 E21.9757
G1 X139.533 Y106.078 E22.02426
G1 X139.129 Y105.159 E22.07274
G1 X138.641 Y104.279 E22.12134
G1 X138.073 Y103.448 E22.16995
G1 X137.43 Y102.674 E22.21855
G1 X136.719 Y101.964 E22.26707
G1 X135.946 Y101.322 E22.3156
G1 X135.119 Y100.751 E22.36413
G1 X134.24 Y100.261 E22.41273
G1 X133.322 Y99.855 E22.46121
G1 X132.367 Y99.535 E22.50985
G1 X131.391 Y99.304 E22.55829
G1 X130.394 Y99.163 E22.60691
G1 X129.397 Y99.117 E22.65512
G1 X91 Y99.116 E24.50945
G1 X89.628 Y99.16 E24.57574
G1 X88.631 Y99.299 E24.62436
G1 X87.651 Y99.528 E24.67296
G1 X86.697 Y99.846 E24.72152
G1 X85.778 Y100.25 E24.77
G1 X84.898 Y100.739 E24.81862
G1 X84.067 Y101.308 E24.86726
G1 X83.293 Y101.949 E24.9158
G1 X82.583 Y102.658 E24.96425
G1 X81.941 Y103.431 E25.01278
G1 X81.37 Y104.261 E25.06143
G1 X80.88 Y105.139 E25.10999
G1 X80.474 Y106.057 E25.15847
G1 X80.154 Y107.012 E25.20711
G1 X79.923 Y107.99 E25.25564
G1 X79.782 Y108.985 E25.30417
G1 X79.736 Y109.989 E25.35271
