;FLAVOR:Marlin
;TIME:10860
;Filament used: 8.51737m
;Layer height: 0.2
;MINX:64.325
;MINY:73.762
;MINZ:0.2
;MAXX:158.089
;MAXY:146.711
;MAXZ:42
;Generated with Cura_SteamEngine main
M82 ;absolute extrusion mode
M201 X500.00 Y500.00 Z100.00 E5000.00 ;Setup machine max acceleration
M203 X500.00 Y500.00 Z10.00 E50.00 ;Setup machine max feedrate
M204 P500.00 R1000.00 T500.00 ;Setup Print/Retract/Travel acceleration
M205 X8.00 Y8.00 Z0.40 E5.00 ;Setup Jerk
M220 S100 ;Reset Feedrate
M221 S100 ;Reset Flowrate

;*** Start Dual Nozzle/Bed Preheating ***
M140 S0 ; start preheating the bed
M104 S200 ?T0 ; start preheating hotend
M190 S0 ; heat to Cura Bed setting and WAIT
M109 S200 ?T0 ; heat to Cura Hotend and WAIT
;*** End Preheating ***


;*** Single Print Start Tone
M300 S1000 P500 ; chirp to indicate starting to print
;*** End Single Start Tone

G28 ;Home

G92 E0 ;Reset Extruder
G1 Z2.0 F3000 ;Move Z Axis up
G1 X10.1 Y20 Z0.28 F5000.0 ;Move to start position
G1 X10.1 Y200.0 Z0.28 F1500.0 E15 ;Draw the first line
G1 X10.4 Y200.0 Z0.28 F5000.0 ;Move to side a little
G1 X10.4 Y20 Z0.28 F1500.0 E30 ;Draw the second line
G92 E0 ;Reset Extruder
G1 Z2.0 F3000 ;Move Z Axis up
G92 E0
G92 E0
G1 F900 E-3
;LAYER_COUNT:210
;LAYER:0
M107
M204 S500
M205 X10 Y10
G0 F7500 X70.285 Y82.807 Z0.2
G0 X64.585 Y93.334
;TYPE:SKIRT
G1 F900 E0
G1 F1500 X64.68 Y92.681 E0.02346
G1 X64.853 Y91.773 E0.05631
G1 X65.103 Y90.884 E0.08914
G1 X65.311 Y90.307 E0.11094
G1 X65.641 Y89.469 E0.14296
G1 X66.109 Y88.357 E0.18584
G1 X66.507 Y87.523 E0.21869
G1 X66.975 Y86.726 E0.25155
G1 X67.357 Y86.174 E0.27541
G1 X67.885 Y85.461 E0.30695
G1 X68.649 Y84.48 E0.35115
G1 X69.25 Y83.778 E0.38399
G1 X69.909 Y83.13 E0.41685
G1 X70.285 Y82.807 E0.43447
G1 X72.106 Y81.314 E0.51817
G1 X74.983 Y78.781 E0.65443
G1 X75.41 Y78.389 E0.67504
G1 X76.362 Y77.613 E0.71869
G1 X76.815 Y77.285 E0.73857
G1 X77.357 Y76.911 E0.76198
G1 X78.143 Y76.427 E0.79479
G1 X78.663 Y76.155 E0.81565
G1 X79.171 Y75.907 E0.83575
G1 X79.731 Y75.649 E0.85767
G1 X80.589 Y75.306 E0.89051
G1 X81.197 Y75.113 E0.91319
G1 X81.784 Y74.946 E0.93488
G1 X82.357 Y74.797 E0.95593
G1 X83.261 Y74.608 E0.98876
G1 X83.881 Y74.526 E1.01099
G1 X84.354 Y74.477 E1.02789
G1 X85.041 Y74.422 E1.05239
G1 X85.964 Y74.394 E1.08521
G1 X86.593 Y74.421 E1.10759
G1 X89.793 Y74.653 E1.22164
G1 X92.316 Y74.771 E1.31142
G1 X94.856 Y74.817 E1.40173
G1 X97.37 Y74.793 E1.4911
G1 X99.899 Y74.697 E1.58106
G1 X102.42 Y74.529 E1.67087
G1 X104.944 Y74.29 E1.76099
G1 X107.128 Y74.023 E1.83921
G1 X107.785 Y73.935 E1.86277
G1 X108.599 Y73.846 E1.89188
G1 X109.296 Y73.79 E1.91673
G1 X110.219 Y73.762 E1.94956
G1 X110.827 Y73.787 E1.97119
G1 X111.423 Y73.829 E1.99243
G1 X112.095 Y73.894 E2.01642
G1 X113.095 Y74.047 E2.05238
G1 X115.372 Y74.508 E2.13497
G1 X117.868 Y74.945 E2.22504
G1 X120.376 Y75.312 E2.31514
G1 X122.868 Y75.604 E2.40433
G1 X125.391 Y75.829 E2.49437
G1 X127.941 Y75.983 E2.58518
G1 X130.423 Y76.063 E2.67345
G1 X132.96 Y76.072 E2.76364
G1 X135.508 Y76.009 E2.85424
G1 X137.987 Y75.879 E2.94248
G1 X141.506 Y75.587 E3.068
G1 X142.429 Y75.551 E3.10083
G1 X143.145 Y75.578 E3.1263
G1 X143.735 Y75.62 E3.14733
G1 X144.332 Y75.675 E3.16864
G1 X145.246 Y75.807 E3.20147
G1 X145.869 Y75.944 E3.22414
G1 X146.41 Y76.08 E3.24397
G1 X147.054 Y76.259 E3.26773
G1 X147.931 Y76.55 E3.30057
G1 X148.468 Y76.772 E3.32123
G1 X148.897 Y76.963 E3.33792
G1 X149.517 Y77.256 E3.3623
G1 X150.332 Y77.692 E3.39515
G1 X150.872 Y78.034 E3.41788
G1 X151.357 Y78.362 E3.43869
G1 X151.867 Y78.724 E3.46092
G1 X152.592 Y79.297 E3.49377
G1 X153.048 Y79.714 E3.51573
G1 X153.439 Y80.093 E3.53509
G1 X153.882 Y80.541 E3.55749
G1 X154.497 Y81.23 E3.59032
G1 X154.875 Y81.72 E3.61231
G1 X155.174 Y82.132 E3.63041
G1 X155.551 Y82.678 E3.654
G1 X156.037 Y83.464 E3.68684
G1 X156.315 Y83.996 E3.70818
G1 X156.587 Y84.553 E3.73022
G1 X156.854 Y85.134 E3.75295
G1 X157.194 Y85.993 E3.78578
G1 X157.38 Y86.582 E3.80774
G1 X157.513 Y87.051 E3.82507
G1 X157.676 Y87.675 E3.848
G1 X157.866 Y88.579 E3.88083
G1 X157.95 Y89.203 E3.90321
G1 X158.007 Y89.745 E3.92259
G1 X158.06 Y90.383 E3.94534
G1 X158.089 Y91.306 E3.97817
G1 X158.064 Y91.927 E4.00026
G1 X158.025 Y92.484 E4.02011
G1 X157.962 Y93.151 E4.04392
G1 X157.801 Y94.21 E4.082
G1 X157.234 Y96.986 E4.18272
G1 X156.795 Y99.495 E4.27326
G1 X156.433 Y101.984 E4.36266
G1 X156.141 Y104.486 E4.45221
G1 X155.919 Y107.015 E4.54245
G1 X155.768 Y109.526 E4.63187
G1 X155.689 Y112.074 E4.72248
G1 X155.675 Y113.684 E4.77972
G1 X155.675 Y123.948 E5.14457
G1 X155.712 Y126.571 E5.23782
G1 X155.82 Y129.114 E5.32829
G1 X155.857 Y129.808 E5.353
G1 X155.845 Y131.138 E5.40028
G1 X155.804 Y131.711 E5.4207
G1 X155.746 Y132.328 E5.44273
G1 X155.613 Y133.243 E5.4756
G1 X155.478 Y133.859 E5.49801
G1 X155.342 Y134.4 E5.51784
G1 X155.163 Y135.044 E5.5416
G1 X154.872 Y135.921 E5.57445
G1 X154.647 Y136.464 E5.59534
G1 X154.453 Y136.899 E5.61227
G1 X154.167 Y137.504 E5.63606
G1 X153.732 Y138.319 E5.6689
G1 X153.39 Y138.858 E5.69159
G1 X153.065 Y139.339 E5.71222
G1 X152.696 Y139.859 E5.73489
G1 X152.123 Y140.584 E5.76774
G1 X151.71 Y141.036 E5.7895
G1 X151.337 Y141.421 E5.80856
G1 X150.883 Y141.869 E5.83123
G1 X150.195 Y142.485 E5.86406
G1 X149.702 Y142.865 E5.88618
G1 X149.29 Y143.164 E5.90428
G1 X148.74 Y143.544 E5.92804
G1 X147.954 Y144.029 E5.96087
G1 X147.415 Y144.311 E5.98249
G1 X146.865 Y144.579 E6.00424
G1 X146.28 Y144.847 E6.02712
G1 X145.421 Y145.187 E6.05996
G1 X144.851 Y145.367 E6.0812
G1 X144.384 Y145.5 E6.09846
G1 X143.74 Y145.668 E6.12212
G1 X142.835 Y145.857 E6.15499
G1 X142.225 Y145.94 E6.17687
G1 X141.667 Y145.999 E6.19682
G1 X141.005 Y146.053 E6.22043
G1 X140.081 Y146.079 E6.25328
G1 X139.482 Y146.053 E6.2746
G1 X138.611 Y145.987 E6.30565
G1 X138.062 Y145.93 E6.32527
G1 X135.305 Y145.606 E6.42394
G1 X132.772 Y145.383 E6.51433
G1 X130.273 Y145.235 E6.60332
G1 X127.731 Y145.156 E6.69372
G1 X125.222 Y145.148 E6.78291
G1 X122.684 Y145.212 E6.87316
G1 X120.134 Y145.349 E6.96393
G1 X117.683 Y145.55 E7.05135
G1 X114.223 Y145.951 E7.17516
G1 X113.314 Y146.047 E7.20766
G1 X112.653 Y146.101 E7.23123
G1 X111.729 Y146.127 E7.26409
G1 X111.13 Y146.101 E7.2854
G1 X110.239 Y146.033 E7.31716
G1 X109.29 Y145.936 E7.35107
G1 X107.699 Y145.751 E7.40801
G1 X105.164 Y145.528 E7.49847
G1 X102.647 Y145.377 E7.5881
G1 X100.115 Y145.299 E7.67815
G1 X97.606 Y145.291 E7.76734
G1 X95.058 Y145.355 E7.85794
G1 X92.524 Y145.491 E7.94814
G1 X90.025 Y145.696 E8.03727
G1 X87.545 Y145.97 E8.12596
G1 X83.761 Y146.519 E8.26188
G1 X82.804 Y146.629 E8.29612
G1 X82.128 Y146.684 E8.32023
G1 X81.204 Y146.711 E8.35309
G1 X80.604 Y146.686 E8.37444
G1 X79.991 Y146.643 E8.39628
G1 X79.346 Y146.582 E8.41931
G1 X78.433 Y146.445 E8.45213
G1 X77.767 Y146.294 E8.47641
G1 X76.943 Y146.079 E8.50668
G1 X76.06 Y145.807 E8.53952
G1 X75.277 Y145.494 E8.56949
G1 X74.743 Y145.255 E8.59029
G1 X74.199 Y144.997 E8.61169
G1 X73.385 Y144.56 E8.64453
G1 X72.866 Y144.23 E8.6664
G1 X72.41 Y143.922 E8.68596
G1 X71.878 Y143.544 E8.70916
G1 X71.153 Y142.972 E8.74198
G1 X70.691 Y142.55 E8.76422
G1 X70.293 Y142.164 E8.78393
G1 X69.855 Y141.72 E8.8061
G1 X69.239 Y141.031 E8.83896
G1 X68.863 Y140.543 E8.86085
G1 X68.564 Y140.131 E8.87895
G1 X68.173 Y139.564 E8.90343
G1 X67.688 Y138.777 E8.93629
G1 X67.419 Y138.263 E8.95692
G1 X67.171 Y137.756 E8.97698
G1 X66.888 Y137.138 E9.00114
G1 X66.548 Y136.279 E9.03398
G1 X66.368 Y135.708 E9.05526
G1 X66.217 Y135.178 E9.07485
G1 X66.043 Y134.506 E9.09953
G1 X65.863 Y133.642 E9.1309
G1 X65.748 Y132.943 E9.15608
G1 X65.291 Y130.379 E9.24866
G1 X64.823 Y128.102 E9.33129
G1 X64.706 Y127.457 E9.35459
G1 X64.561 Y126.483 E9.38959
G1 X64.409 Y125.248 E9.43383
G1 X64.339 Y124.312 E9.46719
G1 X64.327 Y123.757 E9.48692
G1 X64.325 Y96.709 E10.44839
G1 X64.336 Y95.857 E10.47868
G1 X64.38 Y95.027 E10.50823
G1 X64.444 Y94.413 E10.53017
G1 X64.585 Y93.334 E10.56885
G1 F900 E7.56885
G0 F7500 X64.775 Y96.709
G1 F900 E10.56885
G1 F1500 X64.786 Y95.864 E10.59889
G1 X64.828 Y95.068 E10.62723
G1 X64.891 Y94.471 E10.64857
G1 X65.031 Y93.399 E10.687
G1 X65.126 Y92.746 E10.71045
G1 X65.295 Y91.858 E10.74258
G1 X65.543 Y90.988 E10.77474
G1 X65.73 Y90.471 E10.79428
G1 X66.06 Y89.633 E10.8263
G1 X66.524 Y88.532 E10.86877
G1 X66.913 Y87.717 E10.90087
G1 X67.373 Y86.938 E10.93303
G1 X67.719 Y86.442 E10.95453
G1 X68.414 Y85.509 E10.99588
G1 X69.003 Y84.757 E11.02984
G1 X69.592 Y84.071 E11.06198
G1 X70.57 Y83.155 E11.10961
G1 X72.4 Y81.654 E11.19374
G1 X75.291 Y79.108 E11.33068
G1 X75.714 Y78.721 E11.35106
G1 X76.626 Y77.977 E11.39289
G1 X77.079 Y77.649 E11.41278
G1 X77.609 Y77.284 E11.43565
G1 X78.379 Y76.81 E11.46779
G1 X78.86 Y76.559 E11.48708
G1 X79.368 Y76.311 E11.50717
G1 X79.916 Y76.059 E11.52861
G1 X80.756 Y75.724 E11.56076
G1 X81.32 Y75.546 E11.58178
G1 X81.907 Y75.379 E11.60348
G1 X82.467 Y75.233 E11.62405
G1 X83.353 Y75.049 E11.65621
G1 X83.927 Y74.973 E11.6768
G1 X84.4 Y74.924 E11.6937
G1 X85.074 Y74.87 E11.71774
G1 X85.978 Y74.844 E11.74988
G1 X86.561 Y74.87 E11.77063
G1 X89.741 Y75.1 E11.88396
G1 X92.322 Y75.221 E11.97581
G1 X94.853 Y75.267 E12.06579
G1 X97.355 Y75.243 E12.15473
G1 X99.947 Y75.145 E12.24694
G1 X102.454 Y74.978 E12.33625
G1 X104.971 Y74.739 E12.42612
G1 X108.139 Y74.346 E12.5396
G1 X108.646 Y74.293 E12.55772
G1 X109.329 Y74.238 E12.58208
G1 X110.233 Y74.212 E12.61422
G1 X110.796 Y74.236 E12.63426
G1 X111.392 Y74.278 E12.65549
G1 X112.047 Y74.341 E12.67888
G1 X113.005 Y74.488 E12.71334
G1 X115.278 Y74.948 E12.79577
G1 X117.793 Y75.389 E12.88654
G1 X120.328 Y75.759 E12.9776
G1 X122.814 Y76.051 E13.06658
G1 X125.358 Y76.278 E13.15737
G1 X127.9 Y76.431 E13.24789
G1 X130.441 Y76.513 E13.33826
G1 X132.969 Y76.522 E13.42813
G1 X135.506 Y76.46 E13.51834
G1 X138.048 Y76.325 E13.60882
G1 X141.543 Y76.036 E13.73348
G1 X142.446 Y76.001 E13.76561
G1 X143.113 Y76.027 E13.78933
G1 X143.703 Y76.069 E13.81036
G1 X144.287 Y76.123 E13.83121
G1 X145.182 Y76.253 E13.86336
G1 X145.759 Y76.381 E13.88436
G1 X146.612 Y76.6 E13.91567
G1 X146.931 Y76.691 E13.92746
G1 X147.789 Y76.978 E13.95962
G1 X148.285 Y77.183 E13.9787
G1 X148.985 Y77.499 E14.006
G1 X149.322 Y77.661 E14.01929
G1 X150.119 Y78.089 E14.05145
G1 X150.62 Y78.407 E14.07254
G1 X151.105 Y78.735 E14.09336
G1 X151.603 Y79.089 E14.11507
G1 X152.312 Y79.65 E14.14721
G1 X152.735 Y80.037 E14.16759
G1 X153.126 Y80.416 E14.18695
G1 X153.559 Y80.855 E14.20887
G1 X154.161 Y81.53 E14.24102
G1 X154.51 Y81.984 E14.26137
G1 X154.99 Y82.653 E14.29064
G1 X155.179 Y82.931 E14.30259
G1 X155.654 Y83.701 E14.33475
G1 X155.911 Y84.193 E14.35448
G1 X156.183 Y84.75 E14.37652
G1 X156.443 Y85.318 E14.39872
G1 X156.776 Y86.159 E14.43087
G1 X156.947 Y86.704 E14.45118
G1 X157.08 Y87.173 E14.46851
G1 X157.24 Y87.787 E14.49106
G1 X157.425 Y88.672 E14.5232
G1 X157.503 Y89.25 E14.54393
G1 X157.56 Y89.792 E14.56331
G1 X157.611 Y90.416 E14.58556
G1 X157.639 Y91.32 E14.61771
G1 X157.615 Y91.895 E14.63817
G1 X157.576 Y92.452 E14.65802
G1 X157.515 Y93.105 E14.68133
G1 X157.36 Y94.12 E14.71783
G1 X156.788 Y96.921 E14.81945
G1 X156.356 Y99.393 E14.90865
G1 X155.985 Y101.94 E15.00015
G1 X155.695 Y104.428 E15.08918
G1 X155.47 Y106.98 E15.18025
G1 X155.318 Y109.522 E15.27077
G1 X155.239 Y112.056 E15.36089
G1 X155.225 Y113.68 E15.41862
G1 X155.225 Y123.954 E15.78383
G1 X155.262 Y126.561 E15.87651
G1 X155.376 Y129.248 E15.97211
G1 X155.407 Y129.832 E15.9929
G1 X155.396 Y131.106 E16.03819
G1 X155.355 Y131.679 E16.05861
G1 X155.298 Y132.283 E16.08017
G1 X155.168 Y133.178 E16.11232
G1 X155.041 Y133.749 E16.13311
G1 X154.822 Y134.602 E16.16442
G1 X154.731 Y134.921 E16.17621
G1 X154.444 Y135.779 E16.20837
G1 X154.236 Y136.281 E16.22769
G1 X153.921 Y136.978 E16.25488
G1 X153.762 Y137.309 E16.26793
G1 X153.335 Y138.106 E16.30007
G1 X153.017 Y138.607 E16.32116
G1 X152.692 Y139.088 E16.3418
G1 X152.331 Y139.596 E16.36395
G1 X151.77 Y140.305 E16.39609
G1 X151.387 Y140.723 E16.41624
G1 X151.014 Y141.108 E16.4353
G1 X150.569 Y141.547 E16.45752
G1 X149.895 Y142.149 E16.48964
G1 X149.438 Y142.5 E16.51012
G1 X149.026 Y142.799 E16.52822
G1 X148.487 Y143.171 E16.5515
G1 X147.717 Y143.646 E16.58366
G1 X147.218 Y143.907 E16.60368
G1 X146.668 Y144.175 E16.62542
G1 X146.096 Y144.436 E16.64777
G1 X145.255 Y144.768 E16.67991
G1 X144.728 Y144.934 E16.69955
G1 X144.261 Y145.067 E16.71681
G1 X143.629 Y145.232 E16.74003
G1 X142.743 Y145.417 E16.77221
G1 X142.178 Y145.492 E16.79247
G1 X141.62 Y145.551 E16.81241
G1 X140.972 Y145.604 E16.83552
G1 X140.068 Y145.629 E16.86767
G1 X139.514 Y145.604 E16.88738
G1 X138.656 Y145.539 E16.91797
G1 X138.115 Y145.483 E16.9373
G1 X135.362 Y145.16 E17.03584
G1 X132.807 Y144.935 E17.12701
G1 X130.277 Y144.784 E17.2171
G1 X127.746 Y144.706 E17.30711
G1 X125.212 Y144.697 E17.39719
G1 X122.649 Y144.763 E17.48833
G1 X120.143 Y144.898 E17.57754
G1 X117.624 Y145.104 E17.66738
G1 X114.28 Y145.492 E17.78704
G1 X113.267 Y145.599 E17.82325
G1 X112.62 Y145.652 E17.84633
G1 X111.716 Y145.677 E17.87847
G1 X111.162 Y145.652 E17.89819
G1 X110.284 Y145.585 E17.92949
G1 X109.335 Y145.488 E17.9634
G1 X107.756 Y145.305 E18.0199
G1 X105.193 Y145.079 E18.11136
G1 X102.653 Y144.927 E18.20181
G1 X100.13 Y144.849 E18.29154
G1 X97.596 Y144.84 E18.38162
G1 X95.024 Y144.906 E18.47307
G1 X92.532 Y145.039 E18.56178
G1 X89.976 Y145.249 E18.65294
G1 X87.486 Y145.524 E18.74199
G1 X83.696 Y146.074 E18.87813
G1 X82.756 Y146.181 E18.91176
G1 X82.095 Y146.235 E18.93533
G1 X81.191 Y146.261 E18.96748
G1 X80.636 Y146.237 E18.98723
G1 X80.023 Y146.194 E19.00907
G1 X79.394 Y146.134 E19.03153
G1 X78.499 Y146 E19.0637
G1 X77.88 Y145.859 E19.08627
G1 X77.056 Y145.644 E19.11654
G1 X76.193 Y145.377 E19.14865
G1 X75.461 Y145.083 E19.17669
G1 X74.927 Y144.844 E19.19749
G1 X74.395 Y144.592 E19.21841
G1 X73.599 Y144.163 E19.25055
G1 X73.118 Y143.857 E19.27082
G1 X72.403 Y143.369 E19.30159
G1 X72.141 Y143.18 E19.31307
G1 X71.432 Y142.619 E19.34521
G1 X71.004 Y142.227 E19.36584
G1 X70.606 Y141.841 E19.38555
G1 X70.177 Y141.406 E19.40727
G1 X69.576 Y140.731 E19.43939
G1 X69.228 Y140.279 E19.45967
G1 X68.929 Y139.867 E19.47777
G1 X68.546 Y139.311 E19.50177
G1 X68.072 Y138.541 E19.53391
G1 X67.823 Y138.065 E19.553
G1 X67.575 Y137.558 E19.57307
G1 X67.298 Y136.954 E19.59669
G1 X66.966 Y136.113 E19.62883
G1 X66.8 Y135.585 E19.6485
G1 X66.649 Y135.055 E19.66809
G1 X66.479 Y134.397 E19.69225
G1 X66.307 Y133.569 E19.72231
G1 X66.186 Y132.833 E19.74882
G1 X65.733 Y130.299 E19.84033
G1 X65.263 Y128.008 E19.92346
G1 X65.151 Y127.391 E19.94575
G1 X65.006 Y126.417 E19.98076
G1 X64.856 Y125.195 E20.02452
G1 X64.789 Y124.299 E20.05646
G1 X64.777 Y123.757 E20.07573
G1 X64.775 Y96.709 E21.0372
G1 F900 E18.0372
G0 F7500 X87.42 Y88.089
G1 F900 E21.0372
G1 F1500 X87.479 Y88.13 E21.03975
G1 X87.496 Y88.147 E21.04061
G1 X87.42 Y88.089 E21.04401
G1 F900 E18.04401
G0 F7500 X84.795 Y87.28
G1 F900 E21.04401
G1 F1500 X85.347 Y87.133 E21.06431
G1 X85.86 Y87.088 E21.08262
G1 X86.373 Y87.133 E21.10092
G1 X86.875 Y87.267 E21.11939
G1 X87.344 Y87.486 E21.13779
G1 X87.768 Y87.783 E21.15619
G1 X88.133 Y88.148 E21.17454
G1 X88.429 Y88.571 E21.19289
G1 X88.648 Y89.042 E21.21136
G1 X88.782 Y89.54 E21.22969
G1 X88.813 Y89.888 E21.24211
G1 X88.671 Y89.703 E21.2504
G1 X88.297 Y89.329 E21.2692
G1 X86.814 Y88.191 E21.33565
G1 X86.356 Y87.927 E21.35444
G1 X84.795 Y87.28 E21.41451
G0 F7500 X83.623 Y87.464
G1 F1500 X84.149 Y87.095 E21.43735
G1 X84.691 Y86.842 E21.45861
G1 X85.266 Y86.689 E21.47976
G1 X85.86 Y86.636 E21.50096
G1 X86.454 Y86.689 E21.52216
G1 X87.029 Y86.842 E21.54331
G1 X87.571 Y87.095 E21.56457
G1 X88.056 Y87.435 E21.58562
G1 X88.479 Y87.858 E21.60689
G1 X88.82 Y88.343 E21.62796
G1 X89.073 Y88.889 E21.64935
G1 X89.227 Y89.463 E21.67048
G1 X89.28 Y90.056 E21.69164
G1 X89.228 Y90.643 E21.71259
G1 X89.124 Y91.032 E21.7269
G1 X88.314 Y89.977 E21.77418
G1 X88.023 Y89.686 E21.78881
G1 X86.54 Y88.548 E21.85526
G1 X86.183 Y88.343 E21.86989
G1 X84.456 Y87.628 E21.93634
G1 X84.06 Y87.521 E21.95092
G1 X83.623 Y87.464 E21.96658
G0 F7500 X82.732 Y87.801
G1 F1500 X82.899 Y87.562 E21.97695
G1 X83.366 Y87.095 E22.00042
G1 X83.928 Y86.701 E22.02482
