;FLAVOR:Marlin
;TIME:2112
;Filament used: 1.5215m
;Layer height: 0.2
;MINX:88.341
;MINY:88.341
;MINZ:0.2
;MAXX:131.659
;MAXY:131.657
;MAXZ:33
;Generated with Cura_SteamEngine main
M82 ;absolute extrusion mode
M201 X500.00 Y500.00 Z100.00 E5000.00 ;Setup machine max acceleration
M203 X500.00 Y500.00 Z10.00 E50.00 ;Setup machine max feedrate
M204 P500.00 R1000.00 T500.00 ;Setup Print/Retract/Travel acceleration
M205 X8.00 Y8.00 Z0.40 E5.00 ;Setup Jerk
M220 S100 ;Reset Feedrate
M221 S100 ;Reset Flowrate

;*** Start Dual Nozzle/Bed Preheating ***
M140 S40 ; start preheating the bed
M104 S205.0 ?T0 ; start preheating hotend
M190 S40 ; heat to Cura Bed setting and WAIT
M109 S205.0 ?T0 ; heat to Cura Hotend and WAIT
;*** End Preheating ***


;*** Single Print Start Tone
M300 S1000 P500 ; chirp to indicate starting to print
;*** End Single Start Tone

G28 ;Home

G92 E0 ;Reset Extruder
G1 Z2.0 F3000 ;Move Z Axis up
G1 X10.1 Y20 Z0.28 F5000.0 ;Move to start position
G1 X10.1 Y200.0 Z0.28 F1500.0 E15 ;Draw the first line
G1 X10.4 Y200.0 Z0.28 F5000.0 ;Move to side a little
G1 X10.4 Y20 Z0.28 F1500.0 E30 ;Draw the second line
G92 E0 ;Reset Extruder
G1 Z2.0 F3000 ;Move Z Axis up
G92 E0
G92 E0
;LAYER_COUNT:165
;LAYER:0
M107
M204 S500
M205 X10 Y10
G0 F7500 X94.099 Y95.439 Z0.2
G0 X88.91 Y105.472
;TYPE:SKIRT
G1 F1500 X89.026 Y104.799 E0.02428
G1 X89.222 Y103.896 E0.05712
G1 X89.496 Y103.013 E0.08999
G1 X89.961 Y101.914 E0.1324
G1 X90.384 Y101.052 E0.16654
G1 X91.251 Y99.351 E0.2344
G1 X91.662 Y98.569 E0.26581
G1 X92.128 Y97.771 E0.29865
G1 X92.66 Y97.016 E0.33149
G1 X93.443 Y96.114 E0.37394
G1 X94.099 Y95.439 E0.4074
G1 X95.586 Y93.952 E0.48216
G1 X96.091 Y93.461 E0.50719
G1 X96.781 Y92.847 E0.54003
G1 X97.521 Y92.294 E0.57286
G1 X98.527 Y91.687 E0.61463
G1 X99.386 Y91.232 E0.64918
G1 X101.125 Y90.347 E0.71854
G1 X101.875 Y89.977 E0.74827
G1 X102.721 Y89.604 E0.78114
G1 X103.595 Y89.307 E0.81395
G1 X104.767 Y89.034 E0.85673
G1 X105.596 Y88.89 E0.88663
G1 X107.618 Y88.569 E0.95941
G1 X108.467 Y88.446 E0.9899
G1 X109.386 Y88.353 E1.02274
G1 X110.31 Y88.341 E1.05559
G1 X111.503 Y88.443 E1.09815
G1 X112.447 Y88.579 E1.13205
G1 X114.518 Y88.908 E1.20659
G1 X115.202 Y89.026 E1.23127
G1 X116.105 Y89.223 E1.26412
G1 X116.987 Y89.496 E1.29694
G1 X118.081 Y89.959 E1.33917
G1 X118.956 Y90.388 E1.37381
G1 X120.707 Y91.28 E1.44366
G1 X121.443 Y91.668 E1.47324
G1 X122.24 Y92.135 E1.50607
G1 X122.994 Y92.669 E1.53891
G1 X123.884 Y93.441 E1.58079
G1 X124.442 Y93.982 E1.60842
G1 X126.07 Y95.609 E1.69024
G1 X126.535 Y96.087 E1.71394
G1 X127.15 Y96.777 E1.7468
G1 X127.703 Y97.517 E1.77964
G1 X128.317 Y98.536 E1.82193
G1 X128.782 Y99.416 E1.85731
G1 X129.643 Y101.106 E1.92473
G1 X130.029 Y101.89 E1.95579
G1 X130.401 Y102.736 E1.98864
G1 X130.697 Y103.611 E2.02148
G1 X130.965 Y104.761 E2.06345
G1 X131.091 Y105.482 E2.08947
G1 X131.439 Y107.67 E2.16822
G1 X131.554 Y108.461 E2.19664
G1 X131.647 Y109.381 E2.2295
G1 X131.659 Y110.304 E2.26232
G1 X131.557 Y111.493 E2.30474
G1 X131.419 Y112.452 E2.33918
G1 X131.088 Y114.534 E2.41412
G1 X130.972 Y115.205 E2.43832
G1 X130.775 Y116.108 E2.47118
G1 X130.501 Y116.991 E2.50404
G1 X130.042 Y118.077 E2.54595
G1 X129.629 Y118.92 E2.57932
G1 X128.72 Y120.705 E2.65052
G1 X128.331 Y121.443 E2.68018
G1 X127.864 Y122.24 E2.71301
G1 X127.33 Y122.994 E2.74586
G1 X126.558 Y123.884 E2.78774
G1 X126.017 Y124.442 E2.81536
G1 X124.39 Y126.07 E2.89718
G1 X123.912 Y126.535 E2.92088
G1 X123.222 Y127.15 E2.95374
G1 X122.482 Y127.703 E2.98658
G1 X121.463 Y128.317 E3.02887
G1 X120.583 Y128.782 E3.06425
G1 X118.901 Y129.639 E3.13135
G1 X118.116 Y130.026 E3.16246
G1 X117.271 Y130.398 E3.19528
G1 X116.396 Y130.695 E3.22813
G1 X115.24 Y130.964 E3.27032
G1 X114.323 Y131.123 E3.3034
G1 X112.193 Y131.46 E3.38006
G1 X111.501 Y131.558 E3.4049
G1 X110.581 Y131.647 E3.43776
G1 X109.657 Y131.657 E3.4706
G1 X108.506 Y131.557 E3.51167
G1 X107.552 Y131.421 E3.54593
G1 X105.608 Y131.112 E3.6159
G1 X104.796 Y130.972 E3.64519
G1 X103.893 Y130.776 E3.67803
G1 X103.011 Y130.502 E3.71086
G1 X101.916 Y130.039 E3.75312
G1 X101.076 Y129.627 E3.78638
G1 X99.337 Y128.742 E3.85574
G1 X98.559 Y128.332 E3.887
G1 X97.762 Y127.865 E3.91984
G1 X97.008 Y127.332 E3.95266
G1 X96.11 Y126.552 E3.99494
G1 X95.522 Y125.981 E4.02408
G1 X93.957 Y124.416 E4.10275
G1 X93.462 Y123.907 E4.12799
G1 X92.847 Y123.218 E4.16082
G1 X92.294 Y122.478 E4.19366
G1 X91.682 Y121.462 E4.23582
G1 X91.241 Y120.628 E4.26935
G1 X90.367 Y118.915 E4.33771
G1 X89.975 Y118.121 E4.36919
G1 X89.603 Y117.275 E4.40204
G1 X89.306 Y116.4 E4.43489
G1 X89.035 Y115.234 E4.47744
G1 X88.864 Y114.246 E4.51308
G1 X88.547 Y112.237 E4.58538
G1 X88.445 Y111.53 E4.61077
G1 X88.353 Y110.611 E4.6436
G1 X88.341 Y109.687 E4.67645
G1 X88.442 Y108.506 E4.71858
G1 X88.575 Y107.58 E4.75184
G1 X88.91 Y105.472 E4.82771
G0 F7500 X88.792 Y109.662
G1 F1500 X88.887 Y108.569 E4.86671
G1 X89.019 Y107.65 E4.89971
G1 X89.331 Y105.683 E4.97051
G1 X89.47 Y104.875 E4.99965
G1 X89.662 Y103.992 E5.03177
G1 X89.933 Y103.129 E5.06392
G1 X90.365 Y102.112 E5.1032
G1 X90.785 Y101.257 E5.13706
G1 X91.715 Y99.434 E5.20981
G1 X92.06 Y98.779 E5.23613
G1 X92.517 Y97.998 E5.26829
G1 X93.04 Y97.261 E5.30042
G1 X93.766 Y96.427 E5.33972
G1 X94.417 Y95.757 E5.37293
G1 X95.9 Y94.275 E5.44745
G1 X96.405 Y93.784 E5.47249
G1 X97.081 Y93.183 E5.50464
G1 X97.807 Y92.644 E5.53679
G1 X98.738 Y92.084 E5.57541
G1 X99.59 Y91.633 E5.60967
G1 X101.447 Y90.689 E5.68372
G1 X102.074 Y90.38 E5.70857
G1 X102.902 Y90.017 E5.74071
G1 X103.759 Y89.728 E5.77286
G1 X104.844 Y89.478 E5.81244
G1 X105.673 Y89.334 E5.84235
G1 X107.825 Y88.993 E5.9198
G1 X108.531 Y88.891 E5.94515
G1 X109.431 Y88.801 E5.9773
G1 X110.335 Y88.792 E6.00944
G1 X111.439 Y88.889 E6.04884
G1 X112.376 Y89.024 E6.08249
G1 X114.441 Y89.352 E6.15681
G1 X115.125 Y89.47 E6.18148
G1 X116.009 Y89.663 E6.21365
G1 X116.872 Y89.933 E6.24579
G1 X117.883 Y90.363 E6.28484
G1 X118.751 Y90.789 E6.31921
G1 X120.502 Y91.681 E6.38907
G1 X121.232 Y92.066 E6.4184
G1 X122.012 Y92.523 E6.45054
G1 X122.749 Y93.048 E6.4827
G1 X123.57 Y93.764 E6.52143
G1 X124.241 Y94.416 E6.55469
G1 X125.747 Y95.923 E6.63042
G1 X126.212 Y96.401 E6.65412
G1 X126.813 Y97.077 E6.68628
G1 X127.353 Y97.802 E6.71841
G1 X127.92 Y98.747 E6.75758
G1 X128.381 Y99.62 E6.79268
G1 X129.242 Y101.31 E6.8601
G1 X129.626 Y102.089 E6.89097
G1 X129.988 Y102.917 E6.92309
G1 X130.276 Y103.774 E6.95523
G1 X130.521 Y104.839 E6.99408
G1 X130.674 Y105.718 E7.02579
G1 X130.995 Y107.741 E7.0986
G1 X131.109 Y108.526 E7.1268
G1 X131.199 Y109.425 E7.15892
G1 X131.208 Y110.329 E7.19105
G1 X131.112 Y111.429 E7.2303
G1 X130.975 Y112.381 E7.26449
G1 X130.645 Y114.458 E7.33925
G1 X130.529 Y115.129 E7.36346
G1 X130.335 Y116.012 E7.39559
G1 X130.065 Y116.875 E7.42773
G1 X129.638 Y117.88 E7.46655
G1 X129.228 Y118.716 E7.49965
G1 X128.319 Y120.501 E7.57085
G1 X127.933 Y121.232 E7.60024
G1 X127.476 Y122.012 E7.63237
G1 X126.951 Y122.749 E7.66454
G1 X126.235 Y123.57 E7.70326
G1 X125.583 Y124.241 E7.73652
G1 X124.076 Y125.747 E7.81225
G1 X123.598 Y126.212 E7.83596
G1 X122.922 Y126.813 E7.86811
G1 X122.197 Y127.353 E7.90024
G1 X121.252 Y127.92 E7.93942
G1 X120.379 Y128.381 E7.97451
G1 X118.697 Y129.238 E8.04162
G1 X117.918 Y129.622 E8.07249
G1 X117.089 Y129.986 E8.10467
G1 X116.233 Y130.274 E8.13678
G1 X115.163 Y130.521 E8.17581
G1 X114.253 Y130.679 E8.20864
G1 X112.13 Y131.014 E8.28504
G1 X111.438 Y131.112 E8.30989
G1 X110.538 Y131.199 E8.34203
G1 X109.634 Y131.206 E8.37416
G1 X108.569 Y131.112 E8.41217
G1 X107.793 Y131.002 E8.44003
G1 X105.545 Y130.645 E8.52094
G1 X104.873 Y130.529 E8.54518
G1 X103.989 Y130.336 E8.57734
G1 X103.126 Y130.066 E8.60948
G1 X102.113 Y129.635 E8.64862
G1 X101.28 Y129.226 E8.6816
G1 X99.541 Y128.341 E8.75096
G1 X98.769 Y127.934 E8.78199
G1 X97.989 Y127.477 E8.81412
G1 X97.253 Y126.952 E8.84626
G1 X96.424 Y126.229 E8.88536
G1 X95.729 Y125.553 E8.91982
G1 X94.28 Y124.103 E8.99269
G1 X93.785 Y123.594 E9.01793
G1 X93.184 Y122.918 E9.05008
G1 X92.645 Y122.192 E9.08222
G1 X92.08 Y121.252 E9.12121
G1 X91.642 Y120.423 E9.15454
G1 X90.768 Y118.71 E9.2229
G1 X90.379 Y117.922 E9.25414
G1 X90.016 Y117.094 E9.28627
G1 X89.727 Y116.237 E9.31842
G1 X89.478 Y115.157 E9.35782
G1 X89.334 Y114.329 E9.38769
G1 X88.993 Y112.173 E9.46528
G1 X88.891 Y111.466 E9.49068
G1 X88.801 Y110.566 E9.52283
G1 X88.792 Y109.662 E9.55496
;MESH:Cat6_WallHole.stl
G0 F7500 X109.613 Y118.127
;TYPE:WALL-INNER
G1 F1500 X109.289 Y118.03 E9.56699
G1 X108.927 Y117.773 E9.58277
G1 X108.711 Y117.444 E9.59676
G1 X108.623 Y117.109 E9.60907
G1 X108.622 Y115.924 E9.65119
G1 X108.278 Y115.87 E9.66357
G1 X107.944 Y115.761 E9.67606
G1 X106.613 Y115.084 E9.72914
G1 X105.707 Y115.984 E9.77454
G1 X105.348 Y116.191 E9.78927
G1 X104.864 Y116.25 E9.8066
G1 X104.502 Y116.151 E9.81994
G1 X104.271 Y116.019 E9.8294
G1 X103.824 Y115.57 E9.85192
G1 X103.534 Y115.068 E9.87253
G1 X103.5 Y114.673 E9.88662
G1 X103.589 Y114.325 E9.89939
G1 X103.753 Y114.058 E9.91052
G1 X104.748 Y113.055 E9.96075
G1 X104.239 Y112.056 E10.0006
G1 X104.129 Y111.721 E10.01313
G1 X104.074 Y111.378 E10.02548
G1 X102.888 Y111.373 E10.06764
G1 X102.555 Y111.288 E10.07986
G1 X102.226 Y111.073 E10.09383
G1 X101.969 Y110.711 E10.10961
G1 X101.872 Y110.385 E10.1217
G1 X101.872 Y109.747 E10.14438
G1 X101.885 Y109.57 E10.15069
G1 X101.969 Y109.288 E10.16115
G1 X102.226 Y108.926 E10.17693
G1 X102.555 Y108.711 E10.1909
G1 X102.888 Y108.626 E10.20312
G1 X104.074 Y108.621 E10.24527
G1 X104.129 Y108.278 E10.25762
G1 X104.238 Y107.943 E10.27015
G1 X104.747 Y106.944 E10.31
G1 X103.753 Y105.941 E10.3602
G1 X103.589 Y105.675 E10.3713
G1 X103.5 Y105.326 E10.38411
G1 X103.534 Y104.931 E10.3982
G1 X103.719 Y104.534 E10.41377
G1 X104.177 Y104.075 E10.43682
G1 X104.502 Y103.848 E10.45091
G1 X104.864 Y103.749 E10.46425
G1 X105.349 Y103.808 E10.48162
G1 X105.707 Y104.015 E10.49632
G1 X106.613 Y104.915 E10.54171
G1 X107.944 Y104.238 E10.59479
G1 X108.278 Y104.129 E10.60728
G1 X108.622 Y104.075 E10.61966
G1 X108.623 Y102.89 E10.66178
G1 X108.711 Y102.555 E10.6741
G1 X108.926 Y102.226 E10.68807
G1 X109.288 Y101.969 E10.70385
G1 X109.614 Y101.872 E10.71594
G1 X110.385 Y101.872 E10.74334
G1 X110.711 Y101.969 E10.75543
G1 X111.073 Y102.226 E10.77122
G1 X111.288 Y102.555 E10.78519
G1 X111.378 Y102.858 E10.79642
G1 X111.378 Y104.074 E10.83965
G1 X111.722 Y104.129 E10.85203
G1 X112.057 Y104.238 E10.86455
G1 X113.055 Y104.747 E10.90438
G1 X113.853 Y103.952 E10.94442
G1 X114.193 Y103.794 E10.95774
G1 X114.523 Y103.745 E10.9696
G1 X114.88 Y103.801 E10.98245
G1 X115.321 Y104.074 E11.00088
G1 X115.767 Y104.52 E11.02331
G1 X115.886 Y104.716 E11.03146
G1 X115.989 Y105.041 E11.04358
G1 X115.974 Y105.489 E11.05951
G1 X115.793 Y105.902 E11.07554
G1 X115.083 Y106.613 E11.11126
G1 X115.761 Y107.944 E11.16435
G1 X115.87 Y108.278 E11.17684
G1 X115.924 Y108.622 E11.18922
G1 X117.12 Y108.628 E11.23173
G1 X117.444 Y108.711 E11.24362
G1 X117.772 Y108.926 E11.25756
G1 X118.031 Y109.288 E11.27339
G1 X118.128 Y109.616 E11.28554
G1 X118.129 Y110.384 E11.31284
G1 X118.033 Y110.711 E11.32496
G1 X117.775 Y111.074 E11.34079
G1 X117.444 Y111.288 E11.3548
G1 X117.12 Y111.371 E11.36669
G1 X115.924 Y111.377 E11.4092
G1 X115.87 Y111.721 E11.42158
G1 X115.761 Y112.055 E11.43407
G1 X115.083 Y113.386 E11.48717
G1 X115.793 Y114.097 E11.52289
G1 X115.974 Y114.509 E11.53888
G1 X115.989 Y114.958 E11.55485
G1 X115.885 Y115.282 E11.56695
G1 X115.675 Y115.571 E11.57965
G1 X115.217 Y116.029 E11.60267
G1 X114.88 Y116.198 E11.61607
G1 X114.523 Y116.254 E11.62892
G1 X114.193 Y116.205 E11.64078
G1 X113.85 Y116.046 E11.65421
G1 X113.055 Y115.252 E11.69415
G1 X112.057 Y115.761 E11.73398
G1 X111.722 Y115.87 E11.7465
G1 X111.378 Y115.925 E11.75888
G1 X111.373 Y117.16 E11.80278
G1 X111.287 Y117.444 E11.81333
G1 X111.072 Y117.773 E11.8273
G1 X110.71 Y118.031 E11.8431
G1 X110.386 Y118.127 E11.85512
G1 X109.613 Y118.127 E11.88259
G0 F7500 X110.744 Y117.465
G1 F1500 X110.527 Y117.619 E11.89205
G1 X110.332 Y117.677 E11.89928
G1 X109.668 Y117.677 E11.92289
G1 X109.472 Y117.619 E11.93015
G1 X109.255 Y117.465 E11.93961
G1 X109.125 Y117.267 E11.94803
G1 X109.076 Y117.08 E11.9549
G1 X109.072 Y115.54 E12.00965
G1 X108.349 Y115.425 E12.03567
G1 X108.148 Y115.36 E12.04318
G1 X106.752 Y114.649 E12.09887
G1 X106.558 Y114.502 E12.10752
G1 X105.414 Y115.642 E12.16493
G1 X105.199 Y115.766 E12.17375
G1 X104.908 Y115.802 E12.18417
G1 X104.552 Y115.663 E12.19776
G1 X104.143 Y115.252 E12.21837
G1 X103.968 Y114.951 E12.23075
G1 X103.948 Y114.714 E12.2392
G1 X104.002 Y114.505 E12.24687
G1 X104.1 Y114.344 E12.25357
G1 X105.297 Y113.141 E12.3139
G1 X104.639 Y111.851 E12.36538
G1 X104.573 Y111.65 E12.3729
G1 X104.459 Y110.928 E12.39888
G1 X102.932 Y110.925 E12.45316
G1 X102.732 Y110.874 E12.4605
G1 X102.534 Y110.745 E12.4689
G1 X102.38 Y110.527 E12.47838
G1 X102.322 Y110.331 E12.48565
G1 X102.322 Y109.747 E12.50641
G1 X102.38 Y109.471 E12.51643
G1 X102.534 Y109.254 E12.52589
G1 X102.732 Y109.125 E12.53429
G1 X102.932 Y109.074 E12.54163
G1 X104.459 Y109.071 E12.59591
G1 X104.573 Y108.349 E12.62189
G1 X104.639 Y108.148 E12.62941
G1 X105.297 Y106.858 E12.68089
G1 X104.1 Y105.655 E12.74121
G1 X104.002 Y105.495 E12.74788
G1 X103.948 Y105.285 E12.75559
G1 X103.968 Y105.048 E12.76405
G1 X104.08 Y104.81 E12.7734
G1 X104.495 Y104.393 E12.79431
G1 X104.691 Y104.257 E12.80279
G1 X104.908 Y104.197 E12.81079
G1 X105.199 Y104.233 E12.82121
G1 X105.414 Y104.357 E12.83004
G1 X106.558 Y105.497 E12.88745
G1 X106.752 Y105.35 E12.8961
G1 X108.148 Y104.639 E12.95179
G1 X108.349 Y104.574 E12.9593
G1 X109.072 Y104.459 E12.98532
G1 X109.076 Y102.919 E13.04006
G1 X109.125 Y102.732 E13.04693
G1 X109.254 Y102.534 E13.05533
G1 X109.472 Y102.38 E13.06482
G1 X109.668 Y102.322 E13.07209
G1 X110.331 Y102.322 E13.09566
G1 X110.528 Y102.38 E13.10295
G1 X110.745 Y102.534 E13.11241
G1 X110.874 Y102.732 E13.12081
G1 X110.928 Y102.914 E13.12756
G1 X110.928 Y104.459 E13.18248
G1 X111.651 Y104.573 E13.2085
G1 X111.852 Y104.639 E13.21602
G1 X113.142 Y105.296 E13.26748
G1 X114.121 Y104.319 E13.31664
G1 X114.325 Y104.224 E13.32464
G1 X114.524 Y104.195 E13.33179
G1 X114.738 Y104.228 E13.33949
G1 X115.003 Y104.392 E13.35057
G1 X115.414 Y104.803 E13.37123
G1 X115.545 Y105.114 E13.38322
G1 X115.536 Y105.383 E13.39279
G1 X115.426 Y105.633 E13.4025
G1 X114.502 Y106.558 E13.44898
G1 X114.649 Y106.752 E13.45763
G1 X115.36 Y108.148 E13.51332
G1 X115.425 Y108.349 E13.52083
G1 X115.54 Y109.072 E13.54685
G1 X117.073 Y109.075 E13.60134
G1 X117.267 Y109.125 E13.60846
G1 X117.464 Y109.254 E13.61683
G1 X117.62 Y109.471 E13.62633
G1 X117.678 Y109.667 E13.6336
G1 X117.678 Y110.335 E13.65735
G1 X117.621 Y110.528 E13.6645
G1 X117.466 Y110.746 E13.67401
G1 X117.267 Y110.874 E13.68242
G1 X117.073 Y110.924 E13.68954
G1 X115.54 Y110.927 E13.74403
G1 X115.425 Y111.65 E13.77006
G1 X115.36 Y111.851 E13.77757
G1 X114.649 Y113.247 E13.83325
G1 X114.502 Y113.441 E13.84191
G1 X115.426 Y114.366 E13.88838
G1 X115.536 Y114.615 E13.89806
G1 X115.545 Y114.885 E13.90766
G1 X115.461 Y115.149 E13.91751
G1 X114.94 Y115.67 E13.9437
G1 X114.738 Y115.771 E13.95173
G1 X114.524 Y115.804 E13.95943
G1 X114.325 Y115.775 E13.96657
G1 X114.119 Y115.679 E13.97465
G1 X113.142 Y114.703 E14.02374
G1 X111.852 Y115.36 E14.0752
G1 X111.651 Y115.426 E14.08272
G1 X110.928 Y115.54 E14.10874
G1 X110.925 Y117.066 E14.16298
G1 X110.873 Y117.267 E14.17036
G1 X110.744 Y117.465 E14.17876
G0 F7500 X109.437 Y117.294
;TYPE:WALL-OUTER
G1 F1500 X109.324 Y117.051 E14.18829
G1 X109.322 Y115.326 E14.24961
G1 X108.322 Y115.168 E14.2856
G1 X106.806 Y114.396 E14.34607
G1 X106.558 Y114.148 E14.35854
G1 X105.251 Y115.452 E14.42417
G1 X105.116 Y115.531 E14.42973
G1 X104.932 Y115.553 E14.43631
G1 X104.708 Y115.465 E14.44487
G1 X104.32 Y115.076 E14.4644
G1 X104.21 Y114.886 E14.4722
G1 X104.197 Y114.736 E14.47755
G1 X104.293 Y114.504 E14.48648
G1 X105.602 Y113.19 E14.55241
G1 X104.83 Y111.676 E14.61282
G1 X104.672 Y110.678 E14.64874
G1 X102.956 Y110.676 E14.70974
G1 X102.705 Y110.562 E14.71954
G1 X102.577 Y110.319 E14.7293
G1 X102.572 Y109.747 E14.74963
