;FLAVOR:Marlin
;TIME:14519
;Filament used: 13.0362m
;Layer height: 0.2
;MINX:47.494
;MINY:48.288
;MINZ:0.2
;MAXX:172.506
;MAXY:171.712
;MAXZ:5.84
;Generated with Cura_SteamEngine 4.10.0
M82 ;absolute extrusion mode
M201 X500.00 Y500.00 Z100.00 E5000.00 ;Setup machine max acceleration
M203 X500.00 Y500.00 Z10.00 E50.00 ;Setup machine max feedrate
M204 P500.00 R1000.00 T500.00 ;Setup Print/Retract/Travel acceleration
M205 X8.00 Y8.00 Z0.40 E5.00 ;Setup Jerk
M220 S100 ;Reset Feedrate
M221 S100 ;Reset Flowrate

;*** Start Dual Nozzle/Bed Preheating ***
M140 S50 ; start preheating the bed
M104 S195 ?T0 ; start preheating hotend
M190 S50 ; heat to Cura Bed setting and WAIT
M109 S195 ?T0 ; heat to Cura Hotend and WAIT
;*** End Preheating ***

;*** Single Print Start Tone
M300 S1000 P500 ; chirp to indicate starting to print
;*** End Single Start Tone

G28 ;Home

G92 E0 ;Reset Extruder
G1 Z2.0 F3000 ;Move Z Axis up

G1 X10.1 Y20 Z0.28 F5000.0 ;Move to start position
G1 X10.1 Y200.0 Z0.28 F1500.0 E15 ;Draw the first line
G1 X10.4 Y200.0 Z0.28 F5000.0 ;Move to side a little
G1 X10.4 Y20 Z0.28 F1500.0 E30 ;Draw the second line
G92 E0 ;Reset Extruder
G1 Z2.0 F3000 ;Move Z Axis up
G92 E0
G92 E0
G1 F2400 E-3.2
;LAYER_COUNT:35
;LAYER:0
M106 S63.8
M204 S500
M205 X6 Y6
;MESH:wall_plate_standard_R_designer_L.stl
G0 F6000 X84.544 Y81.949 Z0.2
;TYPE:WALL-OUTER
G1 F1440 E0
G1 F1800 X86.072 Y82.933 E0.06649
G1 X87.891 Y82.933 E0.13304
G1 X89.419 Y81.949 E0.19954
G1 X90.173 Y80.296 E0.26601
G1 X89.95 Y78.733 E0.32377
G1 X89.873 Y78.447 E0.33461
G1 X88.747 Y77.151 E0.39742
G1 X88.688 Y77.112 E0.40001
G1 X86.981 Y76.612 E0.46508
G1 X85.552 Y77.033 E0.51959
G1 X85.237 Y77.124 E0.53158
G1 X84.211 Y78.307 E0.58887
G1 X84.047 Y78.499 E0.59811
G1 X83.789 Y80.296 E0.66453
G1 X84.242 Y81.288 E0.70443
G0 F1620 X84.544 Y81.949
G1 F2400 E-2.49557
G0 F6000 X84.381 Y82.201
G0 X85.499 Y84.884
G0 X86.332 Y82.05
G0 X85.499 Y98.759
G0 X85.499 Y95.924
G0 X81.374 Y97.646
G0 X81.302 Y97.874
G0 X81.602 Y97.874
G1 F1440 E0.70443
G1 F1800 X81.602 Y122.126 E1.59172
G1 X92.361 Y122.126 E1.98535
G1 X92.361 Y97.874 E2.87263
G1 X82.329 Y97.874 E3.23967
G0 F1620 X81.602 Y97.874
G1 F2400 E0.03967
G0 F6000 X81.302 Y97.874
G0 X81.366 Y97.669
G0 X94.317 Y95.918
G0 X91.488 Y98.747
G0 X117.034 Y95.918
G0 X114.199 Y95.918
G0 X115.849 Y76.23
G0 X116.149 Y76.23
G1 F1440 E3.23967
G1 F1800 X116.149 Y143.77 E5.7107
G1 X149.889 Y143.77 E6.94511
G1 X149.889 Y76.23 E9.41614
G1 X116.876 Y76.23 E10.62396
G0 F1620 X116.149 Y76.23
G1 F2400 E7.42396
G0 F6000 X115.849 Y76.23
G0 X115.913 Y76.025
G0 X130.418 Y74.28
G0 X130.418 Y77.115
G0 X132.369 Y63.794
G0 X131.536 Y66.628
G0 X130.418 Y63.945
G0 X130.581 Y63.693
G1 F1440 E10.62396
G1 F1800 X132.109 Y64.677 E10.69045
G1 X133.928 Y64.677 E10.757
G1 X135.457 Y63.693 E10.82353
G1 X136.211 Y62.039 E10.89003
G1 X135.951 Y60.241 E10.9565
G1 X134.918 Y59.045 E11.01431
G1 X134.76 Y58.868 E11.023
G1 X133.019 Y58.356 E11.08939
G1 X131.277 Y58.868 E11.15582
G1 X131.061 Y59.113 E11.16777
G1 X130.086 Y60.241 E11.22232
G1 X130.037 Y60.564 E11.23427
G1 X129.827 Y62.04 E11.28881
G1 X130.28 Y63.032 E11.32871
G0 F1620 X130.581 Y63.693
G1 F2400 E8.12871
G0 F6000 X130.418 Y63.945
G0 X131.536 Y66.628
G0 X132.369 Y63.794
G0 X124.512 Y77.039
G0 X117.022 Y77.103
G0 X116.973 Y89.751
G0 X88.228 Y138.223
G0 X89.708 Y135.703
G0 X85.104 Y137.24
G0 X83.824 Y138.72
G0 X83.544 Y140.656
G0 X84.381 Y142.526
G0 X84.544 Y142.274
G1 F1440 E11.32871
G1 F1800 X86.072 Y143.258 E11.39521
G1 X87.891 Y143.258 E11.46176
G1 X89.419 Y142.274 E11.52825
G1 X90.173 Y140.621 E11.59472
G1 X89.95 Y139.057 E11.65252
G1 X89.914 Y138.823 E11.66118
G1 X88.88 Y137.627 E11.71902
G1 X88.688 Y137.437 E11.72891
G1 X86.981 Y136.937 E11.79398
G1 X85.552 Y137.358 E11.84849
G1 X85.237 Y137.449 E11.86048
G1 X84.049 Y138.823 E11.92694
G1 X84 Y139.145 E11.93885
G1 X83.789 Y140.621 E11.9934
G1 X84.242 Y141.613 E12.0333
G0 F1620 X84.544 Y142.274
G1 F2400 E8.8333
G0 F6000 X84.381 Y142.526
G0 X86.002 Y143.496
G0 X90.957 Y143.604
G0 X88.723 Y141.672
G0 X130.738 Y158.747
G0 X127.813 Y159.167
G0 X130.418 Y160.783
G0 X130.581 Y160.531
G1 F1440 E12.0333
G1 F1800 X132.109 Y161.514 E12.09977
G1 X133.928 Y161.514 E12.16632
G1 X135.457 Y160.531 E12.23283
G1 X136.211 Y158.878 E12.2993
G1 X135.987 Y157.314 E12.3571
G1 X135.91 Y157.029 E12.36791
G1 X134.785 Y155.732 E12.43072
G1 X134.726 Y155.693 E12.43331
G1 X133.019 Y155.193 E12.49839
G1 X131.59 Y155.614 E12.55289
G1 X131.275 Y155.705 E12.56488
G1 X130.084 Y157.079 E12.63141
G1 X129.827 Y158.878 E12.6979
G1 X130.28 Y159.87 E12.7378
G0 F1620 X130.581 Y160.531
G1 F2400 E9.5378
G0 F6000 X130.418 Y160.783
G0 X132.039 Y161.752
G0 X133.998 Y161.752
G0 X138.225 Y159.167
G0 X135.3 Y158.748
G0 X138.225 Y168.793
G0 X138.225 Y165.938
G0 X168.402 Y167.638
G0 X168.702 Y167.908
G1 F1440 E12.7378
G1 F1800 X51.533 Y167.908 E17.02456
G1 X51.313 Y167.908 E17.03261
G1 X51.313 Y167.688 E17.03781
G1 X51.314 Y52.057 E21.2683
G1 X168.482 Y52.056 E25.55503
G1 X168.702 Y52.056 E25.56308
G1 X168.702 Y52.276 E25.56828
G1 X168.702 Y167.908 E29.79881
G0 F6000 X168.262 Y167.468
;TYPE:WALL-INNER
G1 F1800 X51.973 Y167.468 E34.05338
G1 X51.753 Y167.468 E34.06143
G1 X51.753 Y167.248 E34.06663
G1 X51.754 Y52.497 E38.26493
G1 X168.042 Y52.496 E42.51946
G1 X168.262 Y52.496 E42.52751
G1 X168.262 Y52.716 E42.53271
G1 X168.262 Y167.468 E46.73105
G1 F2400 E43.53105
G0 F6000 X130.234 Y165.938
G0 X131.536 Y163.465
G0 X130.234 Y160.831
G1 F1440 E46.73105
G1 F1800 X131.98 Y161.954 E46.807
G1 X134.057 Y161.954 E46.88299
G1 X135.804 Y160.831 E46.95897
G1 X136.665 Y158.943 E47.03489
G1 X136.419 Y157.225 E47.09839
G1 X136.308 Y156.817 E47.11385
G1 X135.078 Y155.398 E47.18256
G1 X134.913 Y155.289 E47.18979
G1 X133.019 Y154.734 E47.262
G1 X131.468 Y155.191 E47.32116
G1 X131.028 Y155.318 E47.33791
G1 X129.667 Y156.889 E47.41396
G1 X129.373 Y158.943 E47.48987
G1 X129.933 Y160.17 E47.53922
G0 F1620 X130.234 Y160.831
G1 F2400 E44.33922
G0 F6000 X127.813 Y159.167
G0 X130.738 Y158.747
G0 X88.723 Y141.672
G0 X90.957 Y143.604
G0 X86.002 Y143.496
G0 X84.197 Y142.574
G1 F1440 E47.53922
G1 F1800 X85.943 Y143.698 E47.61519
G1 X88.02 Y143.698 E47.69118
G1 X89.766 Y142.574 E47.76715
G1 X90.627 Y140.686 E47.84307
G1 X90.385 Y138.992 E47.90568
G1 X90.33 Y138.631 E47.91904
G1 X89.202 Y137.326 E47.98215
G1 X88.918 Y137.046 E47.99674
G1 X86.981 Y136.478 E48.07059
G1 X84.99 Y137.063 E48.14651
G1 X83.633 Y138.631 E48.22238
G1 X83.565 Y139.081 E48.23903
G1 X83.335 Y140.686 E48.29835
G1 X83.895 Y141.913 E48.3477
G0 F1620 X84.197 Y142.574
G1 F2400 E45.1477
G0 F6000 X83.544 Y140.656
G0 X83.824 Y138.72
G0 X86.981 Y134.902
G0 X86.98 Y137.857
G0 X86.981 Y121.241
G0 X86.981 Y124.076
G0 X81.374 Y122.354
G0 X81.162 Y97.434
G1 F1440 E48.3477
G1 F1800 X81.162 Y122.566 E49.26718
G1 X92.801 Y122.566 E49.693
G1 X92.801 Y97.434 E50.61249
G1 X81.889 Y97.434 E51.01172
G0 F1620 X81.162 Y97.434
G1 F2400 E47.81172
G0 F6000 X84.197 Y95.924
G0 X84.197 Y98.759
G0 X86.332 Y82.05
G0 X85.499 Y84.884
G0 X84.197 Y82.249
G1 F1440 E51.01172
G1 F1800 X85.943 Y83.373 E51.08769
G1 X88.02 Y83.373 E51.16368
G1 X89.766 Y82.249 E51.23965
G1 X90.627 Y80.361 E51.31557
G1 X90.382 Y78.644 E51.37902
G1 X90.272 Y78.235 E51.39452
G1 X89.04 Y76.817 E51.46324
G1 X88.875 Y76.708 E51.47048
G1 X86.981 Y76.153 E51.54268
G1 X85.43 Y76.61 E51.60184
G1 X84.99 Y76.737 E51.6186
G1 X83.878 Y78.02 E51.68071
G1 X83.63 Y78.31 E51.69467
G1 X83.335 Y80.361 E51.77048
G1 X83.895 Y81.588 E51.81983
G0 F1620 X84.197 Y82.249
G1 F2400 E48.61983
G0 F6000 X86.002 Y83.171
G0 X87.961 Y83.171
G0 X89.607 Y82.111
G0 X92.004 Y79.18
G0 X89.178 Y79.584
G0 X117.034 Y79.18
G0 X114.199 Y79.18
G0 X115.709 Y75.79
G1 F1440 E51.81983
G1 F1800 X115.709 Y144.21 E54.32305
G1 X150.329 Y144.21 E55.58967
G1 X150.329 Y75.79 E58.09289
G1 X116.436 Y75.79 E59.33291
G0 F1620 X115.709 Y75.79
G1 F2400 E56.13291
G0 F6000 X130.234 Y74.28
G0 X130.234 Y77.115
G0 X132.369 Y63.794
G0 X131.536 Y66.628
G0 X130.234 Y63.993
G1 F1440 E59.33291
G1 F1800 X131.98 Y65.117 E59.40888
G1 X134.057 Y65.117 E59.48487
G1 X135.804 Y63.993 E59.56087
G1 X136.665 Y62.104 E59.63682
G1 X136.368 Y60.051 E59.71271
G1 X135.249 Y58.755 E59.77536
G1 X135.005 Y58.481 E59.78878
G1 X133.019 Y57.897 E59.86452
G1 X131.031 Y58.482 E59.94033
G1 X130.73 Y58.824 E59.957
G1 X129.67 Y60.049 E60.01627
G1 X129.602 Y60.5 E60.03296
G1 X129.373 Y62.105 E60.09227
G1 X129.933 Y63.332 E60.14162
G0 F1620 X130.234 Y63.993
G0 F6000 X129.887 Y64.293
G1 F1800 X131.851 Y65.557 E60.22707
G1 X134.186 Y65.557 E60.3125
G1 X136.151 Y64.293 E60.39798
G1 X137.119 Y62.169 E60.48338
G1 X136.785 Y59.861 E60.5687
G1 X135.58 Y58.465 E60.63617
G1 X135.25 Y58.094 E60.65433
G1 X133.019 Y57.438 E60.73941
G1 X130.785 Y58.096 E60.82462
G1 X130.398 Y58.535 E60.84603
G1 X129.254 Y59.857 E60.90999
G1 X129.167 Y60.436 E60.93141
G1 X128.919 Y62.17 E60.9955
G1 X129.586 Y63.632 E61.05429
G0 F1620 X129.887 Y64.293
G1 F2400 E57.85429
G0 F6000 X129.043 Y65.023
G0 X131.276 Y63.091
G0 X129.043 Y77.115
G0 X129.043 Y74.28
G0 X115.269 Y75.35
G1 F1440 E61.05429
G1 F1800 X115.269 Y144.65 E63.58971
G1 X150.769 Y144.65 E64.88852
G1 X150.769 Y75.35 E67.42394
G1 X115.996 Y75.35 E68.69615
G0 F1620 X115.269 Y75.35
G1 F2400 E65.49615
G0 F6000 X114.199 Y82.549
G0 X117.034 Y82.549
G0 X89.262 Y80.166
G0 X92.187 Y80.585
G0 X87.961 Y83.171
G0 X86.002 Y83.171
G0 X83.85 Y82.549
G1 F1440 E68.69615
G1 F1800 X85.814 Y83.813 E68.7816
G1 X88.149 Y83.813 E68.86703
G1 X90.113 Y82.549 E68.95248
G1 X91.081 Y80.426 E69.03784
G1 X90.814 Y78.555 E69.10699
G1 X90.671 Y78.023 E69.12715
G1 X89.333 Y76.483 E69.20178
G1 X89.062 Y76.304 E69.21367
G1 X86.981 Y75.694 E69.29301
G1 X85.308 Y76.187 E69.35682
G1 X84.743 Y76.35 E69.37833
G1 X83.545 Y77.733 E69.44527
G1 X83.213 Y78.121 E69.46396
G1 X82.881 Y80.426 E69.54916
G1 X83.549 Y81.888 E69.60796
G0 F1620 X83.85 Y82.549
G1 F2400 E66.40796
G0 F6000 X85.499 Y84.884
G0 X86.332 Y82.05
G0 X85.499 Y98.759
G0 X85.499 Y95.924
G0 X80.722 Y96.994
G1 F1440 E69.60796
G1 F1800 X80.722 Y123.006 E70.55964
G1 X93.241 Y123.006 E71.01767
G1 X93.241 Y96.994 E71.96934
G1 X81.449 Y96.994 E72.40077
G0 F1620 X80.722 Y96.994
G1 F2400 E69.20077
G0 F6000 X81.374 Y122.354
G0 X83.85 Y124.076
G0 X83.85 Y121.241
G0 X86.98 Y137.857
G0 X86.981 Y134.902
G0 X83.824 Y138.72
G0 X83.544 Y140.656
G0 X83.85 Y142.874
G1 F1440 E72.40077
G1 F1800 X85.814 Y144.138 E72.48622
G1 X88.149 Y144.138 E72.57165
G1 X90.113 Y142.874 E72.6571
G1 X91.081 Y140.751 E72.74246
G1 X90.82 Y138.928 E72.80984
G1 X90.746 Y138.439 E72.82793
G1 X89.523 Y137.025 E72.89633
G1 X89.148 Y136.655 E72.91561
G1 X86.981 Y136.019 E72.99823
G1 X84.742 Y136.677 E73.08361
G1 X83.217 Y138.439 E73.16887
G1 X83.13 Y139.017 E73.19025
G1 X82.881 Y140.751 E73.25435
G1 X83.549 Y142.213 E73.31315
G0 F1620 X83.85 Y142.874
G1 F2400 E70.11315
G0 F6000 X86.002 Y143.496
G0 X90.957 Y143.604
G0 X88.723 Y141.672
G0 X130.738 Y158.747
G0 X127.813 Y159.167
G0 X129.887 Y161.131
G1 F1440 E73.31315
G1 F1800 X131.851 Y162.394 E73.39858
G1 X134.186 Y162.394 E73.48401
G1 X136.151 Y161.131 E73.56947
G1 X137.119 Y159.008 E73.65484
G1 X136.851 Y157.136 E73.72403
G1 X136.706 Y156.605 E73.74417
G1 X135.371 Y155.064 E73.81876
G1 X135.1 Y154.885 E73.83064
G1 X133.019 Y154.275 E73.90998
G1 X131.346 Y154.768 E73.97379
G1 X130.781 Y154.931 E73.99531
G1 X129.25 Y156.699 E74.08087
G1 X128.919 Y159.008 E74.16621
G1 X129.586 Y160.47 E74.22501
G0 F1620 X129.887 Y161.131
G1 F2400 E71.02501
G0 F6000 X132.039 Y161.752
G0 X136.995 Y161.861
G0 X136.995 Y165.938
G0 X167.822 Y167.028
G1 F1440 E74.22501
G1 F1800 X52.413 Y167.028 E78.44738
G1 X52.193 Y167.028 E78.45543
G1 X52.193 Y166.808 E78.46063
G1 X52.194 Y52.937 E82.62673
G1 X167.602 Y52.936 E86.84907
G1 X167.822 Y52.936 E86.85711
G1 X167.822 Y53.156 E86.86232
G1 X167.822 Y167.028 E91.02846
G0 F6000 X167.382 Y166.588
G1 F1800 X52.853 Y166.588 E95.21863
G1 X52.633 Y166.588 E95.22668
G1 X52.633 Y166.368 E95.23189
G1 X52.634 Y53.377 E99.36579
G1 X167.162 Y53.376 E103.55593
G1 X167.382 Y53.376 E103.56398
G1 X167.382 Y53.596 E103.56918
G1 X167.382 Y166.588 E107.70312
G1 F2400 E104.50312
G0 F6000 X129.54 Y165.938
G0 X131.251 Y163.281
G0 X129.54 Y161.431
G1 F1440 E107.70312
G1 F1800 X131.722 Y162.834 E107.79803
G1 X134.315 Y162.834 E107.8929
G1 X136.498 Y161.431 E107.98784
G1 X137.573 Y159.073 E108.08265
G1 X137.283 Y157.047 E108.15753
G1 X137.104 Y156.393 E108.18234
G1 X135.664 Y154.73 E108.26282
G1 X135.287 Y154.481 E108.27935
G1 X133.019 Y153.816 E108.36582
G1 X131.224 Y154.345 E108.43429
G1 X130.534 Y154.544 E108.46056
G1 X128.833 Y156.509 E108.55565
G1 X128.465 Y159.073 E108.65042
G1 X129.239 Y160.77 E108.71866
G0 F1620 X129.54 Y161.431
G1 F2400 E105.51866
G0 F6000 X127.813 Y159.167
G0 X130.738 Y158.747
G0 X88.723 Y141.672
G0 X90.957 Y143.604
G0 X86.002 Y143.496
G0 X83.503 Y143.174
G1 F1440 E108.71866
G1 F1800 X85.685 Y144.578 E108.81359
G1 X88.278 Y144.578 E108.90845
G1 X90.46 Y143.174 E109.00338
G1 X91.535 Y140.816 E109.09819
G1 X91.255 Y138.864 E109.17034
G1 X91.162 Y138.247 E109.19317
G1 X89.844 Y136.724 E109.26686
G1 X89.378 Y136.264 E109.29082
G1 X86.981 Y135.56 E109.38222
G1 X84.494 Y136.291 E109.47706
G1 X82.801 Y138.247 E109.5717
G1 X82.695 Y138.953 E109.59782
G1 X82.427 Y140.816 E109.66668
G1 X83.202 Y142.513 E109.73494
G0 F1620 X83.503 Y143.174
G1 F2400 E106.53494
G0 F6000 X83.539 Y140.908
G0 X84.138 Y135.737
G0 X85.734 Y138.224
G0 X84.138 Y121.241
G0 X84.138 Y124.076
G0 X81.374 Y122.354
G0 X80.282 Y96.554
G1 F1440 E109.73494
G1 F1800 X80.282 Y123.446 E110.71881
G1 X93.681 Y123.446 E111.20903
G1 X93.681 Y96.554 E112.1929
G1 X81.009 Y96.554 E112.65652
G0 F1620 X80.282 Y96.554
G1 F2400 E109.45652
G0 F6000 X83.503 Y95.924
G0 X83.503 Y98.759
G0 X86.332 Y82.05
G0 X85.499 Y84.884
G0 X83.503 Y82.849
G1 F1440 E112.65652
G1 F1800 X85.685 Y84.253 E112.75145
G1 X88.278 Y84.253 E112.84632
G1 X90.46 Y82.849 E112.94125
G1 X91.535 Y80.491 E113.03606
G1 X91.246 Y78.466 E113.1109
G1 X91.07 Y77.811 E113.13571
G1 X89.626 Y76.149 E113.21627
G1 X89.249 Y75.9 E113.2328
G1 X86.981 Y75.235 E113.31927
G1 X85.186 Y75.764 E113.38773
G1 X84.496 Y75.963 E113.414
G1 X83.212 Y77.446 E113.48577
G1 X82.796 Y77.932 E113.50918
G1 X82.427 Y80.491 E113.60377
G1 X83.202 Y82.188 E113.67202
G0 F1620 X83.503 Y82.849
G1 F2400 E110.47202
G0 F6000 X86.002 Y83.171
G0 X87.961 Y83.171
G0 X89.607 Y82.111
G0 X91.865 Y78.34
G0 X89.076 Y78.877
G0 X117.034 Y78.34
G0 X114.199 Y78.34
G0 X114.829 Y74.91
G1 F1440 E113.67202
G1 F1800 X114.829 Y145.09 E116.23964
G1 X151.209 Y145.09 E117.57064
G1 X151.209 Y74.91 E120.13826
G1 X115.556 Y74.91 E121.44267
G0 F1620 X114.829 Y74.91
G1 F2400 E118.24267
G0 F6000 X129.54 Y74.28
G0 X129.54 Y77.115
G0 X132.369 Y63.794
G0 X131.536 Y66.628
G0 X129.54 Y64.593
G1 F1440 E121.44267
G1 F1800 X131.722 Y65.997 E121.5376
G1 X134.315 Y65.997 E121.63246
G1 X136.498 Y64.593 E121.72742
G1 X137.573 Y62.234 E121.82227
G1 X137.202 Y59.671 E121.91702
G1 X135.911 Y58.175 E121.98931
G1 X135.495 Y57.707 E122.01222
G1 X133.019 Y56.979 E122.10664
G1 X130.539 Y57.71 E122.20124
G1 X130.067 Y58.246 E122.22737
G1 X128.838 Y59.666 E122.29607
G1 X128.732 Y60.372 E122.32219
G1 X128.465 Y62.235 E122.39105
G1 X129.239 Y63.932 E122.45929
G0 F1620 X129.54 Y64.593
G0 F6000 X129.193 Y64.893
G1 F1800 X131.593 Y66.437 E122.5637
G1 X134.444 Y66.437 E122.668
G1 X136.845 Y64.893 E122.77244
G1 X138.027 Y62.299 E122.87674
G1 X137.619 Y59.481 E122.98091
G1 X136.242 Y57.885 E123.05803
G1 X135.74 Y57.32 E123.08568
G1 X133.019 Y56.52 E123.18945
G1 X130.293 Y57.324 E123.29343
G1 X129.736 Y57.957 E123.32428
G1 X128.422 Y59.475 E123.39773
G1 X128.297 Y60.308 E123.42855
G1 X128.011 Y62.3 E123.50218
G1 X128.892 Y64.232 E123.57986
G0 F1620 X129.193 Y64.893
G1 F2400 E120.37986
G0 F6000 X129.043 Y65.023
G0 X131.276 Y63.091
G0 X129.043 Y77.115
G0 X129.043 Y74.28
G0 X114.389 Y74.47
G1 F1440 E123.57986
G1 F1800 X114.389 Y145.53 E126.17967
G1 X151.649 Y145.53 E127.54287
G1 X151.649 Y74.47 E130.14269
G1 X115.116 Y74.47 E131.47929
G0 F1620 X114.389 Y74.47
G1 F2400 E128.27929
G0 F6000 X114.199 Y83.149
G0 X117.034 Y83.149
