;FLAVOR:Marlin
;TIME:4796
;Filament used: 3.74919m
;Layer height: 0.16
;MINX:31.912
;MINY:84.412
;MINZ:0.2
;MAXX:188.088
;MAXY:135.58
;MAXZ:8.88
;Generated with Cura_SteamEngine 4.5.0
M140 S50
M105
M190 S50
M104 S215
M105
M109 S215
M82 ;absolute extrusion mode
M201 X500.00 Y500.00 Z100.00 E5000.00 ;Setup machine max acceleration
M203 X500.00 Y500.00 Z10.00 E50.00 ;Setup machine max feedrate
M204 P500.00 R1000.00 T500.00 ;Setup Print/Retract/Travel acceleration
M205 X8.00 Y8.00 Z0.40 E5.00 ;Setup Jerk
M220 S100 ;Reset Feedrate
M221 S100 ;Reset Flowrate

G28 ;Home

G92 E0 ;Reset Extruder
G1 Z2.0 F3000 ;Move Z Axis up
G1 X10.1 Y20 Z0.28 F5000.0 ;Move to start position
G1 X10.1 Y200.0 Z0.28 F1500.0 E15 ;Draw the first line
G1 X10.4 Y200.0 Z0.28 F5000.0 ;Move to side a little
G1 X10.4 Y20 Z0.28 F1500.0 E30 ;Draw the second line
G92 E0 ;Reset Extruder
G1 Z2.0 F3000 ;Move Z Axis up

G92 E0
G92 E0
G1 F1800 E-3
;LAYER_COUNT:50
;LAYER:0
M107
G0 F9000 X42.16 Y95.391 Z0.2
;TYPE:SKIRT
G1 F1800 E0
G1 F3000 X50.459 Y91.77 E0.30116
G1 X51.292 Y91.419 E0.33122
G1 X52.156 Y91.1 E0.36185
G1 X52.922 Y90.886 E0.38831
G1 X53.552 Y90.735 E0.40985
G1 X66.921 Y87.762 E0.86537
G1 X67.707 Y87.597 E0.89208
G1 X68.588 Y87.437 E0.92186
G1 X69.502 Y87.299 E0.95261
G1 X70.108 Y87.221 E0.97293
G1 X87.253 Y85.279 E1.54682
G1 X88.089 Y85.195 E1.57477
G1 X89.055 Y85.132 E1.60697
G1 X108.871 Y84.434 E2.26646
G1 X109.805 Y84.412 E2.29753
G1 X110.391 Y84.412 E2.31702
G1 X130.518 Y85.115 E2.98686
G1 X131.376 Y85.156 E3.01543
G1 X132.341 Y85.236 E3.04763
G1 X150.133 Y87.249 E3.64317
G1 X151.017 Y87.361 E3.67281
G1 X151.789 Y87.488 E3.69883
G1 X152.34 Y87.6 E3.71753
G1 X166.217 Y90.682 E4.19033
G1 X167.038 Y90.875 E4.21838
G1 X167.924 Y91.126 E4.24901
G1 X168.647 Y91.394 E4.27465
G1 X169.131 Y91.594 E4.29207
G1 X177.849 Y95.393 E4.60837
G1 X178.571 Y95.72 E4.63473
G1 X179.392 Y96.137 E4.66536
G1 X180.174 Y96.624 E4.696
G1 X180.91 Y97.176 E4.7266
G1 X181.596 Y97.791 E4.75724
G1 X182.225 Y98.462 E4.78783
G1 X182.711 Y99.072 E4.81377
G1 X183.118 Y99.623 E4.83655
G1 X185.715 Y103.262 E4.98525
G1 X186.201 Y103.961 E5.01357
G1 X186.692 Y104.74 E5.04419
G1 X187.113 Y105.559 E5.07482
G1 X187.462 Y106.411 E5.10544
G1 X187.736 Y107.29 E5.13607
G1 X187.932 Y108.189 E5.16667
G1 X188.05 Y109.102 E5.19729
G1 X188.088 Y110.022 E5.22791
G1 X188.046 Y110.942 E5.25855
G1 X187.924 Y111.854 E5.28915
G1 X187.724 Y112.753 E5.31978
G1 X187.446 Y113.631 E5.35041
G1 X187.094 Y114.481 E5.38101
G1 X186.669 Y115.298 E5.41164
G1 X186.229 Y115.995 E5.43906
G1 X185.908 Y116.463 E5.45793
G1 X183.273 Y120.163 E5.60901
G1 X182.741 Y120.89 E5.63898
G1 X182.165 Y121.608 E5.66959
G1 X181.529 Y122.273 E5.7002
G1 X180.837 Y122.881 E5.73083
G1 X180.096 Y123.426 E5.76143
G1 X179.309 Y123.905 E5.79207
G1 X178.587 Y124.268 E5.81895
G1 X177.845 Y124.606 E5.84607
G1 X169.612 Y128.198 E6.14483
G1 X168.722 Y128.574 E6.17696
G1 X167.859 Y128.894 E6.20757
G1 X167.099 Y129.108 E6.23383
G1 X166.491 Y129.255 E6.25464
G1 X152.696 Y132.321 E6.72466
G1 X151.857 Y132.497 E6.75317
G1 X151.068 Y132.632 E6.77979
G1 X150.452 Y132.713 E6.80046
G1 X132.757 Y134.72 E7.39277
G1 X131.883 Y134.807 E7.42198
G1 X130.823 Y134.873 E7.45731
G1 X111.126 Y135.567 E8.11284
G1 X110.53 Y135.58 E8.13267
G1 X108.789 Y135.562 E8.19058
G1 X89.478 Y134.885 E8.83326
G1 X88.62 Y134.844 E8.86183
G1 X87.568 Y134.755 E8.89694
G1 X69.824 Y132.747 E9.49088
G1 X68.99 Y132.641 E9.51884
G1 X68.233 Y132.516 E9.54436
G1 X67.636 Y132.395 E9.56462
G1 X53.812 Y129.325 E10.03561
G1 X52.937 Y129.118 E10.06551
G1 X52.052 Y128.866 E10.09612
G1 X51.381 Y128.617 E10.11992
G1 X50.705 Y128.338 E10.14425
G1 X42.148 Y124.606 E10.45474
G1 X41.428 Y124.28 E10.48103
G1 X40.607 Y123.863 E10.51166
G1 X39.825 Y123.376 E10.5423
G1 X39.089 Y122.824 E10.5729
G1 X38.403 Y122.209 E10.60354
G1 X37.774 Y121.538 E10.63413
G1 X37.288 Y120.929 E10.66005
G1 X36.892 Y120.393 E10.68221
G1 X34.287 Y116.741 E10.83141
G1 X33.796 Y116.033 E10.86007
G1 X33.306 Y115.254 E10.89068
G1 X32.884 Y114.435 E10.92132
G1 X32.536 Y113.583 E10.95193
G1 X32.263 Y112.704 E10.98254
G1 X32.067 Y111.804 E11.01318
G1 X31.95 Y110.891 E11.0438
G1 X31.912 Y109.971 E11.07442
G1 X31.955 Y109.052 E11.10502
G1 X32.077 Y108.139 E11.13566
G1 X32.277 Y107.241 E11.16626
G1 X32.556 Y106.363 E11.1969
G1 X32.909 Y105.513 E11.22751
G1 X33.334 Y104.696 E11.25814
G1 X33.768 Y104.008 E11.2852
G1 X34.075 Y103.56 E11.30326
G1 X36.746 Y99.809 E11.45642
G1 X37.254 Y99.115 E11.48502
G1 X37.83 Y98.396 E11.51566
G1 X38.465 Y97.73 E11.54627
G1 X39.156 Y97.122 E11.57688
G1 X39.898 Y96.576 E11.60752
G1 X40.684 Y96.096 E11.63815
G1 X41.43 Y95.722 E11.66591
G1 X42.16 Y95.391 E11.69257
G0 F9000 X42.325 Y95.755
G1 F3000 X50.619 Y92.137 E11.99353
G1 X51.447 Y91.788 E12.02342
G1 X52.294 Y91.476 E12.05344
G1 X53.016 Y91.275 E12.07837
G1 X53.646 Y91.124 E12.09991
G1 X67.008 Y88.153 E12.55519
G1 X67.789 Y87.989 E12.58173
G1 X68.657 Y87.831 E12.61108
G1 X69.56 Y87.695 E12.64145
G1 X70.153 Y87.619 E12.66133
G1 X87.298 Y85.677 E13.23522
G1 X88.128 Y85.593 E13.26297
G1 X89.076 Y85.531 E13.29457
G1 X108.885 Y84.833 E13.95383
G1 X109.814 Y84.812 E13.98474
G1 X110.388 Y84.812 E14.00383
G1 X130.504 Y85.514 E14.67329
G1 X131.356 Y85.556 E14.70167
G1 X132.305 Y85.634 E14.73334
G1 X150.088 Y87.647 E15.32858
G1 X150.967 Y87.758 E15.35805
G1 X151.71 Y87.88 E15.38309
G1 X152.261 Y87.992 E15.40179
G1 X166.131 Y91.073 E15.87435
G1 X166.946 Y91.265 E15.9022
G1 X167.815 Y91.511 E15.93224
G1 X168.494 Y91.764 E15.95634
G1 X168.978 Y91.964 E15.97376
G1 X177.69 Y95.76 E16.28983
G1 X178.406 Y96.084 E16.31597
G1 X179.211 Y96.494 E16.34602
G1 X179.976 Y96.973 E16.37604
G1 X180.696 Y97.518 E16.40607
G1 X181.365 Y98.125 E16.43612
G1 X181.978 Y98.789 E16.46618
G1 X182.389 Y99.31 E16.48825
G1 X182.796 Y99.861 E16.51103
G1 X185.389 Y103.494 E16.65949
G1 X185.872 Y104.189 E16.68764
G1 X186.353 Y104.954 E16.71769
G1 X186.764 Y105.758 E16.74772
G1 X187.103 Y106.595 E16.77776
G1 X187.367 Y107.459 E16.80781
G1 X187.553 Y108.342 E16.83782
G1 X187.66 Y109.239 E16.86787
G1 X187.687 Y110.142 E16.89791
G1 X187.634 Y111.043 E16.92793
G1 X187.502 Y111.937 E16.95799
G1 X187.292 Y112.815 E16.98802
G1 X187.004 Y113.671 E17.01806
G1 X186.642 Y114.498 E17.04808
G1 X186.208 Y115.29 E17.07812
G1 X185.9 Y115.768 E17.09703
G1 X185.579 Y116.236 E17.11591
G1 X182.947 Y119.931 E17.26679
G1 X182.419 Y120.653 E17.29654
G1 X181.853 Y121.357 E17.32659
G1 X181.227 Y122.008 E17.35663
G1 X180.546 Y122.602 E17.38668
G1 X179.816 Y123.132 E17.41669
G1 X179.041 Y123.596 E17.44673
G1 X178.421 Y123.904 E17.46976
G1 X177.679 Y124.242 E17.49688
G1 X169.452 Y127.832 E17.79542
G1 X168.567 Y128.205 E17.82737
G1 X167.72 Y128.519 E17.85741
G1 X167.005 Y128.719 E17.88211
G1 X166.397 Y128.866 E17.90291
G1 X152.61 Y131.93 E18.37266
G1 X151.775 Y132.106 E18.40104
G1 X151.016 Y132.235 E18.42664
G1 X150.4 Y132.316 E18.44731
G1 X132.712 Y134.322 E19.03939
G1 X131.844 Y134.409 E19.0684
G1 X130.803 Y134.474 E19.10309
G1 X111.112 Y135.168 E19.75842
G1 X110.523 Y135.18 E19.77802
G1 X108.794 Y135.162 E19.83553
G1 X89.492 Y134.486 E20.47791
G1 X88.64 Y134.444 E20.50628
G1 X87.606 Y134.357 E20.54079
G1 X69.869 Y132.349 E21.1345
G1 X69.041 Y132.244 E21.16226
G1 X68.313 Y132.124 E21.1868
G1 X67.716 Y132.003 E21.20706
G1 X53.898 Y128.934 E21.67784
G1 X53.03 Y128.728 E21.70752
G1 X52.161 Y128.481 E21.73756
G1 X51.533 Y128.247 E21.75985
G1 X50.865 Y127.971 E21.78389
G1 X42.308 Y124.239 E22.09439
G1 X41.593 Y123.916 E22.12049
G1 X40.788 Y123.506 E22.15053
G1 X40.023 Y123.027 E22.18055
G1 X39.303 Y122.482 E22.21059
G1 X38.634 Y121.875 E22.24063
G1 X38.021 Y121.211 E22.27069
G1 X37.61 Y120.691 E22.29273
G1 X37.214 Y120.155 E22.3149
G1 X34.613 Y116.508 E22.46389
G1 X34.125 Y115.805 E22.49235
G1 X33.645 Y115.041 E22.52236
G1 X33.233 Y114.236 E22.55244
G1 X32.895 Y113.399 E22.58246
G1 X32.632 Y112.535 E22.6125
G1 X32.447 Y111.651 E22.64254
G1 X32.34 Y110.755 E22.67255
G1 X32.313 Y109.852 E22.7026
G1 X32.366 Y108.95 E22.73265
G1 X32.499 Y108.057 E22.76268
G1 X32.71 Y107.179 E22.79271
G1 X32.998 Y106.323 E22.82275
G1 X33.36 Y105.496 E22.85278
G1 X33.795 Y104.704 E22.88283
G1 X34.098 Y104.234 E22.90143
G1 X34.405 Y103.786 E22.9195
G1 X37.072 Y100.041 E23.07241
G1 X37.577 Y99.351 E23.10085
G1 X38.142 Y98.646 E23.1309
G1 X38.767 Y97.995 E23.16092
G1 X39.448 Y97.401 E23.19097
G1 X40.178 Y96.87 E23.221
G1 X40.953 Y96.405 E23.25106
G1 X41.595 Y96.086 E23.2749
G1 X42.325 Y95.755 E23.30156
G1 F1800 E20.30156
;MESH:Logo_ElementumEnergy_base.stl
G0 F9000 X41.693 Y110
G0 X45.369 Y115.169
G0 X55.185 Y119.452
G0 X62.947 Y121.177
G0 X64.97 Y112.064
G0 X66.506 Y115.275
G0 X66.873 Y115.731
G0 X67.007 Y115.813
G0 X68.669 Y116.653
;TYPE:WALL-INNER
G1 F1800 E23.30156
G1 F3000 X69.339 Y116.241 E23.32772
G1 X69.825 Y115.645 E23.3533
G1 X69.919 Y115.445 E23.36065
G1 X70.082 Y115.098 E23.3734
G1 X70.089 Y115.083 E23.37395
G1 X70.096 Y115.104 E23.37409
G1 X70.275 Y115.443 E23.38135
G1 X70.391 Y115.661 E23.38956
G1 X70.753 Y116.115 E23.40888
G1 X71.244 Y116.487 E23.42937
G1 X71.828 Y116.716 E23.45023
G1 X72.467 Y116.782 E23.4716
G1 X73.043 Y116.715 E23.49088
G1 X73.612 Y116.518 E23.51091
G1 X74.109 Y116.259 E23.52955
G1 X74.857 Y115.707 E23.56047
G1 X75.315 Y116.253 E23.58417
G1 X75.955 Y116.651 E23.60924
G1 X76.753 Y116.79 E23.63618
G1 X77.557 Y116.632 E23.66343
G1 X78.192 Y116.243 E23.6882
G1 X78.679 Y115.644 E23.71388
G1 X78.774 Y115.441 E23.72133
G1 X78.941 Y115.086 E23.73438
G1 X78.944 Y115.096 E23.73473
G1 X79.125 Y115.445 E23.74209
G1 X79.225 Y115.638 E23.74932
G1 X79.607 Y116.116 E23.76968
G1 X80.099 Y116.487 E23.79017
G1 X80.671 Y116.714 E23.81064
G1 X81.294 Y116.788 E23.83151
G1 X81.931 Y116.704 E23.85288
G1 X82.466 Y116.518 E23.87171
G1 X82.965 Y116.259 E23.89041
G1 X83.712 Y115.7 E23.92145
G1 X83.712 Y113.236 E24.0034
G1 X82.507 Y112.711 E24.04712
G1 X81.727 Y113.445 E24.08274
G1 X81.705 Y113.466 E24.08375
G1 X81.487 Y113.617 E24.09257
G1 X81.462 Y113.634 E24.09358
G1 X81.442 Y113.642 E24.09429
G1 X81.397 Y113.662 E24.09593
G1 X81.395 Y113.65
G1 X81.37 Y113.542 E24.09719
G1 X81.339 Y113.404 E24.09982
G1 X81.339 Y113.373 E24.10085
G1 X81.332 Y112.871 E24.11754
G1 X81.43 Y112.267 E24.1379
G1 X81.519 Y111.991 E24.14754
G1 X81.81 Y111.311 E24.17214
G1 X82.297 Y110.39 E24.20679
G1 X82.92 Y109.34 E24.2474
G1 X83.838 Y107.897 E24.30429
G1 X83.838 Y105.302 E24.3906
G1 X78.411 Y105.302 E24.5711
G1 X78.411 Y105.474 E24.57682
G1 X78.411 Y105.646 E24.58254
G1 X78.411 Y105.907 E24.59122
G1 X78.206 Y105.646 E24.59532
G1 X78.059 Y105.557 E24.59982
G1 X77.516 Y105.226 E24.62097
G1 X76.703 Y105.101 E24.64833
G1 X75.963 Y105.231 E24.67332
G1 X75.362 Y105.596 E24.69671
G1 X75.298 Y105.635 E24.6992
G1 X74.985 Y106.015 E24.71557
G1 X74.985 Y105.635 E24.71991
G1 X74.985 Y105.559 E24.72221
G1 X74.985 Y105.302 E24.73076
G1 X69.557 Y105.302 E24.91129
G1 X69.557 Y105.474 E24.91701
G1 X69.557 Y105.646 E24.92273
G1 X69.557 Y105.908 E24.93145
G1 X69.351 Y105.646 E24.93558
G1 X69.205 Y105.557 E24.94006
G1 X68.674 Y105.232 E24.96076
G1 X67.889 Y105.094 E24.98727
G1 X67.11 Y105.231 E25.01358
G1 X66.444 Y105.635 E25.03949
G1 X65.981 Y106.198 E25.06373
G1 X65.647 Y106.882 E25.08905
G1 X65.401 Y107.727 E25.11832
G1 X65.262 Y108.602 E25.14779
G1 X65.17 Y109.658 E25.18305
G1 X65.14 Y110.866 E25.22324
G1 X65.161 Y112.054 E25.26276
G1 X65.241 Y113.113 E25.29808
G1 X65.384 Y114.044 E25.32941
G1 X65.598 Y114.861 E25.3575
G1 X65.939 Y115.623 E25.38526
G1 X66.428 Y116.233 E25.41127
G1 X67.112 Y116.657 E25.43803
G1 X67.927 Y116.781 E25.46545
G1 X68.669 Y116.653 E25.4905
G0 F9000 X68.525 Y116.272
G1 F3000 X69.072 Y115.936 E25.51185
G1 X69.484 Y115.43 E25.53355
G1 X69.762 Y114.839 E25.55527
G1 X69.895 Y114.378 E25.57123
G1 X69.988 Y114.051 E25.58254
G1 X70.03 Y113.78 E25.59166
G1 X70.119 Y113.216 E25.61065
G1 X70.166 Y112.662 E25.62914
G1 X70.206 Y112.193 E25.6448
G1 X70.208 Y112.093 E25.64812
G1 X70.232 Y111.17 E25.67883
G1 X70.236 Y111.016 E25.68396
G1 X70.233 Y110.769 E25.69217
G1 X70.217 Y109.837 E25.72318
G1 X70.138 Y108.796 E25.7579
G1 X70.047 Y108.197 E25.77805
G1 X70.013 Y107.969 E25.78572
G1 X70.243 Y107.969 E25.79048
G1 X70.244 Y107.969 E25.79051
G1 X71.873 Y107.969 E25.84469
G1 X72.095 Y107.969 E25.85207
G1 X72.188 Y107.969 E25.85517
G1 X72.095 Y108.114 E25.85769
G1 X71.982 Y108.305 E25.86303
G1 X71.334 Y109.397 E25.90526
G1 X70.859 Y110.291 E25.93893
G1 X70.605 Y110.901 E25.96091
G1 X70.51 Y111.129 E25.96809
G1 X70.49 Y111.176 E25.96876
G1 X70.262 Y112.094 E25.98184
G1 X70.25 Y112.198 E25.98233
G1 X70.191 Y112.664 E25.98365
G1 X70.172 Y113.226 E25.9856
G1 X70.198 Y113.806 E25.9912
G1 X70.231 Y114.011 E25.99431
G1 X70.286 Y114.346 E26.00348
G1 X70.298 Y114.419 E26.00594
G1 X70.466 Y114.949 E26.02443
G1 X70.727 Y115.441 E26.04296
G1 X71.034 Y115.826 E26.05934
G1 X71.442 Y116.135 E26.07636
G1 X71.923 Y116.324 E26.09355
G1 X72.464 Y116.38 E26.11164
G1 X72.953 Y116.323 E26.12801
G1 X73.453 Y116.15 E26.14561
G1 X73.896 Y115.919 E26.16223
G1 X74.459 Y115.503 E26.18551
G1 X74.459 Y114.809 E26.20859
G1 X74.459 Y114.778 E26.20962
G1 X74.459 Y113.963 E26.23673
G1 X74.459 Y113.498 E26.2522
G1 X74.211 Y113.39 E26.26119
G1 X73.736 Y113.183 E26.27843
G1 X73.128 Y113.756 E26.30621
G1 X73.105 Y113.778 E26.30727
G1 X72.828 Y113.972 E26.31852
G1 X72.585 Y114.074 E26.32729
G1 X72.44 Y114.096 E26.33216
G1 X72.378 Y114.089 E26.33424
G1 X72.332 Y114.071 E26.33588
G1 X72.317 Y114.059 E26.33652
G1 X72.174 Y113.835 E26.34536
G1 X72.085 Y113.45 E26.3585
G1 X72.078 Y112.845 E26.37863
G1 X72.182 Y112.189 E26.40072
G1 X72.269 Y111.898 E26.41082
G1 X72.576 Y111.183 E26.4367
G1 X73.085 Y110.209 E26.47325
G1 X73.736 Y109.115 E26.51559
G1 X74.158 Y108.451 E26.54176
G1 X74.585 Y107.78 E26.56821
G1 X74.585 Y107.031 E26.59313
G1 X74.585 Y106.781 E26.60144
G1 X74.585 Y105.702 E26.63733
G1 X69.957 Y105.702 E26.79126
G1 X69.957 Y106.574 E26.82026
G1 X69.957 Y107.139 E26.83905
G1 X69.957 Y107.731 E26.85874
G1 X69.799 Y107.139 E26.86318
G1 X69.569 Y106.623 E26.87641
G1 X69.513 Y106.498 E26.88096
G1 X69.081 Y105.95 E26.90417
G1 X68.53 Y105.613 E26.92565
G1 X67.889 Y105.5 E26.9473
G1 X67.253 Y105.612 E26.96878
G1 X66.71 Y105.942 E26.98992
G1 X66.32 Y106.416 E27.01033
G1 X66.021 Y107.027 E27.03296
G1 X65.792 Y107.815 E27.06025
G1 X65.659 Y108.651 E27.08841
G1 X65.57 Y109.68 E27.12276
G1 X65.54 Y110.867 E27.16225
G1 X65.561 Y112.035 E27.2011
G1 X65.639 Y113.068 E27.23556
G1 X65.776 Y113.963 E27.26567
G1 X65.977 Y114.728 E27.29198
G1 X66.283 Y115.413 E27.31693
G1 X66.697 Y115.929 E27.33894
G1 X67.253 Y116.274 E27.3607
G1 X67.923 Y116.376 E27.38324
G1 X68.525 Y116.272 E27.40356
G0 F9000 X68.381 Y115.891
;TYPE:WALL-OUTER
G1 F3000 X68.805 Y115.631 E27.4201
G1 X69.143 Y115.216 E27.43791
G1 X69.386 Y114.698 E27.45694
G1 X69.597 Y113.964 E27.48234
G1 X69.722 Y113.168 E27.50914
G1 X69.806 Y112.171 E27.54242
G1 X69.836 Y111.014 E27.58091
G1 X69.817 Y109.855 E27.61946
G1 X69.74 Y108.841 E27.65329
G1 X69.61 Y107.981 E27.68222
G1 X69.421 Y107.273 E27.70659
G1 X69.168 Y106.707 E27.72721
G1 X68.811 Y106.254 E27.74639
G1 X68.386 Y105.994 E27.76296
G1 X67.889 Y105.906 E27.77975
G1 X67.397 Y105.993 E27.79637
G1 X66.976 Y106.249 E27.81276
G1 X66.659 Y106.634 E27.82934
G1 X66.395 Y107.172 E27.84928
G1 X66.183 Y107.903 E27.87459
G1 X66.056 Y108.7 E27.90143
G1 X65.97 Y109.702 E27.93488
G1 X65.94 Y110.868 E27.97368
G1 X65.961 Y112.016 E28.01187
G1 X66.037 Y113.023 E28.04545
G1 X66.168 Y113.882 E28.07435
G1 X66.356 Y114.595 E28.09888
G1 X66.627 Y115.203 E28.12102
G1 X66.966 Y115.625 E28.13902
G1 X67.394 Y115.891 E28.15578
G1 X67.919 Y115.971 E28.17345
G1 X68.381 Y115.891 E28.18904
G0 F9000 X68.536 Y116.302
G1 F1800 E25.18904
G0 F9000 X70.097 Y115.518
G0 X71.988 Y116.068
G0 X72.461 Y116.119
G0 X72.895 Y116.067
G0 X73.591 Y115.768
G0 X74.259 Y115.301
G0 X74.059 Y115.301
G1 F1800 E28.18904
G1 F3000 X74.059 Y113.76 E28.2403
G1 X73.818 Y113.655 E28.24904
G1 X73.352 Y114.094 E28.27033
G1 X73.024 Y114.324 E28.28366
G1 X72.697 Y114.461 E28.29545
G1 X72.448 Y114.499 E28.30383
G1 X72.279 Y114.48 E28.30948
G1 X72.135 Y114.423 E28.31463
