;FLAVOR:Marlin
;TIME:7117
;Filament used: 6.92055m
;Layer height: 0.2
;MINX:48.908
;MINY:59.835
;MINZ:0.2
;MAXX:169.317
;MAXY:155.05
;MAXZ:19.84
;Generated with Cura_SteamEngine 4.5.0
M140 S50
M105
M190 S50
M104 S215
M105
M109 S215
M82 ;absolute extrusion mode
M201 X500.00 Y500.00 Z100.00 E5000.00 ;Setup machine max acceleration
M203 X500.00 Y500.00 Z10.00 E50.00 ;Setup machine max feedrate
M204 P500.00 R1000.00 T500.00 ;Setup Print/Retract/Travel acceleration
M205 X8.00 Y8.00 Z0.40 E5.00 ;Setup Jerk
M220 S100 ;Reset Feedrate
M221 S100 ;Reset Flowrate

G28 ;Home

G92 E0 ;Reset Extruder
G1 Z2.0 F3000 ;Move Z Axis up
G1 X10.1 Y20 Z0.28 F5000.0 ;Move to start position
G1 X10.1 Y200.0 Z0.28 F1500.0 E15 ;Draw the first line
G1 X10.4 Y200.0 Z0.28 F5000.0 ;Move to side a little
G1 X10.4 Y20 Z0.28 F1500.0 E30 ;Draw the second line
G92 E0 ;Reset Extruder
G1 Z2.0 F3000 ;Move Z Axis up

G92 E0
G92 E0
G1 F1800 E-3
;LAYER_COUNT:106
;LAYER:0
M107
G0 F9000 X75.46 Y63.897 Z0.2
;TYPE:SKIRT
G1 F1800 E0
G1 F3600 X76.246 Y63.027 E0.039
G1 X77.04 Y62.297 E0.07487
G1 X77.772 Y61.739 E0.10548
G1 X78.551 Y61.248 E0.13611
G1 X79.369 Y60.825 E0.16674
G1 X80.22 Y60.475 E0.19734
G1 X81.099 Y60.2 E0.22798
G1 X81.998 Y60.003 E0.25859
G1 X82.911 Y59.884 E0.28921
G1 X83.63 Y59.847 E0.31316
G1 X84.187 Y59.837 E0.33169
G1 X92.874 Y59.835 E0.62062
G1 X93.725 Y59.846 E0.64892
G1 X94.645 Y59.899 E0.67957
G1 X95.793 Y60.08 E0.71823
G1 X96.818 Y60.299 E0.75309
G1 X99.369 Y60.811 E0.83963
G1 X101.824 Y61.232 E0.92247
G1 X104.391 Y61.597 E1.00871
G1 X106.848 Y61.875 E1.09095
G1 X109.408 Y62.094 E1.17641
G1 X111.898 Y62.234 E1.25936
G1 X114.453 Y62.306 E1.34437
G1 X116.963 Y62.306 E1.42785
G1 X119.499 Y62.234 E1.51224
G1 X122.023 Y62.09 E1.59632
G1 X124.562 Y61.874 E1.68107
G1 X127.047 Y61.592 E1.76426
G1 X129.543 Y61.236 E1.84811
G1 X132.082 Y60.801 E1.93379
G1 X134.527 Y60.31 E2.01674
G1 X135.658 Y60.068 E2.0552
G1 X136.567 Y59.919 E2.08584
G1 X137.63 Y59.847 E2.12128
G1 X138.186 Y59.837 E2.13977
G1 X146.874 Y59.835 E2.42874
G1 X147.724 Y59.846 E2.45701
G1 X148.643 Y59.899 E2.48763
G1 X149.554 Y60.032 E2.51825
G1 X150.45 Y60.243 E2.54886
G1 X151.324 Y60.531 E2.57947
G1 X152.171 Y60.894 E2.61012
G1 X152.982 Y61.329 E2.64073
G1 X153.752 Y61.833 E2.67134
G1 X154.476 Y62.402 E2.70197
G1 X154.935 Y62.819 E2.72259
G1 X155.685 Y63.599 E2.75858
G1 X156.258 Y64.319 E2.78919
G1 X156.767 Y65.086 E2.8198
G1 X157.208 Y65.895 E2.85045
G1 X157.576 Y66.738 E2.88104
G1 X157.87 Y67.611 E2.91168
G1 X158.088 Y68.505 E2.94229
G1 X158.226 Y69.416 E2.97293
G1 X158.286 Y70.351 E3.0041
G1 X158.296 Y70.865 E3.02119
G1 X158.298 Y71.675 E3.04814
G1 X158.335 Y74.267 E3.13435
G1 X158.367 Y74.976 E3.15796
G1 X158.417 Y76.595 E3.21183
G1 X158.545 Y79.119 E3.29589
G1 X158.747 Y81.661 E3.3807
G1 X159.02 Y84.186 E3.46518
G1 X159.36 Y86.681 E3.54893
G1 X159.776 Y89.195 E3.63368
G1 X160.255 Y91.653 E3.71697
G1 X160.81 Y94.126 E3.80127
G1 X161.432 Y96.575 E3.88531
G1 X162.119 Y98.995 E3.96898
G1 X162.888 Y101.434 E4.05404
G1 X163.716 Y103.82 E4.13804
G1 X164.59 Y106.125 E4.22003
G1 X165.563 Y108.493 E4.30518
G1 X167.14 Y111.98 E4.43247
G1 X167.482 Y112.835 E4.46309
G1 X167.831 Y114.055 E4.5053
G1 X167.995 Y114.795 E4.53051
G1 X168.965 Y119.492 E4.69003
G1 X169.131 Y120.359 E4.71939
G1 X169.264 Y121.27 E4.75001
G1 X169.317 Y122.189 E4.78063
G1 X169.29 Y123.11 E4.81127
G1 X169.145 Y124.249 E4.84946
G1 X168.978 Y125.162 E4.88033
G1 X168.047 Y129.758 E5.0363
G1 X167.861 Y130.616 E5.0655
G1 X167.627 Y131.506 E5.09611
G1 X167.316 Y132.373 E5.12674
G1 X166.931 Y133.209 E5.15736
G1 X166.511 Y133.949 E5.18566
G1 X166.104 Y134.605 E5.21133
G1 X163.222 Y139.104 E5.38904
G1 X162.753 Y139.816 E5.4174
G1 X162.212 Y140.561 E5.44802
G1 X161.609 Y141.257 E5.47865
G1 X160.999 Y141.852 E5.50699
G1 X160.612 Y142.195 E5.52419
G1 X155.562 Y146.441 E5.74363
G1 X154.943 Y146.951 E5.77031
G1 X154.206 Y147.503 E5.80094
G1 X153.106 Y148.162 E5.84358
G1 X152.126 Y148.671 E5.88031
G1 X146.011 Y151.695 E6.10721
G1 X145.273 Y152.048 E6.13442
G1 X144.185 Y152.495 E6.17354
G1 X143.424 Y152.759 E6.20033
G1 X142.195 Y153.17 E6.24343
G1 X141.151 Y153.509 E6.27994
G1 X140.264 Y153.755 E6.31056
G1 X139.359 Y153.923 E6.34117
G1 X138.442 Y154.011 E6.37181
G1 X137.349 Y154.013 E6.40817
G1 X134.498 Y153.897 E6.50307
G1 X131.991 Y153.868 E6.58646
G1 X129.476 Y153.91 E6.67012
G1 X126.968 Y154.023 E6.75362
G1 X124.397 Y154.212 E6.83936
G1 X121.917 Y154.465 E6.92227
G1 X119.4 Y154.793 E7.0067
G1 X118.353 Y154.941 E7.04187
G1 X117.452 Y155.026 E7.07197
G1 X116.202 Y155.05 E7.11355
G1 X115.41 Y154.993 E7.13996
G1 X113.884 Y154.75 E7.19136
G1 X113.289 Y154.612 E7.21167
G1 X111.701 Y154.218 E7.26609
G1 X110.837 Y153.99 E7.29581
G1 X108.367 Y153.41 E7.3802
G1 X105.913 Y152.906 E7.46352
G1 X103.393 Y152.463 E7.54862
G1 X100.914 Y152.099 E7.63196
G1 X98.412 Y151.804 E7.71575
G1 X95.856 Y151.575 E7.8011
G1 X93.355 Y151.423 E7.88444
G1 X90.845 Y151.341 E7.96797
G1 X88.298 Y151.331 E8.05268
G1 X85.779 Y151.391 E8.13649
G1 X83.25 Y151.523 E8.22072
G1 X80.698 Y151.729 E8.30587
G1 X78.213 Y152.001 E8.38902
G1 X75.729 Y152.344 E8.47242
G1 X73.216 Y152.763 E8.55716
G1 X70.716 Y153.253 E8.64189
G1 X68.312 Y153.797 E8.72387
G1 X66.946 Y154.146 E8.77076
G1 X66.097 Y154.353 E8.79983
G1 X65.194 Y154.532 E8.83045
G1 X63.943 Y154.649 E8.87224
G1 X63.15 Y154.663 E8.89862
G1 X61.918 Y154.603 E8.93964
G1 X61.36 Y154.53 E8.95836
G1 X60.542 Y154.397 E8.98592
G1 X59.303 Y154.121 E9.02814
G1 X58.731 Y153.943 E9.04807
G1 X58.195 Y153.759 E9.06691
G1 X57.641 Y153.553 E9.08657
G1 X56.797 Y153.184 E9.11721
G1 X55.989 Y152.743 E9.14783
G1 X55.222 Y152.234 E9.17844
G1 X54.502 Y151.66 E9.20907
G1 X53.834 Y151.026 E9.2397
G1 X53.224 Y150.337 E9.27031
G1 X52.789 Y149.76 E9.29434
G1 X52.447 Y149.27 E9.31422
G1 X52.063 Y148.701 E9.33705
G1 X51.735 Y148.227 E9.35622
G1 X51.245 Y147.448 E9.38683
G1 X50.718 Y146.392 E9.42608
G1 X50.468 Y145.809 E9.44718
G1 X50.083 Y144.876 E9.48075
G1 X49.819 Y144.193 E9.50511
G1 X49.599 Y143.569 E9.52711
G1 X49.34 Y142.686 E9.55772
G1 X49.226 Y142.17 E9.57529
G1 X49.103 Y141.508 E9.59769
G1 X48.945 Y140.276 E9.639
G1 X48.919 Y139.726 E9.65731
G1 X48.908 Y138.97 E9.68246
G1 X48.959 Y137.841 E9.72005
G1 X49.041 Y137.198 E9.74161
G1 X49.144 Y136.55 E9.76343
G1 X49.328 Y135.648 E9.79405
G1 X49.512 Y134.999 E9.81649
G1 X49.667 Y134.512 E9.83349
G1 X49.883 Y133.9 E9.85507
G1 X50.348 Y132.809 E9.89452
G1 X50.589 Y132.347 E9.91185
G1 X50.952 Y131.702 E9.93647
G1 X51.578 Y130.65 E9.97718
G1 X52.099 Y129.799 E10.01037
G1 X53.354 Y127.615 E10.09415
G1 X54.573 Y125.353 E10.17961
G1 X55.702 Y123.104 E10.26331
G1 X56.266 Y121.916 E10.30705
G1 X64.82 Y103.572 E10.98025
G1 X65.885 Y101.203 E11.06664
G1 X66.854 Y98.87 E11.15066
G1 X67.753 Y96.522 E11.23428
G1 X68.593 Y94.127 E11.3187
G1 X69.359 Y91.725 E11.40255
G1 X70.068 Y89.267 E11.48764
G1 X70.696 Y86.835 E11.57118
G1 X71.261 Y84.363 E11.65552
G1 X71.749 Y81.896 E11.73916
G1 X72.168 Y79.416 E11.82282
G1 X72.518 Y76.921 E11.90661
G1 X72.803 Y74.373 E11.99189
G1 X73.011 Y71.849 E12.07612
G1 X73.09 Y70.453 E12.12263
G1 X73.135 Y69.804 E12.14427
G1 X73.24 Y68.889 E12.1749
G1 X73.424 Y67.987 E12.20552
G1 X73.686 Y67.104 E12.23615
G1 X74.023 Y66.248 E12.26675
G1 X74.433 Y65.424 E12.29736
G1 X74.914 Y64.638 E12.32801
G1 X75.46 Y63.897 E12.35862
G0 F9000 X75.848 Y64.055
G1 F3600 X76.528 Y63.311 E12.39215
G1 X77.309 Y62.594 E12.42741
G1 X78.029 Y62.048 E12.45746
G1 X78.794 Y61.569 E12.48749
G1 X79.599 Y61.159 E12.51753
G1 X80.437 Y60.822 E12.54757
G1 X81.301 Y60.561 E12.57759
G1 X82.186 Y60.377 E12.60766
G1 X83.083 Y60.272 E12.6377
G1 X83.637 Y60.247 E12.65614
G1 X84.194 Y60.237 E12.67467
G1 X92.874 Y60.235 E12.96337
G1 X93.72 Y60.246 E12.99151
G1 X94.621 Y60.299 E13.02153
G1 X95.709 Y60.471 E13.05816
G1 X96.719 Y60.687 E13.09252
G1 X99.3 Y61.205 E13.18007
G1 X101.804 Y61.634 E13.26457
G1 X104.286 Y61.987 E13.34795
G1 X106.84 Y62.277 E13.43344
G1 X109.353 Y62.491 E13.51733
G1 X111.898 Y62.634 E13.60211
G1 X114.442 Y62.706 E13.68676
G1 X116.975 Y62.706 E13.771
G1 X119.533 Y62.634 E13.85612
G1 X122.043 Y62.49 E13.93974
G1 X124.57 Y62.275 E14.02409
G1 X127.112 Y61.987 E14.10918
G1 X129.63 Y61.628 E14.19377
G1 X132.122 Y61.201 E14.27787
G1 X134.615 Y60.7 E14.36244
G1 X135.74 Y60.46 E14.4007
G1 X136.631 Y60.315 E14.43073
G1 X137.638 Y60.247 E14.4643
G1 X138.194 Y60.237 E14.48279
G1 X146.874 Y60.235 E14.77149
G1 X147.718 Y60.246 E14.79956
G1 X148.62 Y60.299 E14.82962
G1 X149.513 Y60.431 E14.85964
G1 X150.391 Y60.642 E14.88967
G1 X151.247 Y60.93 E14.91971
G1 X152.074 Y61.292 E14.94974
G1 X152.866 Y61.727 E14.97979
G1 X153.617 Y62.229 E15.00984
G1 X154.32 Y62.796 E15.03988
G1 X154.773 Y63.219 E15.06049
G1 X155.394 Y63.875 E15.09053
G1 X155.955 Y64.582 E15.12055
G1 X156.451 Y65.337 E15.1506
G1 X156.878 Y66.133 E15.18064
G1 X157.234 Y66.963 E15.21068
G1 X157.514 Y67.821 E15.2407
G1 X157.718 Y68.701 E15.27074
G1 X157.843 Y69.596 E15.3008
G1 X157.886 Y70.359 E15.32622
G1 X157.896 Y70.873 E15.34332
G1 X157.898 Y71.681 E15.37019
G1 X157.935 Y74.291 E15.45701
G1 X157.967 Y74.994 E15.48042
G1 X158.016 Y76.578 E15.53312
G1 X158.148 Y79.172 E15.61951
G1 X158.349 Y81.7 E15.70386
G1 X158.62 Y84.212 E15.78789
G1 X158.968 Y86.763 E15.87353
G1 X159.377 Y89.237 E15.95693
G1 X159.866 Y91.746 E16.04195
G1 X160.424 Y94.232 E16.12669
G1 X161.036 Y96.644 E16.20946
G1 X161.749 Y99.152 E16.29618
G1 X162.504 Y101.548 E16.37973
G1 X163.34 Y103.956 E16.46451
G1 X164.217 Y106.271 E16.54685
G1 X165.201 Y108.666 E16.63297
G1 X166.775 Y112.145 E16.75997
G1 X167.111 Y112.984 E16.79003
G1 X167.44 Y114.142 E16.83007
G1 X167.604 Y114.882 E16.85528
G1 X168.573 Y119.573 E17.0146
G1 X168.738 Y120.434 E17.04376
G1 X168.867 Y121.328 E17.0738
G1 X168.917 Y122.23 E17.10385
G1 X168.887 Y123.132 E17.13386
G1 X168.752 Y124.177 E17.16891
G1 X168.585 Y125.09 E17.19978
G1 X167.655 Y129.678 E17.35548
G1 X167.471 Y130.531 E17.3845
G1 X167.24 Y131.404 E17.41454
G1 X166.932 Y132.253 E17.44458
G1 X166.551 Y133.072 E17.47462
G1 X166.171 Y133.738 E17.50012
G1 X165.764 Y134.394 E17.5258
G1 X162.885 Y138.888 E17.70331
G1 X162.419 Y139.595 E17.73148
G1 X161.888 Y140.326 E17.76153
G1 X161.295 Y141.007 E17.79156
G1 X160.731 Y141.555 E17.81772
G1 X160.352 Y141.891 E17.83456
G1 X155.305 Y146.135 E18.05389
G1 X154.689 Y146.641 E18.0804
G1 X153.966 Y147.183 E18.11046
G1 X152.921 Y147.807 E18.15094
G1 X151.941 Y148.316 E18.18767
G1 X145.834 Y151.336 E18.41427
G1 X145.101 Y151.687 E18.4413
G1 X144.054 Y152.117 E18.47894
G1 X143.293 Y152.381 E18.50573
G1 X142.068 Y152.791 E18.5487
G1 X141.028 Y153.129 E18.58507
G1 X140.157 Y153.369 E18.61512
G1 X139.269 Y153.531 E18.64514
G1 X138.369 Y153.614 E18.6752
G1 X137.369 Y153.613 E18.70846
G1 X134.518 Y153.497 E18.80337
G1 X132.024 Y153.468 E18.88632
G1 X129.451 Y153.512 E18.97191
G1 X126.919 Y153.625 E19.05621
G1 X124.366 Y153.813 E19.14135
G1 X121.857 Y154.069 E19.22524
G1 X119.358 Y154.395 E19.30906
G1 X118.298 Y154.545 E19.34467
G1 X117.432 Y154.626 E19.37359
G1 X116.199 Y154.65 E19.41461
G1 X115.454 Y154.595 E19.43946
G1 X113.974 Y154.36 E19.4893
G1 X113.379 Y154.222 E19.50961
G1 X111.797 Y153.829 E19.56383
G1 X110.958 Y153.609 E19.59268
G1 X108.466 Y153.023 E19.67783
G1 X105.957 Y152.508 E19.76301
G1 X103.483 Y152.073 E19.84656
G1 X100.948 Y151.7 E19.93178
G1 X98.423 Y151.403 E20.01635
G1 X95.918 Y151.179 E20.09999
G1 X93.392 Y151.025 E20.18417
G1 X90.824 Y150.941 E20.26962
G1 X88.29 Y150.931 E20.35391
G1 X85.749 Y150.992 E20.43844
G1 X83.233 Y151.123 E20.52224
G1 X80.695 Y151.328 E20.60693
G1 X78.147 Y151.606 E20.69218
G1 X75.645 Y151.952 E20.77619
G1 X73.144 Y152.369 E20.86052
G1 X70.656 Y152.857 E20.94485
G1 X68.197 Y153.413 E21.0287
G1 X66.847 Y153.758 E21.07504
G1 X66.003 Y153.965 E21.10395
G1 X65.117 Y154.14 E21.13398
G1 X63.93 Y154.249 E21.17363
G1 X63.156 Y154.263 E21.19938
G1 X61.942 Y154.203 E21.2398
G1 X61.423 Y154.135 E21.25721
G1 X60.617 Y154.004 E21.28437
G1 X59.395 Y153.731 E21.32602
G1 X58.861 Y153.564 E21.34463
G1 X58.325 Y153.38 E21.36348
G1 X57.785 Y153.18 E21.38263
G1 X56.958 Y152.817 E21.41267
G1 X56.166 Y152.383 E21.44271
G1 X55.416 Y151.88 E21.47274
G1 X54.713 Y151.313 E21.50278
G1 X54.062 Y150.687 E21.53282
G1 X53.47 Y150.005 E21.56286
G1 X53.116 Y149.53 E21.58256
G1 X52.778 Y149.046 E21.6022
G1 X52.37 Y148.442 E21.62644
G1 X52.064 Y147.999 E21.64435
G1 X51.584 Y147.234 E21.67438
G1 X51.086 Y146.234 E21.71154
G1 X50.838 Y145.657 E21.73243
G1 X50.453 Y144.724 E21.766
G1 X50.193 Y144.05 E21.79003
G1 X49.978 Y143.44 E21.81154
G1 X49.724 Y142.573 E21.84159
G1 X49.557 Y141.776 E21.86867
G1 X49.446 Y141.127 E21.89057
G1 X49.343 Y140.23 E21.9206
G1 X49.319 Y139.718 E21.93765
G1 X49.308 Y138.973 E21.96243
G1 X49.359 Y137.863 E21.99939
G1 X49.436 Y137.261 E22.01957
G1 X49.539 Y136.613 E22.0414
G1 X49.721 Y135.728 E22.07145
G1 X49.893 Y135.12 E22.09246
G1 X50.048 Y134.633 E22.10946
G1 X50.256 Y134.045 E22.13021
G1 X50.715 Y132.97 E22.16908
G1 X51.136 Y132.184 E22.19874
G1 X51.922 Y130.855 E22.2501
G1 X52.444 Y130.001 E22.28339
G1 X53.72 Y127.783 E22.36849
G1 X54.903 Y125.585 E22.45151
G1 X56.071 Y123.258 E22.53811
G1 X56.66 Y122.019 E22.58374
G1 X65.177 Y103.755 E23.25401
G1 X66.242 Y101.384 E23.34046
G1 X67.23 Y99.006 E23.42611
G1 X68.128 Y96.661 E23.50962
G1 X68.968 Y94.265 E23.59407
G1 X69.749 Y91.82 E23.67944
G1 X70.449 Y89.392 E23.76348
G1 X71.087 Y86.921 E23.84837
G1 X71.649 Y84.464 E23.9322
G1 X72.143 Y81.962 E24.01702
G1 X72.564 Y79.472 E24.10101
G1 X72.918 Y76.949 E24.18575
G1 X73.201 Y74.414 E24.27059
G1 X73.409 Y71.906 E24.35429
G1 X73.489 Y70.475 E24.40196
G1 X73.534 Y69.832 E24.4234
G1 X73.638 Y68.935 E24.45343
G1 X73.82 Y68.051 E24.48345
G1 X74.081 Y67.186 E24.5135
G1 X74.417 Y66.348 E24.54353
G1 X74.825 Y65.542 E24.57358
G1 X75.304 Y64.776 E24.60363
G1 X75.848 Y64.055 E24.63367
G0 F9000 X83.898 Y70.635
G1 F3600 X93.498 Y70.635 E24.95297
G1 X93.548 Y76.284 E25.14086
G1 X91.871 Y75.31 E25.20536
G1 X91.685 Y75.302 E25.21155
G1 X91.325 Y75.473 E25.22481
G1 X91.214 Y75.622 E25.23099
G1 X90.74 Y78.515 E25.32849
G1 X89.699 Y78.314 E25.36376
G1 X89.286 Y78.308 E25.3775
G1 X89.527 Y75.092 E25.48476
G1 X89.449 Y74.918 E25.4911
G1 X89.13 Y74.676 E25.50442
G1 X88.94 Y74.647 E25.51081
G1 X85.484 Y75.914 E25.63324
G1 X84.174 Y76.669 E25.68353
G1 X83.871 Y76.921 E25.69664
G1 X83.898 Y76.805 E25.7006
G1 X83.898 Y70.635 E25.90581
G0 F9000 X84.298 Y71.035
G1 F3600 X93.098 Y71.035 E26.1985
G1 X93.098 Y75.56 E26.349
G1 X92.072 Y74.964 E26.38847
G1 X91.867 Y74.891 E26.39571
G1 X91.649 Y74.896 E26.40296
G1 X91.154 Y75.112 E26.42092
G1 X90.977 Y75.24 E26.42819
G1 X90.857 Y75.423 E26.43547
G1 X90.414 Y78.032 E26.52348
G1 X89.767 Y77.92 E26.54532
G1 X89.717 Y77.914 E26.547
G1 X89.926 Y75.122 E26.64012
G1 X89.903 Y74.905 E26.64738
G1 X89.803 Y74.711 E26.65464
G1 X89.372 Y74.357 E26.67319
G1 X89.177 Y74.259 E26.68045
G1 X88.96 Y74.237 E26.6877
G1 X85.346 Y75.539 E26.81547
G1 X84.298 Y76.136 E26.85558
G1 X84.298 Y71.035 E27.02524
G0 F9000 X84.698 Y71.435
G1 F3600 X92.698 Y71.435 E27.29132
G1 X92.698 Y74.865 E27.4054
G1 X92.273 Y74.618 E27.42175
G1 X92.012 Y74.512 E27.43112
G1 X91.731 Y74.484 E27.44052
G1 X91.342 Y74.58 E27.45384
G1 X90.747 Y74.907 E27.47642
G1 X90.564 Y75.122 E27.48581
G1 X90.424 Y75.492 E27.49897
G1 X90.195 Y76.893 E27.54619
G1 X90.325 Y75.152 E27.60426
G1 X90.306 Y74.87 E27.61366
G1 X90.21 Y74.605 E27.62303
G1 X89.932 Y74.28 E27.63726
G1 X89.367 Y73.901 E27.65988
G1 X89.092 Y73.838 E27.66927
G1 X88.665 Y73.896 E27.6836
G1 X85.209 Y75.163 E27.80603
G1 X84.698 Y75.441 E27.82538
G1 X84.698 Y71.435 E27.95862
G0 F9000 X85.098 Y71.835
G1 F3600 X92.298 Y71.835 E28.19809
G1 X92.298 Y74.197 E28.27665
G1 X91.838 Y74.085 E28.2924
G1 X91.505 Y74.108 E28.3035
G1 X90.81 Y74.389 E28.32843
G1 X90.61 Y74.516 E28.33631
G1 X90.449 Y74.238 E28.347
G1 X90.174 Y73.962 E28.35996
G1 X89.567 Y73.551 E28.38434
G1 X89.247 Y73.455 E28.39545
G1 X88.913 Y73.438 E28.40657
G1 X88.527 Y73.521 E28.4197
G1 X85.098 Y74.778 E28.54117
G1 X85.098 Y71.835 E28.63906
G0 F9000 X85.498 Y72.235
G1 F3600 X91.898 Y72.235 E28.85192
