;FLAVOR:Marlin
;TIME:3636
;Filament used: 2.9962m
;Layer height: 0.2
;MINX:50.074
;MINY:86.913
;MINZ:0.2
;MAXX:169.926
;MAXY:133.088
;MAXZ:9.96
;Generated with Cura_SteamEngine 4.5.0
M140 S50
M105
M190 S50
M104 S215
M105
M109 S215
M82 ;absolute extrusion mode
M201 X500.00 Y500.00 Z100.00 E5000.00 ;Setup machine max acceleration
M203 X500.00 Y500.00 Z10.00 E50.00 ;Setup machine max feedrate
M204 P500.00 R1000.00 T500.00 ;Setup Print/Retract/Travel acceleration
M205 X8.00 Y8.00 Z0.40 E5.00 ;Setup Jerk
M220 S100 ;Reset Feedrate
M221 S100 ;Reset Flowrate

G28 ;Home

G92 E0 ;Reset Extruder
G1 Z2.0 F3000 ;Move Z Axis up
G1 X10.1 Y20 Z0.28 F5000.0 ;Move to start position
G1 X10.1 Y200.0 Z0.28 F1500.0 E15 ;Draw the first line
G1 X10.4 Y200.0 Z0.28 F5000.0 ;Move to side a little
G1 X10.4 Y20 Z0.28 F1500.0 E30 ;Draw the second line
G92 E0 ;Reset Extruder
G1 Z2.0 F3000 ;Move Z Axis up

G92 E0
G92 E0
G1 F1800 E-3
;LAYER_COUNT:51
;LAYER:0
M107
G0 F9000 X55.465 Y88.295 Z0.2
;TYPE:SKIRT
G1 F1800 E0
G1 F3600 X56.285 Y87.877 E0.03061
G1 X57.139 Y87.532 E0.06125
G1 X58.019 Y87.262 E0.09186
G1 X58.919 Y87.07 E0.12247
G1 X59.833 Y86.956 E0.15311
G1 X60.386 Y86.926 E0.17153
G1 X61.004 Y86.913 E0.19208
G1 X158.619 Y86.913 E3.43877
G1 X159.469 Y86.924 E3.46705
G1 X160.388 Y86.977 E3.49766
G1 X161.299 Y87.11 E3.52828
G1 X162.195 Y87.321 E3.5589
G1 X163.069 Y87.609 E3.58951
G1 X163.916 Y87.972 E3.62016
G1 X164.727 Y88.407 E3.65077
G1 X165.497 Y88.911 E3.68137
G1 X166.221 Y89.48 E3.712
G1 X166.893 Y90.11 E3.74264
G1 X167.508 Y90.795 E3.77326
G1 X168.061 Y91.531 E3.80388
G1 X168.548 Y92.312 E3.83449
G1 X168.965 Y93.133 E3.86512
G1 X169.31 Y93.987 E3.89575
G1 X169.579 Y94.867 E3.92636
G1 X169.771 Y95.768 E3.957
G1 X169.884 Y96.681 E3.98759
G1 X169.913 Y97.225 E4.00571
G1 X169.926 Y97.843 E4.02627
G1 X169.926 Y121.752 E4.82149
G1 X169.916 Y122.61 E4.85003
G1 X169.865 Y123.529 E4.88064
G1 X169.734 Y124.441 E4.91129
G1 X169.524 Y125.337 E4.9419
G1 X169.238 Y126.212 E4.97251
G1 X168.877 Y127.059 E5.00314
G1 X168.443 Y127.871 E5.03376
G1 X167.941 Y128.643 E5.06439
G1 X167.373 Y129.368 E5.09502
G1 X166.745 Y130.041 E5.12564
G1 X166.061 Y130.657 E5.15625
G1 X165.326 Y131.211 E5.18686
G1 X164.546 Y131.7 E5.21748
G1 X163.726 Y132.119 E5.24811
G1 X162.873 Y132.465 E5.27873
G1 X161.993 Y132.736 E5.30935
G1 X161.093 Y132.929 E5.33997
G1 X160.179 Y133.044 E5.37061
G1 X159.614 Y133.075 E5.38943
G1 X158.996 Y133.088 E5.40999
G1 X92.743 Y133.087 E7.61357
G1 X61.381 Y133.087 E8.65667
G1 X60.546 Y133.077 E8.68445
G1 X59.627 Y133.025 E8.71506
G1 X58.716 Y132.894 E8.74568
G1 X57.82 Y132.684 E8.77628
G1 X56.945 Y132.397 E8.80691
G1 X56.098 Y132.035 E8.83755
G1 X55.286 Y131.601 E8.86817
G1 X54.515 Y131.099 E8.89877
G1 X53.79 Y130.531 E8.9294
G1 X53.117 Y129.902 E8.96004
G1 X52.502 Y129.218 E8.99064
G1 X51.948 Y128.483 E9.02125
G1 X51.46 Y127.702 E9.05188
G1 X51.041 Y126.882 E9.08251
G1 X50.695 Y126.029 E9.11312
G1 X50.425 Y125.149 E9.14374
G1 X50.232 Y124.248 E9.17439
G1 X50.118 Y123.335 E9.20499
G1 X50.087 Y122.764 E9.22401
G1 X50.074 Y122.145 E9.2446
G1 X50.074 Y98.187 E10.04145
G1 X50.084 Y97.379 E10.06832
G1 X50.136 Y96.459 E10.09897
G1 X50.268 Y95.548 E10.12959
G1 X50.479 Y94.652 E10.1602
G1 X50.766 Y93.777 E10.19083
G1 X51.129 Y92.931 E10.22145
G1 X51.563 Y92.119 E10.25207
G1 X52.066 Y91.348 E10.28269
G1 X52.635 Y90.624 E10.31332
G1 X53.263 Y89.952 E10.34391
G1 X53.948 Y89.336 E10.37455
G1 X54.684 Y88.783 E10.40517
G1 X55.465 Y88.295 E10.4358
G0 F9000 X55.843 Y88.544
G1 F3600 X56.656 Y88.151 E10.46583
G1 X57.501 Y87.831 E10.49589
G1 X58.37 Y87.588 E10.5259
G1 X59.258 Y87.422 E10.55594
G1 X60.397 Y87.326 E10.59396
G1 X61.004 Y87.313 E10.61416
G1 X158.619 Y87.313 E13.86084
G1 X159.463 Y87.324 E13.88892
G1 X160.365 Y87.377 E13.91897
G1 X161.258 Y87.509 E13.94899
G1 X162.136 Y87.72 E13.97903
G1 X162.992 Y88.008 E14.00907
G1 X163.819 Y88.37 E14.03909
G1 X164.611 Y88.805 E14.06915
G1 X165.362 Y89.307 E14.09919
G1 X166.065 Y89.874 E14.12923
G1 X166.715 Y90.501 E14.15927
G1 X167.307 Y91.183 E14.18931
G1 X167.837 Y91.914 E14.21934
G1 X168.299 Y92.69 E14.24938
G1 X168.692 Y93.503 E14.27941
G1 X169.01 Y94.348 E14.30944
G1 X169.253 Y95.218 E14.33948
G1 X169.418 Y96.106 E14.36952
G1 X169.513 Y97.236 E14.40724
G1 X169.526 Y97.843 E14.42743
G1 X169.526 Y121.752 E15.22265
G1 X169.516 Y122.605 E15.25102
G1 X169.465 Y123.507 E15.28107
G1 X169.334 Y124.401 E15.31112
G1 X169.125 Y125.279 E15.34114
G1 X168.839 Y126.136 E15.37119
G1 X168.478 Y126.964 E15.40123
G1 X168.046 Y127.756 E15.43124
G1 X167.545 Y128.508 E15.46129
G1 X166.979 Y129.212 E15.49134
G1 X166.354 Y129.863 E15.52135
G1 X165.673 Y130.457 E15.55141
G1 X164.942 Y130.988 E15.58146
G1 X164.168 Y131.452 E15.61147
G1 X163.355 Y131.846 E15.64152
G1 X162.511 Y132.166 E15.67154
G1 X161.641 Y132.411 E15.70161
G1 X160.754 Y132.577 E15.73162
G1 X159.603 Y132.675 E15.77004
G1 X158.996 Y132.688 E15.79024
G1 X92.743 Y132.687 E17.99382
G1 X61.381 Y132.687 E19.03692
G1 X60.551 Y132.677 E19.06453
G1 X59.65 Y132.626 E19.09455
G1 X58.756 Y132.494 E19.1246
G1 X57.878 Y132.285 E19.15462
G1 X57.021 Y131.998 E19.18468
G1 X56.194 Y131.637 E19.21469
G1 X55.401 Y131.204 E19.24475
G1 X54.65 Y130.703 E19.27477
G1 X53.946 Y130.137 E19.30482
G1 X53.295 Y129.511 E19.33485
G1 X52.702 Y128.83 E19.36489
G1 X52.172 Y128.099 E19.39492
G1 X51.708 Y127.324 E19.42496
G1 X51.314 Y126.511 E19.45501
G1 X50.994 Y125.667 E19.48503
G1 X50.75 Y124.797 E19.51509
G1 X50.584 Y123.909 E19.54513
G1 X50.487 Y122.754 E19.58368
G1 X50.474 Y122.145 E19.60394
G1 X50.474 Y98.187 E20.40079
G1 X50.484 Y97.384 E20.4275
G1 X50.536 Y96.482 E20.45755
G1 X50.668 Y95.589 E20.48757
G1 X50.878 Y94.711 E20.5176
G1 X51.165 Y93.854 E20.54766
G1 X51.527 Y93.027 E20.57769
G1 X51.96 Y92.235 E20.60771
G1 X52.462 Y91.484 E20.63775
G1 X53.029 Y90.78 E20.66782
G1 X53.655 Y90.13 E20.69783
G1 X54.336 Y89.537 E20.72787
G1 X55.068 Y89.007 E20.75792
G1 X55.843 Y88.544 E20.78795
G1 F1800 E17.78795
;MESH:Logo_VR_Base.stl
G0 F9000 X125.613 Y113.254
G0 X125.518 Y115.079
G0 X132.021 Y114.889
G0 X143.7 Y114.916
G0 X144.886 Y114.997
;TYPE:WALL-INNER
G1 F1800 E20.78795
G1 F3000 X145.907 Y114.82 E20.82242
G1 X146.834 Y114.225 E20.85905
G1 X147.417 Y113.375 E20.89333
G1 X147.618 Y112.428 E20.92553
G1 X147.625 Y108.324 E21.06203
G1 X147.456 Y107.421 E21.09259
G1 X146.886 Y106.541 E21.12746
G1 X146.086 Y105.979 E21.15998
G1 X146.019 Y105.931 E21.16272
G1 X145.94 Y105.915 E21.1654
G1 X144.942 Y105.702 E21.19934
G1 X143.939 Y105.889 E21.23328
G1 X143.667 Y106.061 E21.24398
G1 X143.508 Y106.163 E21.25026
G1 X143.508 Y105.812 E21.25691
G1 X133.34 Y105.812 E21.5951
G1 X133.34 Y106.805 E21.62812
G1 X133.34 Y107.439 E21.64921
G1 X133.34 Y107.588 E21.65417
G1 X133.312 Y107.439 E21.65439
G1 X132.971 Y106.905 E21.66605
G1 X132.744 Y106.551 E21.68004
G1 X131.878 Y105.933 E21.71543
G1 X130.841 Y105.711 E21.7507
G1 X129.803 Y105.887 E21.78572
G1 X128.913 Y106.459 E21.8209
G1 X128.559 Y106.954 E21.84114
G1 X128.28 Y107.345 E21.85712
G1 X128.201 Y106.871 E21.86572
G1 X128.024 Y105.812 E21.90143
G1 X115.921 Y105.812 E22.30398
G1 X115.021 Y105.983 E22.33445
G1 X114.808 Y106.122 E22.34291
G1 X114.604 Y106.256 E22.35102
G1 X114.604 Y105.812 E22.36035
G1 X111.535 Y105.812 E22.46242
G1 X111.535 Y109.615 E22.58891
G1 X111.535 Y110.09 E22.60471
G1 X111.37 Y109.615 E22.60869
G1 X111.37 Y105.812 E22.661
G1 X108.304 Y105.812 E22.76298
G1 X108.304 Y108.879 E22.86499
G1 X108.304 Y109.616 E22.8895
G1 X106.554 Y114.653 E23.06685
G1 X106.463 Y114.917 E23.07614
G1 X106.742 Y114.917 E23.08165
G1 X106.743 Y114.917 E23.08168
G1 X109.786 Y114.917 E23.18289
G1 X109.794 Y114.888 E23.18389
G1 X109.838 Y114.747 E23.1888
G1 X109.881 Y114.887 E23.1895
G1 X109.891 Y114.917
G1 X113.226 Y114.917 E23.30042
G1 X113.223 Y114.909 E23.3007
G1 X114.604 Y114.909 E23.34664
G1 X114.604 Y114.706 E23.35339
G1 X114.604 Y114.476 E23.36104
G1 X114.809 Y114.623 E23.36426
G1 X114.924 Y114.706 E23.3674
G1 X115.874 Y114.91 E23.39972
G1 X118.698 Y114.922 E23.49365
G1 X118.698 Y114.917 E23.49382
G1 X123.118 Y114.917 E23.64083
G1 X123.118 Y114.909 E23.64109
G1 X129.501 Y114.909 E23.85339
G1 X129.544 Y114.909 E23.85482
G1 X129.534 Y114.846 E23.85568
G1 X129.501 Y114.65 E23.8602
G1 X129.651 Y114.756 E23.86151
G1 X129.731 Y114.813 E23.86237
G1 X130.671 Y114.989 E23.89417
G1 X130.742 Y115.003 E23.89658
G1 X131.763 Y114.828 E23.93104
G1 X132.043 Y114.648 E23.94211
G1 X132.212 Y114.539 E23.9488
G1 X132.212 Y114.909 E23.95595
G1 X143.508 Y114.909 E24.33165
G1 X143.508 Y114.803 E24.33518
G1 X143.508 Y114.544 E24.34379
G1 X143.68 Y114.666 E24.34574
G1 X143.873 Y114.803 E24.35156
G1 X144.886 Y114.997 E24.38587
G0 F9000 X144.89 Y114.59
G1 F3000 X145.759 Y114.44 E24.4152
G1 X146.55 Y113.932 E24.44646
G1 X147.042 Y113.214 E24.47541
G1 X147.218 Y112.386 E24.50357
G1 X147.225 Y108.361 E24.63744
G1 X147.077 Y107.572 E24.66414
G1 X146.592 Y106.823 E24.69382
G1 X145.856 Y106.305 E24.72375
G1 X144.937 Y106.11 E24.755
G1 X144.088 Y106.268 E24.78372
G1 X143.466 Y106.664 E24.80825
G1 X143.337 Y106.746 E24.81333
G1 X143.108 Y107.069 E24.8265
G1 X143.108 Y106.746 E24.82912
G1 X143.108 Y106.592 E24.83329
G1 X143.108 Y106.212 E24.84593
G1 X140.831 Y106.212 E24.92167
G1 X140.831 Y109.217 E25.02161
G1 X140.75 Y109.217 E25.02431
G1 X140.75 Y106.212 E25.0446
G1 X136.679 Y106.212 E25.18
G1 X136.679 Y112.239 E25.38046
G1 X136.012 Y112.239 E25.40264
G1 X136.012 Y106.212 E25.6031
G1 X133.74 Y106.212 E25.67867
G1 X133.74 Y112.239 E25.87913
G1 X133.272 Y112.239 E25.89469
G1 X133.073 Y112.239 E25.90131
G1 X133.073 Y112.04 E25.90559
G1 X133.08 Y108.367 E26.02776
G1 X132.933 Y107.589 E26.05409
G1 X132.449 Y106.832 E26.08398
G1 X131.713 Y106.307 E26.11405
G1 X130.832 Y106.118 E26.14402
G1 X129.951 Y106.268 E26.17374
G1 X129.194 Y106.754 E26.20366
G1 X128.645 Y107.522 E26.23506
G1 X128.49 Y108.332 E26.26249
G1 X128.489 Y108.623 E26.27217
G1 X128.488 Y108.624 E26.27221
G1 X128.485 Y111 E26.35124
G1 X128.094 Y108.656 E26.3909
G1 X127.685 Y106.212 E26.47332
G1 X125.627 Y106.212 E26.54177
G1 X125.625 Y106.231 E26.5424
G1 X125.56 Y106.671 E26.5572
G1 X125.492 Y106.234 E26.55975
G1 X125.488 Y106.212 E26.56049
G1 X123.442 Y106.212 E26.62854
G1 X123.114 Y108.299 E26.69881
G1 X122.718 Y110.826 E26.78388
G1 X122.718 Y108.269 E26.82653
G1 X122.718 Y108.268 E26.82656
G1 X122.718 Y106.212 E26.89494
G1 X120.449 Y106.212 E26.97041
G1 X120.449 Y106.307 E26.97357
G1 X120.449 Y106.308 E26.9736
G1 X120.449 Y107.567 E27.01548
G1 X120.06 Y106.369 E27.03668
G1 X120.009 Y106.212 E27.04217
G1 X115.959 Y106.212 E27.17688
G1 X115.174 Y106.361 E27.20345
G1 X114.564 Y106.761 E27.22771
G1 X114.431 Y106.848 E27.233
G1 X114.204 Y107.176 E27.24627
G1 X114.204 Y106.848 E27.24892
G1 X114.204 Y106.689 E27.25321
G1 X114.204 Y106.212 E27.26907
G1 X111.935 Y106.212 E27.34454
G1 X111.935 Y111.279 E27.51307
G1 X111.935 Y111.28 E27.5131
G1 X111.935 Y112.461 E27.55238
G1 X111.548 Y111.345 E27.5723
G1 X110.97 Y109.683 E27.63082
G1 X110.97 Y106.212 E27.74627
G1 X108.704 Y106.212 E27.82164
G1 X108.704 Y109.684 E27.93712
G1 X107.116 Y114.253 E28.098
G1 X107.025 Y114.517 E28.10729
G1 X107.304 Y114.517 E28.11279
G1 X107.305 Y114.517 E28.11283
G1 X109.491 Y114.517 E28.18553
G1 X109.648 Y114.009 E28.20322
G1 X109.838 Y113.393 E28.22466
G1 X110.028 Y114.009 E28.23584
G1 X110.186 Y114.517 E28.25354
G1 X112.649 Y114.517 E28.33546
G1 X112.646 Y114.509 E28.33574
G1 X114.204 Y114.509 E28.38756
G1 X114.204 Y114.046 E28.40296
G1 X114.204 Y113.807 E28.41091
G1 X114.204 Y113.568 E28.41886
G1 X114.357 Y113.807 E28.42155
G1 X114.551 Y113.946 E28.4273
G1 X115.089 Y114.332 E28.44933
G1 X115.917 Y114.51 E28.4775
G1 X118.298 Y114.52 E28.55669
G1 X118.298 Y114.517 E28.55679
G1 X120.095 Y114.517 E28.61656
G1 X120.095 Y113.259 E28.6584
G1 X120.439 Y114.414 E28.67618
G1 X120.47 Y114.517 E28.67976
G1 X122.718 Y114.517 E28.75453
G1 X122.718 Y114.509 E28.7548
G1 X124.489 Y114.509 E28.8137
G1 X124.509 Y114.358 E28.81877
G1 X124.532 Y114.509 E28.81906
G1 X126.69 Y114.509 E28.89084
G1 X126.705 Y114.396 E28.89463
G1 X126.722 Y114.509 E28.89481
G1 X128.837 Y114.509 E28.96516
G1 X128.838 Y114.509 E28.96519
G1 X129.072 Y114.509 E28.97297
G1 X129.034 Y114.278 E28.9778
G1 X129.022 Y114.21 E28.98009
G1 X128.974 Y113.92 E28.98987
G1 X128.915 Y113.569 E29.00171
G1 X129.125 Y113.894 E29.00478
G1 X129.365 Y114.063 E29.01177
G1 X129.891 Y114.436 E29.03321
G1 X130.745 Y114.597 E29.06212
G1 X131.615 Y114.448 E29.09148
G1 X132.257 Y114.034 E29.11688
G1 X132.405 Y113.939 E29.12273
G1 X132.612 Y113.639 E29.13486
G1 X132.612 Y113.939 E29.13703
G1 X132.612 Y114.115 E29.14165
G1 X132.612 Y114.509 E29.15475
G1 X140.75 Y114.509 E29.42542
G1 X140.75 Y111.496 E29.52564
G1 X140.831 Y111.496 E29.52833
G1 X140.831 Y114.509 E29.54867
G1 X143.108 Y114.509 E29.62441
G1 X143.108 Y114.116 E29.63748
G1 X143.108 Y113.878 E29.64539
G1 X143.108 Y113.64 E29.65331
G1 X143.26 Y113.878 E29.65598
G1 X143.454 Y114.015 E29.6617
G1 X144.033 Y114.426 E29.68531
G1 X144.89 Y114.59 E29.71433
G1 F1800 E26.71433
G0 F9000 X144.138 Y114.179
G0 X143.453 Y113.694
G0 X143.024 Y113.023
G0 X142.89 Y112.277
G0 X142.901 Y111.148
G0 X144.674 Y111.148
G0 X144.959 Y112.503
G0 X144.96 Y112.711
;TYPE:WALL-OUTER
G1 F1800 E29.71433
G1 F3000 X144.674 Y112.593 E29.72463
G1 X144.546 Y112.275 E29.73603
G1 X144.546 Y111.276 E29.76925
G1 X143.029 Y111.276 E29.81971
G1 X143.029 Y112.265 E29.8526
G1 X143.156 Y112.972 E29.87649
G1 X143.555 Y113.597 E29.90116
G1 X144.193 Y114.049 E29.92716
G1 X144.894 Y114.183 E29.9509
G1 X145.611 Y114.06 E29.9751
G1 X146.266 Y113.639 E30.00099
G1 X146.667 Y113.053 E30.02461
G1 X146.818 Y112.344 E30.04872
G1 X146.825 Y108.398 E30.17997
G1 X146.698 Y107.723 E30.20281
G1 X146.298 Y107.105 E30.22729
G1 X145.693 Y106.679 E30.2519
G1 X144.932 Y106.518 E30.27778
G1 X144.237 Y106.647 E30.30129
G1 X143.618 Y107.041 E30.32569
G1 X143.187 Y107.649 E30.35048
G1 X143.036 Y108.36 E30.37465
G1 X143.029 Y109.605 E30.41606
G1 X144.546 Y109.605 E30.46652
G1 X144.546 Y108.508 E30.50301
G1 X144.678 Y108.145 E30.51585
G1 X144.959 Y108.032 E30.52593
G1 X145.237 Y108.146 E30.53592
G1 X145.371 Y108.463 E30.54737
G1 X145.371 Y112.269 E30.67395
G1 X145.218 Y112.601 E30.68611
G1 X144.96 Y112.711 E30.69544
G0 F9000 X144.959 Y112.503
G0 X144.674 Y111.148
G0 X143.108 Y110.876
;TYPE:WALL-INNER
G1 F3000 X143.108 Y110.005 E30.72441
G1 X144.946 Y110.005 E30.78554
G1 X144.946 Y108.579 E30.83297
G1 X144.96 Y108.54 E30.83435
G1 X144.965 Y108.528 E30.83478
G1 X144.971 Y108.543
G1 X144.971 Y108.579
G1 X144.971 Y110.005 E30.83775
G1 X144.971 Y110.876 E30.86672
G1 X144.971 Y112.182 E30.91016
G1 X144.961 Y112.204 E30.91097
G1 X144.954 Y112.219 E30.91152
G1 X144.946 Y112.198 E30.91157
G1 X144.946 Y112.182
G1 X144.946 Y110.876 E30.9143
G1 X143.108 Y110.876 E30.97543
G1 F1800 E27.97543
G0 F9000 X142.839 Y111.071
G0 X142.836 Y114.237
G0 X138.745 Y114.237
G0 X138.673 Y114.109
G0 X138.873 Y114.109
;TYPE:WALL-OUTER
G1 F1800 E30.97543
G1 F3000 X140.35 Y114.109 E31.02455
G1 X140.35 Y111.096 E31.12477
G1 X141.231 Y111.096 E31.15407
G1 X141.231 Y114.109 E31.25428
G1 X142.708 Y114.109 E31.30341
G1 X142.708 Y106.612 E31.55276
G1 X141.231 Y106.612 E31.60188
G1 X141.231 Y109.617 E31.70183
G1 X140.35 Y109.617 E31.73113
G1 X140.35 Y106.612 E31.83108
G1 X138.873 Y106.612 E31.8802
G1 X138.873 Y114.109 E32.12956
G1 F1800 E29.12956
G0 F9000 X138.673 Y114.109
G0 X138.678 Y114.237
G0 X136.951 Y114.237
G0 X136.879 Y114.109
G0 X137.079 Y114.109
G1 F1800 E32.12956
G1 F3000 X138.55 Y114.109 E32.17848
G1 X138.55 Y106.612 E32.42783
G1 X137.079 Y106.612 E32.47676
G1 X137.079 Y114.109 E32.72611
G1 F1800 E29.72611
G0 F9000 X136.879 Y114.109
G0 X136.88 Y114.237
G0 X132.884 Y114.237
G0 X132.884 Y112.511
G0 X133.97 Y112.469
G0 X134.14 Y112.639
G1 F1800 E32.72611
G1 F3000 X133.012 Y112.639 E32.76363
G1 X133.012 Y114.109 E32.81252
G1 X136.752 Y114.109 E32.93691
G1 X136.752 Y112.639 E32.9858
G1 X135.612 Y112.639 E33.02372
G1 X135.612 Y106.612 E33.22418
G1 X134.14 Y106.612 E33.27314
G1 X134.14 Y112.639 E33.4736
G1 F1800 E30.4736
G0 F9000 X133.97 Y112.469
G0 X132.884 Y112.511
