;FLAVOR:Marlin
;TIME:4890
;Filament used: 6.63568m
;Layer height: 0.2
;MINX:60.512
;MINY:72.165
;MINZ:0.28
;MAXX:159.462
;MAXY:158.663
;MAXZ:15.16
;Generated with Cura_SteamEngine 4.5.0
M140 S50
M105
M190 S50
M104 S215
M105
M109 S215
M82 ;absolute extrusion mode
M201 X500.00 Y500.00 Z100.00 E5000.00 ;Setup machine max acceleration
M203 X500.00 Y500.00 Z10.00 E50.00 ;Setup machine max feedrate
M204 P500.00 R1000.00 T500.00 ;Setup Print/Retract/Travel acceleration
M205 X8.00 Y8.00 Z0.40 E5.00 ;Setup Jerk
M220 S100 ;Reset Feedrate
M221 S100 ;Reset Flowrate

G28 ;Home

G92 E0 ;Reset Extruder
G1 Z2.0 F3000 ;Move Z Axis up
G1 X10.1 Y20 Z0.28 F5000.0 ;Move to start position
G1 X10.1 Y200.0 Z0.28 F1500.0 E15 ;Draw the first line
G1 X10.4 Y200.0 Z0.28 F5000.0 ;Move to side a little
G1 X10.4 Y20 Z0.28 F1500.0 E30 ;Draw the second line
G92 E0 ;Reset Extruder
G1 Z2.0 F3000 ;Move Z Axis up

G92 E0
G92 E0
G1 F1800 E-3
;LAYER_COUNT:64
;LAYER:0
M107
G0 F9000 X79.072 Y124.333 Z0.28
;TYPE:SKIRT
G1 F1800 E0
G1 F3000 X79.853 Y123.845 E0.04288
G1 X80.673 Y123.427 E0.08574
G1 X81.527 Y123.082 E0.12863
G1 X82.407 Y122.812 E0.17149
G1 X83.307 Y122.62 E0.21434
G1 X84.221 Y122.506 E0.25723
G1 X84.774 Y122.476 E0.28302
G1 X85.392 Y122.463 E0.3118
G1 X99.355 Y122.463 E0.96198
G1 X100.205 Y122.474 E1.00156
G1 X101.356 Y122.553 E1.05528
G1 X101.888 Y122.621 E1.08025
G1 X103.882 Y122.905 E1.17404
G1 X106.386 Y123.19 E1.29139
G1 X108.918 Y123.406 E1.40972
G1 X111.425 Y123.548 E1.52664
G1 X113.97 Y123.62 E1.6452
G1 X116.481 Y123.62 E1.76212
G1 X119.036 Y123.548 E1.88114
G1 X121.526 Y123.408 E1.99726
G1 X124.082 Y123.19 E2.11672
G1 X126.611 Y122.903 E2.23523
G1 X127.946 Y122.722 E2.29796
G1 X128.94 Y122.58 E2.34472
G1 X130.116 Y122.478 E2.39968
G1 X130.767 Y122.463 E2.43
G1 X144.73 Y122.463 E3.08018
G1 X145.565 Y122.473 E3.11906
G1 X146.484 Y122.525 E3.16193
G1 X147.395 Y122.656 E3.20478
G1 X148.291 Y122.866 E3.24763
G1 X149.166 Y123.153 E3.29051
G1 X150.013 Y123.515 E3.3334
G1 X150.825 Y123.949 E3.37628
G1 X151.596 Y124.451 E3.41912
G1 X152.321 Y125.019 E3.462
G1 X152.994 Y125.648 E3.5049
G1 X153.609 Y126.332 E3.54773
G1 X154.163 Y127.067 E3.59058
G1 X154.651 Y127.848 E3.63347
G1 X155.07 Y128.668 E3.67635
G1 X155.416 Y129.521 E3.71921
G1 X155.686 Y130.401 E3.76207
G1 X155.879 Y131.302 E3.80498
G1 X155.993 Y132.215 E3.84782
G1 X156.024 Y132.775 E3.87394
G1 X156.037 Y133.393 E3.90272
G1 X156.037 Y147.327 E4.55154
G1 X156.027 Y148.185 E4.5915
G1 X155.976 Y149.104 E4.63436
G1 X155.845 Y150.016 E4.67726
G1 X155.635 Y150.912 E4.72011
G1 X155.349 Y151.787 E4.76298
G1 X154.988 Y152.634 E4.80585
G1 X154.554 Y153.446 E4.84872
G1 X154.052 Y154.218 E4.8916
G1 X153.484 Y154.943 E4.93449
G1 X152.856 Y155.616 E4.97735
G1 X152.172 Y156.232 E5.02021
G1 X151.437 Y156.786 E5.06307
G1 X150.657 Y157.275 E5.10594
G1 X149.837 Y157.694 E5.14881
G1 X148.984 Y158.04 E5.19168
G1 X148.104 Y158.311 E5.23455
G1 X147.204 Y158.504 E5.27741
G1 X146.29 Y158.619 E5.32031
G1 X145.725 Y158.65 E5.34666
G1 X145.107 Y158.663 E5.37544
G1 X131.144 Y158.663 E6.02561
G1 X130.295 Y158.652 E6.06515
G1 X129.147 Y158.573 E6.11873
G1 X128.611 Y158.505 E6.14389
G1 X126.617 Y158.221 E6.23768
G1 X124.113 Y157.936 E6.35503
G1 X121.581 Y157.72 E6.47336
G1 X119.074 Y157.578 E6.59028
G1 X116.529 Y157.506 E6.70883
G1 X114.018 Y157.506 E6.82576
G1 X111.463 Y157.578 E6.94477
G1 X108.973 Y157.718 E7.0609
G1 X106.417 Y157.936 E7.18035
G1 X103.888 Y158.223 E7.29887
G1 X102.553 Y158.404 E7.3616
G1 X101.559 Y158.546 E7.40836
G1 X100.383 Y158.648 E7.46332
G1 X99.732 Y158.663 E7.49364
G1 X85.769 Y158.663 E8.14382
G1 X84.934 Y158.653 E8.1827
G1 X84.015 Y158.601 E8.22556
G1 X83.104 Y158.47 E8.26842
G1 X82.208 Y158.26 E8.31127
G1 X81.333 Y157.973 E8.35415
G1 X80.486 Y157.611 E8.39704
G1 X79.674 Y157.177 E8.43991
G1 X78.903 Y156.675 E8.48275
G1 X78.178 Y156.107 E8.52564
G1 X77.505 Y155.478 E8.56853
G1 X76.89 Y154.794 E8.61136
G1 X76.336 Y154.059 E8.65422
G1 X75.848 Y153.278 E8.6971
G1 X75.429 Y152.458 E8.73998
G1 X75.083 Y151.605 E8.78285
G1 X74.813 Y150.725 E8.82571
G1 X74.62 Y149.824 E8.86861
G1 X74.506 Y148.911 E8.91146
G1 X74.475 Y148.34 E8.93808
G1 X74.462 Y147.721 E8.96691
G1 X74.462 Y133.737 E9.61807
G1 X74.472 Y132.929 E9.65569
G1 X74.524 Y132.009 E9.6986
G1 X74.656 Y131.098 E9.74146
G1 X74.867 Y130.202 E9.78433
G1 X75.154 Y129.327 E9.82721
G1 X75.517 Y128.481 E9.87007
G1 X75.951 Y127.669 E9.91294
G1 X76.454 Y126.898 E9.95581
G1 X77.023 Y126.174 E9.99869
G1 X77.651 Y125.502 E10.04152
G1 X78.336 Y124.886 E10.08441
G1 X79.072 Y124.333 E10.12728
G0 F9000 X79.456 Y124.557
G1 F3000 X80.231 Y124.094 E10.16932
G1 X81.044 Y123.701 E10.21136
G1 X81.889 Y123.381 E10.25344
G1 X82.758 Y123.138 E10.29545
G1 X83.646 Y122.972 E10.33752
G1 X84.785 Y122.876 E10.39074
G1 X85.392 Y122.863 E10.41902
G1 X99.355 Y122.863 E11.06919
G1 X100.199 Y122.874 E11.10849
G1 X101.307 Y122.95 E11.16021
G1 X101.831 Y123.017 E11.18481
G1 X103.847 Y123.304 E11.27963
G1 X106.343 Y123.589 E11.39661
G1 X108.862 Y123.803 E11.51432
G1 X111.425 Y123.948 E11.63386
G1 X113.959 Y124.02 E11.7519
G1 X116.492 Y124.02 E11.86985
G1 X119.036 Y123.948 E11.98835
G1 X121.581 Y123.805 E12.10705
G1 X124.089 Y123.591 E12.22425
G1 X126.666 Y123.299 E12.34502
G1 X128.038 Y123.113 E12.40949
G1 X128.996 Y122.976 E12.45455
G1 X130.128 Y122.878 E12.50746
G1 X130.767 Y122.863 E12.53722
G1 X144.73 Y122.863 E13.1874
G1 X145.56 Y122.873 E13.22605
G1 X146.461 Y122.924 E13.26807
G1 X147.355 Y123.056 E13.31015
G1 X148.233 Y123.265 E13.35218
G1 X149.09 Y123.552 E13.39426
G1 X149.917 Y123.913 E13.43628
G1 X150.71 Y124.346 E13.47835
G1 X151.461 Y124.847 E13.52038
G1 X152.165 Y125.413 E13.56245
G1 X152.816 Y126.039 E13.6045
G1 X153.409 Y126.72 E13.64655
G1 X153.939 Y127.451 E13.68859
G1 X154.403 Y128.226 E13.73065
G1 X154.797 Y129.039 E13.77272
G1 X155.117 Y129.883 E13.81475
G1 X155.361 Y130.753 E13.85683
G1 X155.527 Y131.641 E13.89889
G1 X155.624 Y132.786 E13.9524
G1 X155.637 Y133.393 E13.98067
G1 X155.637 Y147.327 E14.62949
G1 X155.627 Y148.18 E14.66922
G1 X155.576 Y149.082 E14.71128
G1 X155.445 Y149.976 E14.75336
G1 X155.236 Y150.854 E14.79538
G1 X154.95 Y151.711 E14.83745
G1 X154.589 Y152.539 E14.87951
G1 X154.157 Y153.331 E14.92152
G1 X153.656 Y154.083 E14.9636
G1 X153.09 Y154.787 E15.00566
G1 X152.465 Y155.438 E15.04768
G1 X151.784 Y156.032 E15.08976
G1 X151.053 Y156.563 E15.13183
G1 X150.279 Y157.027 E15.17385
G1 X149.466 Y157.421 E15.21592
G1 X148.622 Y157.741 E15.25795
G1 X147.752 Y157.986 E15.30003
G1 X146.865 Y158.152 E15.34205
G1 X145.714 Y158.25 E15.39584
G1 X145.107 Y158.263 E15.42411
G1 X131.144 Y158.263 E16.07429
G1 X130.301 Y158.252 E16.11355
G1 X129.197 Y158.176 E16.16507
G1 X128.668 Y158.109 E16.1899
G1 X126.652 Y157.822 E16.28472
G1 X124.156 Y157.537 E16.4017
G1 X121.637 Y157.323 E16.51942
G1 X119.074 Y157.178 E16.63896
G1 X116.54 Y157.106 E16.757
G1 X114.007 Y157.106 E16.87494
G1 X111.463 Y157.178 E16.99345
G1 X108.918 Y157.321 E17.11214
G1 X106.41 Y157.535 E17.22935
G1 X103.833 Y157.827 E17.35012
G1 X102.461 Y158.013 E17.41459
G1 X101.503 Y158.15 E17.45965
G1 X100.371 Y158.248 E17.51256
G1 X99.732 Y158.263 E17.54232
G1 X85.769 Y158.263 E18.19249
G1 X84.939 Y158.253 E18.23115
G1 X84.038 Y158.202 E18.27317
G1 X83.144 Y158.07 E18.31525
G1 X82.266 Y157.861 E18.35727
G1 X81.409 Y157.574 E18.39936
G1 X80.582 Y157.213 E18.44137
G1 X79.789 Y156.78 E18.48344
G1 X79.038 Y156.279 E18.52548
G1 X78.334 Y155.713 E18.56754
G1 X77.683 Y155.087 E18.6096
G1 X77.09 Y154.406 E18.65165
G1 X76.56 Y153.675 E18.69369
G1 X76.096 Y152.9 E18.73575
G1 X75.702 Y152.087 E18.77782
G1 X75.382 Y151.243 E18.81985
G1 X75.138 Y150.373 E18.86192
G1 X74.972 Y149.485 E18.90399
G1 X74.875 Y148.33 E18.95796
G1 X74.862 Y147.721 E18.98632
G1 X74.862 Y133.737 E19.63748
G1 X74.872 Y132.934 E19.67487
G1 X74.924 Y132.032 E19.71694
G1 X75.056 Y131.139 E19.75897
G1 X75.266 Y130.261 E19.80101
G1 X75.553 Y129.404 E19.84309
G1 X75.915 Y128.577 E19.88513
G1 X76.348 Y127.785 E19.92716
G1 X76.85 Y127.034 E19.96922
G1 X77.417 Y126.33 E20.01132
G1 X78.043 Y125.68 E20.05334
G1 X78.724 Y125.087 E20.09538
G1 X79.456 Y124.557 E20.13746
G1 F1800 E17.13746
;MESH:Object 1
G0 F9000 X85.476 Y132.398
G0 X85.476 Y133.477
G0 X98.88 Y134.245
G0 X99.062 Y147.063
;TYPE:WALL-INNER
G1 F1800 E20.13746
G1 F3000 X86.062 Y147.063 E20.7428
G1 X86.062 Y134.063 E21.34813
G1 X99.062 Y134.063 E21.95347
G1 X99.062 Y147.063 E22.5588
G0 F9000 X99.462 Y147.463
G1 F3000 X85.662 Y147.463 E23.20139
G1 X85.662 Y133.663 E23.84397
G1 X99.462 Y133.663 E24.48656
G1 X99.462 Y147.463 E25.12915
G0 F9000 X99.862 Y147.863
;TYPE:WALL-OUTER
G1 F3000 X85.262 Y147.863 E25.80898
G1 X85.262 Y133.263 E26.48882
G1 X99.862 Y133.263 E27.16866
G1 X99.862 Y147.863 E27.84849
G0 F9000 X99.592 Y147.593
G0 X98.952 Y146.673
G0 X98.672 Y146.673
;TYPE:SKIN
G1 F3000 X86.452 Y146.673 E28.41751
G1 X86.452 Y134.453 E28.98652
G1 X98.672 Y134.453 E29.55554
G1 X98.672 Y146.673 E30.12455
G0 F9000 X98.952 Y146.673
G0 X98.952 Y134.715
G0 X98.511 Y134.715
G1 F3000 X98.408 Y134.612 E30.13133
G0 F9000 X97.843 Y134.612
G1 F3000 X98.511 Y135.281 E30.17536
G0 F9000 X98.511 Y135.847
G1 F3000 X97.277 Y134.612 E30.25665
G0 F9000 X96.711 Y134.612
G1 F3000 X98.511 Y136.412 E30.37518
G0 F9000 X98.511 Y136.978
G1 F3000 X96.146 Y134.612 E30.53096
G0 F9000 X95.58 Y134.612
G1 F3000 X98.511 Y137.544 E30.724
G0 F9000 X98.511 Y138.109
G1 F3000 X95.014 Y134.612 E30.95428
G0 F9000 X94.448 Y134.612
G1 F3000 X98.511 Y138.675 E31.22184
G0 F9000 X98.511 Y139.241
G1 F3000 X93.883 Y134.612 E31.52663
G0 F9000 X93.317 Y134.612
G1 F3000 X98.511 Y139.807 E31.8687
G0 F9000 X98.511 Y140.372
G1 F3000 X92.751 Y134.612 E32.24801
G0 F9000 X92.186 Y134.612
G1 F3000 X98.511 Y140.938 E32.66455
G0 F9000 X98.511 Y141.504
G1 F3000 X91.62 Y134.612 E33.11837
G0 F9000 X91.054 Y134.612
G1 F3000 X98.511 Y142.069 E33.60942
G0 F9000 X98.511 Y142.635
G1 F3000 X90.489 Y134.612 E34.13772
G0 F9000 X89.923 Y134.612
G1 F3000 X98.511 Y143.201 E34.70329
G0 F9000 X98.511 Y143.766
G1 F3000 X89.357 Y134.612 E35.30609
G0 F9000 X88.792 Y134.612
G1 F3000 X98.511 Y144.332 E35.94614
G0 F9000 X98.511 Y144.898
G1 F3000 X88.226 Y134.612 E36.62346
G0 F9000 X87.66 Y134.612
G1 F3000 X98.511 Y145.463 E37.33801
G0 F9000 X98.511 Y146.029
G1 F3000 X87.095 Y134.612 E38.08981
G0 F9000 X86.612 Y134.695
G1 F3000 X98.428 Y146.511 E38.86791
G0 F9000 X97.862 Y146.511
G1 F3000 X86.612 Y135.261 E39.60875
G0 F9000 X86.612 Y135.826
G1 F3000 X97.297 Y146.511 E40.31237
G0 F9000 X96.731 Y146.511
G1 F3000 X86.612 Y136.392 E40.97872
G0 F9000 X86.612 Y136.958
G1 F3000 X96.165 Y146.511 E41.60781
G0 F9000 X95.6 Y146.511
G1 F3000 X86.612 Y137.523 E42.19968
G0 F9000 X86.612 Y138.089
G1 F3000 X95.034 Y146.511 E42.75428
G0 F9000 X94.468 Y146.511
G1 F3000 X86.612 Y138.655 E43.27162
G0 F9000 X86.612 Y139.22
G1 F3000 X93.903 Y146.511 E43.75174
G0 F9000 X93.337 Y146.511
G1 F3000 X86.612 Y139.786 E44.19459
G0 F9000 X86.612 Y140.352
G1 F3000 X92.771 Y146.511 E44.60017
G0 F9000 X92.206 Y146.511
G1 F3000 X86.612 Y140.917 E44.96855
G0 F9000 X86.612 Y141.483
G1 F3000 X91.64 Y146.511 E45.29965
G0 F9000 X91.074 Y146.511
G1 F3000 X86.612 Y142.049 E45.59348
G0 F9000 X86.612 Y142.614
G1 F3000 X90.508 Y146.511 E45.85007
G0 F9000 X89.943 Y146.511
G1 F3000 X86.612 Y143.18 E46.06942
G0 F9000 X86.612 Y143.746
G1 F3000 X89.377 Y146.511 E46.2515
G0 F9000 X88.811 Y146.511
G1 F3000 X86.612 Y144.312 E46.39631
G0 F9000 X86.612 Y144.877
G1 F3000 X88.246 Y146.511 E46.50391
G0 F9000 X87.68 Y146.511
G1 F3000 X86.612 Y145.443 E46.57424
G0 F9000 X86.612 Y146.009
G1 F3000 X87.114 Y146.511 E46.6073
G0 F9000 X87.114 Y147.253
G1 F1800 E43.6073
G0 F9000 X99.642 Y147.063
G0 X100.727 Y147.063
G0 X129.772 Y147.063
G0 X130.857 Y147.063
G0 X131.437 Y147.063
;TYPE:WALL-INNER
G1 F1800 E46.6073
G1 F3000 X131.437 Y134.063 E47.21263
G1 X144.437 Y134.063 E47.81797
G1 X144.437 Y147.063 E48.4233
G1 X131.437 Y147.063 E49.02864
G0 F9000 X131.037 Y147.463
G1 F3000 X131.037 Y133.663 E49.67122
G1 X144.837 Y133.663 E50.31381
G1 X144.837 Y147.463 E50.9564
G1 X131.037 Y147.463 E51.59898
G0 F9000 X130.637 Y147.863
;TYPE:WALL-OUTER
G1 F3000 X130.637 Y133.263 E52.27882
G1 X145.237 Y133.263 E52.95866
G1 X145.237 Y147.863 E53.63849
G1 X130.637 Y147.863 E54.31833
G0 F9000 X130.907 Y147.593
G0 X131.547 Y146.673
G0 X131.827 Y146.673
;TYPE:SKIN
G1 F3000 X131.827 Y134.453 E54.88734
G1 X144.047 Y134.453 E55.45636
G1 X144.047 Y146.673 E56.02537
G1 X131.827 Y146.673 E56.59439
G0 F9000 X132.369 Y146.511
G1 F3000 X131.987 Y146.129 E56.61954
G0 F9000 X131.987 Y145.563
G1 F3000 X132.935 Y146.511 E56.68197
G0 F9000 X133.501 Y146.511
G1 F3000 X131.987 Y144.997 E56.78167
G0 F9000 X131.987 Y144.432
G1 F3000 X134.066 Y146.511 E56.91858
G0 F9000 X134.632 Y146.511
G1 F3000 X131.987 Y143.866 E57.09275
G0 F9000 X131.987 Y143.3
G1 F3000 X135.198 Y146.511 E57.3042
G0 F9000 X135.763 Y146.511
G1 F3000 X131.987 Y142.735 E57.55286
G0 F9000 X131.987 Y142.169
G1 F3000 X136.329 Y146.511 E57.83879
G0 F9000 X136.895 Y146.511
G1 F3000 X131.987 Y141.603 E58.16199
G0 F9000 X131.987 Y141.038
G1 F3000 X137.46 Y146.511 E58.52239
G0 F9000 X138.026 Y146.511
G1 F3000 X131.987 Y140.472 E58.92007
G0 F9000 X131.987 Y139.906
G1 F3000 X138.592 Y146.511 E59.35502
G0 F9000 X139.157 Y146.511
G1 F3000 X131.987 Y139.341 E59.82718
G0 F9000 X131.987 Y138.775
G1 F3000 X139.723 Y146.511 E60.33661
G0 F9000 X140.289 Y146.511
G1 F3000 X131.987 Y138.209 E60.88331
G0 F9000 X131.987 Y137.643
G1 F3000 X140.854 Y146.511 E61.46725
G0 F9000 X141.42 Y146.511
G1 F3000 X131.987 Y137.078 E62.08843
G0 F9000 X131.987 Y136.512
G1 F3000 X141.986 Y146.511 E62.74688
G0 F9000 X142.552 Y146.511
G1 F3000 X131.987 Y135.946 E63.4426
G0 F9000 X131.987 Y135.381
G1 F3000 X143.117 Y146.511 E64.17553
G0 F9000 X143.683 Y146.511
G1 F3000 X131.987 Y134.815 E64.94573
G0 F9000 X132.349 Y134.612
G1 F3000 X143.887 Y146.149 E65.7055
G0 F9000 X143.887 Y145.584
G1 F3000 X132.915 Y134.612 E66.42802
G0 F9000 X133.481 Y134.612
G1 F3000 X143.887 Y145.018 E67.11328
G0 F9000 X143.887 Y144.452
G1 F3000 X134.046 Y134.612 E67.76129
G0 F9000 X134.612 Y134.612
G1 F3000 X143.887 Y143.887 E68.37206
G0 F9000 X143.887 Y143.321
G1 F3000 X135.178 Y134.612 E68.94557
G0 F9000 X135.743 Y134.612
G1 F3000 X143.887 Y142.755 E69.48183
G0 F9000 X143.887 Y142.189
G1 F3000 X136.309 Y134.612 E69.98082
G0 F9000 X136.875 Y134.612
G1 F3000 X143.887 Y141.624 E70.44257
G0 F9000 X143.887 Y141.058
G1 F3000 X137.441 Y134.612 E70.86705
G0 F9000 X138.007 Y134.613
G1 F3000 X143.887 Y140.492 E71.25423
G0 F9000 X143.887 Y139.927
G1 F3000 X138.573 Y134.613 E71.60417
G0 F9000 X139.138 Y134.613
G1 F3000 X143.887 Y139.361 E71.91686
G0 F9000 X143.887 Y138.795
G1 F3000 X139.704 Y134.613 E72.19229
G0 F9000 X140.27 Y134.613
G1 F3000 X143.887 Y138.23 E72.43047
G0 F9000 X143.887 Y137.664
G1 F3000 X140.835 Y134.613 E72.63142
G0 F9000 X141.401 Y134.613
G1 F3000 X143.887 Y137.098 E72.79509
G0 F9000 X143.887 Y136.533
G1 F3000 X141.967 Y134.613 E72.92153
G0 F9000 X142.532 Y134.613
G1 F3000 X143.887 Y135.967 E73.01072
G0 F9000 X143.887 Y135.401
G1 F3000 X143.098 Y134.613 E73.06265
G0 F9000 X143.664 Y134.613
G1 F3000 X143.887 Y134.836 E73.07733
G0 F9000 X144.627 Y134.836
G1 F1800 E70.07733
;MESH:NONMESH
G0 F300 X144.627 Y134.836 Z0.52
G0 F9000 X144.255 Y146.881
G0 X130.857 Y147.063
G0 X129.772 Y147.063
G0 X100.727 Y147.063
G0 X99.642 Y147.063
G0 X99.062 Y147.063
;TIME_ELAPSED:52.064744
;LAYER:1
M140 S50
M106 S85
;TYPE:WALL-INNER
;MESH:Object 1
G1 F1800 E73.07733
G1 F3000 X86.062 Y147.063 E73.59619
G1 X86.062 Y145.907 E73.64233
G1 X86.062 Y145.906 E73.64237
G1 X86.062 Y145.684 E73.65123
G1 X85.841 Y145.709 E73.6568
G1 X85.169 Y145.788 E73.6838
G1 X84.948 Y145.813 E73.69268
G1 X84.948 Y145.591 E73.69824
G1 X84.948 Y145.59 E73.69828
G1 X84.934 Y133.562 E74.17834
G1 X88.268 Y133.124 E74.31255
G1 X92.313 Y131.447 E74.48732
G1 X95.783 Y128.784 E74.6619
G1 X98.422 Y125.346 E74.83488
G1 X100.106 Y121.312 E75.00935
G1 X100.802 Y116.163 E75.21673
G1 X100.832 Y115.938 E75.22579
G1 X100.606 Y115.938 E75.23142
G1 X100.604 Y115.938 E75.2315
G1 X61.312 Y115.938 E76.79973
