;FLAVOR:Marlin
;TIME:418
;Filament used: 0.0958244m
;Layer height: 0.16
;MINX:95.217
;MINY:93.418
;MINZ:0.28
;MAXX:124.794
;MAXY:126.605
;MAXZ:7.88
;Generated with Cura_SteamEngine 4.5.0
M140 S110
M105
M190 S110
M104 S240
M105
M109 S240
M82 ;absolute extrusion mode
M201 X500.00 Y500.00 Z100.00 E5000.00 ;Setup machine max acceleration
M203 X500.00 Y500.00 Z10.00 E50.00 ;Setup machine max feedrate
M204 P500.00 R1000.00 T500.00 ;Setup Print/Retract/Travel acceleration
M205 X8.00 Y8.00 Z0.40 E5.00 ;Setup Jerk
M220 S100 ;Reset Feedrate
M221 S100 ;Reset Flowrate

G28 ;Home

G92 E0 ;Reset Extruder
G1 Z2.0 F3000 ;Move Z Axis up
G1 X10.1 Y20 Z0.28 F5000.0 ;Move to start position
G1 X10.1 Y200.0 Z0.28 F1500.0 E15 ;Draw the first line
G1 X10.4 Y200.0 Z0.28 F5000.0 ;Move to side a little
G1 X10.4 Y20 Z0.28 F1500.0 E30 ;Draw the second line
G92 E0 ;Reset Extruder
G1 Z2.0 F3000 ;Move Z Axis up

G92 E0
G92 E0
G1 F1800 E-3
;LAYER_COUNT:40
;LAYER:0
M107
M205 X6 Y6
G0 F9000 X102.87 Y96.87 Z0.28
;TYPE:SKIRT
G1 F1800 E0
G1 X103.751 Y96.041 E0.05633
G1 X104.518 Y95.444 E0.10159
G1 X105.305 Y94.934 E0.14526
G1 X106.133 Y94.494 E0.18892
G1 X106.996 Y94.125 E0.23262
G1 X107.886 Y93.832 E0.27625
G1 X108.799 Y93.615 E0.31995
G1 X109.726 Y93.477 E0.36359
G1 X110.662 Y93.418 E0.40726
G1 X111.6 Y93.439 E0.45095
G1 X112.532 Y93.541 E0.4946
G1 X113.453 Y93.721 E0.5383
G1 X114.355 Y93.979 E0.58199
G1 X115.091 Y94.253 E0.61856
G1 X115.743 Y94.523 E0.65142
G1 X116.873 Y95.018 E0.70886
G1 X117.715 Y95.433 E0.75257
G1 X118.631 Y95.994 E0.80259
G1 X119.722 Y96.785 E0.86534
G1 X120.423 Y97.408 E0.90901
G1 X121.069 Y98.088 E0.95268
G1 X121.909 Y99.184 E1.01698
G1 X122.592 Y100.273 E1.07684
G1 X123.011 Y101.112 E1.1205
G1 X123.357 Y101.984 E1.16419
G1 X123.579 Y102.697 E1.19896
G1 X123.856 Y103.882 E1.25563
G1 X124.014 Y104.953 E1.30604
G1 X124.067 Y105.496 E1.33144
G1 X124.688 Y112.602 E1.66359
G1 X124.759 Y113.551 E1.7079
G1 X124.794 Y114.394 E1.74719
G1 X124.782 Y115.332 E1.79087
G1 X124.69 Y116.265 E1.83452
G1 X124.519 Y117.188 E1.87823
G1 X124.268 Y118.098 E1.92219
G1 X123.833 Y119.316 E1.98241
G1 X123.434 Y120.164 E2.02605
G1 X122.964 Y120.976 E2.06974
G1 X122.194 Y122.037 E2.13078
G1 X121.313 Y123.049 E2.19326
G1 X120.63 Y123.692 E2.23694
G1 X119.895 Y124.274 E2.28059
G1 X119.113 Y124.792 E2.32427
G1 X118.362 Y125.213 E2.36436
G1 X117.52 Y125.626 E2.40803
G1 X116.646 Y125.966 E2.4517
G1 X115.746 Y126.229 E2.49536
G1 X114.785 Y126.422 E2.541
G1 X113.62 Y126.562 E2.59564
G1 X113.074 Y126.585 E2.62109
G1 X112.094 Y126.603 E2.66673
G1 X109.099 Y126.605 E2.80619
G1 X108.302 Y126.595 E2.8433
G1 X107.639 Y126.566 E2.8742
G1 X106.963 Y126.511 E2.90578
G1 X105.937 Y126.366 E2.95403
G1 X105.024 Y126.153 E2.99769
G1 X104.132 Y125.862 E3.04138
G1 X103.237 Y125.482 E3.08665
G1 X102.066 Y124.878 E3.14801
G1 X101.278 Y124.368 E3.19171
G1 X100.537 Y123.794 E3.23536
G1 X99.58 Y122.881 E3.29695
G1 X98.723 Y121.9 E3.3576
G1 X98.177 Y121.137 E3.40129
G1 X97.699 Y120.33 E3.44496
G1 X97.183 Y119.228 E3.50162
G1 X96.927 Y118.591 E3.53359
G1 X96.238 Y116.787 E3.62351
G1 X95.971 Y116.058 E3.65966
G1 X95.677 Y115.125 E3.70521
G1 X95.381 Y113.856 E3.76589
G1 X95.257 Y112.926 E3.80958
G1 X95.217 Y112.246 E3.84129
G1 X95.225 Y111.093 E3.89498
G1 X95.335 Y110.049 E3.94387
G1 X95.553 Y108.902 E3.99823
G1 X95.852 Y107.886 E4.04755
G1 X96.022 Y107.397 E4.07165
G1 X96.908 Y105.02 E4.18978
G1 X97.186 Y104.306 E4.22545
G1 X97.714 Y103.155 E4.28442
G1 X98.334 Y102.073 E4.34249
G1 X98.876 Y101.308 E4.38614
G1 X99.51 Y100.56 E4.4318
G1 X100.357 Y99.647 E4.48979
G1 X102.514 Y97.247 E4.64005
G1 X102.87 Y96.87 E4.66419
G0 F9000 X103.314 Y96.989
G1 F1800 X104.009 Y96.346 E4.70828
G1 X104.763 Y95.76 E4.75275
G1 X105.537 Y95.262 E4.7956
G1 X106.352 Y94.833 E4.83849
G1 X107.2 Y94.476 E4.88133
G1 X108.077 Y94.194 E4.92423
G1 X108.974 Y93.989 E4.96707
G1 X109.886 Y93.863 E5.00994
G1 X110.806 Y93.816 E5.05284
G1 X111.726 Y93.85 E5.09571
G1 X112.639 Y93.963 E5.13854
G1 X113.54 Y94.155 E5.18144
G1 X114.42 Y94.424 E5.22429
G1 X114.938 Y94.623 E5.25013
G1 X115.59 Y94.893 E5.28299
G1 X116.712 Y95.384 E5.34002
G1 X117.538 Y95.792 E5.38291
G1 X118.406 Y96.324 E5.43032
G1 X119.483 Y97.106 E5.49229
G1 X120.17 Y97.719 E5.53517
G1 X120.801 Y98.389 E5.57802
G1 X121.577 Y99.407 E5.63763
G1 X122.25 Y100.482 E5.69668
G1 X122.66 Y101.307 E5.73958
G1 X122.996 Y102.164 E5.78244
G1 X123.193 Y102.802 E5.81354
G1 X123.462 Y103.952 E5.86853
G1 X123.616 Y104.992 E5.91749
G1 X123.669 Y105.531 E5.9427
G1 X124.29 Y112.637 E6.27485
G1 X124.36 Y113.58 E6.31888
G1 X124.394 Y114.406 E6.35738
G1 X124.382 Y115.327 E6.40027
G1 X124.289 Y116.243 E6.44314
G1 X124.118 Y117.147 E6.48598
G1 X123.887 Y117.975 E6.52601
G1 X123.458 Y119.176 E6.58539
G1 X123.064 Y120.009 E6.6283
G1 X122.599 Y120.803 E6.67114
G1 X121.885 Y121.784 E6.72764
G1 X121.014 Y122.781 E6.78929
G1 X120.343 Y123.411 E6.83214
G1 X119.619 Y123.98 E6.87502
G1 X118.5 Y124.683 E6.93656
G1 X117.344 Y125.267 E6.99686
G1 X116.485 Y125.598 E7.03973
G1 X115.6 Y125.853 E7.08261
G1 X114.724 Y126.027 E7.1242
G1 X113.575 Y126.164 E7.17808
G1 X113.067 Y126.185 E7.20176
G1 X112.087 Y126.203 E7.2474
G1 X109.099 Y126.205 E7.38653
G1 X108.308 Y126.195 E7.42337
G1 X107.669 Y126.167 E7.45315
G1 X107.004 Y126.113 E7.48422
G1 X105.995 Y125.97 E7.53167
G1 X105.099 Y125.758 E7.57454
G1 X104.225 Y125.47 E7.61739
G1 X103.41 Y125.121 E7.65868
G1 X102.254 Y124.524 E7.71926
G1 X101.482 Y124.023 E7.76211
G1 X100.757 Y123.456 E7.80497
G1 X99.873 Y122.609 E7.86198
G1 X99.028 Y121.64 E7.92184
G1 X98.494 Y120.89 E7.96472
G1 X98.027 Y120.096 E8.00761
G1 X97.555 Y119.079 E8.05982
G1 X97.299 Y118.442 E8.09178
G1 X96.611 Y116.644 E8.18143
G1 X96.347 Y115.921 E8.21727
G1 X96.064 Y115.022 E8.26115
G1 X95.772 Y113.77 E8.32101
G1 X95.653 Y112.857 E8.36389
G1 X95.617 Y112.235 E8.3929
G1 X95.626 Y111.099 E8.4458
G1 X95.731 Y110.11 E8.49211
G1 X95.945 Y108.98 E8.54566
G1 X96.23 Y108.017 E8.59242
G1 X96.4 Y107.528 E8.61653
G1 X97.282 Y105.16 E8.7342
G1 X97.558 Y104.452 E8.76958
G1 X98.068 Y103.343 E8.82642
G1 X98.679 Y102.276 E8.88367
G1 X99.213 Y101.526 E8.92654
G1 X99.804 Y100.832 E8.96899
G1 X100.664 Y99.905 E9.02787
G1 X102.812 Y97.515 E9.1775
G1 X103.314 Y96.989 E9.21135
G0 F9000 X103.599 Y97.27
G1 F1800 X104.267 Y96.651 E9.25376
G1 X105.008 Y96.077 E9.29741
G1 X105.769 Y95.59 E9.33948
G1 X106.569 Y95.173 E9.38148
G1 X107.404 Y94.827 E9.42357
G1 X108.266 Y94.557 E9.46563
G1 X109.148 Y94.364 E9.50767
G1 X110.044 Y94.251 E9.54973
G1 X110.946 Y94.216 E9.59176
G1 X111.848 Y94.262 E9.63381
G1 X112.743 Y94.387 E9.67589
G1 X113.622 Y94.591 E9.71791
G1 X114.785 Y94.992 E9.77519
G1 X115.437 Y95.262 E9.80805
G1 X116.551 Y95.75 E9.86468
G1 X117.36 Y96.151 E9.90673
G1 X118.181 Y96.655 E9.95159
G1 X119.243 Y97.427 E10.01272
G1 X119.915 Y98.03 E10.05477
G1 X120.532 Y98.69 E10.09684
G1 X121.245 Y99.63 E10.15177
G1 X121.908 Y100.69 E10.20999
G1 X122.308 Y101.5 E10.25206
G1 X122.634 Y102.342 E10.2941
G1 X122.807 Y102.908 E10.32166
G1 X123.069 Y104.022 E10.37495
G1 X123.218 Y105.032 E10.42248
G1 X123.27 Y105.566 E10.44747
G1 X123.891 Y112.672 E10.77961
G1 X123.961 Y113.609 E10.82337
G1 X123.994 Y114.418 E10.86107
G1 X123.981 Y115.321 E10.90312
G1 X123.888 Y116.219 E10.94516
G1 X123.716 Y117.106 E10.98723
G1 X123.507 Y117.853 E11.02335
G1 X123.083 Y119.037 E11.08191
G1 X122.694 Y119.852 E11.12396
G1 X122.235 Y120.63 E11.16602
G1 X121.575 Y121.53 E11.21799
G1 X120.716 Y122.514 E11.27881
G1 X120.056 Y123.13 E11.32085
G1 X119.344 Y123.686 E11.36292
G1 X118.309 Y124.332 E11.41973
G1 X117.168 Y124.907 E11.47922
G1 X116.325 Y125.23 E11.52126
G1 X115.456 Y125.476 E11.56331
G1 X114.662 Y125.631 E11.60098
G1 X113.532 Y125.766 E11.65397
G1 X112.079 Y125.803 E11.72165
G1 X109.099 Y125.805 E11.86041
G1 X108.313 Y125.795 E11.89702
G1 X107.699 Y125.768 E11.92564
G1 X107.045 Y125.715 E11.95619
G1 X106.053 Y125.574 E12.00284
G1 X105.175 Y125.364 E12.04488
G1 X104.318 Y125.077 E12.08696
G1 X103.582 Y124.76 E12.12428
G1 X102.442 Y124.171 E12.18403
G1 X101.686 Y123.677 E12.22608
G1 X100.977 Y123.118 E12.26812
G1 X100.166 Y122.337 E12.32055
G1 X99.333 Y121.381 E12.37959
G1 X98.811 Y120.643 E12.42168
G1 X98.357 Y119.863 E12.46371
G1 X97.926 Y118.93 E12.51156
G1 X97.67 Y118.293 E12.54353
G1 X96.985 Y116.502 E12.63282
G1 X96.723 Y115.784 E12.66841
G1 X96.45 Y114.919 E12.71065
G1 X96.163 Y113.684 E12.76968
G1 X96.048 Y112.788 E12.81175
G1 X96.017 Y112.224 E12.83805
G1 X96.026 Y111.105 E12.89016
G1 X96.126 Y110.171 E12.9339
G1 X96.338 Y109.058 E12.98665
G1 X96.608 Y108.149 E13.03081
G1 X96.778 Y107.66 E13.05492
G1 X97.657 Y105.3 E13.17218
G1 X97.931 Y104.597 E13.20731
G1 X98.421 Y103.53 E13.26199
G1 X99.024 Y102.479 E13.31841
G1 X99.55 Y101.745 E13.36046
G1 X100.097 Y101.104 E13.3997
G1 X100.941 Y100.194 E13.45749
G1 X103.109 Y97.782 E13.6085
G1 X103.599 Y97.27 E13.6415
G1 F1800 E10.6415
;MESH:Object 1
G0 F9000 X110.357 Y103.98
G0 X111.065 Y104.776
G0 X111.397 Y105.251
;TYPE:WALL-INNER
G1 F1800 E13.6415
G1 F2400 X111.71 Y105.397 E13.65758
G1 X112.192 Y105.622 E13.68235
G1 X112.342 Y105.728 E13.69091
G1 X112.425 Y105.851 E13.69782
G1 X112.462 Y105.989 E13.70447
G1 X112.47 Y106.023 E13.70609
G1 X112.496 Y106.326 E13.72026
G1 X112.506 Y106.44 E13.72558
G1 X112.347 Y106.339 E13.72918
G1 X112.313 Y106.341 E13.73076
G1 X111.498 Y106.408 E13.76884
G1 X111.464 Y106.012 E13.78735
G1 X111.458 Y105.941 E13.79066
G1 X111.427 Y105.596 E13.80679
G1 X111.426 Y105.595 E13.80686
G1 X111.397 Y105.251 E13.81598
G0 F9000 X111.855 Y105.906
G1 F2400 X111.887 Y105.92 E13.81761
G1 X111.986 Y105.967 E13.82271
G1 X111.861 Y105.977 E13.82366
G1 X111.855 Y105.906 E13.82497
G0 F9000 X112.643 Y106.84
G0 X113.36 Y114.749
G0 X113.092 Y115.1
G0 X112.69 Y115.144
G0 X108.527 Y115.127
G0 X108.216 Y114.818
G0 X106.799 Y112.329
G0 X106.693 Y111.852
G0 X106.751 Y111.459
G0 X107.936 Y108.647
G1 F2400 X107.936 Y109.782 E13.87782
G1 X107.423 Y110.295 E13.91161
G1 X107.284 Y110.391 E13.91947
G1 X107.332 Y110.262 E13.91987
G1 X107.563 Y109.643 E13.9398
G1 X107.936 Y108.647 E13.96407
G0 F9000 X106.766 Y111.366
G0 X106.693 Y111.852
G0 X106.778 Y112.238
G0 X107.292 Y113.218
G1 F2400 X107.37 Y113.262 E13.96824
G1 X107.936 Y113.829 E14.00555
G1 X107.936 Y114.32 E14.02841
G1 X107.952 Y114.807 E14.0511
G1 X107.955 Y114.872 E14.05413
G1 X107.898 Y114.809 E14.05499
G1 X107.741 Y114.395 E14.06124
G1 X107.577 Y113.966 E14.07701
G1 X107.317 Y113.283 E14.09542
G1 X107.292 Y113.218
G1 F1800 E11.09542
G0 F9000 X108.442 Y115.132
G0 X108.583 Y114.991
;TYPE:WALL-OUTER
G1 F1800 E14.09542
G1 F2400 X112.684 Y115.005 E14.28638
G1 X113.02 Y114.971 E14.30211
G1 X113.219 Y114.708 E14.31746
G1 X112.585 Y107.349 E14.6614
G1 X112.518 Y106.921 E14.68157
G1 X112.246 Y106.749 E14.69656
G1 X111.199 Y106.834 E14.74547
G1 X111.146 Y106.824 E14.74798
G1 X111.131 Y106.798 E14.74938
G1 X110.947 Y104.692 E14.84782
G1 X110.952 Y104.61 E14.85164
G1 X110.973 Y104.612 E14.85262
G1 X112.39 Y105.272 E14.92541
G1 X112.634 Y105.445 E14.93934
G1 X112.795 Y105.684 E14.95276
G1 X112.865 Y105.954 E14.96575
G1 X113.587 Y114.224 E15.3523
G1 X113.607 Y114.713 E15.37509
G1 X113.508 Y115.002 E15.38931
G1 X113.307 Y115.234 E15.4036
G1 X113.051 Y115.368 E15.41706
G1 X112.801 Y115.405 E15.42883
G1 X108.399 Y115.405 E15.6338
G1 X108.013 Y115.371 E15.65184
G1 X107.741 Y115.233 E15.66605
G1 X107.551 Y115.021 E15.6793
G1 X106.474 Y112.194 E15.82017
G1 X106.386 Y111.844 E15.83697
G1 X106.429 Y111.535 E15.8515
G1 X107.624 Y108.339 E16.01038
G1 X107.697 Y108.207 E16.01741
G1 X108.282 Y108.205 E16.04465
G1 X108.323 Y108.218 E16.04665
G1 X108.336 Y108.248 E16.04817
G1 X108.336 Y109.948 E16.12733
G1 X107.684 Y110.6 E16.17027
G1 X107.464 Y110.753 E16.18274
G1 X107.127 Y111.015 E16.20262
G1 X106.899 Y111.412 E16.22394
G1 X106.834 Y111.847 E16.24442
G1 X106.929 Y112.274 E16.26479
G1 X107.171 Y112.64 E16.28522
G1 X107.507 Y112.88 E16.30445
G1 X107.614 Y112.94 E16.31016
G1 X108.336 Y113.663 E16.35774
G1 X108.336 Y114.313 E16.388
G1 X108.351 Y114.76 E16.40883
G1 X108.583 Y114.991 E16.42407
G0 F9000 X108.278 Y115.066
;TYPE:SKIN
G1 F2400 X108.05 Y115.121 E16.44025
G0 F9000 X108.135 Y115.182
G0 X107.169 Y113.109
G0 X107.041 Y112.981
G1 F2400 X106.862 Y112.519 E16.44771
G1 X106.634 Y112.008 E16.45615
G1 X106.684 Y111.492 E16.46396
G1 X107.036 Y110.713 E16.47684
G1 X107.154 Y110.548 E16.4799
G0 F9000 X107.054 Y110.434
G0 X107.912 Y108.478
G0 X107.863 Y108.429
G1 F2400 X108.129 Y108.412 E16.48517
G0 F9000 X108.136 Y108.444
G0 X106.766 Y111.366
G0 X106.693 Y111.852
G0 X106.778 Y112.238
G0 X107.249 Y112.941
G0 X107.264 Y112.921
G1 F2400 X107.325 Y112.982 E16.48718
G0 F9000 X107.318 Y112.991
G0 X108.216 Y114.818
G0 X108.527 Y115.127
G0 X112.69 Y115.144
G0 X113.092 Y115.1
G0 X113.333 Y114.785
G0 X112.741 Y106.826
G0 X112.654 Y106.714
G1 F2400 X112.226 Y106.004 E16.49924
G0 F9000 X112.154 Y105.931
G0 X111.326 Y105.104
G1 F2400 X111.14 Y104.918 E16.50537
G0 F9000 X111.274 Y105.303
;MESH:NONMESH
G0 F300 X111.274 Y105.303 Z0.48
G0 F9000 X112.643 Y106.84
G0 X113.36 Y114.749
G0 X113.092 Y115.1
G0 X112.69 Y115.144
G0 X108.527 Y115.127
G0 X108.216 Y114.818
G0 X106.799 Y112.329
G0 X106.693 Y111.852
G0 X106.751 Y111.459
G0 X107.936 Y108.646
;TIME_ELAPSED:21.655926
;LAYER:1
M140 S105
M106 S4.2
;TYPE:WALL-INNER
;MESH:Object 1
G1 F600 X107.936 Y109.749 E16.54205
G1 X107.936 Y109.75 E16.54209
G1 X107.936 Y109.881 E16.54644
G1 X107.876 Y109.941 E16.54927
G1 X107.765 Y110.051 E16.55446
G1 X107.459 Y110.328 E16.56819
G1 X107.277 Y110.413 E16.57487
G1 X107.327 Y110.279 E16.57525
G1 X107.455 Y109.936 E16.58316
G1 X107.509 Y109.789 E16.58793
G1 X107.55 Y109.68 E16.5918
G1 X107.936 Y108.646 E16.61044
G0 F9000 X106.711 Y111.573
G0 X106.72 Y112.086
G0 X107.274 Y113.191
G1 F600 X107.51 Y113.303 E16.61913
G1 X107.865 Y113.658 E16.63583
G1 X107.936 Y113.729 E16.63917
G1 X107.936 Y113.866 E16.64373
G1 X107.936 Y114.705 E16.67163
G1 X107.937 Y114.79 E16.67446
G1 X108.008 Y114.91 E16.6791
G1 X108.018 Y114.926 E16.67973
G1 X107.998 Y114.917
G1 X107.905 Y114.823 E16.67996
G1 X107.896 Y114.814
G1 X107.841 Y114.706 E16.68115
G1 X107.547 Y113.92 E16.6986
G1 X107.516 Y113.837 E16.70155
G1 X107.34 Y113.367 E16.71377
G1 X107.274 Y113.191 E16.71464
G0 F9000 X108.4 Y115.052
G0 X108.684 Y115.144
G0 X113.088 Y115.104
G0 X113.36 Y114.75
G0 X112.665 Y106.889
G0 X111.856 Y105.906
G1 F600 X111.891 Y105.922 E16.71592
G1 X111.995 Y105.972 E16.71975
G1 X111.863 Y105.982 E16.7205
G1 X111.856 Y105.906 E16.72149
G0 F9000 X111.398 Y105.251
G1 F600 X111.711 Y105.397 E16.73298
G1 X112.193 Y105.622 E16.75067
G1 X112.34 Y105.726 E16.75666
G1 X112.434 Y105.87 E16.76238
G1 X112.461 Y105.981 E16.76618
G1 X112.47 Y106.021 E16.76754
G1 X112.497 Y106.335 E16.77803
G1 X112.504 Y106.417 E16.78076
G1 X112.414 Y106.343 E16.78133
G1 X112.373 Y106.346 E16.7827
G1 X111.499 Y106.41 E16.81185
G1 X111.459 Y105.941 E16.8275
G1 X111.428 Y105.596 E16.83902
G1 X111.427 Y105.595 E16.83907
G1 X111.398 Y105.251 E16.84558
G1 F1800 E13.84558
G0 F9000 X111.291 Y106.655
G0 X111.218 Y106.832
;TYPE:WALL-OUTER
G1 F1800 E16.84558
G1 F600 X111.145 Y106.825 E16.84802
G1 X111.133 Y106.809 E16.84869
G1 X110.952 Y104.744 E16.91763
G1 X110.954 Y104.61 E16.92209
G1 X110.973 Y104.612 E16.92273
G1 X112.39 Y105.272 E16.97472
G1 X112.633 Y105.444 E16.98462
G1 X112.807 Y105.711 E16.99522
G1 X112.865 Y105.954 E17.00353
G1 X113.613 Y114.516 E17.28939
G1 X113.584 Y114.824 E17.29968
G1 X113.454 Y115.085 E17.30937
G1 X113.243 Y115.279 E17.31891
G1 X112.955 Y115.389 E17.32916
G1 X108.516 Y115.405 E17.4768
G1 X108.042 Y115.378 E17.4926
G1 X107.763 Y115.249 E17.50282
G1 X107.568 Y115.051 E17.51206
G1 X107.474 Y114.868 E17.5189
G1 X106.499 Y112.262 E17.61145
G1 X106.389 Y111.873 E17.62489
G1 X106.42 Y111.564 E17.63522
G1 X107.597 Y108.41 E17.74719
G1 X107.689 Y108.213 E17.75442
G1 X107.71 Y108.205 E17.75517
G1 X108.268 Y108.205 E17.77373
G1 X108.324 Y108.221 E17.77567
G1 X108.336 Y108.246 E17.77659
G1 X108.336 Y110.046 E17.83646
G1 X108.034 Y110.347 E17.85064
G1 X107.684 Y110.664 E17.86635
G1 X107.327 Y110.831 E17.87945
G1 X107.014 Y111.168 E17.89475
