;FLAVOR:Marlin
;TIME:2599
;Filament used: 0.966658m
;Layer height: 0.16
;MINX:99.473
;MINY:95.424
;MINZ:0.24
;MAXX:120.644
;MAXY:126.044
;MAXZ:23
;Generated with Cura_SteamEngine 4.8.0
M82 ;absolute extrusion mode
M201 X500.00 Y500.00 Z100.00 E5000.00 ;Setup machine max acceleration
M203 X500.00 Y500.00 Z10.00 E50.00 ;Setup machine max feedrate
M204 P500.00 R1000.00 T500.00 ;Setup Print/Retract/Travel acceleration
M205 X8.00 Y8.00 Z0.40 E5.00 ;Setup Jerk
M220 S100 ;Reset Feedrate
M221 S100 ;Reset Flowrate

;*** Start Dual Nozzle/Bed Preheating ***
M140 S50 ; start preheating the bed
M104 S195 ﻿T0 ; start preheating hotend
M190 S50 ; heat to Cura Bed setting and WAIT
M109 S195 ﻿T0 ; heat to Cura Hotend and WAIT
;*** End Preheating ***

G28 ; home

G92 E0 ;Reset Extruder
G1 Z2.0 F3000 ;Move Z Axis up

;*** Single Print Start Tone
M300 S1000 P500 ; chirp to indicate starting to print
;*** End Single Start Tone

G1 X10.1 Y20 Z0.28 F5000.0 ;Move to start position
G1 X10.1 Y200.0 Z0.28 F1500.0 E15 ;Draw the first line
G1 X10.4 Y200.0 Z0.28 F5000.0 ;Move to side a little
G1 X10.4 Y20 Z0.28 F1500.0 E30 ;Draw the second line
G92 E0 ;Reset Extruder
G1 Z2.0 F3000 ;Move Z Axis up
G92 E0
G92 E0
G1 F2400 E-3.2
;LAYER_COUNT:180
;LAYER:0
M106 S63.8
M204 S500
M205 X6 Y6
G0 F9000 X102.63 Y102.12 Z0.24
;TYPE:SKIRT
G1 F1440 E0
G1 F1800 X102.905 Y101.931 E0.01332
G1 X103.218 Y101.813 E0.02667
G1 X103.549 Y101.772 E0.03998
G1 X103.881 Y101.811 E0.05332
G1 X104.129 Y101.896 E0.06379
G1 X104.911 Y102.249 E0.09803
G1 X105.818 Y101.683 E0.1407
G1 X107.335 Y100.341 E0.22154
G1 X107.61 Y100.151 E0.23488
G1 X107.922 Y100.032 E0.24821
G1 X108.254 Y99.99 E0.26156
G1 X108.655 Y100.046 E0.27772
G1 X109.607 Y100.324 E0.31731
G1 X110.012 Y100.372 E0.33358
G1 X112.157 Y100.275 E0.41928
G1 X112.49 Y100.3 E0.43261
G1 X112.808 Y100.403 E0.44595
G1 X113.092 Y100.579 E0.45929
G1 X113.591 Y101.163 E0.48995
G1 X113.982 Y101.53 E0.51135
G1 X115.058 Y102.19 E0.56173
G1 X116.022 Y101.838 E0.60269
G1 X116.347 Y101.762 E0.61601
G1 X116.681 Y101.764 E0.62934
G1 X117.005 Y101.846 E0.64268
G1 X117.301 Y102.002 E0.65604
G1 X117.671 Y102.381 E0.67718
G1 X118.06 Y102.969 E0.70532
G1 X118.124 Y103.076 E0.71029
G1 X118.378 Y103.547 E0.73165
G1 X118.432 Y103.658 E0.73658
G1 X118.682 Y104.238 E0.76178
G1 X118.833 Y104.77 E0.78386
G1 X118.875 Y105.102 E0.79721
G1 X118.837 Y105.434 E0.81055
G1 X118.726 Y105.734 E0.82332
G1 X119.348 Y108.079 E0.92015
G1 X119.702 Y109.475 E0.97763
G1 X119.883 Y110.03 E1.00093
G1 X120.148 Y110.746 E1.0314
G1 X120.313 Y111.267 E1.05321
G1 X120.383 Y111.673 E1.06966
G1 X120.371 Y112.261 E1.09313
G1 X120.269 Y112.579 E1.10646
G1 X120.094 Y112.864 E1.11981
G1 X119.733 Y113.185 E1.13909
G1 X118.216 Y114.123 E1.21027
G1 X118.247 Y114.801 E1.23736
G1 X118.339 Y115.181 E1.25297
G1 X118.565 Y115.877 E1.28217
G1 X118.629 Y116.205 E1.29551
G1 X118.614 Y116.539 E1.30885
G1 X118.521 Y116.86 E1.32219
G1 X118.309 Y117.199 E1.33815
G1 X118.174 Y118.578 E1.39345
G1 X118.093 Y118.947 E1.40853
G1 X117.871 Y119.578 E1.43523
G1 X118.134 Y120.288 E1.46545
G1 X118.153 Y120.75 E1.4839
G1 X118.112 Y121.082 E1.49726
G1 X117.993 Y121.394 E1.51058
G1 X117.804 Y121.669 E1.5239
G1 X117.416 Y122.012 E1.54457
G1 X117.088 Y122.217 E1.56001
G1 X116.649 Y122.359 E1.57842
G1 X116.081 Y122.443 E1.60134
G1 X116.036 Y122.962 E1.62213
G1 X115.915 Y123.274 E1.63549
G1 X115.724 Y123.548 E1.64882
G1 X115.238 Y123.922 E1.6733
G1 X114.938 Y124.068 E1.68661
G1 X114.611 Y124.139 E1.69997
G1 X113.934 Y124.048 E1.72723
G1 X113.603 Y124.402 E1.74657
G1 X113.317 Y124.575 E1.75991
G1 X112.825 Y124.707 E1.78025
G1 X112.492 Y124.729 E1.79357
G1 X112.163 Y124.671 E1.8069
G1 X111.794 Y124.497 E1.82318
G1 X111.524 Y125.156 E1.85161
G1 X111.361 Y125.448 E1.86495
G1 X111.134 Y125.693 E1.87828
G1 X110.855 Y125.878 E1.89165
G1 X110.393 Y126.016 E1.91089
G1 X109.823 Y126.044 E1.93367
G1 X109.498 Y125.964 E1.94703
G1 X109.202 Y125.81 E1.96034
G1 X108.809 Y125.419 E1.98247
G1 X108.602 Y125.077 E1.99842
G1 X108.291 Y124.342 E2.03028
G1 X107.814 Y124.547 E2.051
G1 X107.482 Y124.589 E2.06436
G1 X107.008 Y124.519 E2.08348
G1 X106.693 Y124.407 E2.09682
G1 X106.507 Y124.285 E2.1057
G1 X104.913 Y124.073 E2.16988
G1 X104.467 Y124.111 E2.18775
G1 X104.139 Y124.049 E2.20107
G1 X103.668 Y123.794 E2.22245
G1 X103.301 Y123.439 E2.24283
G1 X103.134 Y123.15 E2.25615
G1 X103.022 Y122.638 E2.27707
G1 X103.012 Y122.258 E2.29224
G1 X102.471 Y121.972 E2.31666
G1 X102.112 Y121.567 E2.33826
G1 X101.955 Y121.272 E2.3516
G1 X101.864 Y120.845 E2.36903
G1 X101.872 Y120.254 E2.39262
G1 X101.961 Y119.959 E2.40491
G1 X102.19 Y119.425 E2.4281
G1 X101.96 Y118.635 E2.46094
G1 X101.895 Y117.944 E2.48865
G1 X101.815 Y117.619 E2.502
G1 X101.815 Y117.424 E2.50979
G1 X101.625 Y117.205 E2.52136
G1 X101.473 Y116.907 E2.53471
G1 X101.395 Y116.582 E2.54805
G1 X101.423 Y116.102 E2.56724
G1 X101.64 Y115.178 E2.60512
G1 X101.638 Y114.499 E2.63222
G1 X101.518 Y114.091 E2.6492
G1 X101.209 Y113.63 E2.67135
G1 X100.468 Y113.284 E2.70399
G1 X100.184 Y113.108 E2.71732
G1 X99.951 Y112.869 E2.73064
G1 X99.78 Y112.582 E2.74398
G1 X99.683 Y112.262 E2.75732
G1 X99.668 Y111.876 E2.77274
G1 X99.781 Y111.159 E2.80171
G1 X100.16 Y110.094 E2.84683
G1 X100.343 Y109.507 E2.87137
G1 X100.501 Y109.081 E2.88951
G1 X100.697 Y108.81 E2.90285
G1 X100.951 Y108.593 E2.91619
G1 X101.333 Y108.424 E2.93286
G1 X101.064 Y107.671 E2.96477
G1 X101.052 Y107.337 E2.97811
G1 X101.12 Y107.01 E2.99144
G1 X101.263 Y106.708 E3.00478
G1 X101.473 Y106.449 E3.01809
G1 X101.813 Y106.196 E3.035
G1 X101.566 Y105.989 E3.04787
G1 X101.368 Y105.72 E3.0612
G1 X101.239 Y105.412 E3.07452
G1 X101.187 Y105.082 E3.08786
G1 X101.215 Y104.749 E3.1012
G1 X101.279 Y104.527 E3.11042
G1 X101.518 Y103.906 E3.13697
G1 X101.571 Y103.786 E3.14221
G1 X101.805 Y103.315 E3.1632
G1 X101.864 Y103.208 E3.16808
G1 X102.154 Y102.733 E3.19029
G1 X102.218 Y102.64 E3.1948
G0 F1620 X102.407 Y102.368
G0 X102.63 Y102.12
G0 F9000 X102.927 Y102.392
G1 F1800 X103.17 Y102.248 E3.20607
G1 X103.443 Y102.178 E3.21732
G1 X103.725 Y102.187 E3.22858
G1 X103.965 Y102.261 E3.2386
G1 X104.942 Y102.702 E3.28139
G1 X106.056 Y102.007 E3.33379
G1 X107.6 Y100.641 E3.41607
G1 X107.836 Y100.486 E3.42734
G1 X108.106 Y100.402 E3.43863
G1 X108.543 Y100.43 E3.4561
G1 X109.526 Y100.717 E3.49697
G1 X110.001 Y100.773 E3.51606
G1 X112.175 Y100.675 E3.60292
G1 X112.456 Y100.702 E3.61419
G1 X112.718 Y100.807 E3.62545
G1 X113.015 Y101.067 E3.64121
G1 X113.294 Y101.432 E3.65954
G1 X113.739 Y101.85 E3.68391
G1 X115.014 Y102.633 E3.74363
G1 X116.16 Y102.214 E3.79233
G1 X116.436 Y102.155 E3.8036
G1 X116.717 Y102.176 E3.81484
G1 X116.981 Y102.275 E3.8261
G1 X117.208 Y102.443 E3.83737
G1 X117.337 Y102.601 E3.84551
G1 X117.726 Y103.189 E3.87365
G1 X117.772 Y103.266 E3.87723
G1 X118.026 Y103.737 E3.89858
G1 X118.064 Y103.816 E3.90208
G1 X118.314 Y104.396 E3.92729
G1 X118.445 Y104.867 E3.9468
G1 X118.474 Y105.148 E3.95808
G1 X118.424 Y105.425 E3.96931
G1 X118.298 Y105.678 E3.98059
G1 X118.96 Y108.177 E4.08377
G1 X119.318 Y109.588 E4.14188
G1 X119.504 Y110.16 E4.16588
G1 X119.766 Y110.867 E4.19597
G1 X119.931 Y111.388 E4.21779
G1 X119.996 Y111.947 E4.24025
G1 X119.969 Y112.228 E4.25151
G1 X119.865 Y112.49 E4.26277
G1 X119.692 Y112.713 E4.27403
G1 X119.523 Y112.845 E4.28259
G1 X117.805 Y113.907 E4.3632
G1 X117.849 Y114.857 E4.40116
G1 X117.955 Y115.296 E4.41918
G1 X118.184 Y116.001 E4.44877
G1 X118.233 Y116.279 E4.46004
G1 X118.201 Y116.559 E4.47128
G1 X118.093 Y116.82 E4.48256
G1 X117.924 Y117.033 E4.49341
G1 X117.776 Y118.539 E4.55381
G1 X117.715 Y118.814 E4.56505
G1 X117.442 Y119.592 E4.59796
G1 X117.672 Y120.126 E4.62116
G1 X117.754 Y120.527 E4.6375
G1 X117.712 Y121.028 E4.65757
G1 X117.595 Y121.284 E4.6688
G1 X117.161 Y121.704 E4.6929
G1 X116.904 Y121.862 E4.70495
G1 X116.591 Y121.963 E4.71807
G1 X115.685 Y122.097 E4.75463
G1 X115.679 Y122.627 E4.77578
G1 X115.636 Y122.906 E4.78705
G1 X115.517 Y123.161 E4.79828
G1 X115.221 Y123.456 E4.81496
G1 X114.765 Y123.703 E4.83566
G1 X114.486 Y123.745 E4.84692
G1 X113.782 Y123.595 E4.87565
G1 X113.322 Y124.113 E4.9033
G1 X112.924 Y124.282 E4.92055
G1 X112.47 Y124.326 E4.93876
G1 X112.196 Y124.259 E4.95002
G1 X111.606 Y123.898 E4.97762
G1 X111.153 Y125.005 E5.02536
G1 X111.011 Y125.248 E5.0366
G1 X110.806 Y125.442 E5.04786
G1 X110.555 Y125.571 E5.05912
G1 X110.11 Y125.647 E5.07714
G1 X109.828 Y125.64 E5.0884
G1 X109.559 Y125.555 E5.09966
G1 X109.219 Y125.289 E5.11689
G1 X108.97 Y124.921 E5.13462
G1 X108.489 Y123.786 E5.18382
G1 X107.94 Y124.074 E5.20857
G1 X107.674 Y124.169 E5.21984
G1 X107.095 Y124.129 E5.24301
G1 X106.832 Y124.028 E5.25425
G1 X106.679 Y123.904 E5.26211
G1 X104.906 Y123.668 E5.3335
G1 X104.45 Y123.708 E5.35177
G1 X104.176 Y123.638 E5.36306
G1 X103.786 Y123.372 E5.3819
G1 X103.596 Y123.164 E5.39314
G1 X103.471 Y122.911 E5.4044
G1 X103.422 Y122.627 E5.41591
G1 X103.405 Y121.996 E5.4411
G1 X102.921 Y121.779 E5.46227
G1 X102.682 Y121.629 E5.47353
G1 X102.44 Y121.339 E5.48861
G1 X102.314 Y121.087 E5.49985
G1 X102.249 Y120.565 E5.52085
G1 X102.329 Y120.117 E5.53901
G1 X102.619 Y119.442 E5.56833
G1 X102.408 Y118.83 E5.59417
G1 X102.358 Y118.598 E5.60364
G1 X102.285 Y117.825 E5.63463
G1 X102.206 Y117.484 E5.6486
G1 X102.229 Y117.268 E5.65727
G1 X101.933 Y116.944 E5.67479
G1 X101.821 Y116.685 E5.68605
G1 X101.786 Y116.405 E5.69731
G1 X101.813 Y116.193 E5.70584
G1 X102.037 Y115.239 E5.74495
G1 X102.06 Y114.752 E5.76441
G1 X102.032 Y114.421 E5.77767
G1 X101.891 Y113.94 E5.79768
G1 X101.717 Y113.622 E5.81215
G1 X101.461 Y113.307 E5.82835
G1 X100.637 Y112.922 E5.86465
G1 X100.401 Y112.768 E5.87589
G1 X100.218 Y112.553 E5.88716
G1 X100.101 Y112.296 E5.89843
G1 X100.066 Y111.916 E5.91366
G1 X100.158 Y111.293 E5.9388
G1 X100.531 Y110.243 E5.98327
G1 X100.733 Y109.597 E6.01029
G1 X100.873 Y109.237 E6.0257
G1 X101.053 Y109.02 E6.03696
G1 X101.286 Y108.861 E6.04821
G1 X101.555 Y108.775 E6.05949
G1 X101.913 Y108.774 E6.07377
G1 X101.524 Y107.839 E6.11419
G1 X101.453 Y107.566 E6.12545
G1 X101.462 Y107.284 E6.13671
G1 X101.549 Y107.015 E6.148
G1 X101.707 Y106.782 E6.15923
G1 X101.892 Y106.623 E6.16897
G1 X102.538 Y106.192 E6.19996
G1 X102.04 Y105.868 E6.22368
G1 X101.828 Y105.682 E6.23493
G1 X101.676 Y105.445 E6.24617
G1 X101.596 Y105.174 E6.25745
G1 X101.596 Y104.892 E6.2687
G1 X101.653 Y104.671 E6.27781
G1 X101.892 Y104.05 E6.30437
G1 X101.929 Y103.964 E6.30811
G1 X102.163 Y103.493 E6.3291
G1 X102.205 Y103.417 E6.33256
G1 X102.495 Y102.942 E6.35478
G1 X102.516 Y102.913 E6.3562
G0 F1620 X102.734 Y102.598
G0 X102.927 Y102.392
G0 F9000 X103.217 Y102.675
G1 F1800 X103.417 Y102.588 E6.36491
G1 X103.635 Y102.578 E6.37362
G1 X103.8 Y102.625 E6.38047
G1 X104.921 Y103.131 E6.42955
G1 X105.018 Y103.125 E6.43343
G1 X106.301 Y102.325 E6.49378
G1 X107.865 Y100.941 E6.57713
G1 X108.052 Y100.828 E6.58585
G1 X108.267 Y100.79 E6.59457
G1 X108.431 Y100.814 E6.60118
G1 X109.444 Y101.11 E6.64331
G1 X109.991 Y101.175 E6.66529
G1 X112.193 Y101.075 E6.75327
G1 X112.409 Y101.105 E6.76197
G1 X112.6 Y101.21 E6.77067
G1 X112.996 Y101.702 E6.79588
G1 X113.493 Y102.168 E6.82307
G1 X114.91 Y103.038 E6.88944
G1 X115.034 Y103.051 E6.89441
G1 X116.297 Y102.589 E6.94809
G1 X116.512 Y102.553 E6.95679
G1 X116.726 Y102.596 E6.9655
G1 X116.91 Y102.713 E6.9742
G1 X117.003 Y102.822 E6.97992
G1 X117.392 Y103.41 E7.00806
G1 X117.42 Y103.456 E7.01021
G1 X117.674 Y103.927 E7.03157
G1 X117.697 Y103.975 E7.03369
G1 X117.947 Y104.555 E7.0589
G1 X118.057 Y104.964 E7.0758
G1 X118.071 Y105.182 E7.08452
G1 X118.005 Y105.39 E7.09323
G1 X117.857 Y105.577 E7.10275
G1 X118.573 Y108.275 E7.21416
G1 X118.936 Y109.707 E7.27312
G1 X119.128 Y110.296 E7.29785
G1 X119.385 Y110.988 E7.32731
G1 X119.55 Y111.509 E7.34912
G1 X119.596 Y111.966 E7.36746
G1 X119.567 Y112.182 E7.37615
G1 X119.462 Y112.373 E7.38485
G1 X119.312 Y112.504 E7.3928
G1 X117.43 Y113.667 E7.4811
G1 X117.396 Y113.731 E7.48399
G1 X117.45 Y114.914 E7.53126
G1 X117.567 Y115.396 E7.55106
G1 X117.804 Y116.125 E7.58165
G1 X117.832 Y116.341 E7.59034
G1 X117.782 Y116.553 E7.59904
G1 X117.54 Y116.845 E7.61417
G1 X117.378 Y118.5 E7.68054
G1 X117.338 Y118.682 E7.68798
G1 X117.013 Y119.607 E7.72711
G1 X117.305 Y120.284 E7.75654
G1 X117.353 Y120.747 E7.77512
G1 X117.312 Y120.961 E7.78381
G1 X117.135 Y121.207 E7.79591
G1 X116.72 Y121.507 E7.81635
G1 X116.532 Y121.568 E7.82424
G1 X115.288 Y121.752 E7.87443
G1 X115.279 Y122.622 E7.90915
G1 X115.237 Y122.837 E7.9179
G1 X115.121 Y123.021 E7.92658
G1 X114.804 Y123.249 E7.94216
G1 X114.602 Y123.332 E7.95088
G1 X114.325 Y123.325 E7.96194
G1 X113.654 Y123.147 E7.98965
G1 X113.615 Y123.16 E7.99129
G1 X113.212 Y123.671 E8.01726
G1 X113.048 Y123.815 E8.02597
G1 X112.679 Y123.921 E8.04129
G1 X112.461 Y123.921 E8.05
G1 X112.242 Y123.834 E8.0594
G1 X111.419 Y123.3 E8.09856
G1 X110.783 Y124.853 E8.16554
G1 X110.665 Y125.037 E8.17426
G1 X110.49 Y125.166 E8.18294
G1 X110.063 Y125.25 E8.20031
G1 X109.845 Y125.236 E8.20903
G1 X109.647 Y125.145 E8.21772
G1 X109.427 Y124.912 E8.23051
G1 X109.339 Y124.765 E8.23735
G1 X108.689 Y123.229 E8.30392
G1 X107.754 Y123.72 E8.34607
G1 X107.546 Y123.785 E8.35477
G1 X107.183 Y123.738 E8.36938
G1 X106.983 Y123.653 E8.37805
G1 X106.841 Y123.523 E8.38573
G1 X104.896 Y123.264 E8.46405
G1 X104.444 Y123.303 E8.48216
G1 X104.177 Y123.177 E8.49394
G1 X103.9 Y122.897 E8.50966
G1 X103.822 Y122.617 E8.52126
G1 X103.8 Y121.767 E8.5552
G1 X103.768 Y121.72 E8.55747
G1 X103.085 Y121.414 E8.58734
G1 X102.769 Y121.111 E8.60481
G1 X102.663 Y120.802 E8.61785
G1 X102.649 Y120.544 E8.62816
G1 X102.697 Y120.275 E8.63907
G1 X103.048 Y119.457 E8.67459
G1 X102.787 Y118.699 E8.70659
G1 X102.757 Y118.56 E8.71227
G1 X102.678 Y117.719 E8.74598
G1 X102.621 Y117.59 E8.75161
G1 X102.61 Y117.372 E8.76032
G1 X102.693 Y117.149 E8.76982
G1 X102.382 Y116.866 E8.7866
G1 X102.25 Y116.692 E8.79532
G1 X102.189 Y116.483 E8.80401
G1 X102.202 Y116.285 E8.81193
G1 X102.436 Y115.291 E8.85268
G1 X102.461 Y114.744 E8.87454
G1 X102.428 Y114.352 E8.89024
G1 X102.261 Y113.783 E8.91391
G1 X102.052 Y113.401 E8.93129
G1 X101.712 Y112.983 E8.95279
G1 X100.807 Y112.56 E8.99266
G1 X100.629 Y112.433 E9.00139
G1 X100.509 Y112.251 E9.01009
G1 X100.464 Y111.956 E9.022
G1 X100.535 Y111.427 E9.04331
G1 X100.912 Y110.366 E9.08825
G1 X101.113 Y109.721 E9.11521
G1 X101.241 Y109.405 E9.12882
G1 X101.4 Y109.256 E9.13751
G1 X101.602 Y109.173 E9.14623
G1 X101.785 Y109.163 E9.15355
G1 X102.539 Y109.239 E9.18379
G1 X101.893 Y107.685 E9.25096
G1 X101.847 Y107.472 E9.25966
G1 X101.881 Y107.256 E9.26839
G1 X101.989 Y107.067 E9.27707
G1 X102.114 Y106.956 E9.28375
G1 X103.265 Y106.188 E9.33897
G1 X102.259 Y105.533 E9.38688
G1 X102.1 Y105.382 E9.39564
G1 X102.007 Y105.186 E9.4043
G1 X101.989 Y104.968 E9.41303
G1 X102.026 Y104.814 E9.41935
G1 X102.265 Y104.193 E9.4459
G1 X102.288 Y104.142 E9.44814
G1 X102.522 Y103.671 E9.46913
G1 X102.547 Y103.625 E9.47122
G1 X102.808 Y103.197 E9.49123
G0 F1620 X102.837 Y103.15
G0 X103.062 Y102.828
G0 X103.217 Y102.675
G0 F9000 X103.389 Y103.057
G1 F1800 X103.489 Y102.982 E9.49622
G1 X103.635 Y102.99 E9.50205
G1 X104.846 Y103.537 E9.55509
G1 X105.145 Y103.517 E9.56705
G1 X106.539 Y102.647 E9.63263
G1 X108.13 Y101.24 E9.7174
G1 X108.319 Y101.198 E9.72513
G1 X109.363 Y101.503 E9.76854
G1 X109.974 Y101.575 E9.79309
G1 X112.211 Y101.474 E9.88247
G1 X112.379 Y101.553 E9.88988
G1 X112.696 Y101.969 E9.91075
G1 X113.25 Y102.488 E9.94105
G1 X114.778 Y103.427 E10.01263
G1 X115.085 Y103.458 E10.02495
G1 X116.434 Y102.965 E10.08227
G1 X116.559 Y102.961 E10.08726
G1 X116.67 Y103.043 E10.09277
G1 X117.068 Y103.646 E10.12161
G1 X117.33 Y104.133 E10.14368
G1 X117.58 Y104.713 E10.16889
G1 X117.669 Y105.061 E10.18322
G1 X117.66 Y105.185 E10.18819
G1 X117.538 Y105.303 E10.19496
G1 X117.436 Y105.55 E10.20563
G1 X118.185 Y108.374 E10.32223
G1 X118.551 Y109.817 E10.38165
G1 X118.746 Y110.418 E10.40687
G1 X119.004 Y111.109 E10.43631
G1 X119.169 Y111.63 E10.45812
G1 X119.197 Y111.985 E10.47233
G1 X119.163 Y112.105 E10.47731
G1 X119.102 Y112.164 E10.4807
G1 X117.128 Y113.384 E10.57332
