;FLAVOR:Marlin
;TIME:1444
;Filament used: 0.417144m
;Layer height: 0.16
;MINX:103.877
;MINY:102.577
;MINZ:0.24
;MAXX:115.579
;MAXY:117.43
;MAXZ:30.08
;Generated with Cura_SteamEngine 4.10.0
M82 ;absolute extrusion mode
M201 X500.00 Y500.00 Z100.00 E5000.00 ;Setup machine max acceleration
M203 X500.00 Y500.00 Z10.00 E50.00 ;Setup machine max feedrate
M204 P500.00 R1000.00 T500.00 ;Setup Print/Retract/Travel acceleration
M205 X8.00 Y8.00 Z0.40 E5.00 ;Setup Jerk
M220 S100 ;Reset Feedrate
M221 S100 ;Reset Flowrate

;*** Start Dual Nozzle/Bed Preheating ***
M140 S50 ; start preheating the bed
M104 S215 ?T0 ; start preheating hotend
M190 S50 ; heat to Cura Bed setting and WAIT
M109 S215 ?T0 ; heat to Cura Hotend and WAIT
;*** End Preheating ***

;*** Single Print Start Tone
M300 S1000 P500 ; chirp to indicate starting to print
;*** End Single Start Tone

G28 ;Home

G92 E0 ;Reset Extruder
G1 Z2.0 F3000 ;Move Z Axis up

G1 X10.1 Y20 Z0.28 F5000.0 ;Move to start position
G1 X10.1 Y200.0 Z0.28 F1500.0 E15 ;Draw the first line
G1 X10.4 Y200.0 Z0.28 F5000.0 ;Move to side a little
G1 X10.4 Y20 Z0.28 F1500.0 E30 ;Draw the second line
G92 E0 ;Reset Extruder
G1 Z2.0 F3000 ;Move Z Axis up
G92 E0
G92 E0
G1 F2400 E-3
;LAYER_COUNT:155
;LAYER:0
M106 S63.8
M204 S500
M205 X6 Y6
G1 F300 Z0.44
G0 F9000 X105.494 Y104.565 Z0.44
;TYPE:SKIRT
G1 F300 Z0.24
G1 F2400 E0
G1 F1800 X106.158 Y103.937 E0.03648
G1 X106.457 Y103.705 E0.05158
G1 X107.075 Y103.319 E0.08066
G1 X107.368 Y103.172 E0.09375
G1 X108.194 Y102.846 E0.12919
G1 X108.55 Y102.744 E0.14397
G1 X109.288 Y102.61 E0.17391
G1 X109.6 Y102.581 E0.18641
G1 X110.301 Y102.577 E0.21439
G1 X110.593 Y102.599 E0.22608
G1 X111.325 Y102.715 E0.25566
G1 X111.635 Y102.793 E0.26842
G1 X112.454 Y103.078 E0.30303
G1 X112.801 Y103.239 E0.3183
G1 X113.515 Y103.665 E0.35148
G1 X113.818 Y103.89 E0.36654
G1 X114.433 Y104.447 E0.39966
G1 X114.686 Y104.725 E0.41466
G1 X115.172 Y105.381 E0.44725
G1 X115.417 Y105.834 E0.4678
G1 X115.57 Y106.584 E0.49835
G1 X115.576 Y106.982 E0.51424
G1 X115.469 Y107.516 E0.53598
G1 X115.338 Y107.872 E0.55112
G1 X115.136 Y108.193 E0.56625
G1 X114.713 Y108.588 E0.58935
G1 X114.39 Y108.786 E0.60447
G1 X114.033 Y108.913 E0.6196
G1 X113.618 Y108.962 E0.63628
G1 X112.645 Y108.964 E0.67511
G1 X111.878 Y108.93 E0.70575
G1 X111.523 Y108.819 E0.7206
G1 X111.186 Y108.647 E0.7357
G1 X110.95 Y108.463 E0.74764
G1 X110.46 Y108.011 E0.77425
G1 X110.186 Y107.898 E0.78608
G1 X109.896 Y107.889 E0.79766
G1 X109.63 Y107.977 E0.80884
G1 X109.392 Y108.17 E0.82107
G1 X109.25 Y108.41 E0.8322
G1 X109.167 Y108.866 E0.8507
G1 X109.167 Y111.136 E0.9413
G1 X109.248 Y111.589 E0.95967
G1 X109.391 Y111.833 E0.97096
G1 X109.62 Y112.02 E0.98276
G1 X109.894 Y112.114 E0.99432
G1 X110.182 Y112.107 E1.00582
G1 X110.451 Y112 E1.01737
G1 X110.9 Y111.596 E1.04148
G1 X111.442 Y111.22 E1.06781
G1 X111.799 Y111.092 E1.08294
G1 X112.221 Y111.041 E1.09991
G1 X113.616 Y111.039 E1.15559
G1 X113.993 Y111.078 E1.17071
G1 X114.354 Y111.196 E1.18587
G1 X114.811 Y111.49 E1.20756
G1 X115.179 Y111.869 E1.22864
G1 X115.371 Y112.196 E1.24378
G1 X115.516 Y112.702 E1.26479
G1 X115.579 Y113.49 E1.29634
G1 X115.472 Y114.004 E1.31729
G1 X115.336 Y114.357 E1.33239
G1 X115.182 Y114.607 E1.34411
G1 X114.69 Y115.273 E1.37716
G1 X114.47 Y115.519 E1.39033
G1 X113.915 Y116.037 E1.42063
G1 X113.658 Y116.239 E1.43368
G1 X113.149 Y116.571 E1.45793
G1 X112.91 Y116.702 E1.46881
G1 X112.159 Y117.043 E1.50173
G1 X111.795 Y117.166 E1.51707
G1 X110.919 Y117.366 E1.55293
G1 X110.539 Y117.413 E1.56821
G1 X109.831 Y117.43 E1.59648
G1 X109.506 Y117.409 E1.60947
G1 X108.573 Y117.261 E1.64718
G1 X108.229 Y117.171 E1.66137
G1 X107.577 Y116.929 E1.68913
G1 X107.305 Y116.801 E1.70113
G1 X106.676 Y116.439 E1.73009
G1 X106.427 Y116.266 E1.74219
G1 X105.808 Y115.754 E1.77425
G1 X105.57 Y115.517 E1.78766
G1 X105.037 Y114.875 E1.82096
G1 X104.826 Y114.561 E1.83606
G1 X104.434 Y113.834 E1.86903
G1 X104.288 Y113.487 E1.88405
G1 X104.04 Y112.674 E1.91798
G1 X103.971 Y112.328 E1.93206
G1 X103.886 Y111.479 E1.96611
G1 X103.877 Y111.3 E1.97327
G1 X103.877 Y108.699 E2.07708
G1 X103.886 Y108.521 E2.08419
G1 X103.97 Y107.676 E2.11808
G1 X104.039 Y107.329 E2.13221
G1 X104.287 Y106.515 E2.16617
G1 X104.405 Y106.223 E2.17874
G1 X104.727 Y105.591 E2.20705
G1 X104.889 Y105.33 E2.21931
G1 X105.289 Y104.795 E2.24597
G1 X105.494 Y104.565 E2.25827
G0 F9000 X105.769 Y104.856
G1 F1800 X106.433 Y104.228 E2.29474
G1 X106.669 Y104.045 E2.30666
G1 X107.287 Y103.659 E2.33575
G1 X107.515 Y103.544 E2.34594
G1 X108.341 Y103.218 E2.38138
G1 X108.622 Y103.138 E2.39304
G1 X109.36 Y103.004 E2.42298
G1 X109.602 Y102.981 E2.43268
G1 X110.303 Y102.977 E2.46066
G1 X110.53 Y102.994 E2.46974
G1 X111.262 Y103.11 E2.49932
G1 X111.503 Y103.171 E2.50925
G1 X112.395 Y103.483 E2.54696
G1 X112.596 Y103.583 E2.55592
G1 X113.31 Y104.009 E2.58911
G1 X113.55 Y104.186 E2.60101
G1 X114.165 Y104.743 E2.63413
G1 X114.365 Y104.964 E2.64602
G1 X114.851 Y105.62 E2.67861
G1 X115.046 Y105.983 E2.69505
G1 X115.173 Y106.633 E2.72149
G1 X115.177 Y106.952 E2.73422
G1 X115.081 Y107.419 E2.75325
G1 X114.961 Y107.731 E2.76659
G1 X114.771 Y108.006 E2.77993
G1 X114.469 Y108.271 E2.79597
G1 X114.182 Y108.442 E2.8093
G1 X113.862 Y108.54 E2.82266
G1 X113.617 Y108.562 E2.83248
G1 X112.642 Y108.564 E2.87139
G1 X111.92 Y108.53 E2.90024
G1 X111.667 Y108.446 E2.91088
G1 X111.221 Y108.169 E2.93183
G1 X110.678 Y107.668 E2.96132
G1 X110.271 Y107.501 E2.97888
G1 X109.839 Y107.486 E2.99613
G1 X109.431 Y107.623 E3.01331
G1 X109.087 Y107.901 E3.03096
G1 X108.868 Y108.271 E3.04812
G1 X108.767 Y108.827 E3.07068
G1 X108.767 Y111.173 E3.16431
G1 X108.867 Y111.729 E3.18686
G1 X109.083 Y112.097 E3.20389
G1 X109.423 Y112.375 E3.22142
G1 X109.83 Y112.515 E3.2386
G1 X110.265 Y112.504 E3.25596
G1 X110.666 Y112.344 E3.2732
G1 X111.168 Y111.893 E3.30013
G1 X111.651 Y111.563 E3.32348
G1 X111.97 Y111.464 E3.33681
G1 X112.222 Y111.441 E3.34691
G1 X113.617 Y111.439 E3.40259
G1 X113.949 Y111.478 E3.41593
G1 X114.262 Y111.595 E3.42926
G1 X114.658 Y111.889 E3.44895
G1 X114.88 Y112.139 E3.46229
G1 X115.037 Y112.434 E3.47563
G1 X115.173 Y113.164 E3.50527
G1 X115.177 Y113.498 E3.5186
G1 X115.086 Y113.9 E3.53505
G1 X114.86 Y114.369 E3.55583
G1 X114.368 Y115.035 E3.58888
G1 X114.197 Y115.226 E3.59911
G1 X113.583 Y115.797 E3.63258
G1 X113.44 Y115.904 E3.6397
G1 X112.931 Y116.236 E3.66396
G1 X112.745 Y116.338 E3.67243
G1 X111.994 Y116.679 E3.70534
G1 X111.706 Y116.776 E3.71747
G1 X110.83 Y116.976 E3.75334
G1 X110.53 Y117.014 E3.76541
G1 X109.822 Y117.031 E3.79367
G1 X109.569 Y117.014 E3.80379
G1 X108.636 Y116.866 E3.8415
G1 X108.368 Y116.796 E3.85255
G1 X107.716 Y116.554 E3.88031
G1 X107.505 Y116.454 E3.88963
G1 X106.876 Y116.092 E3.91859
G1 X106.682 Y115.958 E3.928
G1 X106.063 Y115.446 E3.96007
G1 X105.878 Y115.261 E3.97051
G1 X105.345 Y114.619 E4.00381
G1 X105.178 Y114.371 E4.01574
G1 X104.786 Y113.644 E4.04871
G1 X104.671 Y113.37 E4.06057
G1 X104.423 Y112.557 E4.09449
G1 X104.369 Y112.288 E4.10545
G1 X104.284 Y111.439 E4.1395
G1 X104.277 Y111.3 E4.14505
G1 X104.277 Y108.699 E4.24887
G1 X104.284 Y108.561 E4.25438
G1 X104.368 Y107.716 E4.28827
G1 X104.422 Y107.446 E4.29926
G1 X104.67 Y106.632 E4.33323
G1 X104.762 Y106.404 E4.34304
G1 X105.084 Y105.772 E4.37135
G1 X105.21 Y105.57 E4.38085
G1 X105.61 Y105.035 E4.40751
G1 X105.769 Y104.856 E4.41707
G0 F9000 X106.044 Y105.146
G1 F1800 X106.708 Y104.518 E4.45354
G1 X106.881 Y104.384 E4.46228
G1 X107.499 Y103.998 E4.49136
G1 X107.662 Y103.916 E4.49864
G1 X108.488 Y103.59 E4.53409
G1 X108.693 Y103.531 E4.5426
G1 X109.431 Y103.397 E4.57254
G1 X109.604 Y103.381 E4.57947
G1 X110.305 Y103.377 E4.60745
G1 X110.468 Y103.389 E4.61397
G1 X111.2 Y103.505 E4.64355
G1 X111.372 Y103.549 E4.65064
G1 X112.243 Y103.853 E4.68746
G1 X112.391 Y103.926 E4.69405
G1 X113.105 Y104.352 E4.72723
G1 X113.281 Y104.483 E4.73599
G1 X113.896 Y105.04 E4.7691
G1 X114.044 Y105.202 E4.77786
G1 X114.53 Y105.858 E4.81045
G1 X114.674 Y106.132 E4.8228
G1 X114.776 Y106.683 E4.84517
G1 X114.751 Y107.091 E4.86148
G1 X114.586 Y107.583 E4.88219
G1 X114.224 Y107.954 E4.90288
G1 X113.979 Y108.093 E4.91412
G1 X113.616 Y108.162 E4.92887
G1 X112.639 Y108.164 E4.96786
G1 X112.249 Y108.167 E4.98343
G1 X111.811 Y108.073 E5.00131
G1 X111.493 Y107.875 E5.01626
G1 X110.898 Y107.326 E5.04857
G1 X110.356 Y107.103 E5.07197
G1 X109.78 Y107.084 E5.09497
G1 X109.238 Y107.265 E5.11777
G1 X108.778 Y107.636 E5.14136
G1 X108.488 Y108.127 E5.16412
G1 X108.367 Y108.795 E5.19122
G1 X108.367 Y111.21 E5.2876
G1 X108.485 Y111.87 E5.31436
G1 X108.775 Y112.362 E5.33716
G1 X109.223 Y112.729 E5.36027
G1 X109.769 Y112.917 E5.38332
G1 X110.349 Y112.902 E5.40648
G1 X110.879 Y112.69 E5.42926
G1 X111.435 Y112.191 E5.45908
G1 X111.856 Y111.911 E5.47926
G1 X112.223 Y111.841 E5.49417
G1 X113.618 Y111.839 E5.54985
G1 X113.897 Y111.878 E5.56109
G1 X114.281 Y112.09 E5.5786
G1 X114.576 Y112.404 E5.59579
G1 X114.722 Y112.807 E5.6129
G1 X114.776 Y113.216 E5.62937
G1 X114.751 Y113.606 E5.64496
G1 X114.538 Y114.131 E5.66758
G1 X114.046 Y114.797 E5.70062
G1 X113.924 Y114.934 E5.70795
G1 X113.369 Y115.452 E5.73825
G1 X113.221 Y115.569 E5.74578
G1 X112.712 Y115.901 E5.77003
G1 X112.579 Y115.974 E5.77609
G1 X111.828 Y116.315 E5.80901
G1 X111.617 Y116.386 E5.81789
G1 X110.741 Y116.586 E5.85375
G1 X110.52 Y116.614 E5.86265
G1 X109.812 Y116.631 E5.89091
G1 X109.631 Y116.619 E5.89815
G1 X108.698 Y116.471 E5.93585
G1 X108.507 Y116.421 E5.94373
G1 X107.855 Y116.179 E5.97149
G1 X107.704 Y116.108 E5.97815
G1 X107.075 Y115.746 E6.00712
G1 X106.937 Y115.65 E6.01383
G1 X106.318 Y115.138 E6.04589
G1 X106.186 Y115.006 E6.05334
G1 X105.653 Y114.364 E6.08664
G1 X105.53 Y114.182 E6.09541
G1 X105.138 Y113.455 E6.12838
G1 X105.054 Y113.254 E6.13707
G1 X104.806 Y112.441 E6.171
G1 X104.767 Y112.249 E6.17881
G1 X104.682 Y111.4 E6.21287
G1 X104.677 Y111.3 E6.21687
G1 X104.677 Y108.699 E6.32068
G1 X104.682 Y108.6 E6.32463
G1 X104.766 Y107.755 E6.35853
G1 X104.804 Y107.563 E6.36634
G1 X105.052 Y106.749 E6.4003
G1 X105.118 Y106.586 E6.40732
G1 X105.44 Y105.954 E6.43563
G1 X105.53 Y105.809 E6.44244
G1 X105.93 Y105.274 E6.4691
G1 X106.044 Y105.146 E6.47594
G0 F9000 X106.319 Y105.437
G1 F1800 X106.983 Y104.809 E6.51242
G1 X107.093 Y104.723 E6.51799
G1 X107.711 Y104.337 E6.54707
G1 X107.809 Y104.288 E6.55145
G1 X108.635 Y103.962 E6.58689
G1 X108.765 Y103.925 E6.59228
G1 X109.503 Y103.791 E6.62222
G1 X109.607 Y103.781 E6.62639
G1 X110.308 Y103.777 E6.65437
G1 X110.405 Y103.784 E6.65825
G1 X111.137 Y103.9 E6.68783
G1 X111.24 Y103.926 E6.69207
G1 X112.09 Y104.223 E6.72801
G1 X112.186 Y104.27 E6.73227
G1 X112.9 Y104.696 E6.76546
G1 X113.013 Y104.779 E6.77105
G1 X113.628 Y105.336 E6.80417
G1 X113.722 Y105.44 E6.80977
G1 X114.208 Y106.096 E6.84235
G1 X114.341 Y106.429 E6.85666
G1 X114.379 Y106.892 E6.8752
G1 X114.305 Y107.224 E6.88878
G1 X114.214 Y107.423 E6.89751
G1 X113.98 Y107.637 E6.91017
G1 X113.786 Y107.737 E6.91888
G1 X113.615 Y107.762 E6.92578
G1 X112.636 Y107.764 E6.96485
G1 X112.246 Y107.767 E6.98042
G1 X111.955 Y107.7 E6.99234
G1 X111.764 Y107.581 E7.00132
G1 X111.116 Y106.983 E7.03651
G1 X110.443 Y106.706 E7.06556
G1 X109.72 Y106.683 E7.09443
G1 X109.043 Y106.909 E7.12292
G1 X108.471 Y107.37 E7.15224
G1 X108.107 Y107.988 E7.18086
G1 X107.967 Y108.756 E7.21202
G1 X107.967 Y111.241 E7.3112
G1 X108.105 Y112.014 E7.34254
G1 X108.466 Y112.627 E7.37094
G1 X109.026 Y113.085 E7.39981
G1 X109.706 Y113.319 E7.42851
G1 X110.429 Y113.301 E7.45738
G1 X111.095 Y113.034 E7.48602
G1 X111.735 Y112.461 E7.5203
G1 X112.05 Y112.267 E7.53507
G1 X112.223 Y112.241 E7.54205
G1 X113.618 Y112.239 E7.59773
G1 X113.833 Y112.278 E7.60645
G1 X114.128 Y112.488 E7.6209
G1 X114.263 Y112.66 E7.62963
G1 X114.38 Y113.268 E7.65434
G1 X114.313 Y113.693 E7.67151
G1 X114.217 Y113.894 E7.6804
G1 X113.725 Y114.56 E7.71345
G1 X113.651 Y114.642 E7.71786
G1 X113.071 Y115.182 E7.74949
G1 X113.003 Y115.234 E7.75291
G1 X112.494 Y115.566 E7.77716
G1 X112.414 Y115.609 E7.78078
G1 X111.663 Y115.95 E7.8137
G1 X111.528 Y115.996 E7.8194
G1 X110.652 Y116.196 E7.85526
G1 X110.51 Y116.214 E7.86097
G1 X109.802 Y116.231 E7.88924
G1 X109.694 Y116.224 E7.89356
G1 X108.761 Y116.076 E7.93126
G1 X108.646 Y116.046 E7.936
G1 X107.994 Y115.804 E7.96376
G1 X107.904 Y115.761 E7.96774
G1 X107.275 Y115.399 E7.99671
G1 X107.192 Y115.341 E8.00075
G1 X106.573 Y114.829 E8.03281
G1 X106.493 Y114.75 E8.0373
G1 X105.96 Y114.108 E8.0706
G1 X105.882 Y113.992 E8.07618
G1 X105.49 Y113.265 E8.10915
G1 X105.436 Y113.137 E8.11469
G1 X105.188 Y112.324 E8.14862
G1 X105.165 Y112.209 E8.1533
G1 X105.08 Y111.36 E8.18735
G1 X105.077 Y111.3 E8.18975
G1 X105.077 Y108.699 E8.29356
G1 X105.08 Y108.64 E8.29592
G1 X105.164 Y107.795 E8.32981
G1 X105.187 Y107.679 E8.33453
G1 X105.435 Y106.865 E8.36849
G1 X105.474 Y106.768 E8.37267
G1 X105.796 Y106.136 E8.40098
G1 X105.85 Y106.049 E8.40506
G1 X106.25 Y105.514 E8.43172
G1 X106.319 Y105.437 E8.43585
G0 F9000 X106.594 Y105.728
G1 F1800 X107.269 Y105.09 E8.47292
G1 X107.305 Y105.062 E8.47474
G1 X107.923 Y104.676 E8.50382
G1 X107.956 Y104.66 E8.50529
G1 X108.799 Y104.328 E8.54145
G1 X108.836 Y104.318 E8.54298
G1 X109.574 Y104.184 E8.57292
G1 X109.609 Y104.181 E8.57432
G1 X110.31 Y104.177 E8.6023
G1 X110.342 Y104.179 E8.60358
G1 X111.074 Y104.295 E8.63316
G1 X111.109 Y104.304 E8.6346
G1 X111.938 Y104.593 E8.66964
G1 X111.981 Y104.613 E8.67153
G1 X112.714 Y105.052 E8.70563
G1 X112.744 Y105.076 E8.70717
G1 X113.371 Y105.644 E8.74093
G1 X113.401 Y105.678 E8.74274
G1 X113.887 Y106.334 E8.77533
G1 X113.944 Y106.478 E8.78151
G1 X113.975 Y106.896 E8.79824
G1 X113.917 Y107.127 E8.80774
G1 X113.736 Y107.32 E8.8183
G1 X113.614 Y107.362 E8.82345
G1 X112.633 Y107.364 E8.86261
G1 X112.169 Y107.354 E8.88113
G1 X112.035 Y107.287 E8.88711
G1 X111.334 Y106.64 E8.92518
G1 X110.528 Y106.309 E8.95996
G1 X109.662 Y106.28 E8.99454
G1 X108.848 Y106.552 E9.0288
G1 X108.162 Y107.106 E9.06399
G1 X107.727 Y107.844 E9.09818
G1 X107.567 Y108.723 E9.13384
G1 X107.567 Y111.279 E9.23586
G1 X107.724 Y112.155 E9.27138
G1 X108.156 Y112.889 E9.30537
G1 X108.829 Y113.44 E9.34009
G1 X109.645 Y113.721 E9.37453
G1 X110.51 Y113.699 E9.40907
G1 X111.308 Y113.38 E9.44337
G1 X111.98 Y112.777 E9.4794
G1 X112.224 Y112.641 E9.49055
G1 X113.619 Y112.639 E9.54623
G1 X113.751 Y112.689 E9.55186
G1 X113.863 Y112.788 E9.55783
G1 X113.929 Y112.912 E9.56344
G1 X113.978 Y113.399 E9.58297
G1 X113.895 Y113.656 E9.59375
G1 X113.403 Y114.322 E9.6268
G1 X113.378 Y114.349 E9.62827
G1 X112.803 Y114.885 E9.65964
G1 X112.275 Y115.231 E9.68484
G1 X112.249 Y115.245 E9.68601
G1 X111.478 Y115.594 E9.71979
G1 X111.439 Y115.606 E9.72142
G1 X110.545 Y115.809 E9.75801
G1 X110.501 Y115.814 E9.75978
G1 X109.793 Y115.831 E9.78804
G1 X109.757 Y115.829 E9.78948
G1 X108.824 Y115.681 E9.82719
G1 X108.785 Y115.671 E9.82879
G1 X108.133 Y115.429 E9.85655
G1 X108.103 Y115.414 E9.85789
G1 X107.474 Y115.052 E9.88686
G1 X107.447 Y115.033 E9.88817
G1 X106.828 Y114.521 E9.92024
G1 X106.801 Y114.495 E9.92173
G1 X106.268 Y113.853 E9.95503
G1 X106.234 Y113.802 E9.95748
G1 X105.835 Y113.061 E9.99107
G1 X105.819 Y113.02 E9.99283
G1 X105.571 Y112.207 E10.02675
G1 X105.563 Y112.169 E10.0283
G1 X105.477 Y111.3 E10.06316
G1 X105.478 Y108.679 E10.16777
G1 X105.562 Y107.834 E10.20166
G1 X105.57 Y107.796 E10.20321
G1 X105.818 Y106.982 E10.23717
G1 X105.831 Y106.949 E10.23859
G1 X106.153 Y106.317 E10.2669
G1 X106.171 Y106.288 E10.26826
G1 X106.571 Y105.753 E10.29492
G1 X106.594 Y105.728 E10.29627
G1 F2400 E7.29627
G1 F300 Z0.44
;MESH:lightning.stl
G0 F9000 X113.543 Y113.039 Z0.44
;TYPE:WALL-OUTER
G1 F300 Z0.24
G1 F2400 E10.29627
G1 F1800 X113.584 Y113.351 E10.30883
G1 X113.561 Y113.435 E10.31231
G1 X113.086 Y114.078 E10.34422
G1 X112.558 Y114.569 E10.37299
G1 X112.075 Y114.884 E10.39601
G1 X111.34 Y115.218 E10.42823
G1 X110.482 Y115.414 E10.46336
G1 X109.809 Y115.432 E10.49023
G1 X108.914 Y115.291 E10.52639
G1 X108.296 Y115.063 E10.55268
G1 X107.695 Y114.719 E10.58032
G1 X107.105 Y114.233 E10.61083
G1 X106.581 Y113.604 E10.6435
G1 X106.199 Y112.895 E10.67565
