;FLAVOR:Marlin
;TIME:2039
;Filament used: 0.890924m
;Layer height: 0.2
;MINX:101.35
;MINY:103.85
;MINZ:0.2
;MAXX:118.65
;MAXY:116.15
;MAXZ:39.8
;Generated with Cura_SteamEngine 4.10.0
M82 ;absolute extrusion mode
M201 X500.00 Y500.00 Z100.00 E5000.00 ;Setup machine max acceleration
M203 X500.00 Y500.00 Z10.00 E50.00 ;Setup machine max feedrate
M204 P500.00 R1000.00 T500.00 ;Setup Print/Retract/Travel acceleration
M205 X8.00 Y8.00 Z0.40 E5.00 ;Setup Jerk
M220 S100 ;Reset Feedrate
M221 S100 ;Reset Flowrate

;*** Start Dual Nozzle/Bed Preheating ***
M140 S50 ; start preheating the bed
M104 S195 ?T0 ; start preheating hotend
M190 S50 ; heat to Cura Bed setting and WAIT
M109 S195 ?T0 ; heat to Cura Hotend and WAIT
;*** End Preheating ***

;*** Single Print Start Tone
M300 S1000 P500 ; chirp to indicate starting to print
;*** End Single Start Tone

G28 ;Home

G92 E0 ;Reset Extruder
G1 Z2.0 F3000 ;Move Z Axis up

G1 X10.1 Y20 Z0.28 F5000.0 ;Move to start position
G1 X10.1 Y200.0 Z0.28 F1500.0 E15 ;Draw the first line
G1 X10.4 Y200.0 Z0.28 F5000.0 ;Move to side a little
G1 X10.4 Y20 Z0.28 F1500.0 E30 ;Draw the second line
G92 E0 ;Reset Extruder
G1 Z2.0 F3000 ;Move Z Axis up
G92 E0
G92 E0
;LAYER_COUNT:167
;LAYER:0
M106 S63.8
M204 S500
M205 X6 Y6
G0 F9000 X102.423 Y104.775 Z0.2
;TYPE:SKIRT
G1 F1800 X102.844 Y104.437 E0.01796
G1 X103.307 Y104.174 E0.03567
G1 X103.805 Y103.987 E0.05336
G1 X104.325 Y103.879 E0.07102
G1 X104.751 Y103.85 E0.08523
G1 X115.249 Y103.85 E0.43439
G1 X115.891 Y103.914 E0.45585
G1 X116.401 Y104.053 E0.47343
G1 X116.888 Y104.273 E0.49121
G1 X117.336 Y104.568 E0.50905
G1 X117.725 Y104.923 E0.52656
G1 X118.063 Y105.344 E0.54452
G1 X118.326 Y105.806 E0.5622
G1 X118.514 Y106.305 E0.57994
G1 X118.621 Y106.825 E0.59759
G1 X118.65 Y107.249 E0.61173
G1 X118.65 Y112.749 E0.79466
G1 X118.587 Y113.389 E0.81605
G1 X118.447 Y113.9 E0.83367
G1 X118.227 Y114.388 E0.85148
G1 X117.932 Y114.836 E0.86932
G1 X117.576 Y115.226 E0.88688
G1 X117.159 Y115.561 E0.90467
G1 X116.693 Y115.826 E0.9225
G1 X116.195 Y116.013 E0.94019
G1 X115.675 Y116.121 E0.95786
G1 X115.249 Y116.15 E0.97206
G1 X111.25 Y116.15 E1.10507
G1 X110.918 Y116.11 E1.11619
G1 X110.606 Y115.993 E1.12727
G1 X110.329 Y115.805 E1.13841
G1 X110.106 Y115.557 E1.1495
G1 X109.993 Y115.394 E1.1561
G1 X109.805 Y115.671 E1.16723
G1 X109.557 Y115.894 E1.17832
G1 X109.263 Y116.053 E1.18944
G1 X108.75 Y116.15 E1.2068
G1 X104.751 Y116.15 E1.33981
G1 X104.109 Y116.086 E1.36127
G1 X103.598 Y115.946 E1.37889
G1 X103.108 Y115.725 E1.39677
G1 X102.663 Y115.431 E1.41451
G1 X102.272 Y115.074 E1.43212
G1 X101.937 Y114.656 E1.44994
G1 X101.673 Y114.191 E1.46772
G1 X101.485 Y113.691 E1.48549
G1 X101.379 Y113.175 E1.50301
G1 X101.35 Y112.751 E1.51714
G1 X101.35 Y107.251 E1.70008
G1 X101.413 Y106.611 E1.72146
G1 X101.553 Y106.1 E1.73909
G1 X101.773 Y105.612 E1.75689
G1 X101.918 Y105.393 E1.76563
G0 F1620 X102.068 Y105.164
G0 X102.423 Y104.775
G0 F9000 X102.684 Y105.078
G1 F1800 X103.053 Y104.778 E1.78144
G1 X103.46 Y104.544 E1.79706
G1 X103.899 Y104.376 E1.81269
G1 X104.357 Y104.278 E1.82827
G1 X104.751 Y104.25 E1.84141
G1 X115.249 Y104.25 E2.19057
G1 X115.797 Y104.303 E2.20888
G1 X116.249 Y104.423 E2.22444
G1 X116.679 Y104.614 E2.24009
G1 X117.076 Y104.872 E2.25584
G1 X117.422 Y105.184 E2.27133
G1 X117.722 Y105.553 E2.28715
G1 X117.956 Y105.959 E2.30273
G1 X118.125 Y106.398 E2.31838
G1 X118.222 Y106.856 E2.33395
G1 X118.25 Y107.249 E2.34706
G1 X118.25 Y112.749 E2.52999
G1 X118.198 Y113.296 E2.54826
G1 X118.077 Y113.747 E2.56379
G1 X117.886 Y114.179 E2.5795
G1 X117.628 Y114.576 E2.59525
G1 X117.316 Y114.922 E2.61075
G1 X116.949 Y115.22 E2.62647
G1 X116.54 Y115.456 E2.64218
G1 X116.101 Y115.624 E2.65781
G1 X115.643 Y115.722 E2.67339
G1 X115.249 Y115.75 E2.68653
G1 X111.25 Y115.75 E2.81953
G1 X110.971 Y115.71 E2.82891
G1 X110.714 Y115.594 E2.83829
G1 X110.499 Y115.411 E2.84768
G1 X110.345 Y115.175 E2.85705
G1 X110.25 Y114.75 E2.87153
G1 X110.25 Y112.75 E2.93805
G1 X110.29 Y112.471 E2.94743
G1 X110.406 Y112.214 E2.95681
G1 X110.589 Y111.999 E2.9662
G1 X110.825 Y111.845 E2.97557
G1 X111.25 Y111.75 E2.99005
G1 X111.698 Y111.75 E3.00495
G1 X111.394 Y111.233 E3.0249
G1 X111.253 Y110.812 E3.03967
G1 X111.191 Y110.377 E3.05428
G1 X111.209 Y109.895 E3.07033
G1 X111.341 Y109.368 E3.0884
G1 X111.557 Y108.928 E3.1047
G1 X111.794 Y108.606 E3.118
G1 X112.159 Y108.262 E3.13468
G1 X112.177 Y108.25 E3.1354
G1 X107.334 Y108.25 E3.29648
G1 X107.895 Y108.607 E3.31859
G1 X108.233 Y108.955 E3.33473
G1 X108.538 Y109.444 E3.3539
G1 X108.701 Y109.895 E3.36985
G1 X108.779 Y110.514 E3.3906
G1 X108.7 Y111.141 E3.41162
G1 X108.553 Y111.556 E3.42626
G1 X108.45 Y111.75 E3.43357
G1 X109.029 Y111.79 E3.45287
G1 X109.286 Y111.906 E3.46225
G1 X109.501 Y112.089 E3.47164
G1 X109.655 Y112.325 E3.48101
G1 X109.75 Y112.75 E3.49549
G1 X109.75 Y114.75 E3.56202
G1 X109.71 Y115.029 E3.57139
G1 X109.594 Y115.286 E3.58077
G1 X109.411 Y115.501 E3.59016
G1 X109.175 Y115.655 E3.59953
G1 X108.75 Y115.75 E3.61402
G1 X104.751 Y115.75 E3.74702
G1 X104.203 Y115.697 E3.76533
G1 X103.751 Y115.576 E3.7809
G1 X103.318 Y115.384 E3.79665
G1 X102.923 Y115.127 E3.81233
G1 X102.576 Y114.814 E3.82787
G1 X102.278 Y114.447 E3.84359
G1 X102.043 Y114.038 E3.85928
G1 X101.874 Y113.598 E3.87496
G1 X101.778 Y113.144 E3.89039
G1 X101.75 Y112.751 E3.9035
G1 X101.75 Y107.251 E4.08643
G1 X101.802 Y106.704 E4.1047
G1 X101.923 Y106.253 E4.12023
G1 X102.114 Y105.821 E4.13594
G1 X102.19 Y105.705 E4.14056
G0 F1620 X102.372 Y105.424
G0 X102.684 Y105.078
G0 F9000 X102.944 Y105.382
G1 F1800 X103.262 Y105.119 E4.15428
G1 X103.612 Y104.913 E4.16779
G1 X103.992 Y104.765 E4.18135
G1 X104.389 Y104.677 E4.19488
G1 X104.751 Y104.65 E4.20695
G1 X115.249 Y104.65 E4.55612
G1 X115.704 Y104.692 E4.57131
G1 X116.096 Y104.793 E4.58478
G1 X116.47 Y104.955 E4.59833
G1 X116.815 Y105.175 E4.61194
G1 X117.118 Y105.444 E4.62542
G1 X117.381 Y105.762 E4.63914
G1 X117.586 Y106.112 E4.65263
G1 X117.736 Y106.491 E4.66619
G1 X117.823 Y106.888 E4.67971
G1 X117.85 Y107.249 E4.69175
G1 X117.85 Y112.749 E4.87468
G1 X117.809 Y113.203 E4.88984
G1 X117.708 Y113.595 E4.90331
G1 X117.545 Y113.97 E4.91691
G1 X117.325 Y114.315 E4.93051
G1 X117.056 Y114.618 E4.94399
G1 X116.74 Y114.879 E4.95762
G1 X116.388 Y115.087 E4.97122
G1 X116.008 Y115.235 E4.98479
G1 X115.611 Y115.323 E4.99831
G1 X115.249 Y115.35 E5.01038
G1 X111.25 Y115.35 E5.14339
G1 X111.035 Y115.31 E5.15066
G1 X110.849 Y115.197 E5.1579
G1 X110.716 Y115.024 E5.16516
G1 X110.65 Y114.75 E5.17453
G1 X110.65 Y112.75 E5.24106
G1 X110.69 Y112.535 E5.24833
G1 X110.803 Y112.349 E5.25557
G1 X110.976 Y112.216 E5.26283
G1 X111.25 Y112.15 E5.2722
G1 X112.827 Y112.15 E5.32465
G1 X112.419 Y111.914 E5.34033
G1 X112.13 Y111.65 E5.35335
G1 X111.81 Y111.183 E5.37218
G1 X111.647 Y110.74 E5.38788
G1 X111.591 Y110.378 E5.40006
G1 X111.602 Y109.968 E5.4137
G1 X111.759 Y109.399 E5.43333
G1 X112.01 Y108.971 E5.44984
G1 X112.383 Y108.593 E5.4675
G1 X112.74 Y108.364 E5.4816
G1 X113.331 Y108.171 E5.50228
G1 X113.724 Y108.14 E5.51539
G1 X114.283 Y108.227 E5.53421
G1 X114.65 Y108.374 E5.54736
G1 X114.624 Y108.129 E5.55555
G1 X114.48 Y107.931 E5.5637
G1 X114.196 Y107.85 E5.57352
G1 X105.794 Y107.85 E5.85297
G1 X105.517 Y107.934 E5.8626
G1 X105.381 Y108.12 E5.87026
G1 X105.35 Y108.638 E5.88752
G1 X105.662 Y108.511 E5.89873
G1 X106.036 Y108.432 E5.91144
G1 X106.423 Y108.422 E5.92432
G1 X107.033 Y108.554 E5.94507
G1 X107.486 Y108.797 E5.96217
G1 X107.861 Y109.134 E5.97894
G1 X108.088 Y109.446 E5.99177
G1 X108.31 Y109.98 E6.01101
G1 X108.379 Y110.534 E6.02958
G1 X108.317 Y111.023 E6.04597
G1 X108.2 Y111.368 E6.05809
G1 X108.003 Y111.718 E6.07145
G1 X107.663 Y112.095 E6.08833
G1 X107.597 Y112.15 E6.09119
G1 X108.75 Y112.15 E6.12954
G1 X108.965 Y112.19 E6.13681
G1 X109.151 Y112.303 E6.14405
G1 X109.284 Y112.476 E6.15131
G1 X109.35 Y112.75 E6.16068
G1 X109.35 Y114.75 E6.2272
G1 X109.31 Y114.965 E6.23448
G1 X109.197 Y115.151 E6.24171
G1 X109.024 Y115.284 E6.24897
G1 X108.75 Y115.35 E6.25835
G1 X104.751 Y115.35 E6.39135
G1 X104.296 Y115.308 E6.40655
G1 X103.903 Y115.207 E6.42005
G1 X103.527 Y115.043 E6.43369
G1 X103.183 Y114.823 E6.44727
G1 X102.879 Y114.553 E6.4608
G1 X102.619 Y114.238 E6.47438
G1 X102.412 Y113.886 E6.48796
G1 X102.263 Y113.505 E6.50157
G1 X102.177 Y113.112 E6.51495
G1 X102.15 Y112.751 E6.52699
G1 X102.15 Y107.251 E6.70992
G1 X102.191 Y106.797 E6.72508
G1 X102.292 Y106.405 E6.73855
G1 X102.455 Y106.03 E6.75215
G1 X102.463 Y106.018 E6.75263
G0 F1620 X102.675 Y105.685
G0 X102.944 Y105.382
G0 F9000 X103.205 Y105.685
G1 F1800 X103.471 Y105.46 E6.76421
G1 X103.765 Y105.283 E6.77563
G1 X104.085 Y105.154 E6.7871
G1 X104.42 Y105.076 E6.79854
G1 X104.751 Y105.05 E6.80959
G1 X115.249 Y105.05 E7.15875
G1 X115.611 Y105.081 E7.17084
G1 X115.944 Y105.163 E7.18224
G1 X116.261 Y105.296 E7.19368
G1 X116.555 Y105.479 E7.20519
G1 X116.815 Y105.705 E7.21665
G1 X117.04 Y105.971 E7.22824
G1 X117.217 Y106.265 E7.23965
G1 X117.347 Y106.584 E7.25111
G1 X117.424 Y106.92 E7.26258
G1 X117.45 Y107.249 E7.27355
G1 X117.449 Y112.765 E7.45702
G1 X117.42 Y113.11 E7.46853
G1 X117.338 Y113.442 E7.4799
G1 X117.204 Y113.761 E7.49141
G1 X117.021 Y114.055 E7.50293
G1 X116.795 Y114.315 E7.51439
G1 X116.531 Y114.538 E7.52588
G1 X116.235 Y114.717 E7.53739
G1 X115.915 Y114.846 E7.54886
G1 X115.58 Y114.924 E7.5603
G1 X115.249 Y114.95 E7.57135
G1 X111.25 Y114.95 E7.70435
G1 X111.131 Y114.911 E7.70852
G1 X111.05 Y114.75 E7.71451
G1 X111.05 Y112.75 E7.78103
G1 X111.089 Y112.631 E7.7852
G1 X111.25 Y112.55 E7.79119
G1 X114.239 Y112.55 E7.89061
G1 X114.496 Y112.508 E7.89927
G1 X114.722 Y112.392 E7.90772
G1 X114.898 Y112.215 E7.91602
G1 X115.004 Y112.006 E7.92381
G1 X115.05 Y111.734 E7.93299
G1 X115.05 Y108.259 E8.04857
G1 X115.008 Y108.003 E8.0572
G1 X114.892 Y107.778 E8.06562
G1 X114.715 Y107.602 E8.07392
G1 X114.506 Y107.496 E8.08171
G1 X114.234 Y107.45 E8.09089
G1 X105.761 Y107.45 E8.3727
G1 X105.504 Y107.492 E8.38136
G1 X105.278 Y107.608 E8.38981
G1 X105.102 Y107.785 E8.39811
G1 X104.996 Y107.994 E8.40591
G1 X104.95 Y108.266 E8.41508
G1 X104.95 Y111.741 E8.53066
G1 X104.991 Y111.994 E8.53919
G1 X105.108 Y112.222 E8.54771
G1 X105.283 Y112.396 E8.55592
G1 X105.496 Y112.504 E8.56386
G1 X105.766 Y112.55 E8.57297
G1 X108.75 Y112.55 E8.67222
G1 X108.869 Y112.589 E8.67638
G1 X108.95 Y112.75 E8.68238
G1 X108.95 Y114.75 E8.7489
G1 X108.911 Y114.869 E8.75306
G1 X108.75 Y114.95 E8.75906
G1 X104.735 Y114.949 E8.8926
G1 X104.389 Y114.919 E8.90415
G1 X104.056 Y114.837 E8.91556
G1 X103.736 Y114.702 E8.92711
G1 X103.444 Y114.52 E8.93855
G1 X103.183 Y114.293 E8.95006
G1 X102.96 Y114.029 E8.96155
G1 X102.782 Y113.733 E8.97304
G1 X102.652 Y113.412 E8.98456
G1 X102.576 Y113.08 E8.99588
G1 X102.55 Y112.751 E9.00686
G1 X102.551 Y107.235 E9.19032
G1 X102.58 Y106.89 E9.20184
G1 X102.662 Y106.558 E9.21321
G1 X102.754 Y106.34 E9.22108
G0 F1620 X102.796 Y106.239
G0 X102.979 Y105.945
G0 X103.205 Y105.685
G0 F9000 X102.851 Y105.381
G0 X102.374 Y106.04
G0 X102.117 Y106.833
G0 X102.117 Y113.167
G0 X102.374 Y113.96
G0 X102.865 Y114.635
G0 X103.54 Y115.126
G0 X104.333 Y115.383
G0 X109.403 Y115.403
G0 X109.403 Y112.097
G0 X105.389 Y109.087
G1 F1800 X105.755 Y108.9 E9.23475
G1 X106.058 Y108.831 E9.24509
G1 X106.327 Y108.816 E9.25405
G1 X106.704 Y108.869 E9.26671
G1 X106.948 Y108.95 E9.27526
G1 X107.407 Y109.241 E9.29334
G1 X107.733 Y109.63 E9.31022
G1 X107.919 Y110.065 E9.32596
G1 X107.978 Y110.589 E9.34349
G1 X107.861 Y111.145 E9.36239
G1 X107.688 Y111.472 E9.3747
G1 X107.365 Y111.823 E9.39056
G1 X106.974 Y112.066 E9.40587
G1 X106.717 Y112.15 E9.41487
G1 X105.845 Y112.15 E9.44387
G1 X105.563 Y112.056 E9.45376
G1 X105.46 Y111.966 E9.4583
G1 X105.35 Y111.716 E9.46739
G1 X105.35 Y109.793 E9.53135
G0 F1620 X105.35 Y109.206
G0 X105.389 Y109.087
G0 F9000 X105.75 Y109.33
G1 F1800 X106.223 Y109.216 E9.54753
G1 X106.643 Y109.266 E9.5616
G1 X107.008 Y109.438 E9.57502
G1 X107.271 Y109.673 E9.58675
G1 X107.471 Y109.993 E9.5993
G1 X107.578 Y110.417 E9.61385
G1 X107.547 Y110.812 E9.62702
G1 X107.411 Y111.159 E9.63942
G1 X107.19 Y111.444 E9.65141
G1 X106.886 Y111.665 E9.66391
G1 X106.686 Y111.75 E9.67114
G1 X105.867 Y111.749 E9.69838
G1 X105.75 Y111.702 E9.70258
G1 X105.75 Y109.85 E9.76417
G0 F1620 X105.75 Y109.33
G0 F9000 X106.15 Y109.626
G1 F1800 X106.313 Y109.616 E9.76961
G1 X106.658 Y109.697 E9.78139
G1 X106.922 Y109.884 E9.79215
G1 X107.103 Y110.15 E9.80285
G1 X107.178 Y110.438 E9.81275
G1 X107.135 Y110.798 E9.82481
G1 X106.963 Y111.103 E9.83646
G1 X106.697 Y111.312 E9.84771
G1 X106.613 Y111.35 E9.85078
G1 X106.15 Y111.35 E9.86617
G1 X106.15 Y109.968 E9.91214
G0 F1620 X106.15 Y109.626
G0 F9000 X106.55 Y110.095
G1 F1800 X106.716 Y110.27 E9.92016
G1 X106.779 Y110.466 E9.92701
G1 X106.743 Y110.706 E9.93508
G1 X106.605 Y110.895 E9.94287
G1 X106.55 Y110.935 E9.94513
G1 X106.55 Y110.212 E9.96917
G0 F1620 X106.55 Y110.095
G0 F9000 X112.221 Y109.374
G1 F1800 X112.577 Y108.95 E9.98759
G1 X112.901 Y108.73 E10.00061
G1 X113.428 Y108.559 E10.01904
G1 X113.698 Y108.539 E10.02805
G1 X114.195 Y108.617 E10.04478
G1 X114.545 Y108.773 E10.05752
G1 X114.631 Y108.864 E10.06169
G1 X114.65 Y108.949 E10.06459
G1 X114.65 Y111.527 E10.15033
G1 X114.611 Y111.646 E10.1545
G1 X114.311 Y111.818 E10.166
G1 X113.888 Y111.926 E10.18052
G1 X113.367 Y111.908 E10.19786
G1 X112.853 Y111.721 E10.21605
G1 X112.442 Y111.399 E10.23341
G1 X112.157 Y110.984 E10.25016
G1 X112.04 Y110.668 E10.26137
G1 X111.991 Y110.379 E10.27112
G1 X112.018 Y110.045 E10.28226
G0 F1620 X112.034 Y109.832
G0 X112.221 Y109.374
G0 F9000 X112.515 Y109.669
G1 F1800 X112.776 Y109.309 E10.29705
G1 X113.073 Y109.091 E10.3093
G1 X113.497 Y108.952 E10.32414
G1 X113.853 Y108.95 E10.33599
G1 X114.25 Y109.069 E10.34977
G1 X114.25 Y111.408 E10.42757
G1 X113.819 Y111.533 E10.44249
G1 X113.38 Y111.502 E10.45713
G1 X113.037 Y111.367 E10.46939
G1 X112.745 Y111.138 E10.48173
G1 X112.514 Y110.803 E10.49527
G1 X112.397 Y110.417 E10.50868
G1 X112.4 Y110.179 E10.5166
G0 F1620 X112.402 Y110.019
G0 X112.515 Y109.669
G0 F9000 X112.868 Y109.859
G1 F1800 X113.055 Y109.595 E10.52736
G1 X113.314 Y109.419 E10.53777
G1 X113.466 Y109.365 E10.54314
G1 X113.798 Y109.346 E10.5542
G1 X113.85 Y109.356 E10.55596
G1 X113.85 Y111.122 E10.6147
G1 X113.519 Y111.123 E10.62571
G1 X113.239 Y111.021 E10.63562
G1 X112.997 Y110.821 E10.64606
G1 X112.83 Y110.52 E10.65751
G1 X112.785 Y110.207 E10.66803
G1 X112.79 Y110.189 E10.66865
G0 F1620 X112.868 Y109.859
G0 F9000 X113.208 Y110.085
G1 F1800 X113.359 Y109.86 E10.67766
G1 X113.45 Y109.798 E10.68132
G1 X113.45 Y110.681 E10.71069
G1 X113.312 Y110.573 E10.71652
G1 X113.195 Y110.34 E10.72519
G1 X113.202 Y110.209 E10.72955
G0 F1620 X113.208 Y110.085
;MESH:cable_support_usb_c.STL
G0 F9000 X111.094 Y111.714
G0 X109.415 Y113.164
G0 X108.336 Y113.164
G0 X108.25 Y114.28
G0 X108.55 Y114.55
;TYPE:WALL-OUTER
G1 F1800 X104.753 Y114.55 E10.85584
G1 X104.19 Y114.46 E10.87481
G1 X103.691 Y114.205 E10.89344
G1 X103.295 Y113.809 E10.91207
G1 X103.04 Y113.31 E10.93071
G1 X102.95 Y112.75 E10.94957
G1 X102.95 Y107.25 E11.1325
G1 X103.04 Y106.69 E11.15137
G1 X103.295 Y106.191 E11.17001
G1 X103.691 Y105.795 E11.18863
G1 X104.19 Y105.54 E11.20727
G1 X104.753 Y105.45 E11.22624
G1 X115.247 Y105.45 E11.57527
G1 X115.81 Y105.54 E11.59423
G1 X116.309 Y105.795 E11.61287
G1 X116.705 Y106.191 E11.6315
G1 X116.96 Y106.69 E11.65013
G1 X117.05 Y107.25 E11.669
G1 X117.05 Y112.75 E11.85193
G1 X116.96 Y113.31 E11.87079
G1 X116.705 Y113.809 E11.88943
G1 X116.309 Y114.205 E11.90806
G1 X115.81 Y114.46 E11.9267
G1 X115.247 Y114.55 E11.94566
G1 X111.45 Y114.55 E12.07195
G1 X111.45 Y112.95 E12.12517
G1 X114.261 Y112.95 E12.21866
G1 X114.625 Y112.89 E12.23093
G1 X114.958 Y112.719 E12.24338
G1 X115.223 Y112.453 E12.25587
G1 X115.392 Y112.118 E12.26835
G1 X115.45 Y111.758 E12.28048
G1 X115.45 Y108.239 E12.39752
G1 X115.39 Y107.875 E12.40979
G1 X115.219 Y107.542 E12.42224
G1 X114.953 Y107.277 E12.43473
G1 X114.618 Y107.108 E12.44721
G1 X114.258 Y107.05 E12.45934
G1 X105.739 Y107.05 E12.74268
G1 X105.375 Y107.11 E12.75495
