;FLAVOR:Marlin
;TIME:1691
;Filament used: 0.566631m
;Layer height: 0.16
;MINX:103.406
;MINY:101.933
;MINZ:0.2
;MAXX:115.996
;MAXY:118.068
;MAXZ:33.68
;Generated with Cura_SteamEngine 4.10.0
M82 ;absolute extrusion mode
M201 X500.00 Y500.00 Z100.00 E5000.00 ;Setup machine max acceleration
M203 X500.00 Y500.00 Z10.00 E50.00 ;Setup machine max feedrate
M204 P500.00 R1000.00 T500.00 ;Setup Print/Retract/Travel acceleration
M205 X8.00 Y8.00 Z0.40 E5.00 ;Setup Jerk
M220 S100 ;Reset Feedrate
M221 S100 ;Reset Flowrate

;*** Start Dual Nozzle/Bed Preheating ***
M140 S50 ; start preheating the bed
M104 S195 ?T0 ; start preheating hotend
M190 S50 ; heat to Cura Bed setting and WAIT
M109 S195 ?T0 ; heat to Cura Hotend and WAIT
;*** End Preheating ***

;*** Single Print Start Tone
M300 S1000 P500 ; chirp to indicate starting to print
;*** End Single Start Tone

G28 ;Home

G92 E0 ;Reset Extruder
G1 Z2.0 F3000 ;Move Z Axis up

G1 X10.1 Y20 Z0.28 F5000.0 ;Move to start position
G1 X10.1 Y200.0 Z0.28 F1500.0 E15 ;Draw the first line
G1 X10.4 Y200.0 Z0.28 F5000.0 ;Move to side a little
G1 X10.4 Y20 Z0.28 F1500.0 E30 ;Draw the second line
G92 E0 ;Reset Extruder
G1 Z2.0 F3000 ;Move Z Axis up
G92 E0
G92 E0
G1 F2400 E-4
;LAYER_COUNT:175
;LAYER:0
M106 S63.8
M204 S500
M205 X6 Y6
G0 F9000 X105.4 Y103.823 Z0.2
;TYPE:SKIRT
G1 F1440 E0
G1 F1800 X105.902 Y103.371 E0.02247
G1 X106.403 Y103.012 E0.04297
G1 X106.831 Y102.751 E0.05964
G1 X107.291 Y102.518 E0.07679
G1 X108.11 Y102.214 E0.10585
G1 X108.757 Y102.06 E0.12797
G1 X109.414 Y101.957 E0.15009
G1 X109.864 Y101.933 E0.16507
G1 X110.375 Y101.942 E0.18207
G1 X110.927 Y101.99 E0.2005
G1 X111.437 Y102.09 E0.21779
G1 X111.574 Y102.124 E0.22248
G1 X112.123 Y102.28 E0.24147
G1 X112.694 Y102.499 E0.26181
G1 X112.87 Y102.582 E0.26828
G1 X113.342 Y102.835 E0.28609
G1 X113.816 Y103.131 E0.30468
G1 X114.204 Y103.424 E0.32085
G1 X114.806 Y103.984 E0.34819
G1 X115.007 Y104.209 E0.35823
G1 X115.362 Y104.678 E0.37779
G1 X115.797 Y105.345 E0.40428
G1 X115.943 Y105.907 E0.42359
G1 X115.985 Y106.645 E0.44818
G1 X115.876 Y107.163 E0.46578
G1 X115.744 Y107.518 E0.47838
G1 X115.54 Y107.837 E0.49097
G1 X115.273 Y108.107 E0.5036
G1 X114.956 Y108.315 E0.51621
G1 X114.603 Y108.452 E0.52881
G1 X114.092 Y108.508 E0.54591
G1 X113.005 Y108.515 E0.58206
G1 X112.459 Y108.535 E0.60023
G1 X112.081 Y108.509 E0.61283
G1 X111.717 Y108.404 E0.62543
G1 X111.226 Y108.106 E0.64454
G1 X111.14 Y108.031 E0.64833
G1 X110.628 Y107.554 E0.67161
G1 X110.267 Y107.405 E0.6846
G1 X109.855 Y107.391 E0.69831
G1 X109.461 Y107.523 E0.71213
G1 X109.145 Y107.777 E0.72561
G1 X108.943 Y108.118 E0.7388
G1 X108.838 Y108.703 E0.75856
G1 X108.838 Y111.322 E0.84567
G1 X108.936 Y111.867 E0.86409
G1 X109.146 Y112.223 E0.87784
G1 X109.449 Y112.469 E0.89082
G1 X109.844 Y112.605 E0.90471
G1 X110.272 Y112.593 E0.91895
G1 X110.625 Y112.452 E0.9316
G1 X111.166 Y111.955 E0.95603
G1 X111.472 Y111.731 E0.96864
G1 X111.818 Y111.577 E0.98124
G1 X112.279 Y111.485 E0.99687
G1 X112.549 Y111.47 E1.00587
G1 X113.498 Y111.489 E1.03744
G1 X114.174 Y111.494 E1.05992
G1 X114.55 Y111.543 E1.07253
G1 X114.907 Y111.669 E1.08513
G1 X115.23 Y111.867 E1.09773
G1 X115.505 Y112.128 E1.11034
G1 X115.718 Y112.441 E1.12293
G1 X115.947 Y113.134 E1.1472
G1 X115.996 Y113.671 E1.16514
G1 X115.917 Y114.299 E1.18619
G1 X115.745 Y114.765 E1.20271
G1 X115.592 Y115.007 E1.21224
G1 X115.259 Y115.451 E1.2307
G1 X114.787 Y116.036 E1.2557
G1 X114.214 Y116.567 E1.28168
G1 X113.812 Y116.875 E1.29852
G1 X113.349 Y117.164 E1.31668
G1 X112.875 Y117.42 E1.33459
G1 X112.303 Y117.662 E1.35525
G1 X112.124 Y117.723 E1.36154
G1 X111.575 Y117.879 E1.38052
G1 X110.917 Y118.01 E1.40284
G1 X110.387 Y118.061 E1.42055
G1 X109.857 Y118.068 E1.43818
G1 X109.185 Y118.017 E1.46059
G1 X108.418 Y117.873 E1.48655
G1 X107.914 Y117.725 E1.50402
G1 X107.304 Y117.489 E1.52577
G1 X106.823 Y117.247 E1.54368
G1 X106.123 Y116.805 E1.57122
G1 X105.5 Y116.279 E1.59834
G1 X105.404 Y116.185 E1.6028
G1 X105.02 Y115.782 E1.62132
G1 X104.636 Y115.294 E1.64197
G1 X104.33 Y114.832 E1.6604
G1 X103.985 Y114.158 E1.68559
G1 X103.895 Y113.94 E1.69343
G1 X103.716 Y113.416 E1.71185
G1 X103.574 Y112.925 E1.72885
G1 X103.516 Y112.631 E1.73882
G1 X103.451 Y112.045 E1.75843
G1 X103.406 Y111.465 E1.77777
G1 X103.406 Y108.54 E1.87506
G1 X103.416 Y108.349 E1.88142
G1 X103.475 Y107.797 E1.89989
G1 X103.575 Y107.07 E1.92429
G1 X103.714 Y106.597 E1.94069
G1 X103.89 Y106.073 E1.95908
G1 X104.133 Y105.566 E1.97778
G1 X104.427 Y105.013 E1.99861
G1 X104.862 Y104.415 E2.0232
G0 F1620 X104.895 Y104.369
G0 X105.019 Y104.225
G0 X105.4 Y103.823
G0 F9000 X105.69 Y104.098
G1 F1800 X106.17 Y103.668 E2.04464
G1 X106.626 Y103.345 E2.06322
G1 X107.145 Y103.035 E2.08333
G1 X107.643 Y102.805 E2.10157
G1 X108.25 Y102.588 E2.12301
G1 X108.837 Y102.452 E2.14305
G1 X109.44 Y102.356 E2.16336
G1 X109.859 Y102.333 E2.17732
G1 X110.662 Y102.361 E2.20404
G1 X111.358 Y102.483 E2.22755
G1 X111.465 Y102.508 E2.2312
G1 X112.014 Y102.664 E2.25018
G1 X112.544 Y102.87 E2.2691
G1 X112.681 Y102.934 E2.27412
G1 X113.153 Y103.187 E2.29194
G1 X113.6 Y103.468 E2.3095
G1 X114.215 Y103.978 E2.33607
G1 X114.688 Y104.45 E2.3583
G1 X115.038 Y104.913 E2.3776
G1 X115.447 Y105.544 E2.40261
G1 X115.567 Y106.184 E2.42427
G1 X115.583 Y106.648 E2.43971
G1 X115.489 Y107.063 E2.45386
G1 X115.367 Y107.374 E2.46497
G1 X115.176 Y107.648 E2.47608
G1 X114.925 Y107.869 E2.48721
G1 X114.629 Y108.023 E2.4983
G1 X114.305 Y108.103 E2.5094
G1 X114.051 Y108.112 E2.51786
G1 X112.989 Y108.115 E2.55318
G1 X112.445 Y108.135 E2.57128
G1 X112.112 Y108.107 E2.5824
G1 X111.795 Y108.002 E2.59351
G1 X111.412 Y107.738 E2.60898
G1 X110.847 Y107.212 E2.63465
G1 X110.352 Y107.008 E2.65246
G1 X109.799 Y106.988 E2.67087
G1 X109.261 Y107.168 E2.68973
G1 X108.84 Y107.509 E2.70775
G1 X108.561 Y107.978 E2.7259
G1 X108.438 Y108.665 E2.74912
G1 X108.438 Y111.349 E2.83839
G1 X108.556 Y112.01 E2.86072
G1 X108.839 Y112.49 E2.87925
G1 X109.251 Y112.825 E2.89691
G1 X109.781 Y113.007 E2.91555
G1 X110.353 Y112.991 E2.93458
G1 X110.844 Y112.795 E2.95217
G1 X111.435 Y112.251 E2.97888
G1 X111.708 Y112.058 E2.99
G1 X112.194 Y111.9 E3.007
G1 X112.541 Y111.87 E3.01859
G1 X113.492 Y111.889 E3.05022
G1 X114.165 Y111.894 E3.07261
G1 X114.496 Y111.942 E3.08373
G1 X114.806 Y112.066 E3.09484
G1 X115.077 Y112.26 E3.10592
G1 X115.295 Y112.514 E3.11705
G1 X115.493 Y112.96 E3.13329
G1 X115.559 Y113.229 E3.1425
G1 X115.581 Y113.897 E3.16473
G1 X115.5 Y114.305 E3.17856
G1 X115.272 Y114.767 E3.1957
G1 X114.939 Y115.211 E3.21416
G1 X114.517 Y115.741 E3.23669
G1 X113.941 Y116.275 E3.26281
G1 X113.246 Y116.761 E3.29102
G1 X113.159 Y116.812 E3.29438
G1 X112.685 Y117.068 E3.31229
G1 X112.154 Y117.291 E3.33145
G1 X112.015 Y117.339 E3.33634
G1 X111.466 Y117.495 E3.35532
G1 X110.841 Y117.617 E3.3765
G1 X110.271 Y117.665 E3.39553
G1 X109.768 Y117.666 E3.41226
G1 X109.262 Y117.625 E3.42914
G1 X108.49 Y117.479 E3.45527
G1 X107.978 Y117.324 E3.47307
G1 X107.478 Y117.128 E3.49093
G1 X106.676 Y116.688 E3.52135
G1 X106.217 Y116.378 E3.53978
G1 X105.769 Y115.982 E3.55966
G1 X105.693 Y115.909 E3.56317
G1 X105.309 Y115.506 E3.58168
G1 X104.955 Y115.052 E3.60083
G1 X104.549 Y114.392 E3.6266
G1 X104.273 Y113.811 E3.648
G1 X104.094 Y113.287 E3.66641
G1 X103.913 Y112.587 E3.69046
G1 X103.85 Y112.008 E3.70983
G1 X103.806 Y111.465 E3.72795
G1 X103.806 Y108.54 E3.82524
G1 X103.814 Y108.391 E3.8302
G1 X103.873 Y107.839 E3.84867
G1 X103.96 Y107.181 E3.87074
G1 X104.093 Y106.724 E3.88657
G1 X104.269 Y106.2 E3.90496
G1 X104.669 Y105.39 E3.935
G1 X104.959 Y104.944 E3.9527
G1 X105.156 Y104.694 E3.96328
G0 F1620 X105.309 Y104.5
G0 X105.69 Y104.098
G0 F9000 X105.98 Y104.373
G1 F1800 X106.438 Y103.965 E3.98368
G1 X106.849 Y103.677 E4.00038
G1 X107.321 Y103.394 E4.01868
G1 X108.008 Y103.106 E4.04346
G1 X108.541 Y102.92 E4.06223
G1 X109.36 Y102.767 E4.08994
G1 X110.272 Y102.738 E4.12029
G1 X110.813 Y102.782 E4.13835
G1 X111.355 Y102.893 E4.15675
G1 X111.904 Y103.049 E4.17573
G1 X112.394 Y103.241 E4.19323
G1 X112.492 Y103.287 E4.19684
G1 X112.964 Y103.54 E4.21465
G1 X113.429 Y103.835 E4.23296
G1 X113.944 Y104.272 E4.25543
G1 X114.369 Y104.692 E4.2753
G1 X114.714 Y105.148 E4.29432
G1 X115.092 Y105.736 E4.31757
G1 X115.171 Y106.233 E4.33431
G1 X115.161 Y106.73 E4.35084
G1 X114.993 Y107.224 E4.36819
G1 X114.817 Y107.444 E4.37757
G1 X114.585 Y107.606 E4.38698
G1 X114.318 Y107.697 E4.39636
G1 X114.068 Y107.712 E4.40469
G1 X112.973 Y107.715 E4.44111
G1 X112.43 Y107.735 E4.45918
G1 X112.149 Y107.706 E4.46858
G1 X111.745 Y107.497 E4.48371
G1 X111.685 Y107.445 E4.48635
G1 X111.067 Y106.87 E4.51442
G1 X110.448 Y106.614 E4.5367
G1 X110.427 Y106.61 E4.53741
G1 X109.74 Y106.586 E4.56028
G1 X109.088 Y106.803 E4.58313
G1 X109.058 Y106.818 E4.58425
G1 X108.542 Y107.235 E4.60631
G1 X108.52 Y107.263 E4.6075
G1 X108.182 Y107.833 E4.62954
G1 X108.174 Y107.869 E4.63076
G1 X108.038 Y108.629 E4.65644
G1 X108.038 Y111.384 E4.74808
G1 X108.175 Y112.152 E4.77402
G1 X108.53 Y112.753 E4.79724
G1 X109.052 Y113.178 E4.81963
G1 X109.07 Y113.186 E4.82028
G1 X109.718 Y113.408 E4.84306
G1 X110.439 Y113.388 E4.86705
G1 X111.059 Y113.14 E4.88926
G1 X111.477 Y112.753 E4.90821
G1 X111.938 Y112.389 E4.92775
G1 X112.383 Y112.279 E4.94299
G1 X112.533 Y112.27 E4.94799
G1 X113.486 Y112.289 E4.97969
G1 X114.156 Y112.294 E5.00198
G1 X114.434 Y112.34 E5.01135
G1 X114.688 Y112.462 E5.02072
G1 X114.899 Y112.651 E5.03014
G1 X115.104 Y113.056 E5.04524
G1 X115.197 Y113.623 E5.06435
G1 X115.147 Y114.083 E5.07974
G1 X114.952 Y114.527 E5.09587
G1 X114.619 Y114.971 E5.11433
G1 X114.247 Y115.446 E5.1344
G1 X113.667 Y115.983 E5.16069
G1 X113.031 Y116.424 E5.18643
G1 X112.969 Y116.46 E5.18881
G1 X112.495 Y116.716 E5.20673
G1 X112.005 Y116.92 E5.22438
G1 X111.905 Y116.954 E5.2279
G1 X111.356 Y117.11 E5.24688
G1 X110.765 Y117.225 E5.26691
G1 X109.851 Y117.268 E5.29734
G1 X109.339 Y117.232 E5.31441
G1 X108.561 Y117.086 E5.34074
G1 X107.73 Y116.802 E5.36995
G1 X107.241 Y116.565 E5.38802
G1 X106.561 Y116.136 E5.41476
G1 X106.037 Y115.685 E5.43776
G1 X105.983 Y115.633 E5.44025
G1 X105.599 Y115.23 E5.45876
G1 X105.274 Y114.811 E5.4764
G1 X104.902 Y114.204 E5.50008
G1 X104.652 Y113.681 E5.51936
G1 X104.457 Y113.107 E5.53952
G1 X104.311 Y112.543 E5.5589
G1 X104.248 Y111.972 E5.57801
G1 X104.206 Y111.465 E5.59493
G1 X104.206 Y108.54 E5.69221
G1 X104.212 Y108.434 E5.69575
G1 X104.271 Y107.882 E5.71421
G1 X104.344 Y107.292 E5.73398
G1 X104.472 Y106.852 E5.74922
G1 X104.648 Y106.328 E5.76761
G1 X105.027 Y105.57 E5.7958
G1 X105.449 Y104.971 E5.82017
G0 F1620 X105.531 Y104.855
G0 X105.599 Y104.775
G0 X105.98 Y104.373
G0 F9000 X106.271 Y104.648
G1 F1800 X106.706 Y104.262 E5.83951
G1 X107.452 Y103.778 E5.86909
G1 X107.895 Y103.565 E5.88543
G1 X108.53 Y103.338 E5.90786
G1 X109.428 Y103.162 E5.9383
G1 X109.849 Y103.133 E5.95234
G1 X110.611 Y103.159 E5.97769
G1 X111.2 Y103.267 E5.99761
G1 X111.246 Y103.278 E5.99918
G1 X111.795 Y103.434 E6.01817
G1 X112.303 Y103.639 E6.03639
G1 X112.775 Y103.892 E6.0542
G1 X113.334 Y104.26 E6.07646
G1 X113.983 Y104.858 E6.10581
G1 X114.05 Y104.933 E6.10916
G1 X114.391 Y105.383 E6.12793
G1 X114.637 Y105.722 E6.14187
G1 X114.748 Y106.018 E6.15238
G1 X114.774 Y106.631 E6.17279
G1 X114.622 Y107.061 E6.18796
G1 X114.466 Y107.213 E6.1952
G1 X114.265 Y107.299 E6.20247
G1 X114.084 Y107.312 E6.20851
G1 X112.985 Y107.315 E6.24506
G1 X112.415 Y107.336 E6.26403
G1 X112.199 Y107.304 E6.27129
G1 X111.957 Y107.152 E6.2808
G1 X111.288 Y106.529 E6.3112
G1 X110.565 Y106.231 E6.33721
G1 X110.475 Y106.212 E6.34027
G1 X109.679 Y106.185 E6.36676
G1 X108.938 Y106.432 E6.39274
G1 X108.841 Y106.481 E6.39636
G1 X108.254 Y106.954 E6.42143
G1 X108.191 Y107.034 E6.42482
G1 X107.807 Y107.682 E6.44987
G1 X107.784 Y107.785 E6.45338
G1 X107.638 Y108.597 E6.48082
G1 X107.638 Y111.417 E6.57461
G1 X107.656 Y111.527 E6.57832
G1 X107.792 Y112.285 E6.60393
G1 X107.824 Y112.343 E6.60614
G1 X108.219 Y113.014 E6.63204
G1 X108.845 Y113.525 E6.65891
G1 X108.928 Y113.559 E6.6619
G1 X109.654 Y113.808 E6.68742
G1 X109.721 Y113.808 E6.68965
G1 X110.52 Y113.786 E6.71624
G1 X111.254 Y113.493 E6.74252
G1 X111.303 Y113.459 E6.74451
G1 X111.746 Y113.05 E6.76456
G1 X112.158 Y112.729 E6.78193
G1 X112.525 Y112.67 E6.79429
G1 X113.481 Y112.689 E6.8261
G1 X114.147 Y112.694 E6.84825
G1 X114.36 Y112.739 E6.85549
G1 X114.544 Y112.857 E6.86276
G1 X114.716 Y113.151 E6.87409
G1 X114.798 Y113.599 E6.88924
G1 X114.73 Y114.089 E6.90569
G1 X114.632 Y114.287 E6.91304
G1 X114.299 Y114.731 E6.9315
G1 X113.977 Y115.151 E6.9491
G1 X113.393 Y115.692 E6.97558
G1 X112.816 Y116.086 E6.99882
G1 X112.779 Y116.108 E7.00025
G1 X112.305 Y116.364 E7.01817
G1 X111.796 Y116.569 E7.03642
G1 X111.247 Y116.725 E7.0554
G1 X110.688 Y116.832 E7.07433
G1 X109.848 Y116.868 E7.10229
G1 X109.416 Y116.84 E7.11669
G1 X108.633 Y116.692 E7.1432
G1 X107.872 Y116.428 E7.16999
G1 X107.094 Y116.006 E7.19942
G1 X106.635 Y115.686 E7.21803
G1 X106.273 Y115.357 E7.2343
G1 X105.889 Y114.954 E7.25282
G1 X105.578 Y114.548 E7.26983
G1 X105.255 Y114.016 E7.29053
G1 X105.03 Y113.552 E7.30768
G1 X104.842 Y112.998 E7.32714
G1 X104.709 Y112.499 E7.34432
G1 X104.646 Y111.936 E7.36316
G1 X104.606 Y111.465 E7.37888
G1 X104.606 Y108.54 E7.47617
G1 X104.609 Y108.476 E7.4783
G1 X104.669 Y107.924 E7.49676
G1 X104.728 Y107.403 E7.5142
G1 X104.851 Y106.979 E7.52889
G1 X105.027 Y106.455 E7.54727
G1 X105.384 Y105.75 E7.57356
G1 X105.742 Y105.247 E7.59409
G0 F1620 X105.848 Y105.098
G0 X105.89 Y105.05
G0 X106.271 Y104.648
G0 F9000 X106.561 Y104.923
G1 F1800 X106.974 Y104.559 E7.6124
G1 X107.659 Y104.121 E7.63944
G1 X108.286 Y103.856 E7.66208
G1 X108.67 Y103.713 E7.67571
G1 X109.495 Y103.556 E7.70364
G1 X110.262 Y103.538 E7.72916
G1 X110.709 Y103.576 E7.74408
G1 X111.137 Y103.663 E7.75861
G1 X111.706 Y103.826 E7.7783
G1 X112.114 Y103.992 E7.79295
G1 X112.6 Y104.253 E7.81129
G1 X113.101 Y104.585 E7.83128
G1 X113.709 Y105.149 E7.85887
G1 X113.731 Y105.174 E7.85997
G1 X114.067 Y105.618 E7.87849
G1 X114.35 Y106.055 E7.89581
G1 X114.387 Y106.531 E7.91169
G1 X114.327 Y106.764 E7.91969
G1 X114.259 Y106.869 E7.92385
G1 X114.079 Y106.912 E7.93001
G1 X112.97 Y106.915 E7.96689
G1 X112.4 Y106.936 E7.98586
G1 X112.23 Y106.859 E7.99207
G1 X111.525 Y106.202 E8.02412
G1 X111.471 Y106.171 E8.02619
G1 X110.683 Y105.847 E8.05453
G1 X110.523 Y105.813 E8.05997
G1 X109.673 Y105.784 E8.08826
G1 X109.591 Y105.793 E8.091
G1 X108.782 Y106.063 E8.11937
G1 X108.626 Y106.14 E8.12516
G1 X107.965 Y106.674 E8.15342
G1 X107.861 Y106.806 E8.15901
G1 X107.429 Y107.535 E8.18719
G1 X107.39 Y107.71 E8.19316
G1 X107.238 Y108.559 E8.22184
G1 X107.238 Y111.451 E8.31803
G1 X107.261 Y111.589 E8.32269
G1 X107.411 Y112.421 E8.3508
G1 X107.473 Y112.535 E8.35512
G1 X107.902 Y113.264 E8.38325
G1 X107.986 Y113.343 E8.38709
G1 X108.637 Y113.872 E8.41499
G1 X108.791 Y113.936 E8.42054
G1 X109.585 Y114.208 E8.44845
G1 X109.732 Y114.208 E8.45334
G1 X110.587 Y114.185 E8.48179
G1 X110.655 Y114.163 E8.48416
G1 X111.441 Y113.848 E8.51233
G1 X111.553 Y113.773 E8.51681
G1 X112.015 Y113.346 E8.53774
G1 X112.242 Y113.14 E8.54793
G1 X112.517 Y113.07 E8.55737
G1 X113.475 Y113.089 E8.58924
G1 X114.138 Y113.094 E8.61129
G1 X114.255 Y113.136 E8.61543
G1 X114.327 Y113.246 E8.6198
G1 X114.399 Y113.575 E8.631
G1 X114.345 Y113.981 E8.64462
G1 X114.312 Y114.047 E8.64708
G1 X113.979 Y114.491 E8.66554
G1 X113.707 Y114.856 E8.68068
G1 X113.102 Y115.414 E8.70805
G1 X112.601 Y115.749 E8.7281
G1 X112.095 Y116.022 E8.74722
G1 X111.687 Y116.184 E8.76182
G1 X111.114 Y116.346 E8.78162
G1 X110.612 Y116.439 E8.7986
G1 X109.845 Y116.468 E8.82413
G1 X109.493 Y116.447 E8.83586
G1 X108.704 Y116.299 E8.86256
G1 X108.014 Y116.054 E8.88691
G1 X107.303 Y115.665 E8.91387
G1 X106.89 Y115.377 E8.93062
G1 X106.562 Y115.081 E8.94531
G1 X106.163 Y114.661 E8.96458
G1 X105.753 Y114.097 E8.98777
G1 X105.419 Y113.447 E9.01208
G1 X105.409 Y113.423 E9.01294
G1 X105.227 Y112.889 E9.03171
G1 X105.106 Y112.455 E9.04669
G1 X105.045 Y111.899 E9.0653
G1 X105.006 Y111.465 E9.07979
G1 X105.007 Y108.519 E9.17777
G1 X105.066 Y107.967 E9.19624
