;FLAVOR:Marlin
;TIME:2039
;Filament used: 0.467044m
;Layer height: 0.16
;MINX:100.057
;MINY:98.747
;MINZ:0.16
;MAXX:119.415
;MAXY:121.252
;MAXZ:29.88
;Generated with Cura_SteamEngine 4.10.0
M82 ;absolute extrusion mode
M201 X500.00 Y500.00 Z100.00 E5000.00 ;Setup machine max acceleration
M203 X500.00 Y500.00 Z10.00 E50.00 ;Setup machine max feedrate
M204 P500.00 R1000.00 T500.00 ;Setup Print/Retract/Travel acceleration
M205 X8.00 Y8.00 Z0.40 E5.00 ;Setup Jerk
M220 S100 ;Reset Feedrate
M221 S100 ;Reset Flowrate

;*** Start Dual Nozzle/Bed Preheating ***
M140 S70 ; start preheating the bed
M104 S200 ?T0 ; start preheating hotend
M190 S70 ; heat to Cura Bed setting and WAIT
M109 S200 ?T0 ; heat to Cura Hotend and WAIT
;*** End Preheating ***

;*** Single Print Start Tone
M300 S1000 P500 ; chirp to indicate starting to print
;*** End Single Start Tone

G28 ;Home

G92 E0 ;Reset Extruder
G1 Z2.0 F3000 ;Move Z Axis up

G1 X10.1 Y20 Z0.28 F5000.0 ;Move to start position
G1 X10.1 Y200.0 Z0.28 F1500.0 E15 ;Draw the first line
G1 X10.4 Y200.0 Z0.28 F5000.0 ;Move to side a little
G1 X10.4 Y20 Z0.28 F1500.0 E30 ;Draw the second line
G92 E0 ;Reset Extruder
G1 Z2.0 F3000 ;Move Z Axis up
G92 E0
G92 E0
;LAYER_COUNT:156
;LAYER:0
M107
G0 F6000 X102.959 Y101.691 Z0.16
;TYPE:SKIRT
G1 F3000 X103.381 Y101.298 E0.02785
G1 X103.627 Y101.073 E0.04395
G1 X104.265 Y100.576 E0.08301
G1 X104.778 Y100.24 E0.11262
G1 X105.492 Y99.833 E0.15231
G1 X105.801 Y99.681 E0.16894
G1 X106.534 Y99.382 E0.20717
G1 X106.883 Y99.258 E0.22506
G1 X107.754 Y99.008 E0.26882
G1 X108.278 Y98.905 E0.29461
G1 X108.609 Y98.848 E0.31083
G1 X109.237 Y98.775 E0.34137
G1 X109.946 Y98.747 E0.37563
G1 X110.572 Y98.762 E0.40587
G1 X111.31 Y98.826 E0.44165
G1 X112.066 Y98.963 E0.47875
G1 X112.486 Y99.065 E0.49963
G1 X113.013 Y99.214 E0.52607
G1 X113.596 Y99.414 E0.55584
G1 X113.908 Y99.54 E0.57209
G1 X114.473 Y99.805 E0.60223
G1 X114.925 Y100.048 E0.62701
G1 X115.58 Y100.447 E0.66405
G1 X115.978 Y100.723 E0.68744
G1 X116.491 Y101.141 E0.7194
G1 X117.069 Y101.678 E0.7575
G1 X117.71 Y102.393 E0.80387
G1 X118.097 Y102.908 E0.83499
G1 X118.293 Y103.179 E0.85114
G1 X118.655 Y103.748 E0.88371
G1 X118.948 Y104.356 E0.9163
G1 X119.166 Y104.995 E0.94891
G1 X119.308 Y105.655 E0.98151
G1 X119.372 Y106.238 E1.00983
G1 X119.395 Y106.912 E1.0424
G1 X119.333 Y107.663 E1.0788
G1 X119.222 Y108.329 E1.1114
G1 X119.032 Y108.976 E1.14397
G1 X118.768 Y109.597 E1.17656
G1 X118.533 Y110.006 E1.19934
G1 X118.722 Y110.322 E1.21712
G1 X118.998 Y110.938 E1.24972
G1 X119.202 Y111.598 E1.28308
G1 X119.251 Y111.798 E1.29302
G1 X119.373 Y112.462 E1.32563
G1 X119.415 Y113.135 E1.35819
G1 X119.391 Y113.727 E1.38681
G1 X119.311 Y114.397 E1.41939
G1 X119.182 Y114.957 E1.44714
G1 X119.156 Y115.048 E1.45172
G1 X118.932 Y115.685 E1.48432
G1 X118.635 Y116.291 E1.51692
G1 X118.238 Y116.899 E1.55198
G1 X117.919 Y117.325 E1.57769
G1 X117.752 Y117.552 E1.5913
G1 X117.32 Y118.071 E1.62391
G1 X117.029 Y118.361 E1.64375
G1 X116.511 Y118.84 E1.67782
G1 X116.055 Y119.219 E1.70646
G1 X115.565 Y119.565 E1.73542
G1 X114.939 Y119.946 E1.77082
G1 X114.484 Y120.192 E1.79579
G1 X113.89 Y120.47 E1.82747
G1 X113.58 Y120.594 E1.84359
G1 X113.033 Y120.782 E1.87153
G1 X112.506 Y120.933 E1.898
G1 X111.929 Y121.058 E1.92651
G1 X111.601 Y121.126 E1.94269
G1 X110.911 Y121.217 E1.9763
G1 X110.264 Y121.252 E2.00759
G1 X109.558 Y121.246 E2.04169
G1 X109.257 Y121.229 E2.05625
G1 X108.499 Y121.135 E2.09314
G1 X107.851 Y121.013 E2.12498
G1 X107.094 Y120.819 E2.16272
G1 X106.614 Y120.654 E2.18723
G1 X106.302 Y120.536 E2.20334
G1 X105.842 Y120.339 E2.22751
G1 X105.533 Y120.19 E2.24407
G1 X105.026 Y119.913 E2.27198
G1 X104.597 Y119.647 E2.29635
G1 X104.312 Y119.46 E2.31281
G1 X103.824 Y119.101 E2.34207
G1 X103.272 Y118.618 E2.3775
G1 X102.976 Y118.329 E2.39747
G1 X102.608 Y117.943 E2.42323
G1 X102.193 Y117.455 E2.45417
G1 X101.838 Y116.977 E2.48292
G1 X101.69 Y116.762 E2.49553
G1 X101.351 Y116.204 E2.52706
G1 X101.003 Y115.524 E2.56395
G1 X100.71 Y114.82 E2.60077
G1 X100.539 Y114.316 E2.62648
G1 X100.363 Y113.724 E2.6563
G1 X100.181 Y112.796 E2.70197
G1 X100.11 Y112.146 E2.73355
G1 X100.08 Y111.813 E2.7497
G1 X100.057 Y111.302 E2.7744
G1 X100.057 Y108.702 E2.89996
G1 X100.09 Y108.091 E2.92951
G1 X100.147 Y107.562 E2.95521
G1 X100.172 Y107.297 E2.96806
G1 X100.275 Y106.63 E3.00066
G1 X100.461 Y105.938 E3.03526
G1 X100.531 Y105.716 E3.04651
G1 X100.699 Y105.212 E3.07216
G1 X101.085 Y104.317 E3.11923
G1 X101.299 Y103.903 E3.14174
G1 X101.668 Y103.276 E3.17687
G1 X102.009 Y102.79 E3.20555
G1 X102.213 Y102.524 E3.22174
G1 X102.507 Y102.179 E3.24363
G0 F2700 X102.594 Y102.077
G0 X102.959 Y101.691
G0 F6000 X103.395 Y102.103
G1 F3000 X103.781 Y101.744 E3.26908
G1 X104.028 Y101.519 E3.28522
G1 X104.599 Y101.074 E3.32018
G1 X105.088 Y100.754 E3.3484
G1 X105.757 Y100.372 E3.38561
G1 X106.066 Y100.22 E3.40224
G1 X106.721 Y99.952 E3.43642
G1 X107.093 Y99.82 E3.45548
G1 X107.873 Y99.596 E3.49467
G1 X108.379 Y99.496 E3.51958
G1 X108.71 Y99.439 E3.5358
G1 X109.273 Y99.374 E3.56317
G1 X109.939 Y99.347 E3.59536
G1 X110.534 Y99.361 E3.6241
G1 X111.226 Y99.42 E3.65764
G1 X111.947 Y99.551 E3.69303
G1 X112.323 Y99.642 E3.71172
G1 X112.85 Y99.791 E3.73816
G1 X113.372 Y99.97 E3.76481
G1 X113.684 Y100.096 E3.78106
G1 X114.189 Y100.333 E3.80801
G1 X114.641 Y100.576 E3.83279
G1 X115.257 Y100.953 E3.86767
G1 X115.627 Y101.21 E3.88942
G1 X116.086 Y101.583 E3.91799
G1 X116.658 Y102.114 E3.95568
G1 X117.231 Y102.754 E3.99716
G1 X117.61 Y103.259 E4.02766
G1 X117.806 Y103.53 E4.04381
G1 X118.147 Y104.07 E4.07465
G1 X118.418 Y104.648 E4.10548
G1 X118.615 Y105.255 E4.1363
G1 X118.752 Y106.046 E4.17507
G1 X118.775 Y106.293 E4.18705
G1 X118.794 Y106.931 E4.21787
G1 X118.737 Y107.599 E4.25025
G1 X118.629 Y108.228 E4.28107
G1 X118.444 Y108.839 E4.3119
G1 X118.183 Y109.422 E4.34275
G1 X117.852 Y109.968 E4.37359
G1 X117.819 Y110.01 E4.37617
G1 X118.029 Y110.313 E4.39397
G1 X118.325 Y110.879 E4.42482
G1 X118.619 Y111.74 E4.46876
G1 X118.668 Y111.94 E4.4787
G1 X118.781 Y112.569 E4.50956
G1 X118.806 Y113.455 E4.55237
G1 X118.792 Y113.692 E4.56383
G1 X118.715 Y114.325 E4.59463
G1 X118.579 Y114.883 E4.62237
G1 X118.365 Y115.485 E4.65322
G1 X118.078 Y116.055 E4.68404
G1 X117.757 Y116.539 E4.71209
G1 X117.268 Y117.197 E4.75168
G1 X116.859 Y117.686 E4.78247
G1 X116.622 Y117.92 E4.79855
G1 X116.104 Y118.399 E4.83262
G1 X115.696 Y118.739 E4.85827
G1 X115.243 Y119.059 E4.88506
G1 X114.654 Y119.418 E4.91837
G1 X114.199 Y119.664 E4.94335
G1 X113.667 Y119.913 E4.97172
G1 X113.357 Y120.037 E4.98784
G1 X112.868 Y120.205 E5.01281
G1 X112.341 Y120.356 E5.03929
G1 X111.815 Y120.469 E5.06527
G1 X111.487 Y120.537 E5.08145
G1 X110.869 Y120.619 E5.11155
G1 X110.259 Y120.652 E5.14105
G1 X109.591 Y120.647 E5.17332
G1 X109.29 Y120.63 E5.18788
G1 X108.612 Y120.546 E5.22087
G1 X107.96 Y120.423 E5.25291
G1 X107.283 Y120.249 E5.28667
G1 X106.514 Y119.975 E5.32609
G1 X105.794 Y119.65 E5.36424
G1 X105.34 Y119.402 E5.38923
G1 X104.641 Y118.958 E5.42922
G1 X104.205 Y118.637 E5.45537
G1 X103.675 Y118.173 E5.48938
G1 X103.411 Y117.915 E5.50721
G1 X103.043 Y117.529 E5.53297
G1 X102.671 Y117.092 E5.56068
G1 X102.332 Y116.637 E5.58808
G1 X102.184 Y116.422 E5.60069
G1 X101.881 Y115.922 E5.62892
G1 X101.54 Y115.258 E5.66497
G1 X101.278 Y114.628 E5.69792
G1 X101.107 Y114.124 E5.72363
G1 X100.94 Y113.56 E5.75203
G1 X100.777 Y112.729 E5.79293
G1 X100.718 Y112.199 E5.81868
G1 X100.657 Y111.302 E5.8621
G1 X100.657 Y108.702 E5.98767
G1 X100.686 Y108.156 E6.01407
G1 X100.743 Y107.627 E6.03977
G1 X100.769 Y107.353 E6.05306
G1 X100.946 Y106.424 E6.09873
G1 X101.1 Y105.905 E6.12488
G1 X101.268 Y105.401 E6.15053
G1 X101.613 Y104.601 E6.19261
G1 X101.835 Y104.174 E6.21585
G1 X102.165 Y103.612 E6.24732
G1 X102.485 Y103.155 E6.27427
G1 X102.689 Y102.889 E6.29046
G1 X102.943 Y102.591 E6.30937
G0 F2700 X103.03 Y102.489
G0 X103.395 Y102.103
G0 F6000 X103.831 Y102.515
G1 F3000 X104.255 Y102.121 E6.33732
G1 X104.429 Y101.965 E6.3486
G1 X104.933 Y101.573 E6.37944
G1 X105.398 Y101.267 E6.40632
G1 X106.022 Y100.91 E6.44104
G1 X106.331 Y100.758 E6.45767
G1 X106.909 Y100.522 E6.48782
G1 X107.304 Y100.382 E6.50806
G1 X107.992 Y100.184 E6.54264
G1 X108.812 Y100.03 E6.58293
G1 X109.61 Y99.955 E6.62164
G1 X109.932 Y99.947 E6.63719
G1 X110.496 Y99.96 E6.66444
G1 X111.142 Y100.014 E6.69574
G1 X111.828 Y100.139 E6.72942
G1 X112.159 Y100.22 E6.74588
G1 X112.686 Y100.369 E6.77232
G1 X113.459 Y100.652 E6.81208
G1 X113.905 Y100.861 E6.83587
G1 X114.357 Y101.104 E6.86065
G1 X114.934 Y101.458 E6.89334
G1 X115.276 Y101.696 E6.91346
G1 X115.681 Y102.026 E6.93869
G1 X116.246 Y102.551 E6.97594
G1 X116.752 Y103.115 E7.01253
G1 X117.124 Y103.611 E7.04247
G1 X117.32 Y103.882 E7.05863
G1 X117.639 Y104.39 E7.0876
G1 X117.886 Y104.936 E7.11654
G1 X118.059 Y105.51 E7.14549
G1 X118.155 Y106.102 E7.17445
G1 X118.178 Y106.349 E7.18643
G1 X118.171 Y107.246 E7.22975
G1 X118.14 Y107.535 E7.24379
G1 X118.037 Y108.126 E7.27276
G1 X117.856 Y108.697 E7.30169
G1 X117.6 Y109.24 E7.33068
G1 X117.275 Y109.743 E7.3596
G1 X117.053 Y110.002 E7.37608
G1 X117.347 Y110.365 E7.39864
G1 X117.658 Y110.878 E7.42761
G1 X117.899 Y111.427 E7.45656
G1 X118.086 Y112.083 E7.48951
G1 X118.189 Y112.674 E7.51848
G1 X118.207 Y113.419 E7.55447
G1 X118.193 Y113.656 E7.56593
G1 X118.118 Y114.251 E7.59489
G1 X118.002 Y114.718 E7.61813
G1 X117.799 Y115.283 E7.64713
G1 X117.523 Y115.815 E7.67607
G1 X117.277 Y116.179 E7.69729
G1 X116.958 Y116.605 E7.72299
G1 X116.785 Y116.841 E7.73712
G1 X116.214 Y117.48 E7.77851
G1 X115.696 Y117.959 E7.81258
G1 X115.206 Y118.356 E7.84303
G1 X114.64 Y118.731 E7.87582
G1 X114.368 Y118.89 E7.89104
G1 X113.913 Y119.136 E7.91602
G1 X113.444 Y119.356 E7.94104
G1 X112.702 Y119.628 E7.9792
G1 X112.175 Y119.779 E8.00568
G1 X111.596 Y119.905 E8.03429
G1 X111.372 Y119.948 E8.04531
G1 X110.827 Y120.02 E8.07186
G1 X110.253 Y120.052 E8.09962
G1 X109.625 Y120.048 E8.12995
G1 X109.324 Y120.031 E8.14451
G1 X108.726 Y119.957 E8.17361
G1 X108.068 Y119.832 E8.20596
G1 X107.471 Y119.679 E8.23572
G1 X106.726 Y119.414 E8.27391
G1 X106.054 Y119.109 E8.30955
G1 X105.369 Y118.716 E8.34769
G1 X104.585 Y118.173 E8.39374
G1 X104.078 Y117.729 E8.42629
G1 X103.845 Y117.501 E8.44203
G1 X103.477 Y117.115 E8.46779
G1 X103.149 Y116.729 E8.49225
G1 X102.826 Y116.297 E8.5183
G1 X102.678 Y116.082 E8.53091
G1 X102.411 Y115.641 E8.5558
G1 X102.078 Y114.991 E8.59107
G1 X101.847 Y114.435 E8.62015
G1 X101.676 Y113.931 E8.64585
G1 X101.518 Y113.396 E8.67279
G1 X101.374 Y112.663 E8.70887
G1 X101.305 Y112.039 E8.73919
G1 X101.257 Y111.302 E8.77486
G1 X101.257 Y108.702 E8.90042
G1 X101.336 Y107.725 E8.94776
G1 X101.366 Y107.41 E8.96304
G1 X101.522 Y106.59 E9.00335
G1 X101.669 Y106.095 E9.02829
G1 X101.837 Y105.591 E9.05394
G1 X102.142 Y104.884 E9.09113
G1 X102.37 Y104.444 E9.11506
G1 X102.662 Y103.949 E9.14281
G1 X102.961 Y103.52 E9.16807
G1 X103.381 Y103.005 E9.20016
G0 F2700 X103.466 Y102.901
G0 X103.831 Y102.515
G0 F6000 X104.267 Y102.927
G1 F3000 X104.636 Y102.585 E9.22446
G1 X104.83 Y102.411 E9.23704
G1 X105.267 Y102.071 E9.26378
G1 X105.708 Y101.781 E9.28927
G1 X106.287 Y101.448 E9.32153
G1 X106.596 Y101.296 E9.33816
G1 X107.097 Y101.092 E9.36429
G1 X107.515 Y100.943 E9.38572
G1 X108.111 Y100.772 E9.41566
G1 X108.914 Y100.622 E9.45511
G1 X109.646 Y100.554 E9.49061
G1 X110.259 Y100.551 E9.52022
G1 X110.759 Y100.578 E9.5444
G1 X111.378 Y100.661 E9.57456
G1 X111.996 Y100.797 E9.60512
G1 X112.523 Y100.946 E9.63157
G1 X113.234 Y101.209 E9.66818
G1 X113.621 Y101.39 E9.68881
G1 X114.073 Y101.633 E9.7136
G1 X114.61 Y101.964 E9.74406
G1 X115.275 Y102.468 E9.78436
G1 X115.834 Y102.987 E9.8212
G1 X116.273 Y103.477 E9.85297
G1 X116.638 Y103.962 E9.88228
G1 X116.834 Y104.233 E9.89843
G1 X117.128 Y104.708 E9.92541
G1 X117.351 Y105.22 E9.95238
G1 X117.499 Y105.758 E9.97933
G1 X117.58 Y106.404 E10.01077
G1 X117.575 Y107.182 E10.04834
G1 X117.544 Y107.471 E10.06238
G1 X117.445 Y108.02 E10.08932
G1 X117.268 Y108.55 E10.11631
G1 X117.018 Y109.049 E10.14326
G1 X116.699 Y109.507 E10.17022
G1 X116.318 Y109.915 E10.19718
G1 X116.207 Y110.004 E10.20405
G1 X116.298 Y110.076 E10.20965
G1 X116.682 Y110.481 E10.2366
G1 X117.004 Y110.937 E10.26356
G1 X117.258 Y111.434 E10.29052
G1 X117.454 Y112.026 E10.32063
G1 X117.503 Y112.226 E10.33058
G1 X117.597 Y112.776 E10.35752
G1 X117.608 Y113.384 E10.38689
G1 X117.594 Y113.621 E10.39836
G1 X117.522 Y114.174 E10.42529
G1 X117.425 Y114.553 E10.44418
G1 X117.234 Y115.078 E10.47116
G1 X116.969 Y115.569 E10.49811
G1 X116.797 Y115.82 E10.5128
G1 X116.301 Y116.486 E10.55291
G1 X115.807 Y117.039 E10.58872
G1 X115.289 Y117.518 E10.62279
G1 X114.846 Y117.876 E10.6503
G1 X114.318 Y118.225 E10.68086
G1 X114.083 Y118.363 E10.69402
G1 X113.628 Y118.609 E10.719
G1 X112.911 Y118.923 E10.7568
G1 X112.537 Y119.051 E10.77589
G1 X112.01 Y119.202 E10.80237
G1 X111.506 Y119.311 E10.82727
G1 X110.785 Y119.421 E10.86249
G1 X110.248 Y119.452 E10.88847
G1 X109.659 Y119.449 E10.91692
G1 X109.358 Y119.432 E10.93148
G1 X108.84 Y119.367 E10.95669
G1 X108.177 Y119.242 E10.98927
G1 X107.659 Y119.11 E11.01509
G1 X106.938 Y118.853 E11.05205
G1 X106.315 Y118.569 E11.08512
G1 X105.683 Y118.204 E11.12037
G1 X104.966 Y117.709 E11.16244
G1 X104.481 Y117.284 E11.19358
G1 X104.279 Y117.087 E11.20721
G1 X103.911 Y116.701 E11.23297
G1 X103.426 Y116.102 E11.27019
G1 X102.941 Y115.359 E11.31304
G1 X102.615 Y114.724 E11.34751
G1 X102.415 Y114.242 E11.37271
G1 X102.244 Y113.738 E11.39842
G1 X102.095 Y113.232 E11.42389
G1 X101.97 Y112.596 E11.45519
G1 X101.903 Y111.985 E11.48488
G1 X101.857 Y111.302 E11.51794
G1 X101.857 Y108.702 E11.6435
G1 X101.879 Y108.284 E11.66371
G1 X101.937 Y107.755 E11.68941
G1 X101.964 Y107.467 E11.70338
G1 X102.099 Y106.756 E11.73833
G1 X102.238 Y106.285 E11.76205
G1 X102.406 Y105.781 E11.78771
G1 X102.67 Y105.168 E11.81994
G1 X102.906 Y104.715 E11.84461
G1 X103.303 Y104.071 E11.88114
G1 X103.641 Y103.62 E11.90836
G1 X103.815 Y103.416 E11.92131
G0 F2700 X103.902 Y103.313
G0 X104.267 Y102.927
G0 F6000 X104.703 Y103.34
G1 F3000 X105.232 Y102.857 E11.9559
G1 X105.886 Y102.379 E11.99503
G1 X106.551 Y101.987 E12.03231
G1 X107.285 Y101.662 E12.07107
G1 X107.725 Y101.505 E12.09363
G1 X108.23 Y101.36 E12.11901
G1 X109.016 Y101.213 E12.15762
G1 X109.682 Y101.153 E12.18992
G1 X109.918 Y101.147 E12.20132
G1 X110.421 Y101.158 E12.22562
G1 X110.974 Y101.202 E12.25241
G1 X111.59 Y101.316 E12.28266
G1 X111.833 Y101.374 E12.29473
G1 X112.36 Y101.523 E12.32118
G1 X113.01 Y101.765 E12.35467
G1 X113.337 Y101.918 E12.37211
G1 X113.789 Y102.161 E12.39689
G1 X114.287 Y102.469 E12.42517
G1 X114.87 Y102.911 E12.4605
G1 X115.423 Y103.424 E12.49693
G1 X115.794 Y103.838 E12.52378
G1 X116.152 Y104.314 E12.55254
G1 X116.348 Y104.585 E12.56869
G1 X116.616 Y105.023 E12.59349
G1 X116.812 Y105.498 E12.61831
G1 X116.96 Y106.213 E12.65357
G1 X116.983 Y106.46 E12.66555
G1 X116.978 Y107.118 E12.69733
G1 X116.947 Y107.407 E12.71136
G1 X116.853 Y107.912 E12.73617
G1 X116.681 Y108.396 E12.76098
G1 X116.437 Y108.847 E12.78574
G1 X116.125 Y109.255 E12.81054
G1 X115.754 Y109.61 E12.83534
G1 X115.333 Y109.903 E12.86011
G1 X115.128 Y110.003 E12.87113
G1 X115.224 Y110.045 E12.87619
G1 X115.656 Y110.322 E12.90097
G1 X116.04 Y110.662 E12.92574
G1 X116.367 Y111.058 E12.95054
G1 X116.628 Y111.5 E12.97533
G1 X116.871 Y112.169 E13.00971
G1 X116.92 Y112.369 E13.01965
G1 X117.003 Y112.875 E13.04441
G1 X116.995 Y113.586 E13.07875
G1 X116.874 Y114.298 E13.11363
G1 X116.848 Y114.389 E13.1182
G1 X116.669 Y114.87 E13.14299
G1 X116.316 Y115.46 E13.17619
G1 X116.015 Y115.863 E13.20048
G1 X115.818 Y116.131 E13.21655
G1 X115.399 Y116.599 E13.24688
G1 X114.881 Y117.078 E13.28096
G1 X114.487 Y117.395 E13.30538
G1 X113.996 Y117.718 E13.33376
G1 X113.797 Y117.835 E13.34491
G1 X113.342 Y118.081 E13.36989
G1 X112.689 Y118.366 E13.4043
G1 X112.372 Y118.474 E13.42047
G1 X111.845 Y118.625 E13.44694
G1 X111.143 Y118.77 E13.48156
G1 X110.443 Y118.844 E13.51556
G1 X109.909 Y118.855 E13.54135
G1 X109.392 Y118.833 E13.56634
G1 X108.59 Y118.708 E13.60554
