;FLAVOR:Marlin
;TIME:16954
;Filament used: 25.6708m
;Layer height: 0.2
;MINX:19.419
;MINY:19.43
;MINZ:0.24
;MAXX:200.579
;MAXY:200.582
;MAXZ:12.72
;Generated with Cura_SteamEngine 4.5.0
M140 S50
M105
M190 S50
M104 S215
M105
M109 S215
M82 ;absolute extrusion mode
M201 X500.00 Y500.00 Z100.00 E5000.00 ;Setup machine max acceleration
M203 X500.00 Y500.00 Z10.00 E50.00 ;Setup machine max feedrate
M204 P500.00 R1000.00 T500.00 ;Setup Print/Retract/Travel acceleration
M205 X8.00 Y8.00 Z0.40 E5.00 ;Setup Jerk
M220 S100 ;Reset Feedrate
M221 S100 ;Reset Flowrate

G28 ;Home

G92 E0 ;Reset Extruder
G1 Z2.0 F3000 ;Move Z Axis up
G1 X10.1 Y20 Z0.28 F5000.0 ;Move to start position
G1 X10.1 Y200.0 Z0.28 F1500.0 E15 ;Draw the first line
G1 X10.4 Y200.0 Z0.28 F5000.0 ;Move to side a little
G1 X10.4 Y20 Z0.28 F1500.0 E30 ;Draw the second line
G92 E0 ;Reset Extruder
G1 Z2.0 F3000 ;Move Z Axis up

G92 E0
G92 E0
G1 F1800 E-3
;LAYER_COUNT:68
;LAYER:0
M106 S63.8
M204 S500
M205 X6 Y6
G0 F9000 X46.257 Y45.653 Z0.24
;TYPE:SKIRT
G1 F1800 E0
G1 X47.102 Y44.836 E0.04691
G1 X49.64 Y42.48 E0.18513
G1 X50.209 Y41.966 E0.21573
G1 X51.118 Y41.188 E0.26348
G1 X53.766 Y39.008 E0.40038
G1 X54.39 Y38.508 E0.43229
G1 X55.363 Y37.773 E0.48096
G1 X58.118 Y35.768 E0.61696
G1 X58.778 Y35.302 E0.6492
G1 X59.746 Y34.656 E0.69565
G1 X62.644 Y32.804 E0.83292
G1 X63.341 Y32.371 E0.86567
G1 X64.347 Y31.784 E0.91216
G1 X67.385 Y30.089 E1.05101
G1 X68.021 Y29.744 E1.07988
G1 X69.152 Y29.172 E1.13047
G1 X72.241 Y27.683 E1.26733
G1 X72.913 Y27.37 E1.29692
G1 X74.038 Y26.883 E1.34585
G1 X77.222 Y25.576 E1.48322
G1 X77.931 Y25.295 E1.51366
G1 X79.037 Y24.893 E1.56063
G1 X82.338 Y23.765 E1.69986
G1 X83.054 Y23.531 E1.72992
G1 X84.23 Y23.182 E1.77888
G1 X87.499 Y22.279 E1.91424
G1 X88.313 Y22.065 E1.94783
G1 X89.4 Y21.811 E1.99239
G1 X92.819 Y21.083 E2.13191
G1 X93.558 Y20.934 E2.16199
G1 X94.782 Y20.726 E2.21155
G1 X98.161 Y20.215 E2.34794
G1 X98.94 Y20.108 E2.37933
G1 X100.086 Y19.981 E2.42535
G1 X103.571 Y19.666 E2.56501
G1 X104.316 Y19.609 E2.59483
G1 X105.556 Y19.548 E2.64438
G1 X108.983 Y19.444 E2.78122
G1 X109.728 Y19.43 E2.81096
G1 X110.966 Y19.443 E2.86038
G1 X114.365 Y19.544 E2.9961
G1 X115.194 Y19.579 E3.02921
G1 X116.319 Y19.658 E3.07422
G1 X119.823 Y19.972 E3.21464
G1 X120.57 Y20.049 E3.24461
G1 X121.731 Y20.2 E3.29134
G1 X125.182 Y20.72 E3.43063
G1 X125.924 Y20.841 E3.46064
G1 X127.074 Y21.061 E3.50737
G1 X130.508 Y21.79 E3.64748
G1 X131.234 Y21.954 E3.67719
G1 X132.371 Y22.244 E3.72402
G1 X135.682 Y23.156 E3.86109
G1 X136.484 Y23.389 E3.89442
G1 X137.577 Y23.737 E3.9402
G1 X140.86 Y24.857 E4.07865
G1 X141.601 Y25.121 E4.11005
G1 X142.703 Y25.547 E4.1572
G1 X145.923 Y26.865 E4.29607
G1 X146.623 Y27.164 E4.32645
G1 X147.706 Y27.659 E4.37398
G1 X150.802 Y29.148 E4.51109
G1 X151.506 Y29.499 E4.54249
G1 X152.564 Y30.061 E4.5903
G1 X155.571 Y31.737 E4.7277
G1 X156.252 Y32.128 E4.75904
G1 X157.262 Y32.745 E4.80628
G1 X160.203 Y34.622 E4.94553
G1 X160.82 Y35.027 E4.97499
G1 X161.804 Y35.714 E5.02289
G1 X164.575 Y37.726 E5.15956
G1 X165.216 Y38.203 E5.19145
G1 X166.151 Y38.942 E5.23902
G1 X168.847 Y41.157 E5.37828
G1 X169.419 Y41.639 E5.40814
G1 X170.257 Y42.386 E5.45294
G1 X172.822 Y44.765 E5.59257
G1 X173.42 Y45.334 E5.62552
G1 X174.196 Y46.112 E5.66937
G1 X176.635 Y48.661 E5.81018
G1 X177.147 Y49.21 E5.84014
G1 X177.941 Y50.111 E5.88807
G1 X180.173 Y52.742 E6.02578
G1 X180.691 Y53.37 E6.05827
G1 X181.367 Y54.234 E6.10206
G1 X183.486 Y57.061 E6.24307
G1 X183.922 Y57.657 E6.27254
G1 X184.616 Y58.665 E6.32138
G1 X186.518 Y61.544 E6.4591
G1 X186.948 Y62.214 E6.49088
G1 X187.51 Y63.143 E6.53421
G1 X189.302 Y66.243 E6.67712
G1 X189.651 Y66.867 E6.70566
G1 X190.189 Y67.89 E6.75179
G1 X191.768 Y71.043 E6.89253
G1 X192.091 Y71.711 E6.92215
G1 X192.571 Y72.775 E6.96874
G1 X193.965 Y76.037 E7.11032
G1 X194.207 Y76.619 E7.13548
G1 X194.674 Y77.848 E7.18795
G1 X195.82 Y81.043 E7.32343
G1 X196.068 Y81.762 E7.35378
G1 X196.449 Y82.976 E7.40456
G1 X197.402 Y86.233 E7.54001
G1 X197.611 Y86.985 E7.57116
G1 X197.899 Y88.144 E7.61883
G1 X198.669 Y91.508 E7.75656
G1 X198.834 Y92.275 E7.78788
G1 X199.046 Y93.414 E7.83412
G1 X199.617 Y96.842 E7.97282
G1 X199.737 Y97.63 E8.00463
G1 X199.878 Y98.754 E8.04985
G1 X200.243 Y102.219 E8.18891
G1 X200.316 Y103.009 E8.22057
G1 X200.392 Y104.175 E8.26721
G1 X200.547 Y107.608 E8.40437
G1 X200.573 Y108.433 E8.43731
G1 X200.579 Y109.592 E8.48357
G1 X200.529 Y113.065 E8.6222
G1 X200.507 Y113.825 E8.65254
G1 X200.439 Y115.063 E8.70203
G1 X200.189 Y118.413 E8.83611
G1 X200.115 Y119.259 E8.87
G1 X199.982 Y120.409 E8.91621
G1 X199.512 Y123.888 E9.05632
G1 X199.409 Y124.58 E9.08425
G1 X199.192 Y125.811 E9.13414
G1 X198.532 Y129.169 E9.27073
G1 X198.377 Y129.911 E9.30098
G1 X198.091 Y131.105 E9.34998
G1 X197.228 Y134.434 E9.48724
G1 X197.022 Y135.182 E9.51821
G1 X196.671 Y136.338 E9.56643
G1 X195.618 Y139.586 E9.7027
G1 X195.356 Y140.355 E9.73513
G1 X194.944 Y141.47 E9.78257
G1 X193.689 Y144.672 E9.91984
G1 X193.391 Y145.404 E9.95138
G1 X192.928 Y146.456 E9.99725
G1 X191.466 Y149.615 E10.13618
G1 X191.129 Y150.319 E10.16734
G1 X190.586 Y151.377 E10.2148
G1 X188.939 Y154.441 E10.35364
G1 X188.576 Y155.096 E10.38353
G1 X187.987 Y156.092 E10.42971
G1 X186.141 Y159.083 E10.56999
G1 X185.746 Y159.705 E10.5994
G1 X185.08 Y160.691 E10.64689
G1 X183.065 Y163.557 E10.78672
G1 X182.659 Y164.119 E10.81439
G1 X181.878 Y165.138 E10.86564
G1 X179.745 Y167.814 E11.00222
G1 X179.278 Y168.384 E11.03163
G1 X178.477 Y169.311 E11.08053
G1 X176.172 Y171.873 E11.21807
G1 X175.682 Y172.405 E11.24694
G1 X174.783 Y173.326 E11.29831
G1 X172.34 Y175.734 E11.43522
G1 X171.807 Y176.246 E11.46472
G1 X170.916 Y177.056 E11.51278
G1 X168.32 Y179.325 E11.65039
G1 X167.716 Y179.839 E11.68204
G1 X166.817 Y180.563 E11.72811
G1 X164.081 Y182.681 E11.86621
G1 X163.42 Y183.178 E11.89922
G1 X162.51 Y183.826 E11.9438
G1 X159.603 Y185.81 E12.08427
G1 X158.999 Y186.21 E12.11319
G1 X157.953 Y186.864 E12.16243
G1 X155.014 Y188.621 E12.29909
G1 X154.313 Y189.026 E12.3314
G1 X153.287 Y189.585 E12.37804
G1 X150.195 Y191.191 E12.5171
G1 X149.532 Y191.524 E12.54671
G1 X148.46 Y192.027 E12.59397
G1 X145.297 Y193.437 E12.73219
G1 X144.572 Y193.748 E12.76368
G1 X143.498 Y194.176 E12.80982
G1 X140.242 Y195.401 E12.94867
G1 X139.495 Y195.669 E12.98034
G1 X138.413 Y196.027 E13.02583
G1 X135.051 Y197.065 E13.16626
G1 X134.365 Y197.268 E13.19482
G1 X133.181 Y197.582 E13.24371
G1 X129.834 Y198.4 E13.38122
G1 X129.079 Y198.575 E13.41216
G1 X127.934 Y198.806 E13.45878
G1 X124.459 Y199.436 E13.59973
G1 X123.766 Y199.554 E13.62779
G1 X122.569 Y199.721 E13.67603
G1 X119.165 Y200.133 E13.81288
G1 X118.379 Y200.217 E13.84443
G1 X117.144 Y200.315 E13.89388
G1 X113.765 Y200.519 E14.02899
G1 X112.934 Y200.558 E14.06219
G1 X111.792 Y200.581 E14.10778
G1 X108.314 Y200.582 E14.24659
G1 X107.551 Y200.572 E14.27705
G1 X106.311 Y200.522 E14.32658
G1 X102.948 Y200.322 E14.46104
G1 X102.136 Y200.263 E14.49354
G1 X100.898 Y200.139 E14.54319
G1 X97.551 Y199.737 E14.67774
G1 X96.73 Y199.628 E14.7108
G1 X95.576 Y199.442 E14.75745
G1 X92.133 Y198.819 E14.8971
G1 X91.429 Y198.682 E14.92572
G1 X90.237 Y198.416 E14.97447
G1 X86.873 Y197.596 E15.11266
G1 X86.125 Y197.403 E15.1435
G1 X85.049 Y197.095 E15.18817
G1 X81.688 Y196.059 E15.32854
G1 X80.967 Y195.827 E15.35877
G1 X79.823 Y195.423 E15.40719
G1 X76.618 Y194.221 E15.54381
G1 X75.867 Y193.928 E15.57599
G1 X74.783 Y193.472 E15.62292
G1 X71.621 Y192.064 E15.76107
G1 X70.943 Y191.753 E15.79084
G1 X69.831 Y191.203 E15.84036
G1 X66.806 Y189.635 E15.97635
G1 X66.093 Y189.254 E16.00861
G1 X65.08 Y188.676 E16.05516
G1 X62.07 Y186.879 E16.19508
G1 X61.448 Y186.496 E16.22423
G1 X60.463 Y185.853 E16.27118
G1 X57.551 Y183.868 E16.41184
G1 X56.985 Y183.472 E16.43941
G1 X55.99 Y182.735 E16.48883
G1 X53.28 Y180.64 E16.62554
G1 X52.648 Y180.137 E16.65778
G1 X51.736 Y179.371 E16.70532
G1 X49.166 Y177.129 E16.84144
G1 X48.565 Y176.59 E16.87366
G1 X47.692 Y175.763 E16.92165
G1 X45.273 Y173.382 E17.05712
G1 X44.682 Y172.785 E17.09065
G1 X43.885 Y171.933 E17.13722
G1 X41.542 Y169.334 E17.27688
G1 X41.049 Y168.771 E17.30675
G1 X40.315 Y167.887 E17.35261
G1 X38.149 Y165.173 E17.49119
G1 X37.661 Y164.546 E17.52291
G1 X36.977 Y163.615 E17.56901
G1 X34.963 Y160.756 E17.70859
G1 X34.535 Y160.131 E17.73883
G1 X33.903 Y159.153 E17.7853
G1 X32.047 Y156.151 E17.92617
G1 X31.675 Y155.53 E17.95506
G1 X31.097 Y154.506 E18.00199
G1 X29.471 Y151.486 E18.13889
G1 X29.082 Y150.74 E18.17247
G1 X28.578 Y149.707 E18.21834
G1 X27.126 Y146.577 E18.35605
G1 X26.794 Y145.833 E18.38857
G1 X26.339 Y144.738 E18.4359
G1 X25.096 Y141.573 E18.57161
G1 X24.801 Y140.796 E18.60478
G1 X24.42 Y139.695 E18.65128
G1 X23.349 Y136.405 E18.78938
G1 X23.111 Y135.641 E18.82132
G1 X22.803 Y134.543 E18.86683
G1 X21.931 Y131.192 E19.00503
G1 X21.737 Y130.41 E19.03719
G1 X21.486 Y129.254 E19.0844
G1 X20.816 Y125.859 E19.22252
G1 X20.678 Y125.105 E19.25311
G1 X20.496 Y123.944 E19.30001
G1 X20.026 Y120.478 E19.43962
G1 X19.938 Y119.765 E19.46829
G1 X19.82 Y118.518 E19.51828
G1 X19.565 Y115.127 E19.65401
G1 X19.514 Y114.293 E19.68736
G1 X19.475 Y113.176 E19.73196
G1 X19.42 Y109.68 E19.87151
G1 X19.419 Y108.92 E19.90185
G1 X19.449 Y107.707 E19.95028
G1 X19.602 Y104.301 E20.08635
G1 X19.648 Y103.494 E20.11862
G1 X19.75 Y102.3 E20.16644
G1 X20.109 Y98.866 E20.30425
G1 X20.202 Y98.077 E20.33596
G1 X20.361 Y96.988 E20.37988
G1 X20.935 Y93.521 E20.52014
G1 X21.073 Y92.753 E20.55129
G1 X21.313 Y91.592 E20.5986
G1 X22.084 Y88.211 E20.73701
G1 X22.266 Y87.458 E20.76793
G1 X22.572 Y86.327 E20.81469
G1 X23.538 Y83.019 E20.95224
G1 X23.77 Y82.26 E20.98391
G1 X24.151 Y81.127 E21.03162
G1 X25.297 Y77.926 E21.16732
G1 X25.587 Y77.145 E21.20057
G1 X26.028 Y76.057 E21.24743
G1 X27.394 Y72.855 E21.38637
G1 X27.714 Y72.133 E21.41789
G1 X28.181 Y71.15 E21.46133
G1 X29.764 Y67.982 E21.60268
G1 X30.109 Y67.312 E21.63275
G1 X30.677 Y66.284 E21.67963
G1 X32.438 Y63.231 E21.8203
G1 X32.815 Y62.6 E21.84964
G1 X33.426 Y61.632 E21.89533
G1 X35.335 Y58.737 E22.03373
G1 X35.79 Y58.067 E22.06606
G1 X36.465 Y57.127 E22.11224
G1 X38.564 Y54.325 E22.25198
G1 X39.01 Y53.745 E22.28118
G1 X39.763 Y52.819 E22.32881
G1 X42.035 Y50.138 E22.46907
G1 X42.499 Y49.604 E22.49731
G1 X43.304 Y48.727 E22.54482
G1 X45.722 Y46.196 E22.68453
G1 X46.257 Y45.653 E22.71495
G0 F9000 X46.541 Y45.934
G1 F1800 X47.379 Y45.125 E22.76144
G1 X49.912 Y42.773 E22.8994
G1 X50.476 Y42.263 E22.92975
G1 X51.376 Y41.493 E22.97703
G1 X54.02 Y39.317 E23.1137
G1 X54.64 Y38.821 E23.14539
G1 X55.603 Y38.093 E23.19357
G1 X58.353 Y36.092 E23.32931
G1 X59.009 Y35.629 E23.36135
G1 X59.967 Y34.99 E23.40732
G1 X62.859 Y33.141 E23.54432
G1 X63.551 Y32.712 E23.57681
G1 X64.547 Y32.13 E23.62285
G1 X67.58 Y30.438 E23.76147
G1 X68.211 Y30.096 E23.79012
G1 X69.331 Y29.53 E23.8402
G1 X72.414 Y28.043 E23.97682
G1 X73.081 Y27.733 E24.00617
G1 X74.196 Y27.25 E24.05467
G1 X77.374 Y25.947 E24.19176
G1 X78.078 Y25.667 E24.222
G1 X79.172 Y25.27 E24.26845
G1 X82.467 Y24.144 E24.40743
G1 X83.177 Y23.912 E24.43724
G1 X84.342 Y23.565 E24.48575
G1 X87.605 Y22.664 E24.62086
G1 X88.414 Y22.452 E24.65424
G1 X89.49 Y22.201 E24.69834
G1 X92.902 Y21.474 E24.83758
G1 X93.637 Y21.326 E24.8675
G1 X94.847 Y21.121 E24.91648
G1 X98.22 Y20.611 E25.05264
G1 X98.995 Y20.504 E25.08386
G1 X100.129 Y20.379 E25.1294
G1 X103.607 Y20.065 E25.26877
G1 X104.346 Y20.008 E25.29836
G1 X105.574 Y19.947 E25.34743
G1 X108.995 Y19.844 E25.48403
G1 X109.735 Y19.83 E25.51357
G1 X110.961 Y19.843 E25.56251
G1 X114.353 Y19.944 E25.69795
G1 X115.176 Y19.979 E25.73083
G1 X116.29 Y20.057 E25.7754
G1 X119.787 Y20.37 E25.91553
G1 X120.528 Y20.447 E25.94526
G1 X121.678 Y20.597 E25.99155
G1 X125.122 Y21.115 E26.13055
G1 X125.859 Y21.236 E26.16036
G1 X126.997 Y21.453 E26.2066
G1 X130.425 Y22.181 E26.34647
G1 X131.146 Y22.344 E26.37597
G1 X132.27 Y22.631 E26.42227
G1 X135.575 Y23.541 E26.55909
G1 X136.372 Y23.773 E26.59222
G1 X137.454 Y24.118 E26.63755
G1 X140.731 Y25.236 E26.77574
G1 X141.466 Y25.498 E26.80689
G1 X142.557 Y25.919 E26.85356
G1 X145.772 Y27.235 E26.99221
G1 X146.465 Y27.531 E27.02229
G1 X147.539 Y28.022 E27.06942
G1 X150.628 Y29.509 E27.20625
G1 X151.328 Y29.857 E27.23745
G1 X152.374 Y30.414 E27.28475
G1 X155.376 Y32.086 E27.4219
G1 X156.052 Y32.475 E27.45303
G1 X157.052 Y33.086 E27.4998
G1 X159.988 Y34.959 E27.6388
G1 X160.599 Y35.361 E27.66799
G1 X161.573 Y36.041 E27.7154
G1 X164.34 Y38.049 E27.85185
G1 X164.977 Y38.524 E27.88357
G1 X165.902 Y39.254 E27.9306
G1 X168.593 Y41.466 E28.06963
G1 X169.16 Y41.945 E28.09925
G1 X169.99 Y42.683 E28.14358
G1 X172.55 Y45.058 E28.28296
G1 X173.144 Y45.623 E28.31568
G1 X173.911 Y46.393 E28.35905
G1 X176.346 Y48.937 E28.4996
G1 X176.854 Y49.482 E28.52934
G1 X177.64 Y50.374 E28.57679
G1 X179.868 Y53.001 E28.71427
G1 X180.382 Y53.624 E28.74651
G1 X181.051 Y54.479 E28.78984
G1 X183.166 Y57.3 E28.93056
G1 X183.598 Y57.893 E28.95984
G1 X184.286 Y58.891 E29.00822
G1 X186.185 Y61.764 E29.14568
G1 X186.611 Y62.429 E29.1772
G1 X187.167 Y63.349 E29.2201
G1 X188.956 Y66.444 E29.36278
G1 X189.301 Y67.061 E29.39099
G1 X189.834 Y68.075 E29.43672
G1 X191.41 Y71.222 E29.57719
G1 X191.73 Y71.884 E29.60654
G1 X192.205 Y72.938 E29.65268
G1 X193.597 Y76.194 E29.79401
G1 X193.838 Y76.772 E29.819
G1 X194.3 Y77.988 E29.87092
G1 X195.444 Y81.178 E30.00618
G1 X195.69 Y81.892 E30.03632
G1 X196.066 Y83.094 E30.08659
G1 X197.018 Y86.346 E30.22183
G1 X197.225 Y87.092 E30.25273
G1 X197.511 Y88.239 E30.29991
G1 X198.279 Y91.597 E30.4374
G1 X198.443 Y92.359 E30.46851
G1 X198.652 Y93.485 E30.51422
G1 X199.222 Y96.908 E30.65272
G1 X199.341 Y97.69 E30.68429
G1 X199.481 Y98.803 E30.72906
G1 X199.845 Y102.261 E30.86784
G1 X199.918 Y103.046 E30.8993
G1 X199.992 Y104.199 E30.94542
G1 X200.148 Y107.626 E31.08234
G1 X200.173 Y108.445 E31.11504
G1 X200.179 Y109.592 E31.16082
G1 X200.129 Y113.059 E31.29921
G1 X200.107 Y113.813 E31.32932
G1 X200.039 Y115.04 E31.37837
G1 X199.791 Y118.384 E31.5122
G1 X199.717 Y119.223 E31.54581
G1 X199.585 Y120.362 E31.59158
G1 X199.115 Y123.834 E31.73142
G1 X199.014 Y124.52 E31.75909
G1 X198.799 Y125.74 E31.80854
G1 X198.139 Y129.091 E31.94485
G1 X197.985 Y129.829 E31.97494
G1 X197.703 Y131.01 E32.0234
G1 X196.84 Y134.333 E32.16043
G1 X196.637 Y135.075 E32.19113
G1 X196.289 Y136.22 E32.2389
G1 X195.238 Y139.462 E32.37492
G1 X194.978 Y140.225 E32.40709
G1 X194.569 Y141.33 E32.45412
G1 X193.316 Y144.526 E32.59113
G1 X193.021 Y145.252 E32.62241
G1 X192.563 Y146.293 E32.6678
G1 X191.103 Y149.446 E32.80648
G1 X190.768 Y150.146 E32.83745
G1 X190.231 Y151.193 E32.88442
G1 X188.586 Y154.252 E33.02304
G1 X188.226 Y154.901 E33.05266
G1 X187.643 Y155.888 E33.09842
G1 X185.801 Y158.873 E33.23841
G1 X185.408 Y159.49 E33.26761
G1 X184.75 Y160.467 E33.31462
G1 X182.738 Y163.327 E33.45419
G1 X182.336 Y163.884 E33.4816
G1 X181.562 Y164.894 E33.53239
G1 X179.432 Y167.564 E33.66871
G1 X178.969 Y168.131 E33.69793
G1 X178.175 Y169.048 E33.74634
G1 X175.874 Y171.605 E33.88364
G1 X175.388 Y172.134 E33.91231
G1 X174.498 Y173.045 E33.96314
G1 X172.059 Y175.449 E34.09982
G1 X171.53 Y175.957 E34.12909
G1 X170.648 Y176.758 E34.17665
G1 X168.057 Y179.024 E34.31403
G1 X167.457 Y179.534 E34.34546
G1 X166.567 Y180.251 E34.39107
G1 X163.836 Y182.365 E34.52891
G1 X163.18 Y182.858 E34.56167
G1 X162.279 Y183.499 E34.6058
G1 X159.377 Y185.479 E34.74601
G1 X158.778 Y185.877 E34.77472
G1 X157.743 Y186.523 E34.82341
G1 X154.809 Y188.277 E34.95985
G1 X154.114 Y188.679 E34.99189
G1 X153.097 Y189.233 E35.03811
G1 X150.011 Y190.836 E35.17691
G1 X149.352 Y191.167 E35.20634
G1 X148.291 Y191.665 E35.25312
G1 X145.135 Y193.072 E35.39103
G1 X144.415 Y193.38 E35.42229
G1 X143.351 Y193.804 E35.468
G1 X140.102 Y195.026 E35.60655
G1 X139.361 Y195.292 E35.63797
G1 X138.289 Y195.647 E35.68304
G1 X134.933 Y196.683 E35.82322
G1 X134.252 Y196.884 E35.85156
G1 X133.08 Y197.194 E35.89995
G1 X129.74 Y198.012 E36.03719
G1 X128.99 Y198.185 E36.06792
G1 X127.857 Y198.414 E36.11405
G1 X124.388 Y199.043 E36.25476
G1 X123.7 Y199.159 E36.28261
G1 X122.516 Y199.325 E36.33033
