;FLAVOR:Marlin
;TIME:3311
;Filament used: 2.66497m
;Layer height: 0.2
;MINX:27.649
;MINY:64.028
;MINZ:0.24
;MAXX:192.35
;MAXY:156.587
;MAXZ:7
;Generated with Cura_SteamEngine 4.5.0
M140 S50
M105
M190 S50
M104 S215
M105
M109 S215
M82 ;absolute extrusion mode
M201 X500.00 Y500.00 Z100.00 E5000.00 ;Setup machine max acceleration
M203 X500.00 Y500.00 Z10.00 E50.00 ;Setup machine max feedrate
M204 P500.00 R1000.00 T500.00 ;Setup Print/Retract/Travel acceleration
M205 X8.00 Y8.00 Z0.40 E5.00 ;Setup Jerk
M220 S100 ;Reset Feedrate
M221 S100 ;Reset Flowrate

G28 ;Home

G92 E0 ;Reset Extruder
G1 Z2.0 F3000 ;Move Z Axis up
G1 X10.1 Y20 Z0.28 F5000.0 ;Move to start position
G1 X10.1 Y200.0 Z0.28 F1500.0 E15 ;Draw the first line
G1 X10.4 Y200.0 Z0.28 F5000.0 ;Move to side a little
G1 X10.4 Y20 Z0.28 F1500.0 E30 ;Draw the second line
G92 E0 ;Reset Extruder
G1 Z2.0 F3000 ;Move Z Axis up

G92 E0
G92 E0
G1 F1800 E-3
;LAYER_COUNT:38
;LAYER:0
M106 S63.8
M204 S500
M205 X6 Y6
G0 F9000 X34.794 Y65.223 Z0.24
;TYPE:SKIRT
G1 F1800 E0
G1 X35.644 Y64.869 E0.03675
G1 X36.763 Y64.529 E0.08343
G1 X37.303 Y64.399 E0.1056
G1 X38.935 Y64.126 E0.17164
G1 X39.647 Y64.071 E0.20014
G1 X40.23 Y64.049 E0.22343
G1 X41.245 Y64.031 E0.26394
G1 X42.232 Y64.038 E0.30334
G1 X43.148 Y64.068 E0.33992
G1 X44.002 Y64.127 E0.37408
G1 X44.916 Y64.24 E0.41084
G1 X45.475 Y64.349 E0.43357
G1 X46.002 Y64.467 E0.45513
G1 X46.891 Y64.707 E0.49188
G1 X47.756 Y65.023 E0.52863
G1 X48.737 Y65.492 E0.57203
G1 X49.285 Y65.789 E0.59691
G1 X50.074 Y66.262 E0.63362
G1 X51.13 Y67.058 E0.6864
G1 X51.776 Y67.611 E0.72034
G1 X53.744 Y69.25 E0.82256
G1 X55.77 Y70.844 E0.92545
G1 X57.788 Y72.338 E1.02567
G1 X59.866 Y73.788 E1.1268
G1 X61.953 Y75.161 E1.22651
G1 X64.131 Y76.505 E1.32865
G1 X66.304 Y77.763 E1.42887
G1 X68.529 Y78.969 E1.52988
G1 X70.802 Y80.117 E1.63151
G1 X73.098 Y81.199 E1.73282
G1 X75.375 Y82.192 E1.83196
G1 X77.775 Y83.162 E1.93528
G1 X80.129 Y84.032 E2.03544
G1 X82.483 Y84.829 E2.13464
G1 X84.92 Y85.58 E2.23642
G1 X87.364 Y86.256 E2.33762
G1 X89.839 Y86.867 E2.43937
G1 X92.292 Y87.4 E2.53956
G1 X94.775 Y87.864 E2.64038
G1 X97.285 Y88.261 E2.7418
G1 X99.786 Y88.585 E2.84246
G1 X102.292 Y88.838 E2.94299
G1 X104.796 Y89.019 E3.04319
G1 X107.338 Y89.13 E3.14474
G1 X109.884 Y89.17 E3.24637
G1 X112.394 Y89.138 E3.34656
G1 X114.914 Y89.035 E3.44722
G1 X117.47 Y88.858 E3.54948
G1 X119.955 Y88.614 E3.64914
G1 X122.483 Y88.294 E3.75084
G1 X124.956 Y87.91 E3.85073
G1 X127.454 Y87.45 E3.9521
G1 X129.948 Y86.917 E4.05389
G1 X132.346 Y86.332 E4.15241
G1 X134.84 Y85.65 E4.2556
G1 X137.232 Y84.922 E4.3554
G1 X139.645 Y84.112 E4.45699
G1 X142.025 Y83.237 E4.55819
G1 X144.339 Y82.312 E4.65766
G1 X146.702 Y81.289 E4.76043
G1 X148.968 Y80.23 E4.86026
G1 X151.227 Y79.097 E4.96113
G1 X153.477 Y77.887 E5.06309
G1 X155.635 Y76.646 E5.16245
G1 X157.813 Y75.31 E5.26443
G1 X159.92 Y73.935 E5.36484
G1 X162.02 Y72.477 E5.46688
G1 X164.019 Y71.004 E5.56599
G1 X166.017 Y69.443 E5.66718
G1 X168.901 Y67.029 E5.81729
G1 X169.632 Y66.469 E5.85404
G1 X170.384 Y65.989 E5.88965
G1 X170.899 Y65.69 E5.91342
G1 X171.714 Y65.263 E5.95014
G1 X172.564 Y64.908 E5.98691
G1 X173.439 Y64.629 E6.02356
G1 X173.939 Y64.493 E6.04424
G1 X174.698 Y64.316 E6.07535
G1 X176.116 Y64.107 E6.13256
G1 X176.856 Y64.059 E6.16215
G1 X177.606 Y64.035 E6.1921
G1 X178.349 Y64.028 E6.22176
G1 X179.332 Y64.039 E6.26099
G1 X180.159 Y64.073 E6.29403
G1 X180.874 Y64.124 E6.32264
G1 X181.789 Y64.229 E6.3594
G1 X182.521 Y64.373 E6.38917
G1 X183.705 Y64.677 E6.43796
G1 X184.818 Y65.066 E6.48502
G1 X185.654 Y65.452 E6.52177
G1 X186.442 Y65.902 E6.55799
G1 X186.887 Y66.182 E6.57897
G1 X187.644 Y66.706 E6.61572
G1 X188.353 Y67.293 E6.65246
G1 X189.009 Y67.94 E6.68923
G1 X189.707 Y68.773 E6.73261
G1 X190.203 Y69.453 E6.7662
G1 X190.801 Y70.402 E6.81097
G1 X191.216 Y71.224 E6.84772
G1 X191.693 Y72.491 E6.90176
G1 X191.898 Y73.205 E6.9314
G1 X192.198 Y74.542 E6.98609
G1 X192.319 Y75.645 E7.03038
G1 X192.35 Y76.481 E7.06377
G1 X192.344 Y77.079 E7.08764
G1 X192.307 Y78.205 E7.1326
G1 X192.171 Y80.347 E7.21827
G1 X192.056 Y81.714 E7.27302
G1 X191.803 Y85.141 E7.41017
G1 X191.754 Y85.645 E7.43038
G1 X191.647 Y86.45 E7.46279
G1 X191.142 Y89.361 E7.58071
G1 X190.965 Y90.298 E7.61877
G1 X190.797 Y91.094 E7.65124
G1 X190.254 Y93.468 E7.74844
G1 X190.007 Y94.48 E7.79002
G1 X189.836 Y95.127 E7.81673
G1 X189.115 Y97.675 E7.92242
G1 X188.835 Y98.614 E7.96153
G1 X188.612 Y99.305 E7.99051
G1 X187.766 Y101.785 E8.09509
G1 X187.435 Y102.716 E8.13453
G1 X187.163 Y103.427 E8.16491
G1 X186.161 Y105.926 E8.27237
G1 X185.807 Y106.774 E8.30904
G1 X185.529 Y107.402 E8.33646
G1 X184.388 Y109.861 E8.44465
G1 X183.964 Y110.743 E8.48371
G1 X183.643 Y111.376 E8.51204
G1 X182.379 Y113.761 E8.61977
G1 X181.956 Y114.536 E8.65501
G1 X181.541 Y115.254 E8.68811
G1 X180.208 Y117.478 E8.7916
G1 X179.682 Y118.328 E8.83149
G1 X179.274 Y118.955 E8.86135
G1 X177.802 Y121.143 E8.9666
G1 X177.272 Y121.906 E9.00368
G1 X176.804 Y122.551 E9.03548
G1 X175.23 Y124.641 E9.13991
G1 X174.656 Y125.384 E9.17738
G1 X174.138 Y126.022 E9.21018
G1 X172.475 Y128.003 E9.31342
G1 X171.847 Y128.73 E9.35176
G1 X171.31 Y129.326 E9.38378
G1 X169.539 Y131.224 E9.48739
G1 X168.867 Y131.925 E9.52614
G1 X168.317 Y132.472 E9.5571
G1 X166.384 Y134.336 E9.66428
G1 X165.77 Y134.915 E9.69797
G1 X165.16 Y135.461 E9.73064
G1 X163.098 Y137.25 E9.8396
G1 X162.43 Y137.814 E9.87449
G1 X161.696 Y138.403 E9.91205
G1 X159.804 Y139.874 E10.0077
G1 X159.03 Y140.459 E10.04643
G1 X158.399 Y140.915 E10.0775
G1 X156.227 Y142.428 E10.18315
G1 X155.43 Y142.969 E10.22159
G1 X154.765 Y143.397 E10.25316
G1 X152.549 Y144.774 E10.35729
G1 X151.72 Y145.273 E10.39591
G1 X151.072 Y145.644 E10.42571
G1 X148.754 Y146.921 E10.53134
G1 X147.911 Y147.37 E10.56946
G1 X147.241 Y147.708 E10.59941
G1 X144.836 Y148.873 E10.70606
G1 X144.028 Y149.25 E10.74165
G1 X143.237 Y149.599 E10.77616
G1 X140.871 Y150.592 E10.87857
G1 X139.998 Y150.947 E10.91618
G1 X139.214 Y151.242 E10.94962
G1 X136.789 Y152.114 E11.05247
G1 X135.863 Y152.432 E11.09155
G1 X135.166 Y152.655 E11.12076
G1 X132.608 Y153.426 E11.22739
G1 X131.71 Y153.682 E11.26466
G1 X130.98 Y153.874 E11.29478
G1 X128.383 Y154.508 E11.40148
G1 X127.475 Y154.716 E11.43866
G1 X126.73 Y154.87 E11.46902
G1 X124.1 Y155.367 E11.57585
G1 X123.208 Y155.523 E11.61199
G1 X122.431 Y155.642 E11.64336
G1 X119.808 Y155.996 E11.749
G1 X118.892 Y156.106 E11.78583
G1 X118.094 Y156.185 E11.81783
G1 X115.496 Y156.397 E11.92187
G1 X114.521 Y156.462 E11.96087
G1 X113.73 Y156.499 E11.99247
G1 X111.253 Y156.571 E12.09138
G1 X110.231 Y156.587 E12.13217
G1 X109.566 Y156.583 E12.15871
G1 X106.919 Y156.524 E12.26439
G1 X106.059 Y156.494 E12.29873
G1 X105.158 Y156.441 E12.33476
G1 X102.455 Y156.235 E12.44295
G1 X101.501 Y156.149 E12.48118
G1 X100.688 Y156.057 E12.51384
G1 X98.1 Y155.72 E12.618
G1 X97.165 Y155.584 E12.65571
G1 X96.364 Y155.45 E12.68813
G1 X93.797 Y154.976 E12.79231
G1 X92.899 Y154.798 E12.82885
G1 X92.088 Y154.618 E12.86201
G1 X89.608 Y154.024 E12.96379
G1 X88.625 Y153.773 E13.00428
G1 X87.878 Y153.566 E13.03522
G1 X85.345 Y152.815 E13.14067
G1 X84.465 Y152.542 E13.17744
G1 X83.76 Y152.305 E13.20713
G1 X81.208 Y151.4 E13.3152
G1 X80.401 Y151.102 E13.34953
G1 X79.597 Y150.783 E13.38406
G1 X77.176 Y149.777 E13.48869
G1 X76.349 Y149.421 E13.52463
G1 X75.627 Y149.09 E13.55633
G1 X73.293 Y147.973 E13.6596
G1 X72.379 Y147.52 E13.70032
G1 X71.725 Y147.178 E13.72977
G1 X69.392 Y145.907 E13.83581
G1 X68.581 Y145.451 E13.87295
G1 X67.928 Y145.063 E13.90326
G1 X65.647 Y143.659 E14.01017
G1 X64.875 Y143.17 E14.04664
G1 X64.229 Y142.739 E14.07763
G1 X62.05 Y141.234 E14.18333
G1 X61.293 Y140.696 E14.2204
G1 X60.643 Y140.211 E14.25277
G1 X58.586 Y138.624 E14.35646
G1 X57.82 Y138.017 E14.39547
G1 X57.225 Y137.522 E14.42636
G1 X55.31 Y135.876 E14.52714
G1 X54.584 Y135.233 E14.56585
G1 X54.026 Y134.718 E14.59616
G1 X52.083 Y132.862 E14.7034
G1 X51.401 Y132.194 E14.7415
G1 X50.813 Y131.59 E14.77515
G1 X49.042 Y129.71 E14.87823
G1 X48.412 Y129.023 E14.91544
G1 X47.863 Y128.396 E14.9487
G1 X46.202 Y126.433 E15.05133
G1 X45.582 Y125.681 E15.09023
G1 X45.077 Y125.037 E15.12289
G1 X43.535 Y123.007 E15.22464
G1 X42.933 Y122.191 E15.26511
G1 X42.521 Y121.609 E15.29357
G1 X41.001 Y119.373 E15.40148
G1 X40.507 Y118.625 E15.43726
G1 X40.076 Y117.937 E15.46966
G1 X38.703 Y115.669 E15.57548
G1 X38.245 Y114.887 E15.61165
G1 X37.882 Y114.236 E15.6414
G1 X36.609 Y111.859 E15.74902
G1 X36.189 Y111.048 E15.78547
G1 X35.846 Y110.347 E15.81662
G1 X34.718 Y107.941 E15.92268
G1 X34.344 Y107.118 E15.95876
G1 X34.028 Y106.375 E15.99098
G1 X33.05 Y103.971 E16.09457
G1 X32.69 Y103.052 E16.13396
G1 X32.42 Y102.307 E16.16559
G1 X31.572 Y99.855 E16.26914
G1 X31.269 Y98.94 E16.30761
G1 X31.052 Y98.235 E16.33705
G1 X30.314 Y95.67 E16.44358
G1 X30.064 Y94.754 E16.48147
G1 X29.862 Y93.939 E16.51499
G1 X29.291 Y91.474 E16.61598
G1 X29.061 Y90.416 E16.65919
G1 X28.952 Y89.862 E16.68172
G1 X28.768 Y88.847 E16.7229
G1 X28.45 Y87.021 E16.79687
G1 X28.312 Y86.159 E16.83171
G1 X28.21 Y85.284 E16.86687
G1 X28.14 Y84.349 E16.9043
G1 X28.082 Y83.41 E16.94185
G1 X27.851 Y80.676 E17.05135
G1 X27.748 Y79.227 E17.10933
G1 X27.686 Y78.148 E17.15247
G1 X27.651 Y77.169 E17.19157
G1 X27.649 Y76.541 E17.21663
G1 X27.663 Y76.009 E17.23787
G1 X27.727 Y75.091 E17.2746
G1 X27.945 Y73.842 E17.32521
G1 X28.126 Y73.112 E17.35522
G1 X28.5 Y71.907 E17.40558
G1 X28.859 Y71.059 E17.44233
G1 X29.29 Y70.246 E17.47906
G1 X29.718 Y69.575 E17.51083
G1 X30.096 Y69.035 E17.53713
G1 X30.771 Y68.178 E17.58067
G1 X31.406 Y67.511 E17.61743
G1 X32.096 Y66.902 E17.65416
G1 X33.162 Y66.145 E17.70635
G1 X33.857 Y65.719 E17.73888
G1 X34.794 Y65.223 E17.7812
G0 F9000 X34.979 Y65.578
G1 F1800 X35.814 Y65.233 E17.81725
G1 X36.858 Y64.917 E17.86079
G1 X37.39 Y64.79 E17.88262
G1 X38.972 Y64.524 E17.94665
G1 X39.666 Y64.471 E17.97443
G1 X40.237 Y64.449 E17.99723
G1 X41.252 Y64.431 E18.03775
G1 X42.227 Y64.438 E18.07667
G1 X43.133 Y64.468 E18.11285
G1 X43.97 Y64.525 E18.14633
G1 X44.867 Y64.637 E18.18241
G1 X45.388 Y64.739 E18.2036
G1 X45.915 Y64.857 E18.22515
G1 X46.786 Y65.094 E18.26118
G1 X47.634 Y65.406 E18.29724
G1 X48.546 Y65.843 E18.33761
G1 X49.094 Y66.14 E18.36248
G1 X49.868 Y66.605 E18.39852
G1 X50.87 Y67.362 E18.44864
G1 X51.502 Y67.904 E18.48187
G1 X53.512 Y69.577 E18.58625
G1 X55.509 Y71.147 E18.68764
G1 X57.566 Y72.672 E18.78984
G1 X59.623 Y74.106 E18.88992
G1 X61.77 Y75.518 E18.99248
G1 X63.901 Y76.834 E19.09245
G1 X66.134 Y78.126 E19.19541
G1 X68.337 Y79.32 E19.29542
G1 X70.629 Y80.478 E19.39791
G1 X72.904 Y81.55 E19.49829
G1 X75.245 Y82.571 E19.60022
G1 X77.623 Y83.532 E19.70259
G1 X79.966 Y84.398 E19.80229
G1 X82.407 Y85.225 E19.90515
G1 X84.811 Y85.965 E20.00555
G1 X87.267 Y86.644 E20.10725
G1 X89.729 Y87.253 E20.20847
G1 X92.232 Y87.796 E20.3107
G1 X94.682 Y88.254 E20.41018
G1 X97.203 Y88.653 E20.51205
G1 X99.766 Y88.985 E20.6152
G1 X102.259 Y89.236 E20.7152
G1 X104.785 Y89.419 E20.81628
G1 X107.314 Y89.53 E20.91732
G1 X109.883 Y89.57 E21.01986
G1 X112.416 Y89.538 E21.12097
G1 X114.923 Y89.435 E21.22111
G1 X117.501 Y89.257 E21.32425
G1 X120.008 Y89.011 E21.42479
G1 X122.523 Y88.693 E21.52597
G1 X125.024 Y88.304 E21.62699
G1 X127.539 Y87.841 E21.72906
G1 X130.013 Y87.312 E21.83003
G1 X132.483 Y86.71 E21.9315
G1 X134.915 Y86.044 E22.03214
G1 X137.37 Y85.298 E22.13455
G1 X139.773 Y84.491 E22.23572
G1 X142.163 Y83.612 E22.33736
G1 X144.51 Y82.674 E22.43824
G1 X146.851 Y81.66 E22.54006
G1 X149.166 Y80.579 E22.64203
G1 X151.404 Y79.456 E22.74197
G1 X153.645 Y78.251 E22.84353
G1 X155.863 Y76.975 E22.94565
G1 X158.035 Y75.643 E23.04735
G1 X160.145 Y74.266 E23.14791
G1 X162.24 Y72.812 E23.24969
G1 X164.257 Y71.326 E23.34968
G1 X166.285 Y69.742 E23.45239
G1 X169.158 Y67.336 E23.60195
G1 X169.875 Y66.787 E23.638
G1 X170.585 Y66.335 E23.67159
G1 X171.1 Y66.036 E23.69536
G1 X171.9 Y65.617 E23.7314
G1 X172.734 Y65.271 E23.76744
G1 X173.544 Y65.015 E23.80134
G1 X174.044 Y64.879 E23.82202
G1 X174.774 Y64.709 E23.85194
G1 X176.149 Y64.505 E23.90742
G1 X176.869 Y64.459 E23.93622
G1 X177.619 Y64.435 E23.96616
G1 X178.351 Y64.428 E23.99538
G1 X179.327 Y64.439 E24.03434
G1 X180.131 Y64.472 E24.06645
G1 X180.846 Y64.523 E24.09506
G1 X181.743 Y64.627 E24.13111
G1 X182.43 Y64.762 E24.15905
G1 X183.586 Y65.059 E24.20669
G1 X184.682 Y65.443 E24.25304
G1 X185.501 Y65.824 E24.28909
G1 X186.229 Y66.241 E24.32257
G1 X186.674 Y66.521 E24.34356
G1 X187.416 Y67.035 E24.37959
G1 X188.11 Y67.613 E24.41563
G1 X188.75 Y68.25 E24.45167
G1 X189.387 Y69.014 E24.49137
G1 X189.873 Y69.678 E24.52422
G1 X190.46 Y70.613 E24.56828
G1 X190.865 Y71.42 E24.60432
G1 X191.31 Y72.608 E24.65495
G1 X191.511 Y73.303 E24.68382
G1 X191.806 Y74.624 E24.73785
G1 X191.92 Y75.668 E24.77976
G1 X191.95 Y76.481 E24.81223
G1 X191.944 Y77.066 E24.83558
G1 X191.907 Y78.192 E24.88055
G1 X191.771 Y80.32 E24.96566
G1 X191.649 Y81.791 E25.02457
G1 X191.404 Y85.112 E25.15748
G1 X191.311 Y85.973 E25.19204
G1 X191.189 Y86.77 E25.22422
G1 X190.748 Y89.292 E25.32641
G1 X190.572 Y90.224 E25.36426
G1 X190.406 Y91.009 E25.39629
G1 X189.864 Y93.379 E25.49332
G1 X189.619 Y94.385 E25.53465
G1 X189.449 Y95.023 E25.561
G1 X188.73 Y97.566 E25.66647
G1 X188.452 Y98.499 E25.70533
G1 X188.232 Y99.181 E25.73393
G1 X187.387 Y101.656 E25.83831
G1 X187.058 Y102.581 E25.8775
G1 X186.79 Y103.283 E25.90749
G1 X185.79 Y105.777 E26.01473
G1 X185.438 Y106.619 E26.05116
G1 X185.164 Y107.239 E26.07821
G1 X184.025 Y109.693 E26.18619
G1 X183.604 Y110.569 E26.22498
G1 X183.287 Y111.193 E26.25292
G1 X182.026 Y113.573 E26.36042
G1 X181.605 Y114.344 E26.39548
G1 X181.196 Y115.052 E26.42811
G1 X179.865 Y117.272 E26.53142
G1 X179.342 Y118.117 E26.57108
G1 X178.94 Y118.735 E26.60051
G1 X177.47 Y120.919 E26.70558
G1 X176.944 Y121.678 E26.74244
G1 X176.482 Y122.314 E26.77382
G1 X174.911 Y124.401 E26.87807
G1 X174.34 Y125.139 E26.91532
G1 X173.829 Y125.768 E26.94766
G1 X172.169 Y127.745 E27.05069
G1 X171.545 Y128.469 E27.08884
G1 X171.014 Y129.057 E27.12046
G1 X169.247 Y130.951 E27.22385
G1 X168.578 Y131.648 E27.26241
G1 X168.036 Y132.187 E27.29292
G1 X166.106 Y134.048 E27.39992
G1 X165.496 Y134.624 E27.43341
G1 X164.895 Y135.162 E27.4656
G1 X162.836 Y136.948 E27.57439
G1 X162.172 Y137.507 E27.60903
G1 X161.447 Y138.09 E27.64616
G1 X159.558 Y139.558 E27.74165
G1 X158.789 Y140.14 E27.78014
G1 X158.166 Y140.589 E27.81079
G1 X155.998 Y142.1 E27.91626
G1 X155.206 Y142.637 E27.95445
G1 X154.55 Y143.06 E27.98561
G1 X152.338 Y144.434 E28.08954
G1 X151.514 Y144.93 E28.12792
G1 X150.874 Y145.297 E28.15737
G1 X148.561 Y146.57 E28.26274
G1 X147.723 Y147.017 E28.30065
G1 X147.063 Y147.35 E28.33016
G1 X144.662 Y148.513 E28.43664
G1 X143.859 Y148.887 E28.47199
G1 X143.077 Y149.232 E28.50611
G1 X140.716 Y150.223 E28.6083
G1 X139.847 Y150.577 E28.64575
G1 X139.076 Y150.867 E28.67863
G1 X136.654 Y151.737 E28.78134
G1 X135.734 Y152.053 E28.82017
G1 X135.046 Y152.274 E28.84901
G1 X132.492 Y153.043 E28.95547
G1 X131.601 Y153.298 E28.99246
G1 X130.88 Y153.487 E29.02221
G1 X128.288 Y154.119 E29.12869
G1 X127.386 Y154.326 E29.16563
G1 X126.651 Y154.478 E29.19558
G1 X124.026 Y154.974 E29.3022
G1 X123.14 Y155.129 E29.3381
G1 X122.373 Y155.246 E29.36907
G1 X119.754 Y155.6 E29.47455
G1 X118.844 Y155.709 E29.51113
G1 X118.056 Y155.787 E29.54274
G1 X115.464 Y155.998 E29.64653
G1 X114.495 Y156.063 E29.68529
G1 X113.713 Y156.099 E29.71654
G1 X111.242 Y156.171 E29.8152
G1 X110.226 Y156.187 E29.85576
G1 X109.57 Y156.183 E29.88194
G1 X106.929 Y156.124 E29.98737
G1 X106.073 Y156.094 E30.02156
G1 X105.183 Y156.042 E30.05714
G1 X102.486 Y155.836 E30.1651
G1 X101.538 Y155.75 E30.20309
G1 X100.735 Y155.66 E30.23534
G1 X98.151 Y155.323 E30.33935
G1 X97.223 Y155.188 E30.37678
G1 X96.432 Y155.056 E30.40878
G1 X93.87 Y154.583 E30.51277
G1 X92.978 Y154.406 E30.54906
G1 X92.176 Y154.228 E30.58185
G1 X89.701 Y153.635 E30.68343
G1 X88.724 Y153.385 E30.72368
G1 X87.987 Y153.181 E30.7542
G1 X85.459 Y152.432 E30.85943
G1 X84.584 Y152.16 E30.89601
G1 X83.889 Y151.927 E30.92526
G1 X81.342 Y151.023 E31.03313
