;FLAVOR:Marlin
;TIME:18099
;Filament used: 27.6502m
;Layer height: 0.2
;MINX:19.42
;MINY:19.421
;MINZ:0.24
;MAXX:200.57
;MAXY:200.589
;MAXZ:12.8
;Generated with Cura_SteamEngine 4.5.0
M140 S50
M105
M190 S50
M104 S215
M105
M109 S215
M82 ;absolute extrusion mode
M201 X500.00 Y500.00 Z100.00 E5000.00 ;Setup machine max acceleration
M203 X500.00 Y500.00 Z10.00 E50.00 ;Setup machine max feedrate
M204 P500.00 R1000.00 T500.00 ;Setup Print/Retract/Travel acceleration
M205 X8.00 Y8.00 Z0.40 E5.00 ;Setup Jerk
M220 S100 ;Reset Feedrate
M221 S100 ;Reset Flowrate

G28 ;Home

G92 E0 ;Reset Extruder
G1 Z2.0 F3000 ;Move Z Axis up
G1 X10.1 Y20 Z0.28 F5000.0 ;Move to start position
G1 X10.1 Y200.0 Z0.28 F1500.0 E15 ;Draw the first line
G1 X10.4 Y200.0 Z0.28 F5000.0 ;Move to side a little
G1 X10.4 Y20 Z0.28 F1500.0 E30 ;Draw the second line
G92 E0 ;Reset Extruder
G1 Z2.0 F3000 ;Move Z Axis up

G92 E0
G92 E0
G1 F1800 E-3
;LAYER_COUNT:68
;LAYER:0
M106 S63.8
M204 S500
M205 X6 Y6
G0 F9000 X46.111 Y45.8 Z0.24
;TYPE:SKIRT
G1 F1800 E0
G1 X46.949 Y44.987 E0.0466
G1 X49.512 Y42.594 E0.18655
G1 X50.05 Y42.106 E0.21554
G1 X50.949 Y41.332 E0.26289
G1 X53.617 Y39.127 E0.40103
G1 X54.199 Y38.657 E0.43089
G1 X55.199 Y37.897 E0.48102
G1 X57.942 Y35.892 E0.61663
G1 X58.587 Y35.433 E0.64823
G1 X59.595 Y34.758 E0.69665
G1 X62.626 Y32.809 E0.84047
G1 X63.259 Y32.415 E0.87023
G1 X64.405 Y31.744 E0.92323
G1 X67.383 Y30.082 E1.05935
G1 X68.036 Y29.728 E1.08899
G1 X69.102 Y29.188 E1.13669
G1 X72.243 Y27.674 E1.27586
G1 X72.921 Y27.358 E1.30571
G1 X74.009 Y26.887 E1.35303
G1 X77.043 Y25.643 E1.48391
G1 X77.818 Y25.336 E1.51718
G1 X78.804 Y24.977 E1.55906
G1 X82.145 Y23.826 E1.7001
G1 X82.857 Y23.591 E1.73002
G1 X83.978 Y23.254 E1.77674
G1 X87.376 Y22.306 E1.91754
G1 X88.043 Y22.129 E1.94508
G1 X89.228 Y21.849 E1.99368
G1 X92.751 Y21.09 E2.13752
G1 X93.492 Y20.939 E2.1677
G1 X94.815 Y20.712 E2.22128
G1 X97.988 Y20.233 E2.34935
G1 X98.822 Y20.119 E2.38295
G1 X99.828 Y20.006 E2.42335
G1 X103.555 Y19.66 E2.57275
G1 X104.249 Y19.605 E2.60053
G1 X105.566 Y19.538 E2.65317
G1 X108.986 Y19.435 E2.78973
G1 X109.751 Y19.421 E2.82026
G1 X110.931 Y19.433 E2.86736
G1 X114.171 Y19.528 E2.99673
G1 X115.028 Y19.564 E3.03097
G1 X116.102 Y19.638 E3.07394
G1 X119.812 Y19.963 E3.22258
G1 X120.49 Y20.032 E3.24978
G1 X121.798 Y20.202 E3.30242
G1 X125.18 Y20.711 E3.43893
G1 X125.931 Y20.833 E3.46929
G1 X127.079 Y21.053 E3.51595
G1 X130.249 Y21.725 E3.64528
G1 X131.115 Y21.921 E3.68072
G1 X132.119 Y22.175 E3.72205
G1 X135.56 Y23.115 E3.86442
G1 X136.23 Y23.307 E3.89224
G1 X137.365 Y23.667 E3.93976
G1 X140.657 Y24.781 E4.07847
G1 X141.397 Y25.042 E4.10979
G1 X142.507 Y25.469 E4.15726
G1 X145.711 Y26.771 E4.29529
G1 X146.426 Y27.074 E4.32629
G1 X147.499 Y27.561 E4.37332
G1 X150.586 Y29.037 E4.50988
G1 X151.326 Y29.404 E4.54285
G1 X152.362 Y29.952 E4.58963
G1 X155.351 Y31.608 E4.72601
G1 X156.063 Y32.014 E4.75873
G1 X157.091 Y32.64 E4.80676
G1 X160.006 Y34.491 E4.94458
G1 X160.621 Y34.891 E4.97386
G1 X161.628 Y35.59 E5.02279
G1 X164.4 Y37.593 E5.15929
G1 X165.04 Y38.068 E5.1911
G1 X165.996 Y38.82 E5.23964
G1 X168.621 Y40.966 E5.37497
G1 X169.249 Y41.494 E5.40771
G1 X170.157 Y42.301 E5.4562
G1 X172.817 Y44.756 E5.60067
G1 X173.339 Y45.25 E5.62936
G1 X174.248 Y46.161 E5.68072
G1 X176.491 Y48.505 E5.81021
G1 X177.056 Y49.111 E5.84327
G1 X177.768 Y49.916 E5.88617
G1 X180.036 Y52.579 E6.02578
G1 X180.521 Y53.163 E6.05608
G1 X181.274 Y54.123 E6.10477
G1 X183.34 Y56.864 E6.24177
G1 X183.794 Y57.482 E6.27237
G1 X184.494 Y58.496 E6.32155
G1 X186.462 Y61.46 E6.46355
G1 X186.884 Y62.114 E6.49462
G1 X187.571 Y63.246 E6.54747
G1 X189.176 Y66.023 E6.67548
G1 X189.593 Y66.771 E6.70966
G1 X190.07 Y67.675 E6.75046
G1 X191.645 Y70.804 E6.89027
G1 X192 Y71.531 E6.92256
G1 X192.477 Y72.583 E6.96867
G1 X193.843 Y75.755 E7.10651
G1 X194.145 Y76.481 E7.13789
G1 X194.575 Y77.599 E7.1857
G1 X195.821 Y81.048 E7.33206
G1 X196.04 Y81.68 E7.35876
G1 X196.45 Y82.983 E7.41328
G1 X197.391 Y86.2 E7.54706
G1 X197.614 Y86.999 E7.58017
G1 X197.896 Y88.135 E7.62688
G1 X198.67 Y91.514 E7.76524
G1 X198.831 Y92.264 E7.79585
G1 X199.048 Y93.431 E7.84323
G1 X199.58 Y96.628 E7.97258
G1 X199.711 Y97.483 E8.00711
G1 X199.843 Y98.53 E8.04923
G1 X200.22 Y102.032 E8.18981
G1 X200.29 Y102.773 E8.21951
G1 X200.371 Y103.977 E8.26767
G1 X200.533 Y107.379 E8.40361
G1 X200.562 Y108.228 E8.43751
G1 X200.57 Y109.369 E8.48306
G1 X200.526 Y113.007 E8.62827
G1 X200.507 Y113.759 E8.65829
G1 X200.437 Y115.058 E8.71021
G1 X200.2 Y118.266 E8.8386
G1 X200.127 Y119.091 E8.87165
G1 X200.001 Y120.199 E8.91616
G1 X199.547 Y123.624 E9.05406
G1 X199.432 Y124.408 E9.08568
G1 X199.235 Y125.54 E9.13154
G1 X198.522 Y129.208 E9.28068
G1 X198.389 Y129.848 E9.30677
G1 X198.086 Y131.123 E9.35908
G1 X197.271 Y134.264 E9.48859
G1 X197.06 Y135.037 E9.52057
G1 X196.748 Y136.072 E9.56372
G1 X195.666 Y139.435 E9.70472
G1 X195.433 Y140.125 E9.73379
G1 X195.012 Y141.271 E9.78251
G1 X193.767 Y144.47 E9.91952
G1 X193.48 Y145.182 E9.95016
G1 X193.001 Y146.277 E9.99786
G1 X191.48 Y149.584 E10.14314
G1 X191.16 Y150.256 E10.17285
G1 X190.566 Y151.418 E10.22494
G1 X189.042 Y154.252 E10.35336
G1 X188.634 Y154.989 E10.38699
G1 X188.125 Y155.855 E10.42708
G1 X186.24 Y158.923 E10.57079
G1 X185.87 Y159.509 E10.59846
G1 X185.199 Y160.509 E10.64652
G1 X183.088 Y163.525 E10.79345
G1 X182.675 Y164.099 E10.82168
G1 X181.892 Y165.124 E10.87316
G1 X179.735 Y167.832 E11.01133
G1 X179.281 Y168.387 E11.03995
G1 X178.48 Y169.313 E11.08882
G1 X176.169 Y171.881 E11.22671
G1 X175.661 Y172.433 E11.25665
G1 X174.8 Y173.314 E11.30581
G1 X172.522 Y175.56 E11.43349
G1 X171.874 Y176.182 E11.46934
G1 X171.13 Y176.861 E11.50955
G1 X168.441 Y179.223 E11.6524
G1 X167.907 Y179.68 E11.68045
G1 X166.973 Y180.436 E11.72841
G1 X164.214 Y182.582 E11.86791
G1 X163.612 Y183.036 E11.89801
G1 X162.647 Y183.726 E11.94536
G1 X159.647 Y185.784 E12.09056
G1 X159.045 Y186.185 E12.11943
G1 X157.93 Y186.884 E12.17195
G1 X155.178 Y188.529 E12.29992
G1 X154.417 Y188.97 E12.33502
G1 X153.566 Y189.436 E12.37375
G1 X150.417 Y191.081 E12.51554
G1 X149.698 Y191.444 E12.54769
G1 X148.682 Y191.925 E12.59256
G1 X145.497 Y193.354 E12.73189
G1 X144.757 Y193.673 E12.76405
G1 X143.697 Y194.098 E12.80963
G1 X140.491 Y195.313 E12.94647
G1 X139.691 Y195.603 E12.98043
G1 X138.607 Y195.965 E13.02604
G1 X135.268 Y197.005 E13.16563
G1 X134.568 Y197.213 E13.19477
G1 X133.378 Y197.532 E13.24394
G1 X130.056 Y198.352 E13.38051
G1 X129.297 Y198.529 E13.41162
G1 X128.096 Y198.773 E13.46053
G1 X124.726 Y199.395 E13.59731
G1 X123.972 Y199.524 E13.62784
G1 X122.758 Y199.697 E13.67678
G1 X119.373 Y200.114 E13.8129
G1 X118.568 Y200.202 E13.84523
G1 X117.414 Y200.297 E13.89144
G1 X113.932 Y200.515 E14.03069
G1 X113.176 Y200.553 E14.0609
G1 X112.011 Y200.579 E14.10741
G1 X108.497 Y200.589 E14.24766
G1 X107.759 Y200.581 E14.27712
G1 X106.6 Y200.538 E14.32341
G1 X102.917 Y200.328 E14.47064
G1 X102.226 Y200.279 E14.49829
G1 X100.892 Y200.147 E14.55179
G1 X97.731 Y199.768 E14.67886
G1 X96.895 Y199.658 E14.71251
G1 X95.791 Y199.481 E14.75714
G1 X92.445 Y198.883 E14.8928
G1 X91.577 Y198.715 E14.92809
G1 X90.489 Y198.475 E14.97256
G1 X87.118 Y197.664 E15.11094
G1 X86.341 Y197.464 E15.14296
G1 X85.207 Y197.143 E15.19
G1 X81.867 Y196.122 E15.3294
G1 X81.166 Y195.898 E15.35877
G1 X80.064 Y195.512 E15.40537
G1 X76.805 Y194.298 E15.54418
G1 X76.054 Y194.007 E15.57632
G1 X75.04 Y193.583 E15.62019
G1 X71.643 Y192.081 E15.76843
G1 X70.982 Y191.777 E15.79747
G1 X69.823 Y191.207 E15.84902
G1 X66.767 Y189.622 E15.98642
G1 X66.11 Y189.271 E16.01615
G1 X65.062 Y188.672 E16.06433
G1 X62.245 Y186.99 E16.19528
G1 X61.557 Y186.566 E16.22753
G1 X60.7 Y186.009 E16.26833
G1 X57.769 Y184.023 E16.40964
G1 X57.133 Y183.578 E16.44062
G1 X56.162 Y182.86 E16.48882
G1 X53.453 Y180.778 E16.62518
G1 X52.834 Y180.29 E16.65664
G1 X51.914 Y179.521 E16.7045
G1 X49.274 Y177.227 E16.84409
G1 X48.735 Y176.746 E16.87292
G1 X47.892 Y175.952 E16.91914
G1 X45.392 Y173.503 E17.05882
G1 X44.854 Y172.961 E17.0893
G1 X44.03 Y172.086 E17.13727
G1 X41.751 Y169.569 E17.27279
G1 X41.172 Y168.909 E17.30783
G1 X40.454 Y168.05 E17.35252
G1 X38.279 Y165.339 E17.49124
G1 X37.806 Y164.733 E17.52192
G1 X37.107 Y163.785 E17.56893
G1 X35.094 Y160.942 E17.70797
G1 X34.665 Y160.319 E17.73816
G1 X33.999 Y159.291 E17.78704
G1 X32.181 Y156.365 E17.92453
G1 X31.773 Y155.688 E17.95608
G1 X31.237 Y154.745 E17.99937
G1 X29.434 Y151.416 E18.15048
G1 X29.151 Y150.878 E18.17474
G1 X28.551 Y149.65 E18.22929
G1 X27.213 Y146.767 E18.35614
G1 X26.845 Y145.94 E18.39227
G1 X26.46 Y145.021 E18.43204
G1 X25.099 Y141.58 E18.57973
G1 X24.835 Y140.885 E18.6094
G1 X24.396 Y139.622 E18.66277
G1 X23.419 Y136.619 E18.78881
G1 X23.155 Y135.769 E18.82433
G1 X22.869 Y134.755 E18.86638
G1 X21.98 Y131.373 E19.00595
G1 X21.801 Y130.657 E19.03541
G1 X21.533 Y129.435 E19.08534
G1 X20.834 Y125.937 E19.22771
G1 X20.692 Y125.178 E19.25853
G1 X20.49 Y123.886 E19.31073
G1 X20.058 Y120.701 E19.43901
G1 X19.957 Y119.879 E19.47206
G1 X19.851 Y118.765 E19.51673
G1 X19.587 Y115.373 E19.65252
G1 X19.531 Y114.513 E19.68692
G1 X19.49 Y113.384 E19.73201
G1 X19.424 Y109.667 E19.88038
G1 X19.42 Y109.018 E19.90629
G1 X19.452 Y107.681 E19.95966
G1 X19.592 Y104.522 E20.08587
G1 X19.644 Y103.607 E20.12245
G1 X19.736 Y102.528 E20.16567
G1 X20.087 Y99.087 E20.30372
G1 X20.177 Y98.31 E20.33494
G1 X20.342 Y97.161 E20.38127
G1 X20.9 Y93.744 E20.51946
G1 X21.038 Y92.961 E20.55119
G1 X21.273 Y91.815 E20.59788
G1 X22.03 Y88.455 E20.73535
G1 X22.222 Y87.656 E20.76814
G1 X22.521 Y86.536 E20.81441
G1 X23.481 Y83.216 E20.95235
G1 X23.709 Y82.467 E20.9836
G1 X24.081 Y81.348 E21.03066
G1 X25.24 Y78.085 E21.16887
G1 X25.503 Y77.371 E21.19924
G1 X25.958 Y76.239 E21.24793
G1 X27.298 Y73.083 E21.38478
G1 X27.629 Y72.331 E21.41757
G1 X28.108 Y71.317 E21.46233
G1 X29.663 Y68.185 E21.60189
G1 X30.008 Y67.513 E21.63204
G1 X30.593 Y66.445 E21.68064
G1 X32.315 Y63.442 E21.81881
G1 X32.694 Y62.803 E21.84846
G1 X33.347 Y61.764 E21.89744
G1 X35.346 Y58.718 E22.04285
G1 X35.733 Y58.145 E22.07045
G1 X36.501 Y57.075 E22.12302
G1 X38.445 Y54.479 E22.25246
G1 X38.913 Y53.869 E22.28315
G1 X39.638 Y52.977 E22.32902
G1 X41.851 Y50.351 E22.46609
G1 X42.387 Y49.733 E22.49874
G1 X43.16 Y48.887 E22.54448
G1 X45.576 Y46.345 E22.68445
G1 X46.111 Y45.8 E22.71493
G0 F9000 X46.396 Y46.081
G1 F1800 X47.226 Y45.275 E22.7611
G1 X49.785 Y42.887 E22.9008
G1 X50.318 Y42.403 E22.92954
G1 X51.209 Y41.636 E22.97646
G1 X53.872 Y39.435 E23.11435
G1 X54.45 Y38.969 E23.14398
G1 X55.44 Y38.217 E23.1936
G1 X58.178 Y36.215 E23.32898
G1 X58.818 Y35.76 E23.36032
G1 X59.816 Y35.091 E23.40828
G1 X62.842 Y33.146 E23.55185
G1 X63.47 Y32.755 E23.58137
G1 X64.606 Y32.09 E23.63391
G1 X67.578 Y30.431 E23.76976
G1 X68.226 Y30.08 E23.79917
G1 X69.281 Y29.546 E23.84637
G1 X72.416 Y28.034 E23.98528
G1 X73.089 Y27.721 E24.01491
G1 X74.166 Y27.255 E24.06174
G1 X77.194 Y26.013 E24.19237
G1 X77.964 Y25.708 E24.22542
G1 X78.939 Y25.353 E24.26684
G1 X82.275 Y24.204 E24.40766
G1 X82.982 Y23.971 E24.43737
G1 X84.092 Y23.638 E24.48363
G1 X87.484 Y22.691 E24.62418
G1 X88.145 Y22.515 E24.65149
G1 X89.318 Y22.239 E24.69958
G1 X92.835 Y21.481 E24.84318
G1 X93.572 Y21.331 E24.87319
G1 X94.881 Y21.107 E24.9262
G1 X98.048 Y20.629 E25.05403
G1 X98.875 Y20.515 E25.08735
G1 X99.871 Y20.404 E25.12735
G1 X103.592 Y20.058 E25.2765
G1 X104.28 Y20.004 E25.30405
G1 X105.585 Y19.938 E25.3562
G1 X108.998 Y19.835 E25.49248
G1 X109.758 Y19.821 E25.52282
G1 X110.925 Y19.833 E25.5694
G1 X114.159 Y19.927 E25.69853
G1 X115.01 Y19.964 E25.73253
G1 X116.073 Y20.037 E25.77505
G1 X119.777 Y20.361 E25.92345
G1 X120.448 Y20.43 E25.95038
G1 X121.745 Y20.598 E26.00257
G1 X125.12 Y21.106 E26.1388
G1 X125.866 Y21.228 E26.16897
G1 X127.002 Y21.446 E26.21513
G1 X130.166 Y22.116 E26.34422
G1 X131.026 Y22.311 E26.37941
G1 X132.02 Y22.562 E26.42033
G1 X135.454 Y23.501 E26.56242
G1 X136.119 Y23.692 E26.59003
G1 X137.243 Y24.048 E26.63709
G1 X140.529 Y25.16 E26.77555
G1 X141.263 Y25.419 E26.80661
G1 X142.362 Y25.842 E26.85361
G1 X145.561 Y27.141 E26.99142
G1 X146.27 Y27.442 E27.02216
G1 X147.332 Y27.925 E27.06873
G1 X150.413 Y29.398 E27.20503
G1 X151.149 Y29.762 E27.2378
G1 X152.174 Y30.305 E27.28409
G1 X155.157 Y31.958 E27.42021
G1 X155.864 Y32.362 E27.45271
G1 X156.882 Y32.981 E27.50026
G1 X159.792 Y34.828 E27.63783
G1 X160.402 Y35.226 E27.6669
G1 X161.398 Y35.918 E27.7153
G1 X164.166 Y37.917 E27.85158
G1 X164.801 Y38.388 E27.88313
G1 X165.748 Y39.133 E27.93122
G1 X168.368 Y41.275 E28.06629
G1 X168.991 Y41.8 E28.09881
G1 X169.891 Y42.599 E28.14684
G1 X172.546 Y45.05 E28.29106
G1 X173.063 Y45.54 E28.31949
G1 X173.964 Y46.443 E28.3704
G1 X176.202 Y48.782 E28.49961
G1 X176.763 Y49.383 E28.53242
G1 X177.467 Y50.18 E28.57486
G1 X179.732 Y52.838 E28.71424
G1 X180.213 Y53.418 E28.74432
G1 X180.958 Y54.368 E28.7925
G1 X183.021 Y57.105 E28.9293
G1 X183.471 Y57.718 E28.95965
G1 X184.164 Y58.722 E29.00834
G1 X186.128 Y61.681 E29.15008
G1 X186.548 Y62.331 E29.18097
G1 X187.228 Y63.452 E29.2333
G1 X188.83 Y66.223 E29.36105
G1 X189.244 Y66.965 E29.39496
G1 X189.715 Y67.86 E29.43533
G1 X191.288 Y70.983 E29.57489
G1 X191.64 Y71.706 E29.60699
G1 X192.112 Y72.746 E29.65257
G1 X193.476 Y75.913 E29.7902
G1 X193.776 Y76.635 E29.8214
G1 X194.201 Y77.741 E29.86869
G1 X195.444 Y81.183 E30.01475
G1 X195.662 Y81.811 E30.04129
G1 X196.068 Y83.102 E30.0953
G1 X197.007 Y86.312 E30.22879
G1 X197.229 Y87.106 E30.26169
G1 X197.508 Y88.23 E30.30792
G1 X198.28 Y91.603 E30.44602
G1 X198.44 Y92.348 E30.47643
G1 X198.654 Y93.502 E30.52328
G1 X199.185 Y96.694 E30.65243
G1 X199.315 Y97.543 E30.68671
G1 X199.446 Y98.578 E30.72835
G1 X199.822 Y102.075 E30.86872
G1 X199.892 Y102.81 E30.89819
G1 X199.971 Y104.002 E30.94587
G1 X200.134 Y107.398 E31.08157
G1 X200.162 Y108.242 E31.11527
G1 X200.17 Y109.37 E31.1603
G1 X200.126 Y113.002 E31.30527
G1 X200.107 Y113.748 E31.33505
G1 X200.038 Y115.035 E31.38649
G1 X199.801 Y118.236 E31.5146
G1 X199.729 Y119.055 E31.54742
G1 X199.604 Y120.152 E31.59148
G1 X199.15 Y123.571 E31.72914
G1 X199.036 Y124.349 E31.76052
G1 X198.841 Y125.47 E31.80594
G1 X198.13 Y129.131 E31.95479
G1 X197.998 Y129.765 E31.98063
G1 X197.697 Y131.029 E32.03249
G1 X196.884 Y134.163 E32.16172
G1 X196.674 Y134.932 E32.19353
G1 X196.366 Y135.955 E32.23617
G1 X195.285 Y139.312 E32.37693
G1 X195.054 Y139.997 E32.40579
G1 X194.637 Y141.132 E32.45405
G1 X193.394 Y144.325 E32.5908
G1 X193.109 Y145.032 E32.62123
G1 X192.635 Y146.115 E32.66841
G1 X191.117 Y149.417 E32.81346
G1 X190.799 Y150.084 E32.84295
G1 X190.21 Y151.234 E32.89452
G1 X188.69 Y154.062 E33.02266
G1 X188.284 Y154.795 E33.05611
G1 X187.781 Y155.651 E33.09573
G1 X185.899 Y158.714 E33.23922
G1 X185.532 Y159.295 E33.26665
G1 X184.868 Y160.285 E33.31422
G1 X182.761 Y163.295 E33.46087
G1 X182.35 Y163.865 E33.48891
G1 X181.575 Y164.88 E33.53988
G1 X179.422 Y167.583 E33.67781
G1 X178.972 Y168.134 E33.7062
G1 X178.178 Y169.051 E33.75461
G1 X175.872 Y171.614 E33.89222
G1 X175.367 Y172.161 E33.92193
G1 X174.515 Y173.034 E33.97062
G1 X172.242 Y175.275 E34.09802
G1 X171.598 Y175.893 E34.13364
G1 X170.861 Y176.565 E34.17345
G1 X168.177 Y178.922 E34.31602
G1 X167.647 Y179.376 E34.34387
G1 X166.723 Y180.124 E34.39132
G1 X163.969 Y182.266 E34.53057
G1 X163.371 Y182.717 E34.56046
G1 X162.416 Y183.4 E34.60732
G1 X159.421 Y185.454 E34.75227
G1 X158.824 Y185.852 E34.78091
G1 X157.719 Y186.544 E34.83294
G1 X154.973 Y188.186 E34.96064
G1 X154.217 Y188.624 E34.99551
G1 X153.375 Y189.084 E35.03381
G1 X150.232 Y190.727 E35.17536
G1 X149.519 Y191.087 E35.20724
G1 X148.512 Y191.563 E35.25169
G1 X145.333 Y192.989 E35.39075
G1 X144.6 Y193.305 E35.42261
G1 X143.549 Y193.726 E35.4678
G1 X140.35 Y194.939 E35.60435
G1 X139.555 Y195.227 E35.6381
G1 X138.482 Y195.585 E35.68325
G1 X135.149 Y196.624 E35.82259
G1 X134.454 Y196.83 E35.85152
G1 X133.276 Y197.145 E35.90019
G1 X129.96 Y197.964 E36.03651
G1 X129.207 Y198.14 E36.06738
G1 X128.018 Y198.381 E36.1158
G1 X124.653 Y199.002 E36.25237
G1 X123.905 Y199.129 E36.28265
G1 X122.703 Y199.301 E36.33111
