;FLAVOR:Marlin
;TIME:2319
;Filament used: 1.82896m
;Layer height: 0.2
;MINX:84.41
;MINY:63.41
;MINZ:0.24
;MAXX:135.59
;MAXY:156.6
;MAXZ:8.8
;Generated with Cura_SteamEngine 4.10.0
M82 ;absolute extrusion mode
M201 X500.00 Y500.00 Z100.00 E5000.00 ;Setup machine max acceleration
M203 X500.00 Y500.00 Z10.00 E50.00 ;Setup machine max feedrate
M204 P500.00 R1000.00 T500.00 ;Setup Print/Retract/Travel acceleration
M205 X8.00 Y8.00 Z0.40 E5.00 ;Setup Jerk
M220 S100 ;Reset Feedrate
M221 S100 ;Reset Flowrate

;*** Start Dual Nozzle/Bed Preheating ***
M140 S50 ; start preheating the bed
M104 S200 ?T0 ; start preheating hotend
M190 S50 ; heat to Cura Bed setting and WAIT
M109 S200 ?T0 ; heat to Cura Hotend and WAIT
;*** End Preheating ***

;*** Single Print Start Tone
M300 S1000 P500 ; chirp to indicate starting to print
;*** End Single Start Tone

G28 ;Home

G92 E0 ;Reset Extruder
G1 Z2.0 F3000 ;Move Z Axis up

G1 X10.1 Y20 Z0.28 F5000.0 ;Move to start position
G1 X10.1 Y200.0 Z0.28 F1500.0 E15 ;Draw the first line
G1 X10.4 Y200.0 Z0.28 F5000.0 ;Move to side a little
G1 X10.4 Y20 Z0.28 F1500.0 E30 ;Draw the second line
G92 E0 ;Reset Extruder
G1 Z2.0 F3000 ;Move Z Axis up
G92 E0
G92 E0
G1 F2400 E-3.2
;LAYER_COUNT:42
;LAYER:0
M106 S63.8
M204 S500
M205 X6 Y6
G0 F9000 X88.757 Y70.747 Z0.24
;TYPE:SKIRT
G1 F1440 E0
G1 F1800 X89.087 Y70.347 E0.0207
G1 X89.565 Y69.783 E0.0502
G1 X90.19 Y69.107 E0.08695
G1 X90.82 Y68.531 E0.12102
G1 X91.485 Y67.971 E0.15572
G1 X91.827 Y67.692 E0.17333
G1 X92.392 Y67.241 E0.20219
G1 X93.136 Y66.698 E0.23895
G1 X93.884 Y66.244 E0.27387
G1 X94.592 Y65.854 E0.30613
G1 X95.099 Y65.583 E0.32908
G1 X95.718 Y65.265 E0.35685
G1 X96.555 Y64.881 E0.39361
G1 X97.331 Y64.598 E0.42658
G1 X97.984 Y64.389 E0.45394
G1 X98.597 Y64.203 E0.47951
G1 X99.312 Y63.997 E0.50921
G1 X100.207 Y63.781 E0.54595
G1 X101.062 Y63.649 E0.58048
G1 X101.885 Y63.557 E0.61354
G1 X102.422 Y63.505 E0.63507
G1 X103.115 Y63.447 E0.66282
G1 X104.035 Y63.41 E0.69957
G1 X104.628 Y63.429 E0.72325
G1 X107.339 Y63.549 E0.83156
G1 X109.886 Y63.589 E0.93323
G1 X112.392 Y63.557 E1.03326
G1 X115.063 Y63.447 E1.13995
G1 X115.423 Y63.427 E1.15434
G1 X116.367 Y63.417 E1.19202
G1 X116.944 Y63.451 E1.21509
G1 X117.713 Y63.518 E1.2459
G1 X118.236 Y63.57 E1.26688
G1 X118.945 Y63.65 E1.29536
G1 X119.854 Y63.793 E1.33208
G1 X120.685 Y63.996 E1.36622
G1 X121.477 Y64.225 E1.39913
G1 X122.002 Y64.385 E1.42103
G1 X122.647 Y64.59 E1.44805
G1 X123.511 Y64.907 E1.48478
G1 X124.301 Y65.275 E1.51956
G1 X125.077 Y65.677 E1.55444
G1 X125.485 Y65.897 E1.57294
G1 X126.127 Y66.252 E1.60222
G1 X126.913 Y66.732 E1.63898
G1 X127.603 Y67.237 E1.67311
G1 X128.25 Y67.754 E1.70616
G1 X128.623 Y68.061 E1.72545
G1 X129.192 Y68.541 E1.75516
G1 X129.869 Y69.164 E1.79188
G1 X130.458 Y69.807 E1.82668
G1 X131.004 Y70.455 E1.8605
G1 X131.308 Y70.827 E1.87968
G1 X131.759 Y71.392 E1.90853
G1 X132.302 Y72.136 E1.94529
G1 X132.756 Y72.884 E1.98021
G1 X133.146 Y73.592 E2.01248
G1 X133.411 Y74.089 E2.03496
G1 X133.734 Y74.716 E2.06311
G1 X134.12 Y75.552 E2.09986
G1 X134.418 Y76.374 E2.13475
G1 X134.66 Y77.143 E2.16693
G1 X134.795 Y77.592 E2.18564
G1 X135.002 Y78.309 E2.21543
G1 X135.219 Y79.204 E2.25219
G1 X135.353 Y80.075 E2.28736
G1 X135.442 Y80.883 E2.3198
G1 X135.495 Y81.42 E2.34134
G1 X135.553 Y82.112 E2.36906
G1 X135.59 Y83.032 E2.4058
G1 X135.553 Y83.885 E2.43988
G1 X135.482 Y84.713 E2.47305
G1 X135.43 Y85.236 E2.49403
G1 X135.35 Y85.945 E2.5225
G1 X135.207 Y86.854 E2.55923
G1 X135.003 Y87.689 E2.59354
G1 X134.775 Y88.476 E2.62624
G1 X134.617 Y88.996 E2.64793
G1 X134.413 Y89.639 E2.67486
G1 X134.096 Y90.503 E2.71159
G1 X133.73 Y91.291 E2.74626
G1 X133.378 Y91.974 E2.77693
G1 X132.217 Y94.297 E2.88058
G1 X131.158 Y96.574 E2.98081
G1 X130.141 Y98.933 E3.08334
G1 X129.199 Y101.297 E3.18491
G1 X128.348 Y103.631 E3.28406
G1 X127.537 Y106.064 E3.38642
G1 X126.813 Y108.455 E3.48613
G1 X126.145 Y110.912 E3.58775
G1 X125.56 Y113.333 E3.68716
G1 X125.022 Y115.862 E3.79036
G1 X124.574 Y118.325 E3.89028
G1 X124.187 Y120.844 E3.99199
G1 X123.878 Y123.32 E4.09158
G1 X123.635 Y125.84 E4.19263
G1 X123.465 Y128.359 E4.2934
G1 X123.365 Y130.916 E4.39553
G1 X123.336 Y133.198 E4.48662
G1 X123.335 Y145.423 E4.97454
G1 X123.325 Y146.138 E5.00308
G1 X123.272 Y147.057 E5.03982
G1 X123.14 Y147.968 E5.07656
G1 X122.929 Y148.865 E5.11334
G1 X122.641 Y149.739 E5.15007
G1 X122.278 Y150.585 E5.18681
G1 X121.843 Y151.397 E5.22358
G1 X121.34 Y152.168 E5.26032
G1 X120.771 Y152.892 E5.29707
G1 X120.142 Y153.564 E5.33381
G1 X119.457 Y154.179 E5.37055
G1 X118.721 Y154.732 E5.40729
G1 X117.94 Y155.219 E5.44403
G1 X117.119 Y155.637 E5.4808
G1 X116.266 Y155.982 E5.51752
G1 X115.385 Y156.251 E5.55429
G1 X114.485 Y156.443 E5.59102
G1 X113.571 Y156.556 E5.62778
G1 X113.055 Y156.585 E5.6484
G1 X112.404 Y156.6 E5.67439
G1 X107.834 Y156.599 E5.85679
G1 X107.136 Y156.59 E5.88465
G1 X106.217 Y156.538 E5.92139
G1 X105.306 Y156.407 E5.95812
G1 X104.41 Y156.197 E5.99485
G1 X103.535 Y155.91 E6.03161
G1 X102.688 Y155.548 E6.06837
G1 X101.876 Y155.114 E6.10512
G1 X101.105 Y154.612 E6.14184
G1 X100.38 Y154.044 E6.1786
G1 X99.707 Y153.415 E6.21536
G1 X99.092 Y152.731 E6.25208
G1 X98.538 Y151.996 E6.28881
G1 X98.05 Y151.215 E6.32557
G1 X97.631 Y150.395 E6.36232
G1 X97.285 Y149.542 E6.39906
G1 X97.015 Y148.662 E6.4358
G1 X96.822 Y147.761 E6.47258
G1 X96.708 Y146.848 E6.5093
G1 X96.677 Y146.277 E6.53212
G1 X96.664 Y145.658 E6.55683
G1 X96.664 Y133.219 E7.0533
G1 X96.627 Y130.594 E7.15808
G1 X96.52 Y128.086 E7.25827
G1 X96.342 Y125.565 E7.35914
G1 X96.092 Y123.047 E7.46013
G1 X95.771 Y120.536 E7.56117
G1 X95.384 Y118.074 E7.66064
G1 X94.915 Y115.552 E7.76302
G1 X94.383 Y113.08 E7.86394
G1 X93.783 Y110.63 E7.96462
G1 X93.116 Y108.207 E8.06492
G1 X92.371 Y105.773 E8.16652
G1 X91.553 Y103.348 E8.26866
G1 X90.692 Y101.013 E8.36799
G1 X89.743 Y98.651 E8.46959
G1 X88.744 Y96.356 E8.56949
G1 X87.661 Y94.045 E8.67135
G1 X86.634 Y91.996 E8.76283
G1 X86.264 Y91.277 E8.7951
G1 X85.879 Y90.441 E8.83184
G1 X85.588 Y89.642 E8.86578
G1 X85.34 Y88.858 E8.8986
G1 X85.202 Y88.4 E8.91769
G1 X84.996 Y87.684 E8.94742
G1 X84.78 Y86.789 E8.98417
G1 X84.649 Y85.938 E9.01854
G1 X84.557 Y85.115 E9.05159
G1 X84.505 Y84.578 E9.07312
G1 X84.447 Y83.885 E9.10088
G1 X84.41 Y82.965 E9.13763
G1 X84.447 Y82.111 E9.17174
G1 X84.518 Y81.287 E9.20475
G1 X84.571 Y80.756 E9.22605
G1 X84.652 Y80.043 E9.25469
G1 X84.795 Y79.134 E9.29142
G1 X84.997 Y78.309 E9.32532
G1 X85.18 Y77.673 E9.35173
G1 X85.383 Y77.003 E9.37967
G1 X85.587 Y76.36 E9.4066
G1 X85.904 Y75.496 E9.44333
G1 X86.273 Y74.701 E9.47831
G1 X86.6 Y74.068 E9.50675
G1 X86.908 Y73.494 E9.53275
G1 X87.266 Y72.85 E9.56216
G1 X87.924 Y71.813 E9.61117
G1 X88.272 Y71.352 E9.63423
G1 X88.757 Y70.747 E9.66518
G0 F9000 X89.066 Y71.001
G1 F1800 X89.392 Y70.605 E9.68565
G1 X89.87 Y70.041 E9.71515
G1 X90.484 Y69.379 E9.75119
G1 X91.077 Y68.837 E9.78326
G1 X91.739 Y68.28 E9.81779
G1 X92.077 Y68.004 E9.8352
G1 X92.642 Y67.553 E9.86406
G1 X93.372 Y67.022 E9.90009
G1 X94.078 Y66.594 E9.93304
G1 X94.781 Y66.206 E9.96508
G1 X95.282 Y65.939 E9.98774
G1 X95.901 Y65.621 E10.01552
G1 X96.722 Y65.245 E10.05156
G1 X97.453 Y64.979 E10.08261
G1 X98.106 Y64.77 E10.10997
G1 X98.708 Y64.588 E10.13507
G1 X99.423 Y64.382 E10.16477
G1 X100.301 Y64.17 E10.20082
G1 X101.106 Y64.047 E10.23332
G1 X101.926 Y63.955 E10.26626
G1 X102.455 Y63.904 E10.28747
G1 X103.148 Y63.846 E10.31522
G1 X104.051 Y63.81 E10.35129
G1 X104.604 Y63.828 E10.37338
G1 X104.737 Y63.836 E10.37869
G1 X107.314 Y63.949 E10.48165
G1 X109.885 Y63.989 E10.58427
G1 X112.413 Y63.957 E10.68518
G1 X115.03 Y63.849 E10.78972
G1 X115.445 Y63.826 E10.80631
G1 X116.355 Y63.817 E10.84263
G1 X116.91 Y63.85 E10.86482
G1 X117.674 Y63.916 E10.89543
G1 X118.191 Y63.967 E10.91616
G1 X118.9 Y64.047 E10.94464
G1 X119.792 Y64.188 E10.98068
G1 X120.574 Y64.38 E11.01282
G1 X121.361 Y64.607 E11.04551
G1 X121.881 Y64.766 E11.06721
G1 X122.526 Y64.971 E11.09423
G1 X123.373 Y65.283 E11.13025
G1 X124.118 Y65.63 E11.16305
G1 X124.888 Y66.029 E11.19767
G1 X125.292 Y66.247 E11.21599
G1 X125.934 Y66.602 E11.24527
G1 X126.704 Y67.073 E11.2813
G1 X127.354 Y67.55 E11.31347
G1 X127.996 Y68.063 E11.34627
G1 X128.365 Y68.367 E11.36536
G1 X128.934 Y68.847 E11.39507
G1 X129.598 Y69.459 E11.43111
G1 X130.153 Y70.065 E11.46391
G1 X130.695 Y70.709 E11.4975
G1 X130.996 Y71.077 E11.51648
G1 X131.447 Y71.642 E11.54533
G1 X131.978 Y72.372 E11.58136
G1 X132.406 Y73.078 E11.61431
G1 X132.794 Y73.781 E11.64636
G1 X133.056 Y74.272 E11.66857
G1 X133.379 Y74.899 E11.69672
G1 X133.756 Y75.719 E11.73274
G1 X134.036 Y76.494 E11.76563
G1 X134.277 Y77.259 E11.79764
G1 X134.411 Y77.703 E11.81615
G1 X134.618 Y78.42 E11.84594
G1 X134.83 Y79.298 E11.88199
G1 X134.955 Y80.119 E11.91513
G1 X135.044 Y80.923 E11.94742
G1 X135.096 Y81.453 E11.96867
G1 X135.154 Y82.145 E11.99639
G1 X135.19 Y83.047 E12.03242
G1 X135.154 Y83.851 E12.06454
G1 X135.084 Y84.674 E12.09751
G1 X135.033 Y85.191 E12.11824
G1 X134.953 Y85.9 E12.14672
G1 X134.812 Y86.792 E12.18276
G1 X134.619 Y87.578 E12.21507
G1 X134.393 Y88.36 E12.24756
G1 X134.235 Y88.875 E12.26906
G1 X134.031 Y89.518 E12.29598
G1 X133.72 Y90.365 E12.33199
G1 X133.375 Y91.107 E12.36465
G1 X133.054 Y91.729 E12.39259
G1 X131.855 Y94.129 E12.49967
G1 X130.767 Y96.468 E12.60263
G1 X129.778 Y98.762 E12.70233
G1 X128.823 Y101.16 E12.80535
G1 X127.972 Y103.493 E12.90447
G1 X127.168 Y105.905 E13.00594
G1 X126.421 Y108.372 E13.10882
G1 X125.764 Y110.785 E13.20863
G1 X125.158 Y113.296 E13.31173
G1 X124.632 Y115.773 E13.4128
G1 X124.177 Y118.271 E13.51414
G1 X123.798 Y120.735 E13.61364
G1 X123.478 Y123.303 E13.71693
G1 X123.236 Y125.808 E13.81737
G1 X123.065 Y128.352 E13.91914
G1 X122.965 Y130.895 E14.02071
G1 X122.936 Y133.193 E14.11244
G1 X122.935 Y145.418 E14.60036
G1 X122.925 Y146.133 E14.6289
G1 X122.872 Y147.034 E14.66493
G1 X122.74 Y147.928 E14.701
G1 X122.53 Y148.806 E14.73703
G1 X122.242 Y149.662 E14.77307
G1 X121.88 Y150.489 E14.8091
G1 X121.446 Y151.281 E14.84515
G1 X120.944 Y152.032 E14.8812
G1 X120.377 Y152.735 E14.91725
G1 X119.751 Y153.385 E14.95327
G1 X119.069 Y153.978 E14.98934
G1 X118.338 Y154.508 E15.02538
G1 X117.562 Y154.971 E15.06144
G1 X116.749 Y155.363 E15.09747
G1 X115.904 Y155.682 E15.13352
G1 X115.034 Y155.925 E15.16957
G1 X114.146 Y156.091 E15.20562
G1 X113.043 Y156.185 E15.24981
G1 X112.404 Y156.2 E15.27532
G1 X107.839 Y156.199 E15.45752
G1 X107.141 Y156.19 E15.48538
G1 X106.24 Y156.139 E15.5214
G1 X105.346 Y156.007 E15.55746
G1 X104.468 Y155.798 E15.59349
G1 X103.611 Y155.511 E15.62956
G1 X102.784 Y155.15 E15.66557
G1 X101.991 Y154.717 E15.70163
G1 X101.24 Y154.216 E15.73767
G1 X100.536 Y153.65 E15.77372
G1 X99.885 Y153.024 E15.80977
G1 X99.292 Y152.343 E15.84581
G1 X98.762 Y151.612 E15.88184
G1 X98.298 Y150.837 E15.9179
G1 X97.904 Y150.024 E15.95395
G1 X97.584 Y149.18 E15.98998
G1 X97.34 Y148.31 E16.02604
G1 X97.174 Y147.422 E16.0621
G1 X97.077 Y146.267 E16.10836
G1 X97.064 Y145.658 E16.13267
G1 X97.064 Y133.213 E16.62938
G1 X97.027 Y130.607 E16.7334
G1 X96.918 Y128.039 E16.83599
G1 X96.741 Y125.537 E16.9361
G1 X96.492 Y123.024 E17.03689
G1 X96.164 Y120.461 E17.14002
G1 X95.773 Y117.976 E17.24042
G1 X95.313 Y115.5 E17.34093
G1 X94.769 Y112.973 E17.4441
G1 X94.172 Y110.534 E17.54432
G1 X93.496 Y108.079 E17.64595
G1 X92.76 Y105.675 E17.7463
G1 X91.935 Y103.23 E17.84929
G1 X91.062 Y100.862 E17.95002
G1 X90.122 Y98.521 E18.0507
G1 X89.095 Y96.162 E18.15339
G1 X88.016 Y93.86 E18.25486
G1 X86.992 Y91.817 E18.34607
G1 X86.62 Y91.094 E18.37852
G1 X86.242 Y90.274 E18.41456
G1 X85.969 Y89.52 E18.44657
G1 X85.723 Y88.742 E18.47913
G1 X85.587 Y88.289 E18.49801
G1 X85.381 Y87.573 E18.52775
G1 X85.17 Y86.695 E18.56379
G1 X85.047 Y85.894 E18.59613
G1 X84.955 Y85.074 E18.62907
G1 X84.904 Y84.545 E18.65028
G1 X84.846 Y83.852 E18.67803
G1 X84.81 Y82.949 E18.7141
G1 X84.846 Y82.144 E18.74626
G1 X84.916 Y81.326 E18.77903
G1 X84.968 Y80.802 E18.80005
G1 X85.049 Y80.089 E18.82869
G1 X85.191 Y79.197 E18.86474
G1 X85.382 Y78.42 E18.89667
G1 X85.607 Y77.639 E18.92911
G1 X85.765 Y77.124 E18.95061
G1 X85.969 Y76.481 E18.97754
G1 X86.28 Y75.634 E19.01355
G1 X86.629 Y74.885 E19.04653
G1 X87.029 Y74.112 E19.08127
G1 X87.258 Y73.688 E19.1005
G1 X87.616 Y73.044 E19.12991
G1 X88.248 Y72.047 E19.17702
G1 X88.584 Y71.602 E19.19928
G1 X89.066 Y71.001 E19.23003
G1 F2400 E16.03003
;MESH:ToothpasteHolder_key.stl
G0 F9000 X100.821 Y81.999
G0 X99.04 Y81.448
G0 X99.739 Y84.254
G0 X100.065 Y85.06
G0 X100.544 Y85.788
G0 X101.153 Y86.408
G0 X101.874 Y86.899
G0 X102.327 Y87.091
G0 X103.492 Y87.47
G0 X103.553 Y87.177
;TYPE:WALL-OUTER
G1 F1440 E19.23003
G1 F1800 X104.376 Y87.184 E19.26287
G1 X105.186 Y87.03 E19.29578
G1 X105.949 Y86.722 E19.32862
G1 X106.637 Y86.269 E19.3615
G1 X107.224 Y85.693 E19.39432
G1 X107.688 Y85.011 E19.42725
G1 X108.01 Y84.254 E19.46008
G1 X108.177 Y83.447 E19.49297
G1 X108.184 Y82.624 E19.52582
G1 X108.03 Y81.814 E19.55873
G1 X107.722 Y81.051 E19.59157
G1 X107.269 Y80.363 E19.62445
G1 X106.693 Y79.776 E19.65727
G1 X106.011 Y79.312 E19.69019
G1 X105.254 Y78.99 E19.72303
G1 X104.447 Y78.823 E19.75592
G1 X103.624 Y78.816 E19.78877
G1 X102.814 Y78.97 E19.82167
G1 X102.051 Y79.278 E19.85452
G1 X101.363 Y79.731 E19.88739
G1 X100.776 Y80.307 E19.92022
G1 X100.312 Y80.989 E19.95314
G1 X99.99 Y81.746 E19.98597
G1 X99.823 Y82.553 E20.01886
G1 X99.816 Y83.376 E20.05171
G1 X99.97 Y84.186 E20.08462
G1 X100.278 Y84.949 E20.11746
G1 X100.731 Y85.637 E20.15034
G1 X101.307 Y86.224 E20.18316
G1 X101.989 Y86.688 E20.21609
G1 X102.746 Y87.01 E20.24892
G1 X103.553 Y87.177 E20.28181
G1 F2400 E17.08181
G0 F9000 X103.492 Y87.47
G0 X106.412 Y87.604
G0 X105.548 Y85.952
G0 X113.664 Y92.665
G0 X113.664 Y90.83
G0 X112.537 Y91.5
G0 X112.537 Y91.8
G1 F1440 E20.28181
G1 F1800 X112.536 Y145.8 E22.43707
G1 X107.464 Y145.8 E22.6395
G1 X107.463 Y91.8 E24.79476
G1 X104.01 Y91.8 E24.93257
G1 X102.281 Y91.63 E25.00192
G1 X100.632 Y91.13 E25.07069
G1 X99.115 Y90.318 E25.13936
G1 X97.778 Y89.222 E25.20836
G1 X96.682 Y87.885 E25.27737
G1 X95.87 Y86.368 E25.34604
G1 X95.37 Y84.719 E25.41481
G1 X95.201 Y83 E25.48375
G1 X95.37 Y81.281 E25.55269
G1 X95.87 Y79.632 E25.62147
G1 X96.682 Y78.115 E25.69014
G1 X97.778 Y76.778 E25.75914
G1 X99.115 Y75.682 E25.82814
G1 X100.632 Y74.87 E25.89682
G1 X102.281 Y74.37 E25.96559
G1 X104 Y74.201 E26.03453
G1 X105.719 Y74.37 E26.10347
G1 X107.368 Y74.87 E26.17225
G1 X108.885 Y75.682 E26.24092
G1 X110 Y76.596 E26.29846
G1 X111.115 Y75.682 E26.35601
G1 X112.632 Y74.87 E26.42468
G1 X114.281 Y74.37 E26.49346
G1 X116 Y74.201 E26.5624
G1 X117.719 Y74.37 E26.63134
G1 X119.368 Y74.87 E26.70011
G1 X120.885 Y75.682 E26.76879
G1 X122.222 Y76.778 E26.83779
G1 X123.318 Y78.115 E26.90679
G1 X124.13 Y79.632 E26.97546
G1 X124.63 Y81.281 E27.04424
G1 X124.799 Y83 E27.11317
G1 X124.63 Y84.719 E27.18211
G1 X124.13 Y86.368 E27.25089
G1 X123.318 Y87.885 E27.31956
G1 X122.222 Y89.222 E27.38856
G1 X120.885 Y90.318 E27.45756
G1 X119.368 Y91.13 E27.52624
G1 X117.719 Y91.63 E27.59501
G1 X115.99 Y91.8 E27.66435
G1 X112.537 Y91.8 E27.80217
G1 F2400 E24.60217
G0 F9000 X112.537 Y91.5
G0 X115.152 Y90.79
G0 X115.416 Y88.139
G0 X115.152 Y87.417
G0 X115.181 Y87.12
G1 F1440 E27.80217
G1 F1800 X116 Y87.201 E27.83502
G1 X116.819 Y87.12 E27.86787
G1 X117.608 Y86.882 E27.90076
G1 X118.334 Y86.493 E27.93363
G1 X118.97 Y85.97 E27.9665
G1 X119.493 Y85.334 E27.99936
G1 X119.882 Y84.608 E28.03223
G1 X120.12 Y83.819 E28.06513
G1 X120.201 Y83 E28.09797
G1 X120.12 Y82.181 E28.13082
G1 X119.882 Y81.392 E28.16371
G1 X119.493 Y80.666 E28.19659
G1 X118.97 Y80.03 E28.22945
G1 X118.334 Y79.507 E28.26232
G1 X117.608 Y79.118 E28.29519
G1 X116.819 Y78.88 E28.32808
G1 X116 Y78.799 E28.36093
G1 X115.181 Y78.88 E28.39378
G1 X114.392 Y79.118 E28.42667
G1 X113.666 Y79.507 E28.45954
G1 X113.03 Y80.03 E28.49241
G1 X112.507 Y80.666 E28.52527
G1 X112.118 Y81.392 E28.55815
G1 X111.88 Y82.181 E28.59104
G1 X111.799 Y83 E28.62389
G1 X111.88 Y83.819 E28.65673
G1 X112.118 Y84.608 E28.68963
G1 X112.507 Y85.334 E28.7225
G1 X113.03 Y85.97 E28.75536
G1 X113.666 Y86.493 E28.78823
