;FLAVOR:Marlin
;TIME:7588
;Filament used: 7.17018m
;Layer height: 0.24
;MINX:80.931
;MINY:73.377
;MINZ:0.28
;MAXX:139.101
;MAXY:146.046
;MAXZ:40.92
;Generated with Cura_SteamEngine 4.10.0
M82 ;absolute extrusion mode
M201 X500.00 Y500.00 Z100.00 E5000.00 ;Setup machine max acceleration
M203 X500.00 Y500.00 Z10.00 E50.00 ;Setup machine max feedrate
M204 P500.00 R1000.00 T500.00 ;Setup Print/Retract/Travel acceleration
M205 X8.00 Y8.00 Z0.40 E5.00 ;Setup Jerk
M220 S100 ;Reset Feedrate
M221 S100 ;Reset Flowrate

;*** Start Dual Nozzle/Bed Preheating ***
M140 S50 ; start preheating the bed
M104 S200 ?T0 ; start preheating hotend
M190 S50 ; heat to Cura Bed setting and WAIT
M109 S200 ?T0 ; heat to Cura Hotend and WAIT
;*** End Preheating ***

;*** Single Print Start Tone
M300 S1000 P500 ; chirp to indicate starting to print
;*** End Single Start Tone

G28 ;Home

G92 E0 ;Reset Extruder
G1 Z2.0 F3000 ;Move Z Axis up

G1 X10.1 Y20 Z0.28 F5000.0 ;Move to start position
G1 X10.1 Y200.0 Z0.28 F1500.0 E15 ;Draw the first line
G1 X10.4 Y200.0 Z0.28 F5000.0 ;Move to side a little
G1 X10.4 Y20 Z0.28 F1500.0 E30 ;Draw the second line
G92 E0 ;Reset Extruder
G1 Z2.0 F3000 ;Move Z Axis up
G92 E0
G92 E0
G1 F2400 E-3.2
;LAYER_COUNT:176
;LAYER:0
M106 S63.8
M204 S500
M205 X6 Y6
G0 F9000 X83.492 Y77.661 Z0.28
;TYPE:SKIRT
G1 F1440 E0
G1 F1800 X84.12 Y76.988 E0.04286
G1 X84.805 Y76.372 E0.08576
G1 X85.54 Y75.817 E0.12864
G1 X86.32 Y75.329 E0.17149
G1 X87.14 Y74.91 E0.21437
G1 X87.993 Y74.564 E0.25723
G1 X88.873 Y74.293 E0.3001
G1 X89.773 Y74.1 E0.34296
G1 X90.687 Y73.985 E0.38586
G1 X91.277 Y73.953 E0.41337
G1 X91.939 Y73.94 E0.4442
G1 X95.51 Y73.94 E0.61049
G1 X98.135 Y73.903 E0.73273
G1 X100.643 Y73.796 E0.84962
G1 X103.147 Y73.619 E0.96651
G1 X104.296 Y73.505 E1.02027
G1 X105.221 Y73.425 E1.0635
G1 X105.835 Y73.39 E1.09214
G1 X106.453 Y73.377 E1.12092
G1 X115.416 Y73.377 E1.53828
G1 X116.265 Y73.388 E1.57781
G1 X117.112 Y73.434 E1.61731
G1 X117.476 Y73.468 E1.63433
G1 X120.074 Y73.689 E1.75575
G1 X122.54 Y73.828 E1.87076
G1 X126.474 Y73.91 E2.05398
G1 X127.919 Y73.911 E2.12126
G1 X128.624 Y73.921 E2.15409
G1 X129.543 Y73.974 E2.19696
G1 X130.455 Y74.107 E2.23987
G1 X131.351 Y74.318 E2.28274
G1 X132.225 Y74.606 E2.32559
G1 X133.071 Y74.969 E2.36845
G1 X133.883 Y75.404 E2.41135
G1 X134.653 Y75.907 E2.45417
G1 X135.377 Y76.476 E2.49705
G1 X136.049 Y77.105 E2.53991
G1 X136.664 Y77.791 E2.58281
G1 X137.217 Y78.527 E2.62568
G1 X137.704 Y79.308 E2.66854
G1 X138.122 Y80.129 E2.71144
G1 X138.466 Y80.982 E2.75426
G1 X138.736 Y81.863 E2.79717
G1 X138.927 Y82.763 E2.84001
G1 X139.04 Y83.677 E2.88289
G1 X139.07 Y84.24 E2.90915
G1 X139.097 Y85.308 E2.95889
G1 X139.101 Y85.897 E2.98632
G1 X139.101 Y90.977 E3.22287
G1 X139.092 Y91.635 E3.25351
G1 X139.007 Y92.834 E3.30948
G1 X138.933 Y93.415 E3.33675
G1 X138.64 Y95.995 E3.45766
G1 X138.423 Y98.541 E3.57664
G1 X138.281 Y101.048 E3.69356
G1 X138.208 Y103.621 E3.81342
G1 X138.199 Y104.839 E3.87014
G1 X138.188 Y105.623 E3.90665
G1 X138.162 Y106.225 E3.93471
G1 X138.118 Y106.838 E3.96332
G1 X137.966 Y109.507 E4.08781
G1 X137.893 Y112.048 E4.20617
G1 X137.893 Y114.56 E4.32314
G1 X137.964 Y117.108 E4.44183
G1 X138.105 Y119.612 E4.55862
G1 X138.319 Y122.128 E4.67619
G1 X138.609 Y124.692 E4.79635
G1 X138.787 Y126.008 E4.85818
G1 X138.935 Y127.035 E4.9065
G1 X139.038 Y128.234 E4.96253
G1 X139.049 Y129.063 E5.00114
G1 X139.042 Y130.64 E5.07457
G1 X139.042 Y134.89 E5.27247
G1 X139.033 Y135.573 E5.30428
G1 X138.981 Y136.492 E5.34714
G1 X138.849 Y137.403 E5.39
G1 X138.639 Y138.299 E5.43285
G1 X138.352 Y139.174 E5.47573
G1 X137.99 Y140.021 E5.51862
G1 X137.556 Y140.832 E5.56145
G1 X137.053 Y141.604 E5.60436
G1 X136.485 Y142.328 E5.64721
G1 X135.856 Y143.001 E5.6901
G1 X135.172 Y143.616 E5.73293
G1 X134.436 Y144.17 E5.77583
G1 X133.655 Y144.658 E5.81871
G1 X132.835 Y145.076 E5.86157
G1 X131.982 Y145.422 E5.90443
G1 X131.102 Y145.692 E5.94729
G1 X130.201 Y145.885 E5.9902
G1 X129.288 Y145.999 E6.03304
G1 X128.706 Y146.029 E6.06018
G1 X128.045 Y146.043 E6.09096
G1 X122.112 Y146.042 E6.36723
G1 X121.415 Y146.032 E6.39969
G1 X120.537 Y145.983 E6.44063
G1 X119.325 Y145.863 E6.49734
G1 X118.921 Y145.817 E6.51628
G1 X116.375 Y145.597 E6.63527
G1 X113.903 Y145.454 E6.75057
G1 X111.331 Y145.38 E6.87038
G1 X108.814 Y145.377 E6.98759
G1 X106.303 Y145.446 E7.10455
G1 X103.749 Y145.588 E7.22366
G1 X101.216 Y145.8 E7.34202
G1 X99.785 Y145.956 E7.40905
G1 X99.362 Y145.996 E7.42883
G1 X98.812 Y146.03 E7.45449
G1 X98.087 Y146.046 E7.48826
G1 X92.109 Y146.046 E7.76662
G1 X91.437 Y146.036 E7.79792
G1 X90.518 Y145.982 E7.84078
G1 X89.607 Y145.849 E7.88365
G1 X88.711 Y145.637 E7.92653
G1 X87.837 Y145.348 E7.96939
G1 X86.991 Y144.985 E8.01226
G1 X86.18 Y144.55 E8.05511
G1 X85.41 Y144.045 E8.09799
G1 X84.686 Y143.476 E8.14086
G1 X84.015 Y142.846 E8.18372
G1 X83.418 Y142.183 E8.22527
G1 X83.385 Y142.143 E8.22768
G1 X82.831 Y141.408 E8.27054
G1 X82.342 Y140.627 E8.31344
G1 X81.923 Y139.808 E8.35628
G1 X81.577 Y138.955 E8.39914
G1 X81.306 Y138.075 E8.44202
G1 X81.112 Y137.175 E8.48489
G1 X80.997 Y136.261 E8.52779
G1 X80.967 Y135.718 E8.55311
G1 X80.953 Y135.102 E8.5818
G1 X80.952 Y130.026 E8.81816
G1 X80.948 Y129.249 E8.85434
G1 X80.957 Y128.413 E8.89327
G1 X81.036 Y127.242 E8.94792
G1 X81.118 Y126.583 E8.97884
G1 X81.345 Y124.931 E9.05649
G1 X81.619 Y122.41 E9.17457
G1 X81.819 Y119.911 E9.29131
G1 X81.951 Y117.371 E9.40974
G1 X82.01 Y114.853 E9.52702
G1 X81.998 Y112.312 E9.64534
G1 X81.915 Y109.837 E9.76065
G1 X81.651 Y105.871 E9.94573
G1 X81.63 Y105.498 E9.96313
G1 X81.617 Y104.88 E9.99191
G1 X81.617 Y103.164 E10.07182
G1 X81.58 Y100.539 E10.19406
G1 X81.473 Y98.03 E10.311
G1 X81.297 Y95.541 E10.42718
G1 X81.018 Y92.747 E10.55793
G1 X81.008 Y92.663 E10.56187
G1 X80.944 Y91.77 E10.60356
G1 X80.931 Y91.186 E10.63076
G1 X80.931 Y90.624 E10.65693
G1 X80.941 Y89.277 E10.71965
G1 X80.941 Y85.06 E10.91601
G1 X80.949 Y84.418 E10.94591
G1 X81 Y83.499 E10.98877
G1 X81.131 Y82.587 E11.03167
G1 X81.341 Y81.691 E11.07452
G1 X81.627 Y80.816 E11.11739
G1 X81.989 Y79.969 E11.16028
G1 X82.422 Y79.157 E11.20313
G1 X82.925 Y78.386 E11.24599
G1 X83.492 Y77.661 E11.28885
G0 F9000 X83.886 Y77.817
G1 F1800 X84.512 Y77.165 E11.33094
G1 X85.193 Y76.572 E11.37299
G1 X85.923 Y76.041 E11.41502
G1 X86.698 Y75.577 E11.45708
G1 X87.511 Y75.183 E11.49915
G1 X88.355 Y74.863 E11.54118
G1 X89.225 Y74.618 E11.58326
G1 X90.112 Y74.452 E11.62528
G1 X91.287 Y74.353 E11.68019
G1 X91.939 Y74.34 E11.71056
G1 X95.516 Y74.34 E11.87712
G1 X98.122 Y74.303 E11.99847
G1 X100.687 Y74.194 E12.11802
G1 X103.178 Y74.018 E12.2343
G1 X104.33 Y73.904 E12.2882
G1 X105.255 Y73.824 E12.33144
G1 X105.846 Y73.79 E12.359
G1 X106.453 Y73.777 E12.38727
G1 X115.416 Y73.777 E12.80463
G1 X116.259 Y73.788 E12.84388
G1 X117.074 Y73.832 E12.88189
G1 X117.404 Y73.863 E12.89732
G1 X120.053 Y74.088 E13.02112
G1 X122.537 Y74.228 E13.13697
G1 X126.466 Y74.31 E13.31996
G1 X127.914 Y74.311 E13.38738
G1 X128.619 Y74.321 E13.42021
G1 X129.52 Y74.374 E13.46224
G1 X130.414 Y74.506 E13.50432
G1 X131.292 Y74.717 E13.54637
G1 X132.148 Y75.005 E13.58842
G1 X132.975 Y75.367 E13.63046
G1 X133.767 Y75.801 E13.67251
G1 X134.518 Y76.303 E13.71457
G1 X135.221 Y76.87 E13.75663
G1 X135.871 Y77.497 E13.79868
G1 X136.463 Y78.179 E13.84073
G1 X136.993 Y78.91 E13.88278
G1 X137.456 Y79.686 E13.92485
G1 X137.848 Y80.499 E13.96688
G1 X138.167 Y81.344 E14.00894
G1 X138.41 Y82.214 E14.051
G1 X138.575 Y83.102 E14.09306
G1 X138.67 Y84.251 E14.14674
G1 X138.697 Y85.311 E14.19611
G1 X138.701 Y85.897 E14.2234
G1 X138.701 Y90.972 E14.45971
G1 X138.692 Y91.63 E14.49036
G1 X138.611 Y92.783 E14.54418
G1 X138.534 Y93.386 E14.57248
G1 X138.239 Y95.987 E14.69437
G1 X138.026 Y98.485 E14.81111
G1 X137.881 Y101.048 E14.93065
G1 X137.808 Y103.607 E15.04985
G1 X137.799 Y104.833 E15.10694
G1 X137.788 Y105.617 E15.14345
G1 X137.763 Y106.197 E15.17049
G1 X137.714 Y106.893 E15.20297
G1 X137.566 Y109.472 E15.32326
G1 X137.493 Y112.037 E15.44275
G1 X137.493 Y114.571 E15.56074
G1 X137.564 Y117.105 E15.67878
G1 X137.706 Y119.635 E15.79677
G1 X137.924 Y122.206 E15.91692
G1 X138.207 Y124.702 E16.03389
G1 X138.391 Y126.065 E16.09793
G1 X138.539 Y127.092 E16.14625
G1 X138.639 Y128.245 E16.20014
G1 X138.649 Y129.064 E16.23828
G1 X138.642 Y130.639 E16.31161
G1 X138.642 Y134.884 E16.50928
G1 X138.633 Y135.567 E16.54109
G1 X138.581 Y136.469 E16.58316
G1 X138.45 Y137.363 E16.62523
G1 X138.24 Y138.241 E16.66727
G1 X137.953 Y139.097 E16.70931
G1 X137.592 Y139.925 E16.75137
G1 X137.158 Y140.717 E16.79342
G1 X136.657 Y141.468 E16.83546
G1 X136.091 Y142.172 E16.87752
G1 X135.465 Y142.823 E16.91957
G1 X134.783 Y143.416 E16.96165
G1 X134.053 Y143.946 E17.00366
G1 X133.277 Y144.41 E17.04576
G1 X132.464 Y144.803 E17.08781
G1 X131.62 Y145.123 E17.12984
G1 X130.75 Y145.367 E17.17191
G1 X129.863 Y145.532 E17.21392
G1 X128.696 Y145.63 E17.26846
G1 X128.045 Y145.643 E17.29877
G1 X122.118 Y145.642 E17.57476
G1 X121.421 Y145.632 E17.60722
G1 X120.575 Y145.585 E17.64667
G1 X119.371 Y145.466 E17.70301
G1 X118.93 Y145.415 E17.72368
G1 X116.434 Y145.2 E17.84034
G1 X113.904 Y145.054 E17.95834
G1 X111.342 Y144.98 E18.07769
G1 X108.804 Y144.977 E18.19587
G1 X106.27 Y145.046 E18.3139
G1 X103.73 Y145.187 E18.43236
G1 X101.219 Y145.398 E18.54969
G1 X99.742 Y145.559 E18.61888
G1 X99.327 Y145.598 E18.63829
G1 X98.798 Y145.63 E18.66296
G1 X98.084 Y145.646 E18.69622
G1 X92.115 Y145.646 E18.97416
G1 X91.443 Y145.636 E19.00545
G1 X90.542 Y145.582 E19.04748
G1 X89.648 Y145.45 E19.08956
G1 X88.77 Y145.238 E19.13162
G1 X87.915 Y144.95 E19.17363
G1 X87.088 Y144.587 E19.21569
G1 X86.296 Y144.152 E19.25776
G1 X85.546 Y143.65 E19.29979
G1 X84.843 Y143.082 E19.34187
G1 X84.193 Y142.455 E19.38392
G1 X83.727 Y141.928 E19.41668
G1 X83.694 Y141.888 E19.4191
G1 X83.151 Y141.167 E19.46112
G1 X82.673 Y140.4 E19.50321
G1 X82.266 Y139.594 E19.54525
G1 X81.931 Y138.756 E19.58727
G1 X81.671 Y137.89 E19.62938
G1 X81.49 Y137.006 E19.67139
G1 X81.367 Y135.706 E19.7322
G1 X81.353 Y135.102 E19.76033
G1 X81.352 Y130.026 E19.99669
G1 X81.348 Y129.247 E20.03296
G1 X81.357 Y128.418 E20.07157
G1 X81.433 Y127.291 E20.12417
G1 X81.515 Y126.638 E20.15481
G1 X81.741 Y124.993 E20.23213
G1 X82.017 Y122.453 E20.3511
G1 X82.219 Y119.929 E20.469
G1 X82.35 Y117.401 E20.58687
G1 X82.41 Y114.86 E20.70523
G1 X82.398 Y112.297 E20.82457
G1 X82.314 Y109.796 E20.94109
G1 X82.045 Y105.75 E21.12991
G1 X82.03 Y105.487 E21.14218
G1 X82.017 Y104.88 E21.17045
G1 X82.017 Y103.158 E21.25063
G1 X81.98 Y100.552 E21.37199
G1 X81.871 Y97.986 E21.49158
G1 X81.695 Y95.507 E21.6073
G1 X81.421 Y92.755 E21.73608
G1 X81.405 Y92.617 E21.74255
G1 X81.343 Y91.758 E21.78265
G1 X81.331 Y91.186 E21.80929
G1 X81.331 Y90.627 E21.83532
G1 X81.341 Y89.28 E21.89805
G1 X81.341 Y85.065 E22.09431
G1 X81.349 Y84.423 E22.12421
G1 X81.4 Y83.521 E22.16628
G1 X81.531 Y82.628 E22.20831
G1 X81.74 Y81.749 E22.25038
G1 X82.026 Y80.893 E22.2924
G1 X82.387 Y80.065 E22.33446
G1 X82.82 Y79.272 E22.37653
G1 X83.321 Y78.521 E22.41857
G1 X83.886 Y77.817 E22.4606
G0 F9000 X109.923 Y87.777
G1 F1800 X112.323 Y87.777 E22.57236
G1 X112.323 Y90.177 E22.68411
G1 X109.923 Y90.177 E22.79586
G1 X109.923 Y87.777 E22.90762
G0 F9000 X109.523 Y87.377
G1 F1800 X112.723 Y87.377 E23.05662
G1 X112.723 Y90.577 E23.20563
G1 X109.523 Y90.577 E23.35464
G1 X109.523 Y87.377 E23.50364
G0 F9000 X109.123 Y86.977
G1 F1800 X113.123 Y86.977 E23.6899
G1 X113.123 Y90.977 E23.87615
G1 X109.123 Y90.977 E24.06241
G1 X109.123 Y86.977 E24.24867
G0 F9000 X108.723 Y86.577
G1 F1800 X113.523 Y86.577 E24.47218
G1 X113.523 Y91.377 E24.69568
G1 X108.723 Y91.377 E24.91919
G1 X108.723 Y86.577 E25.1427
G0 F9000 X108.323 Y86.177
G1 F1800 X113.923 Y86.177 E25.40346
G1 X113.923 Y91.777 E25.66422
G1 X108.323 Y91.777 E25.92498
G1 X108.323 Y86.177 E26.18574
G0 F9000 X107.923 Y85.777
G1 F1800 X114.323 Y85.777 E26.48375
G1 X114.323 Y92.177 E26.78176
G1 X107.923 Y92.177 E27.07977
G1 X107.923 Y85.777 E27.37778
G0 F9000 X107.523 Y85.377
G1 F1800 X114.723 Y85.377 E27.71304
G1 X114.723 Y92.577 E28.04831
G1 X107.523 Y92.577 E28.38357
G1 X107.523 Y85.377 E28.71883
G0 F9000 X107.123 Y84.977
G1 F1800 X115.123 Y84.977 E29.09134
G1 X115.123 Y92.977 E29.46386
G1 X107.123 Y92.977 E29.83637
G1 X107.123 Y84.977 E30.20888
G0 F9000 X106.723 Y84.577
G1 F1800 X115.523 Y84.577 E30.61865
G1 X115.523 Y93.377 E31.02841
G1 X106.723 Y93.377 E31.43818
G1 X106.723 Y84.577 E31.84794
G0 F9000 X106.323 Y84.177
G1 F1800 X115.923 Y84.177 E32.29496
G1 X115.923 Y93.777 E32.74198
G1 X106.323 Y93.777 E33.18899
G1 X106.323 Y84.177 E33.63601
G0 F9000 X102.017 Y95.415
G1 F1800 X102.017 Y98.519 E33.78054
G1 X102.076 Y98.66 E33.78766
G1 X102.358 Y98.942 E33.80623
G1 X102.499 Y99.001 E33.81335
G1 X117.317 Y99.001 E34.50334
G1 X117.458 Y98.942 E34.51045
G1 X117.74 Y98.66 E34.52902
G1 X117.799 Y98.519 E34.53614
G1 X117.799 Y95.678 E34.66843
G1 X127.399 Y95.678 E35.11545
G1 X127.399 Y105.278 E35.56246
G1 X116.277 Y105.278 E36.08035
G1 X116.136 Y105.337 E36.08747
G1 X115.854 Y105.619 E36.10604
G1 X115.795 Y105.76 E36.11315
G1 X115.795 Y108.601 E36.24544
G1 X106.195 Y108.601 E36.69246
G1 X106.195 Y105.497 E36.83699
G1 X106.136 Y105.356 E36.84411
G1 X105.854 Y105.074 E36.86268
G1 X105.713 Y105.015 E36.8698
G1 X92.417 Y105.015 E37.48892
G1 X92.417 Y95.415 E37.93593
G1 X102.017 Y95.415 E38.38295
G0 F9000 X101.617 Y95.815
G1 F1800 X101.617 Y98.519 E38.50886
G1 X101.657 Y98.734 E38.51904
G1 X101.793 Y98.943 E38.53065
G1 X102.075 Y99.225 E38.54922
G1 X102.254 Y99.349 E38.55936
G1 X102.499 Y99.401 E38.57102
G1 X117.317 Y99.401 E39.26101
G1 X117.532 Y99.361 E39.27119
G1 X117.741 Y99.225 E39.28281
G1 X118.023 Y98.943 E39.30138
G1 X118.147 Y98.764 E39.31152
G1 X118.199 Y98.519 E39.32318
G1 X118.199 Y96.078 E39.43684
G1 X126.999 Y96.078 E39.84661
G1 X126.999 Y104.878 E40.25637
G1 X116.277 Y104.878 E40.75563
G1 X116.062 Y104.918 E40.76582
G1 X115.853 Y105.054 E40.77743
G1 X115.571 Y105.336 E40.796
G1 X115.447 Y105.515 E40.80614
G1 X115.395 Y105.76 E40.8178
G1 X115.395 Y108.201 E40.93146
G1 X106.595 Y108.201 E41.34123
G1 X106.595 Y105.497 E41.46714
G1 X106.555 Y105.282 E41.47732
G1 X106.419 Y105.073 E41.48893
G1 X106.137 Y104.791 E41.5075
G1 X105.958 Y104.667 E41.51764
G1 X105.713 Y104.615 E41.5293
G1 X92.817 Y104.615 E42.12979
G1 X92.817 Y95.815 E42.53956
G1 X101.617 Y95.815 E42.94932
G0 F9000 X101.217 Y96.215
G1 F1800 X101.217 Y98.519 E43.05661
G1 X101.257 Y98.798 E43.06973
G1 X101.373 Y99.055 E43.08286
G1 X101.792 Y99.508 E43.11159
G1 X102.018 Y99.677 E43.12473
G1 X102.282 Y99.777 E43.13788
G1 X102.499 Y99.801 E43.14805
G1 X117.317 Y99.801 E43.83803
G1 X117.596 Y99.761 E43.85116
G1 X117.853 Y99.645 E43.86429
G1 X118.306 Y99.226 E43.89302
G1 X118.475 Y99 E43.90616
G1 X118.575 Y98.736 E43.91931
G1 X118.599 Y98.519 E43.92947
G1 X118.599 Y96.478 E44.02451
G1 X126.599 Y96.478 E44.39702
G1 X126.599 Y104.478 E44.76954
G1 X116.277 Y104.478 E45.25017
G1 X115.998 Y104.518 E45.2633
G1 X115.741 Y104.634 E45.27643
G1 X115.288 Y105.053 E45.30516
G1 X115.119 Y105.279 E45.3183
G1 X115.019 Y105.543 E45.33145
G1 X114.995 Y105.76 E45.34161
G1 X114.995 Y107.801 E45.43665
G1 X106.995 Y107.801 E45.80916
G1 X106.995 Y105.497 E45.91645
G1 X106.955 Y105.218 E45.92957
G1 X106.839 Y104.961 E45.9427
G1 X106.42 Y104.508 E45.97143
G1 X106.194 Y104.339 E45.98457
G1 X105.93 Y104.239 E45.99772
G1 X105.713 Y104.215 E46.00789
G1 X93.217 Y104.215 E46.58975
G1 X93.217 Y96.215 E46.96226
G1 X101.217 Y96.215 E47.33478
G0 F9000 X100.817 Y96.615
G1 F1800 X100.817 Y98.519 E47.42344
G1 X100.857 Y98.851 E47.43901
G1 X100.974 Y99.163 E47.45452
G1 X101.227 Y99.509 E47.47448
G1 X101.772 Y99.997 E47.50855
G1 X102.076 Y100.136 E47.52411
G1 X102.499 Y100.201 E47.54404
G1 X117.317 Y100.201 E48.23403
G1 X117.649 Y100.161 E48.2496
G1 X117.961 Y100.044 E48.26511
G1 X118.307 Y99.791 E48.28507
G1 X118.795 Y99.246 E48.31914
G1 X118.934 Y98.942 E48.3347
G1 X118.999 Y98.519 E48.35463
G1 X118.999 Y96.878 E48.43104
G1 X126.199 Y96.878 E48.7663
G1 X126.199 Y104.078 E49.10157
G1 X116.277 Y104.078 E49.56358
G1 X115.945 Y104.118 E49.57915
