;FLAVOR:Marlin
;TIME:2440
;Filament used: 1.84301m
;Layer height: 0.2
;MINX:84.41
;MINY:63.41
;MINZ:0.24
;MAXX:135.59
;MAXY:156.6
;MAXZ:9
;Generated with Cura_SteamEngine 4.8.0
M140 S50
M105
M190 S50
M104 S215
M105
M109 S215
M82 ;absolute extrusion mode
M201 X500.00 Y500.00 Z100.00 E5000.00 ;Setup machine max acceleration
M203 X500.00 Y500.00 Z10.00 E50.00 ;Setup machine max feedrate
M204 P500.00 R1000.00 T500.00 ;Setup Print/Retract/Travel acceleration
M205 X8.00 Y8.00 Z0.40 E5.00 ;Setup Jerk
M220 S100 ;Reset Feedrate
M221 S100 ;Reset Flowrate

;*** Start Dual Nozzle/Bed Preheating ***
M140 S50 ; start preheating the bed
M104 S215 ﻿T0 ; start preheating hotend
M190 S50 ; heat to Cura Bed setting and WAIT
M109 S215 ﻿T0 ; heat to Cura Hotend and WAIT
;*** End Preheating ***

G28 ; home

G92 E0 ;Reset Extruder
G1 Z2.0 F3000 ;Move Z Axis up

;*** Single Print Start Tone
M300 S1000 P500 ; chirp to indicate starting to print
;*** End Single Start Tone

G1 X10.1 Y20 Z0.28 F5000.0 ;Move to start position
G1 X10.1 Y200.0 Z0.28 F1500.0 E15 ;Draw the first line
G1 X10.4 Y200.0 Z0.28 F5000.0 ;Move to side a little
G1 X10.4 Y20 Z0.28 F1500.0 E30 ;Draw the second line
G92 E0 ;Reset Extruder
G1 Z2.0 F3000 ;Move Z Axis up
G92 E0
G92 E0
G1 F2400 E-3
;LAYER_COUNT:42
;LAYER:0
M106 S63.8
M204 S500
M205 X6 Y6
G1 F300 Z0.44
G0 F9000 X88.757 Y70.747 Z0.44
;TYPE:SKIRT
G1 F300 Z0.24
G1 F1200 E0
G1 F1800 X89.087 Y70.347 E0.0207
G1 X89.565 Y69.783 E0.0502
G1 X90.19 Y69.107 E0.08695
G1 X90.82 Y68.531 E0.12102
G1 X91.485 Y67.971 E0.15572
G1 X91.827 Y67.692 E0.17333
G1 X92.392 Y67.241 E0.20219
G1 X93.136 Y66.698 E0.23895
G1 X93.884 Y66.244 E0.27387
G1 X94.592 Y65.854 E0.30613
G1 X95.099 Y65.583 E0.32908
G1 X95.718 Y65.265 E0.35685
G1 X96.555 Y64.881 E0.39361
G1 X97.331 Y64.598 E0.42658
G1 X97.984 Y64.389 E0.45394
G1 X98.597 Y64.203 E0.47951
G1 X99.312 Y63.997 E0.50921
G1 X100.207 Y63.781 E0.54595
G1 X101.062 Y63.649 E0.58048
G1 X101.885 Y63.557 E0.61354
G1 X102.421 Y63.505 E0.63503
G1 X103.113 Y63.447 E0.66274
G1 X104.033 Y63.41 E0.69949
G1 X104.624 Y63.428 E0.72309
G1 X104.766 Y63.436 E0.72877
G1 X107.339 Y63.549 E0.83156
G1 X109.886 Y63.589 E0.93323
G1 X112.392 Y63.557 E1.03326
G1 X115.063 Y63.447 E1.13995
G1 X115.423 Y63.427 E1.15435
G1 X116.367 Y63.417 E1.19202
G1 X116.944 Y63.451 E1.21509
G1 X117.713 Y63.518 E1.2459
G1 X118.236 Y63.57 E1.26688
G1 X118.945 Y63.65 E1.29536
G1 X119.854 Y63.793 E1.33208
G1 X120.685 Y63.996 E1.36623
G1 X121.477 Y64.225 E1.39913
G1 X122.001 Y64.385 E1.421
G1 X122.643 Y64.589 E1.44788
G1 X123.508 Y64.905 E1.48464
G1 X124.292 Y65.27 E1.51916
G1 X125.091 Y65.684 E1.55507
G1 X125.484 Y65.897 E1.57291
G1 X126.126 Y66.252 E1.60219
G1 X126.912 Y66.732 E1.63895
G1 X127.353 Y67.045 E1.66054
G1 X127.648 Y67.272 E1.67539
G1 X128.25 Y67.754 E1.70617
G1 X128.623 Y68.061 E1.72545
G1 X129.192 Y68.541 E1.75516
G1 X129.869 Y69.164 E1.79188
G1 X130.458 Y69.807 E1.82669
G1 X131.004 Y70.455 E1.86051
G1 X131.308 Y70.827 E1.87968
G1 X131.759 Y71.392 E1.90854
G1 X132.302 Y72.136 E1.9453
G1 X132.756 Y72.884 E1.98022
G1 X133.146 Y73.592 E2.01248
G1 X133.411 Y74.089 E2.03496
G1 X133.734 Y74.716 E2.06311
G1 X134.12 Y75.552 E2.09986
G1 X134.418 Y76.374 E2.13476
G1 X134.66 Y77.143 E2.16694
G1 X134.795 Y77.592 E2.18565
G1 X135.002 Y78.309 E2.21544
G1 X135.219 Y79.204 E2.25219
G1 X135.353 Y80.075 E2.28737
G1 X135.442 Y80.883 E2.31981
G1 X135.495 Y81.42 E2.34135
G1 X135.553 Y82.112 E2.36906
G1 X135.59 Y83.032 E2.40581
G1 X135.553 Y83.885 E2.43989
G1 X135.482 Y84.713 E2.47306
G1 X135.43 Y85.236 E2.49403
G1 X135.35 Y85.945 E2.52251
G1 X135.207 Y86.854 E2.55924
G1 X135.003 Y87.689 E2.59354
G1 X134.775 Y88.476 E2.62625
G1 X134.617 Y88.996 E2.64794
G1 X134.413 Y89.639 E2.67486
G1 X134.096 Y90.503 E2.71159
G1 X133.73 Y91.291 E2.74627
G1 X133.378 Y91.974 E2.77694
G1 X132.217 Y94.297 E2.88059
G1 X131.158 Y96.574 E2.98082
G1 X130.141 Y98.933 E3.08335
G1 X129.199 Y101.297 E3.18491
G1 X128.348 Y103.631 E3.28407
G1 X127.537 Y106.064 E3.38643
G1 X126.813 Y108.455 E3.48614
G1 X126.145 Y110.912 E3.58776
G1 X125.56 Y113.333 E3.68717
G1 X125.022 Y115.862 E3.79037
G1 X124.574 Y118.325 E3.89028
G1 X124.187 Y120.844 E3.992
G1 X123.878 Y123.32 E4.09159
G1 X123.635 Y125.84 E4.19263
G1 X123.465 Y128.359 E4.2934
G1 X123.365 Y130.916 E4.39554
G1 X123.336 Y133.198 E4.48662
G1 X123.335 Y145.423 E4.97455
G1 X123.325 Y146.138 E5.00309
G1 X123.272 Y147.057 E5.03983
G1 X123.14 Y147.968 E5.07657
G1 X122.929 Y148.865 E5.11335
G1 X122.641 Y149.739 E5.15008
G1 X122.278 Y150.585 E5.18682
G1 X121.843 Y151.397 E5.22358
G1 X121.34 Y152.168 E5.26033
G1 X120.771 Y152.892 E5.29708
G1 X120.142 Y153.564 E5.33382
G1 X119.457 Y154.179 E5.37056
G1 X118.721 Y154.732 E5.4073
G1 X117.94 Y155.219 E5.44404
G1 X117.119 Y155.637 E5.48081
G1 X116.266 Y155.982 E5.51753
G1 X115.385 Y156.251 E5.5543
G1 X114.485 Y156.443 E5.59102
G1 X113.571 Y156.556 E5.62778
G1 X113.055 Y156.585 E5.64841
G1 X112.404 Y156.6 E5.6744
G1 X107.834 Y156.599 E5.8568
G1 X107.136 Y156.59 E5.88466
G1 X106.217 Y156.538 E5.9214
G1 X105.306 Y156.407 E5.95813
G1 X104.41 Y156.197 E5.99486
G1 X103.535 Y155.91 E6.03161
G1 X102.688 Y155.548 E6.06838
G1 X101.876 Y155.114 E6.10513
G1 X101.105 Y154.612 E6.14185
G1 X100.38 Y154.044 E6.17861
G1 X99.707 Y153.415 E6.21537
G1 X99.092 Y152.731 E6.25208
G1 X98.538 Y151.996 E6.28882
G1 X98.05 Y151.215 E6.32558
G1 X97.631 Y150.395 E6.36233
G1 X97.285 Y149.542 E6.39907
G1 X97.015 Y148.662 E6.43581
G1 X96.822 Y147.761 E6.47258
G1 X96.708 Y146.848 E6.50931
G1 X96.677 Y146.277 E6.53213
G1 X96.664 Y145.658 E6.55684
G1 X96.664 Y133.219 E7.05331
G1 X96.627 Y130.594 E7.15809
G1 X96.52 Y128.086 E7.25828
G1 X96.342 Y125.565 E7.35915
G1 X96.092 Y123.047 E7.46014
G1 X95.771 Y120.536 E7.56118
G1 X95.384 Y118.074 E7.66065
G1 X94.915 Y115.552 E7.76303
G1 X94.383 Y113.08 E7.86395
G1 X93.783 Y110.63 E7.96463
G1 X93.116 Y108.207 E8.06493
G1 X92.371 Y105.773 E8.16653
G1 X91.553 Y103.348 E8.26867
G1 X90.692 Y101.013 E8.368
G1 X89.743 Y98.651 E8.4696
G1 X88.744 Y96.356 E8.5695
G1 X87.661 Y94.045 E8.67136
G1 X86.634 Y91.996 E8.76284
G1 X86.264 Y91.277 E8.79511
G1 X85.879 Y90.441 E8.83185
G1 X85.588 Y89.642 E8.86578
G1 X85.34 Y88.858 E8.8986
G1 X85.202 Y88.4 E8.9177
G1 X84.996 Y87.684 E8.94743
G1 X84.78 Y86.789 E8.98418
G1 X84.649 Y85.938 E9.01854
G1 X84.557 Y85.115 E9.0516
G1 X84.505 Y84.578 E9.07313
G1 X84.447 Y83.885 E9.10089
G1 X84.41 Y82.965 E9.13763
G1 X84.447 Y82.111 E9.17175
G1 X84.518 Y81.287 E9.20476
G1 X84.571 Y80.756 E9.22606
G1 X84.652 Y80.043 E9.2547
G1 X84.795 Y79.134 E9.29143
G1 X84.997 Y78.309 E9.32533
G1 X85.18 Y77.673 E9.35174
G1 X85.383 Y77.003 E9.37968
G1 X85.587 Y76.36 E9.40661
G1 X85.904 Y75.496 E9.44334
G1 X86.273 Y74.701 E9.47832
G1 X86.6 Y74.068 E9.50676
G1 X86.908 Y73.494 E9.53275
G1 X87.266 Y72.85 E9.56216
G1 X87.924 Y71.813 E9.61118
G1 X88.272 Y71.352 E9.63423
G1 X88.757 Y70.747 E9.66518
G0 F9000 X89.066 Y71.001
G1 F1800 X89.392 Y70.605 E9.68565
G1 X89.87 Y70.041 E9.71516
G1 X90.484 Y69.379 E9.7512
G1 X91.077 Y68.837 E9.78326
G1 X91.739 Y68.28 E9.81779
G1 X92.077 Y68.004 E9.83521
G1 X92.642 Y67.553 E9.86406
G1 X93.372 Y67.022 E9.90009
G1 X94.078 Y66.594 E9.93304
G1 X94.781 Y66.206 E9.96509
G1 X95.282 Y65.939 E9.98775
G1 X95.901 Y65.621 E10.01553
G1 X96.722 Y65.245 E10.05157
G1 X97.453 Y64.979 E10.08261
G1 X98.106 Y64.77 E10.10998
G1 X98.708 Y64.588 E10.13508
G1 X99.423 Y64.382 E10.16478
G1 X100.301 Y64.17 E10.20083
G1 X101.106 Y64.047 E10.23333
G1 X101.926 Y63.955 E10.26626
G1 X102.454 Y63.904 E10.28743
G1 X103.146 Y63.846 E10.31515
G1 X104.048 Y63.81 E10.35118
G1 X104.6 Y63.828 E10.37322
G1 X104.724 Y63.835 E10.37818
G1 X107.314 Y63.949 E10.48165
G1 X109.885 Y63.989 E10.58428
G1 X112.413 Y63.957 E10.68519
G1 X115.03 Y63.849 E10.78972
G1 X115.445 Y63.826 E10.80631
G1 X116.355 Y63.817 E10.84264
G1 X116.91 Y63.85 E10.86483
G1 X117.674 Y63.916 E10.89543
G1 X118.191 Y63.967 E10.91617
G1 X118.9 Y64.047 E10.94464
G1 X119.792 Y64.188 E10.98069
G1 X120.574 Y64.38 E11.01283
G1 X121.361 Y64.607 E11.04552
G1 X121.88 Y64.766 E11.06718
G1 X122.522 Y64.97 E11.09407
G1 X123.37 Y65.281 E11.13012
G1 X124.109 Y65.626 E11.16267
G1 X124.901 Y66.036 E11.19826
G1 X125.291 Y66.247 E11.21596
G1 X125.933 Y66.602 E11.24524
G1 X126.703 Y67.073 E11.28127
G1 X127.115 Y67.366 E11.30145
G1 X127.398 Y67.584 E11.3157
G1 X127.996 Y68.063 E11.34628
G1 X128.365 Y68.367 E11.36537
G1 X128.934 Y68.847 E11.39508
G1 X129.598 Y69.459 E11.43112
G1 X130.153 Y70.065 E11.46392
G1 X130.695 Y70.709 E11.49751
G1 X130.996 Y71.077 E11.51649
G1 X131.447 Y71.642 E11.54534
G1 X131.978 Y72.372 E11.58137
G1 X132.406 Y73.078 E11.61432
G1 X132.794 Y73.781 E11.64637
G1 X133.056 Y74.272 E11.66858
G1 X133.379 Y74.899 E11.69673
G1 X133.756 Y75.719 E11.73275
G1 X134.036 Y76.494 E11.76564
G1 X134.277 Y77.259 E11.79765
G1 X134.411 Y77.703 E11.81616
G1 X134.618 Y78.42 E11.84595
G1 X134.83 Y79.298 E11.882
G1 X134.955 Y80.119 E11.91514
G1 X135.044 Y80.923 E11.94743
G1 X135.096 Y81.453 E11.96869
G1 X135.154 Y82.145 E11.9964
G1 X135.19 Y83.047 E12.03243
G1 X135.154 Y83.851 E12.06455
G1 X135.084 Y84.674 E12.09752
G1 X135.033 Y85.191 E12.11825
G1 X134.953 Y85.9 E12.14673
G1 X134.812 Y86.792 E12.18277
G1 X134.619 Y87.578 E12.21508
G1 X134.393 Y88.36 E12.24757
G1 X134.235 Y88.875 E12.26907
G1 X134.031 Y89.518 E12.29599
G1 X133.72 Y90.365 E12.332
G1 X133.375 Y91.107 E12.36466
G1 X133.054 Y91.729 E12.3926
G1 X131.855 Y94.129 E12.49968
G1 X130.767 Y96.468 E12.60264
G1 X129.778 Y98.762 E12.70234
G1 X128.823 Y101.16 E12.80536
G1 X127.972 Y103.493 E12.90448
G1 X127.168 Y105.905 E13.00595
G1 X126.421 Y108.372 E13.10883
G1 X125.764 Y110.785 E13.20865
G1 X125.158 Y113.296 E13.31174
G1 X124.632 Y115.773 E13.41281
G1 X124.177 Y118.271 E13.51415
G1 X123.798 Y120.735 E13.61365
G1 X123.478 Y123.303 E13.71694
G1 X123.236 Y125.808 E13.81738
G1 X123.065 Y128.352 E13.91915
G1 X122.965 Y130.895 E14.02072
G1 X122.936 Y133.193 E14.11245
G1 X122.935 Y145.418 E14.60037
G1 X122.925 Y146.133 E14.62891
G1 X122.872 Y147.034 E14.66494
G1 X122.74 Y147.928 E14.70101
G1 X122.53 Y148.806 E14.73704
G1 X122.242 Y149.662 E14.77308
G1 X121.88 Y150.489 E14.80912
G1 X121.446 Y151.281 E14.84516
G1 X120.944 Y152.032 E14.88121
G1 X120.377 Y152.735 E14.91726
G1 X119.751 Y153.385 E14.95328
G1 X119.069 Y153.978 E14.98935
G1 X118.338 Y154.508 E15.02539
G1 X117.562 Y154.971 E15.06145
G1 X116.749 Y155.363 E15.09748
G1 X115.904 Y155.682 E15.13353
G1 X115.034 Y155.925 E15.16958
G1 X114.146 Y156.091 E15.20563
G1 X113.043 Y156.185 E15.24982
G1 X112.404 Y156.2 E15.27533
G1 X107.839 Y156.199 E15.45753
G1 X107.141 Y156.19 E15.48539
G1 X106.24 Y156.139 E15.52141
G1 X105.346 Y156.007 E15.55747
G1 X104.468 Y155.798 E15.5935
G1 X103.611 Y155.511 E15.62957
G1 X102.784 Y155.15 E15.66558
G1 X101.991 Y154.717 E15.70164
G1 X101.24 Y154.216 E15.73768
G1 X100.536 Y153.65 E15.77373
G1 X99.885 Y153.024 E15.80978
G1 X99.292 Y152.343 E15.84582
G1 X98.762 Y151.612 E15.88185
G1 X98.298 Y150.837 E15.91791
G1 X97.904 Y150.024 E15.95396
G1 X97.584 Y149.18 E15.98999
G1 X97.34 Y148.31 E16.02605
G1 X97.174 Y147.422 E16.06211
G1 X97.077 Y146.267 E16.10837
G1 X97.064 Y145.658 E16.13268
G1 X97.064 Y133.213 E16.62939
G1 X97.027 Y130.607 E16.73341
G1 X96.918 Y128.039 E16.836
G1 X96.741 Y125.537 E16.93611
G1 X96.492 Y123.024 E17.0369
G1 X96.164 Y120.461 E17.14003
G1 X95.773 Y117.976 E17.24043
G1 X95.313 Y115.5 E17.34094
G1 X94.769 Y112.973 E17.44411
G1 X94.172 Y110.534 E17.54433
G1 X93.496 Y108.079 E17.64596
G1 X92.76 Y105.675 E17.74631
G1 X91.935 Y103.23 E17.8493
G1 X91.062 Y100.862 E17.95003
G1 X90.122 Y98.521 E18.05071
G1 X89.095 Y96.162 E18.1534
G1 X88.016 Y93.86 E18.25487
G1 X86.992 Y91.817 E18.34608
G1 X86.62 Y91.094 E18.37853
G1 X86.242 Y90.274 E18.41457
G1 X85.969 Y89.52 E18.44658
G1 X85.723 Y88.742 E18.47914
G1 X85.587 Y88.289 E18.49802
G1 X85.381 Y87.573 E18.52776
G1 X85.17 Y86.695 E18.5638
G1 X85.047 Y85.894 E18.59614
G1 X84.955 Y85.074 E18.62908
G1 X84.904 Y84.545 E18.65029
G1 X84.846 Y83.852 E18.67804
G1 X84.81 Y82.949 E18.71411
G1 X84.846 Y82.144 E18.74627
G1 X84.916 Y81.326 E18.77904
G1 X84.968 Y80.802 E18.80006
G1 X85.049 Y80.089 E18.8287
G1 X85.191 Y79.197 E18.86475
G1 X85.382 Y78.42 E18.89668
G1 X85.607 Y77.639 E18.92912
G1 X85.765 Y77.124 E18.95062
G1 X85.969 Y76.481 E18.97755
G1 X86.28 Y75.634 E19.01356
G1 X86.629 Y74.885 E19.04654
G1 X87.029 Y74.112 E19.08128
G1 X87.258 Y73.688 E19.10051
G1 X87.616 Y73.044 E19.12992
G1 X88.248 Y72.047 E19.17703
G1 X88.584 Y71.602 E19.19929
G1 X89.066 Y71.001 E19.23004
G1 F2400 E16.23004
G1 F300 Z0.44
;MESH:ToothpasteHolder_key.stl
G0 F9000 X112.536 Y145.8 Z0.44
;TYPE:WALL-OUTER
G1 F300 Z0.24
G1 F1200 E19.23004
G1 F1800 X107.464 Y145.8 E19.43247
G1 X107.463 Y91.8 E21.58773
G1 X104.01 Y91.8 E21.72554
G1 X102.281 Y91.63 E21.79489
G1 X100.632 Y91.13 E21.86366
G1 X99.115 Y90.318 E21.93233
G1 X97.778 Y89.222 E22.00133
G1 X96.682 Y87.885 E22.07034
G1 X95.87 Y86.368 E22.13901
G1 X95.37 Y84.719 E22.20778
G1 X95.201 Y83 E22.27672
G1 X95.37 Y81.281 E22.34566
G1 X95.87 Y79.632 E22.41444
G1 X96.682 Y78.115 E22.48311
G1 X97.778 Y76.778 E22.55211
G1 X99.115 Y75.682 E22.62111
G1 X100.632 Y74.87 E22.68979
G1 X102.281 Y74.37 E22.75856
G1 X104 Y74.201 E22.8275
G1 X105.719 Y74.37 E22.89644
G1 X107.368 Y74.87 E22.96522
G1 X108.885 Y75.682 E23.03389
G1 X110 Y76.596 E23.09143
G1 X111.115 Y75.682 E23.14898
G1 X112.632 Y74.87 E23.21765
G1 X114.281 Y74.37 E23.28643
G1 X116 Y74.201 E23.35537
G1 X117.719 Y74.37 E23.42431
G1 X119.368 Y74.87 E23.49308
G1 X120.885 Y75.682 E23.56175
G1 X122.222 Y76.778 E23.63076
G1 X123.318 Y78.115 E23.69976
G1 X124.13 Y79.632 E23.76843
G1 X124.63 Y81.281 E23.8372
G1 X124.799 Y83 E23.90614
G1 X124.63 Y84.719 E23.97508
G1 X124.13 Y86.368 E24.04386
G1 X123.318 Y87.885 E24.11253
G1 X122.222 Y89.222 E24.18153
G1 X120.885 Y90.318 E24.25053
G1 X119.368 Y91.13 E24.31921
G1 X117.719 Y91.63 E24.38798
G1 X115.99 Y91.8 E24.45732
G1 X112.537 Y91.8 E24.59514
G1 X112.536 Y145.8 E26.7504
G1 F2400 E23.7504
G0 F9000 X112.066 Y145.33
G0 X107.891 Y91.372
G0 X101.024 Y86.562
G0 X100.387 Y85.914
G0 X99.887 Y85.154
G0 X99.546 Y84.31
G0 X99.377 Y83.415
G0 X99.384 Y82.506
G0 X99.568 Y81.615
G0 X99.924 Y80.777
G0 X100.438 Y80.024
G0 X100.962 Y79.509
G0 X101.865 Y78.814
G0 X102.051 Y79.278
G1 F1200 E26.7504
G1 F1800 X101.363 Y79.731 E26.78328
G1 X100.776 Y80.307 E26.8161
G1 X100.312 Y80.989 E26.84902
G1 X99.99 Y81.746 E26.88185
G1 X99.823 Y82.553 E26.91475
G1 X99.816 Y83.376 E26.9476
G1 X99.97 Y84.186 E26.9805
G1 X100.278 Y84.949 E27.01334
G1 X100.731 Y85.637 E27.04622
G1 X101.307 Y86.224 E27.07904
G1 X101.989 Y86.688 E27.11197
G1 X102.746 Y87.01 E27.1448
G1 X103.553 Y87.177 E27.17769
G1 X104.376 Y87.184 E27.21054
G1 X105.186 Y87.03 E27.24345
G1 X105.949 Y86.722 E27.27629
G1 X106.637 Y86.269 E27.30917
G1 X107.224 Y85.693 E27.34199
G1 X107.688 Y85.011 E27.37491
G1 X108.01 Y84.254 E27.40775
G1 X108.177 Y83.447 E27.44064
G1 X108.184 Y82.624 E27.47349
G1 X108.03 Y81.814 E27.5064
G1 X107.722 Y81.051 E27.53924
G1 X107.269 Y80.363 E27.57211
G1 X106.693 Y79.776 E27.60494
G1 X106.011 Y79.312 E27.63786
G1 X105.254 Y78.99 E27.67069
G1 X104.447 Y78.823 E27.70358
G1 X103.624 Y78.816 E27.73643
G1 X102.814 Y78.97 E27.76934
G1 X102.051 Y79.278 E27.80218
G0 F9000 X101.864 Y78.922
;TYPE:WALL-INNER
G1 F1800 X101.111 Y79.418 E27.83817
G1 X100.468 Y80.049 E27.87413
G1 X99.959 Y80.796 E27.9102
G1 X99.606 Y81.626 E27.9462
G1 X99.423 Y82.51 E27.98223
G1 X99.416 Y83.412 E28.01823
G1 X99.584 Y84.299 E28.05427
G1 X99.922 Y85.136 E28.09029
G1 X100.418 Y85.889 E28.12628
G1 X101.049 Y86.532 E28.16224
G1 X101.796 Y87.041 E28.19832
G1 X102.626 Y87.394 E28.23432
G1 X103.51 Y87.577 E28.27035
G1 X104.412 Y87.584 E28.30635
G1 X105.299 Y87.416 E28.34238
G1 X106.136 Y87.078 E28.37841
G1 X106.889 Y86.582 E28.41439
G1 X107.532 Y85.951 E28.45035
G1 X108.041 Y85.204 E28.48643
G1 X108.394 Y84.374 E28.52243
G1 X108.577 Y83.49 E28.55846
G1 X108.584 Y82.588 E28.59446
G1 X108.416 Y81.701 E28.63049
G1 X108.078 Y80.864 E28.66652
G1 X107.582 Y80.111 E28.70251
G1 X106.951 Y79.468 E28.73846
G1 X106.204 Y78.959 E28.77454
