;FLAVOR:Marlin
;TIME:6745
;Filament used: 2.76153m
;Layer height: 0.2
;MINX:84.486
;MINY:102.247
;MINZ:0.24
;MAXX:136.049
;MAXY:118.616
;MAXZ:76.65
;POSTPROCESSED
;Generated with Cura_SteamEngine 4.8.0
M82 ;absolute extrusion mode
M201 X500.00 Y500.00 Z100.00 E5000.00 ;Setup machine max acceleration
M203 X500.00 Y500.00 Z10.00 E50.00 ;Setup machine max feedrate
M204 P500.00 R1000.00 T500.00 ;Setup Print/Retract/Travel acceleration
M205 X8.00 Y8.00 Z0.40 E5.00 ;Setup Jerk
M220 S100 ;Reset Feedrate
M221 S100 ;Reset Flowrate

;*** Start Dual Nozzle/Bed Preheating ***
M140 S50 ; start preheating the bed
M104 S215 ﻿T0 ; start preheating hotend
M190 S50 ; heat to Cura Bed setting and WAIT
M109 S215 ﻿T0 ; heat to Cura Hotend and WAIT
;*** End Preheating ***

G28 ; home

G92 E0 ;Reset Extruder
G1 Z2.0 F3000 ;Move Z Axis up

;*** Single Print Start Tone
M300 S1000 P500 ; chirp to indicate starting to print
;*** End Single Start Tone

G1 X10.1 Y20 Z0.28 F5000.0 ;Move to start position
G1 X10.1 Y200.0 Z0.28 F1500.0 E15 ;Draw the first line
G1 X10.4 Y200.0 Z0.28 F5000.0 ;Move to side a little
G1 X10.4 Y20 Z0.28 F1500.0 E30 ;Draw the second line
G92 E0 ;Reset Extruder
G1 Z2.0 F3000 ;Move Z Axis up
G92 E0
G92 E0
G1 F1800 E-2
;LAYER_COUNT:393
;LAYER:-6
M107
M204 S500
M205 X6 Y6
G0 F9000 X85.982 Y103.095 Z0.24
;TYPE:SUPPORT-INTERFACE
G1 F1200 E0
G1 F1687.5 X86.019 Y103.066 E0.00375
G1 X86.331 Y102.857 E0.03373
G1 X86.409 Y102.814 E0.04084
G1 X86.69 Y102.681 E0.06566
G1 X86.892 Y102.606 E0.08286
G1 X87.062 Y102.56 E0.09691
G1 X87.234 Y102.518 E0.11105
G1 X87.581 Y102.465 E0.13907
G1 X87.711 Y102.456 E0.14947
G1 X87.914 Y102.448 E0.16569
G1 X132.146 Y102.448 E3.69648
G1 X132.365 Y102.457 E3.71397
G1 X132.509 Y102.469 E3.72551
G1 X132.878 Y102.53 E3.75536
G1 X132.929 Y102.543 E3.75956
G1 X133.275 Y102.659 E3.78869
G1 X133.324 Y102.681 E3.79298
G1 X133.663 Y102.861 E3.82362
G1 X133.694 Y102.881 E3.82656
G1 X133.994 Y103.11 E3.85669
G1 X134.054 Y103.166 E3.86324
G1 X134.273 Y103.393 E3.88842
G1 X134.437 Y103.601 E3.90956
G1 X134.513 Y103.717 E3.92063
G1 X134.609 Y103.873 E3.93525
G1 X134.776 Y104.205 E3.96492
G1 X134.796 Y104.254 E3.96915
G1 X134.903 Y104.595 E3.99767
G1 X134.918 Y104.661 E4.00308
G1 X134.971 Y105.021 E4.03212
G1 X134.977 Y105.108 E4.03908
G1 X134.985 Y105.316 E4.0557
G1 X134.985 Y114.672 E4.80254
G1 X134.977 Y114.883 E4.81939
G1 X134.965 Y115.033 E4.8314
G1 X134.903 Y115.404 E4.86143
G1 X134.89 Y115.455 E4.86563
G1 X134.77 Y115.811 E4.89562
G1 X134.752 Y115.853 E4.89927
G1 X134.576 Y116.187 E4.9294
G1 X134.527 Y116.265 E4.93676
G1 X134.432 Y116.405 E4.95026
G1 X134.333 Y116.531 E4.96305
G1 X134.217 Y116.666 E4.97726
G1 X133.958 Y116.92 E5.00622
G1 X133.916 Y116.955 E5.01058
G1 X133.599 Y117.177 E5.04147
G1 X133.561 Y117.2 E5.04502
G1 X133.234 Y117.358 E5.07401
G1 X133.185 Y117.377 E5.0782
G1 X132.822 Y117.484 E5.10841
G1 X132.761 Y117.497 E5.11339
G1 X132.409 Y117.544 E5.14174
G1 X132.195 Y117.552 E5.15883
G1 X87.922 Y117.552 E8.6929
G1 X87.704 Y117.543 E8.71031
G1 X87.556 Y117.531 E8.72217
G1 X87.189 Y117.472 E8.75184
G1 X87.068 Y117.442 E8.76179
G1 X86.894 Y117.393 E8.77622
G1 X86.749 Y117.34 E8.78854
G1 X86.603 Y117.279 E8.80117
G1 X86.265 Y117.104 E8.83155
G1 X86.214 Y117.072 E8.83636
G1 X85.917 Y116.85 E8.86596
G1 X85.894 Y116.829 E8.86845
G1 X85.624 Y116.55 E8.89944
G1 X85.589 Y116.507 E8.90386
G1 X85.386 Y116.213 E8.93238
G1 X85.358 Y116.165 E8.93682
G1 X85.199 Y115.827 E8.96664
G1 X85.183 Y115.784 E8.9703
G1 X85.078 Y115.417 E9.00077
G1 X85.064 Y115.343 E9.00678
G1 X85.021 Y115.006 E9.0339
G1 X85.015 Y114.82 E9.04875
G1 X85.015 Y105.234 E9.81395
G1 X85.023 Y105.023 E9.83081
G1 X85.036 Y104.871 E9.84298
G1 X85.097 Y104.502 E9.87284
G1 X85.11 Y104.451 E9.87704
G1 X85.226 Y104.105 E9.90617
G1 X85.248 Y104.056 E9.91046
G1 X85.428 Y103.717 E9.9411
G1 X85.448 Y103.686 E9.94404
G1 X85.677 Y103.386 E9.97417
G1 X85.709 Y103.352 E9.97789
G1 X85.982 Y103.095 E10.00782
G0 F9000 X86.4 Y102.818
G1 F1687.5 X86.4 Y117.173 E11.1537
G0 F9000 X88 Y117.552
G1 F1687.5 X88 Y102.448 E12.35937
G0 F9000 X89.6 Y102.448
G1 F1687.5 X89.6 Y117.552 E13.56503
G0 F9000 X91.2 Y117.552
G1 F1687.5 X91.2 Y102.448 E14.7707
G0 F9000 X92.8 Y102.448
G1 F1687.5 X92.8 Y117.552 E15.97637
G0 F9000 X94.4 Y117.552
G1 F1687.5 X94.4 Y102.448 E17.18203
G0 F9000 X96 Y102.448
G1 F1687.5 X96 Y117.552 E18.3877
G0 F9000 X97.6 Y117.552
G1 F1687.5 X97.6 Y102.448 E19.59337
G0 F9000 X99.2 Y102.448
G1 F1687.5 X99.2 Y117.552 E20.79903
G0 F9000 X100.8 Y117.552
G1 F1687.5 X100.8 Y102.448 E22.0047
G0 F9000 X102.4 Y102.448
G1 F1687.5 X102.4 Y117.552 E23.21037
G0 F9000 X104 Y117.552
G1 F1687.5 X104 Y102.448 E24.41603
G0 F9000 X105.6 Y102.448
G1 F1687.5 X105.6 Y117.552 E25.6217
G0 F9000 X107.2 Y117.552
G1 F1687.5 X107.2 Y102.448 E26.82737
G0 F9000 X108.8 Y102.448
G1 F1687.5 X108.8 Y117.552 E28.03303
G0 F9000 X110.4 Y117.552
G1 F1687.5 X110.4 Y102.448 E29.2387
G0 F9000 X112 Y102.448
G1 F1687.5 X112 Y117.552 E30.44437
G0 F9000 X113.6 Y117.552
G1 F1687.5 X113.6 Y102.448 E31.65003
G0 F9000 X115.2 Y102.448
G1 F1687.5 X115.2 Y117.552 E32.8557
G0 F9000 X116.8 Y117.552
G1 F1687.5 X116.8 Y102.448 E34.06137
G0 F9000 X118.4 Y102.448
G1 F1687.5 X118.4 Y117.552 E35.26703
G0 F9000 X120 Y117.552
G1 F1687.5 X120 Y102.448 E36.4727
G0 F9000 X121.6 Y102.448
G1 F1687.5 X121.6 Y117.552 E37.67837
G0 F9000 X123.2 Y117.552
G1 F1687.5 X123.2 Y102.448 E38.88403
G0 F9000 X124.8 Y102.448
G1 F1687.5 X124.8 Y117.552 E40.0897
G0 F9000 X126.4 Y117.552
G1 F1687.5 X126.4 Y102.448 E41.29537
G0 F9000 X128 Y102.448
G1 F1687.5 X128 Y117.552 E42.50103
G0 F9000 X129.6 Y117.552
G1 F1687.5 X129.6 Y102.448 E43.7067
G0 F9000 X131.2 Y102.448
G1 F1687.5 X131.2 Y117.552 E44.91237
G0 F9000 X132.8 Y117.489
G1 F1687.5 X132.8 Y102.518 E46.10742
G0 F9000 X134.4 Y103.555
M104 S215
G1 F1687.5 X134.4 Y116.446 E47.13643
G0 F300 X134.4 Y116.446 Z0.54
G0 F9000 X134.574 Y116.189
;TIME_ELAPSED:29.907447
;LAYER:-5
M140 S40
;TYPE:SUPPORT
G1 F1687.5 X120.833 Y102.448 E49.07543
G1 X119.419 Y102.448 E49.21652
G1 X133.92 Y116.949 E51.26277
G1 X133.915 Y116.954 E51.26348
G1 X133.598 Y117.176 E51.30209
G1 X133.559 Y117.2 E51.30666
G1 X133.233 Y117.357 E51.34277
G1 X133.184 Y117.377 E51.34805
G1 X132.99 Y117.434 E51.36822
G1 X118.004 Y102.448 E53.48291
G1 X116.59 Y102.448 E53.624
G1 X131.693 Y117.551 E55.7552
G1 X130.279 Y117.551 E55.89628
G1 X115.176 Y102.448 E58.02748
G1 X113.762 Y102.448 E58.16857
G1 X128.865 Y117.551 E60.29977
G1 X127.451 Y117.551 E60.44086
G1 X112.347 Y102.448 E62.57212
G1 X110.933 Y102.448 E62.71321
G1 X126.036 Y117.551 E64.84441
G1 X124.622 Y117.551 E64.9855
G1 X109.519 Y102.448 E67.1167
G1 X108.105 Y102.448 E67.25779
G1 X123.208 Y117.551 E69.38898
G1 X121.794 Y117.551 E69.53007
G1 X106.691 Y102.448 E71.66127
G1 X105.276 Y102.448 E71.80246
G1 X120.379 Y117.551 E73.93365
G1 X118.965 Y117.551 E74.07474
G1 X103.862 Y102.448 E76.20594
G1 X102.448 Y102.448 E76.34703
G1 X117.551 Y117.551 E78.47823
G1 X116.137 Y117.551 E78.61931
G1 X101.034 Y102.448 E80.75051
G1 X99.62 Y102.448 E80.8916
G1 X114.723 Y117.551 E83.0228
G1 X113.308 Y117.551 E83.16399
G1 X98.205 Y102.448 E85.29518
G1 X96.791 Y102.448 E85.43627
G1 X111.894 Y117.551 E87.56747
G1 X110.48 Y117.551 E87.70856
G1 X95.377 Y102.448 E89.83975
G1 X93.963 Y102.448 E89.98084
G1 X109.066 Y117.551 E92.11204
G1 X107.652 Y117.551 E92.25313
G1 X92.548 Y102.448 E94.3844
G1 X91.134 Y102.448 E94.52549
G1 X106.237 Y117.551 E96.65668
G1 X104.823 Y117.551 E96.79777
G1 X89.72 Y102.448 E98.92897
G1 X88.306 Y102.448 E99.07006
G1 X103.409 Y117.551 E101.20125
G1 X101.995 Y117.551 E101.34234
G1 X87.015 Y102.572 E103.45611
G1 X86.892 Y102.605 E103.46882
G1 X86.689 Y102.68 E103.49041
G1 X86.408 Y102.813 E103.52143
G1 X86.331 Y102.856 E103.53023
G1 X86.064 Y103.035 E103.56231
G1 X100.58 Y117.551 E105.61067
G1 X99.166 Y117.551 E105.75176
G1 X85.393 Y103.778 E107.69528
G1 X85.248 Y104.055 E107.72648
G1 X85.226 Y104.104 E107.73184
G1 X85.109 Y104.45 E107.76828
G1 X85.096 Y104.501 E107.77353
G1 X85.04 Y104.839 E107.80772
G1 X97.752 Y117.551 E109.60152
G1 X96.338 Y117.551 E109.74261
G1 X85.014 Y106.227 E111.34055
G1 X85.014 Y107.642 E111.48174
G1 X94.924 Y117.551 E112.88008
G1 X93.509 Y117.551 E113.02126
G1 X85.014 Y109.056 E114.22
G1 X85.014 Y110.47 E114.36109
G1 X92.095 Y117.551 E115.3603
G1 X90.681 Y117.551 E115.50139
G1 X85.014 Y111.884 E116.30106
G1 X85.014 Y113.299 E116.44225
G1 X89.267 Y117.551 E117.04232
G1 X87.922 Y117.551 E117.17653
G1 X87.849 Y117.548 E117.18382
G1 X85.014 Y114.713 E117.58387
G0 F9000 X85.014 Y114.819
G1 F1687.5 X85.021 Y115.005 E117.60244
G1 X85.064 Y115.342 E117.63634
G1 X85.078 Y115.416 E117.64385
G1 X85.183 Y115.783 E117.68194
G1 X85.198 Y115.826 E117.68649
G1 X85.358 Y116.164 E117.7238
G1 X85.386 Y116.212 E117.72934
G1 X85.588 Y116.506 E117.76494
G1 X85.624 Y116.548 E117.77046
G1 X85.893 Y116.828 E117.8092
G1 X85.917 Y116.848 E117.81232
G1 X86.213 Y117.07 E117.84923
G1 X86.264 Y117.103 E117.8553
G1 X86.602 Y117.278 E117.89327
G1 X86.748 Y117.339 E117.90906
G1 X86.893 Y117.392 E117.92447
G1 X87.068 Y117.441 E117.9426
G1 X87.189 Y117.471 E117.95504
G1 X87.556 Y117.53 E117.99213
G1 X87.703 Y117.542 E118.00684
G1 X87.849 Y117.548 E118.02142
G1 F1800 E116.02142
G0 F9000 X87.894 Y118.616
G0 X132.522 Y118.602
G0 X133.523 Y118.387
G0 X134.183 Y118.068
G0 X134.842 Y117.52
G0 X135.305 Y117.013
G0 X134.575 Y116.187
G1 F1200 E118.02142
G1 F1687.5 X134.751 Y115.853 E118.0591
G1 X134.769 Y115.81 E118.06375
G1 X134.889 Y115.454 E118.10123
G1 X134.901 Y115.404 E118.10636
G1 X134.945 Y115.146 E118.13248
G1 X122.247 Y102.448 E119.9243
G1 X123.661 Y102.448 E120.06539
G1 X134.984 Y113.771 E121.66319
G1 X134.984 Y112.357 E121.80428
G1 X125.075 Y102.448 E123.20255
G1 X126.49 Y102.448 E123.34374
G1 X134.984 Y110.942 E124.54233
G1 X134.984 Y109.528 E124.68342
G1 X127.904 Y102.448 E125.68248
G1 X129.318 Y102.448 E125.82357
G1 X134.984 Y108.114 E126.62311
G1 X134.984 Y106.7 E126.7642
G1 X130.732 Y102.448 E127.3642
G1 X132.145 Y102.448 E127.50519
G0 F9000 X132.147 Y102.449
G1 F1687.5 X134.983 Y105.285 E127.90538
G0 F9000 X134.976 Y105.107
G1 F1687.5 X134.969 Y105.02 E127.91409
G1 X134.916 Y104.66 E127.9504
G1 X134.901 Y104.595 E127.95705
G1 X134.795 Y104.253 E127.99278
G1 X134.775 Y104.205 E127.99797
G1 X134.608 Y103.873 E128.03505
G1 X134.512 Y103.717 E128.05333
G1 X134.436 Y103.601 E128.06717
G1 X134.272 Y103.393 E128.0936
G1 X134.053 Y103.165 E128.12514
G1 X133.993 Y103.109 E128.13333
G1 X133.693 Y102.88 E128.17099
G1 X133.662 Y102.86 E128.17467
G1 X133.322 Y102.681 E128.21301
G1 X133.274 Y102.659 E128.21828
G1 X132.928 Y102.542 E128.25472
G1 X132.877 Y102.529 E128.25997
G1 X132.508 Y102.468 E128.29729
G1 X132.364 Y102.456 E128.31171
G1 X132.147 Y102.449 E128.33337
G0 F300 X132.147 Y102.449 Z0.74
G0 F9000 X132.912 Y102.331
;TIME_ELAPSED:63.318055
;LAYER:-4
;TYPE:SUPPORT-INTERFACE
G1 F2250 X132.154 Y102.247 E128.35874
G1 X87.906 Y102.248 E129.83043
G1 X87.57 Y102.265 E129.84162
G1 X86.921 Y102.4 E129.86367
G1 X133.118 Y102.4 E131.40019
G1 X133.404 Y102.496 E131.41022
G1 X133.81 Y102.717 E131.4256
G1 X133.915 Y102.8 E131.43005
G1 X86.062 Y102.8 E133.02165
G1 X85.905 Y102.901 E133.02786
G1 X85.581 Y103.2 E133.04252
G1 X134.353 Y103.2 E134.66468
G1 X134.576 Y103.452 E134.67587
G1 X134.661 Y103.6 E134.68155
G1 X85.268 Y103.6 E136.32437
G1 X85.063 Y103.979 E136.3387
G1 X85.056 Y104 E136.33944
G1 X134.888 Y104 E137.99686
G1 X134.962 Y104.13 E138.00183
G1 X135.046 Y104.4 E138.01124
G1 X84.923 Y104.4 E139.67833
G1 X84.898 Y104.472 E139.68087
G1 X84.862 Y104.8 E139.69184
G1 X135.134 Y104.8 E141.3639
G1 X135.175 Y105.2 E141.37727
G1 X84.818 Y105.2 E143.05215
G1 X84.815 Y105.226 E143.05302
G1 X84.815 Y105.6 E143.06546
G1 X135.185 Y105.6 E144.74077
G1 X135.185 Y106 E144.75408
G1 X84.815 Y106 E146.42939
G1 X84.815 Y106.4 E146.4427
G1 X135.185 Y106.4 E148.11801
G1 X135.185 Y106.8 E148.13131
G1 X84.815 Y106.8 E149.80663
G1 X84.815 Y107.2 E149.81993
G1 X135.185 Y107.2 E151.49524
G1 X135.185 Y107.6 E151.50855
G1 X84.815 Y107.6 E153.18386
G1 X84.815 Y108 E153.19716
G1 X135.185 Y108 E154.87248
G1 X135.185 Y108.4 E154.88578
G1 X84.815 Y108.4 E156.56109
G1 X84.815 Y108.8 E156.5744
G1 X135.185 Y108.8 E158.24971
G1 X135.185 Y109.2 E158.26301
G1 X84.815 Y109.2 E159.93833
G1 X84.815 Y109.6 E159.95163
G1 X135.185 Y109.6 E161.62695
G1 X135.185 Y110 E161.64025
G1 X84.815 Y110 E163.31556
G1 X84.815 Y110.4 E163.32887
G1 X135.185 Y110.4 E165.00418
G1 X135.185 Y110.8 E165.01748
G1 X84.815 Y110.8 E166.6928
G1 X84.815 Y111.2 E166.7061
G1 X135.185 Y111.2 E168.38141
G1 X135.185 Y111.6 E168.39472
G1 X84.815 Y111.6 E170.07003
G1 X84.815 Y112 E170.08333
G1 X135.185 Y112 E171.75865
G1 X135.185 Y112.4 E171.77195
G1 X84.815 Y112.4 E173.44726
G1 X84.815 Y112.8 E173.46057
G1 X135.185 Y112.8 E175.13588
G1 X135.185 Y113.2 E175.14919
G1 X84.815 Y113.2 E176.8245
G1 X84.815 Y113.6 E176.8378
G1 X135.185 Y113.6 E178.51312
G1 X135.185 Y114 E178.52642
G1 X84.815 Y114 E180.20173
G1 X84.815 Y114.4 E180.21504
G1 X135.185 Y114.4 E181.89035
G1 X135.185 Y114.679 E181.89963
G1 X135.171 Y114.8 E181.90368
G1 X84.815 Y114.8 E183.57853
G1 X84.815 Y114.82 E183.57919
G1 X84.849 Y115.2 E183.59188
G1 X135.127 Y115.2 E185.26414
G1 X135.102 Y115.433 E185.27193
G1 X135.045 Y115.6 E185.2778
G1 X84.926 Y115.6 E186.94476
G1 X84.992 Y115.846 E186.95323
G1 X85.062 Y116 E186.95886
G1 X134.897 Y116 E188.61638
G1 X134.664 Y116.4 E188.63178
G1 X85.276 Y116.4 E190.27443
G1 X85.434 Y116.633 E190.28379
G1 X85.59 Y116.8 E190.29139
G1 X134.333 Y116.8 E191.91259
G1 X134.043 Y117.11 E191.92671
G1 X133.911 Y117.2 E191.93202
G1 X86.051 Y117.2 E193.52385
G1 X86.109 Y117.244 E193.52628
G1 X86.514 Y117.458 E193.54151
G1 X86.943 Y117.6 E193.55654
G1 X133.125 Y117.6 E195.09256
G1 X132.777 Y117.696 E195.10457
G1 X132.2 Y117.751 E195.12384
G1 X87.914 Y117.752 E196.5968
G1 X87.149 Y117.668 E196.6224
G1 F1800 E194.6224
G0 F300 X87.149 Y117.668 Z0.94
G0 F9000 X87.011 Y118.521
G0 X87.894 Y118.616
G0 X132.522 Y118.602
G0 X133.523 Y118.387
G0 X134.183 Y118.068
G0 X134.998 Y117.391
G0 X135.504 Y116.711
G0 X135.913 Y115.754
G0 X136.049 Y114.7
G0 X136.03 Y104.902
G0 X135.843 Y104.086
G0 X135.587 Y103.451
G0 X134.8 Y103.846
;TIME_ELAPSED:122.940952
;LAYER:-3
;TYPE:SUPPORT-INTERFACE
G1 F1200 E196.6224
G1 F2250 X134.576 Y103.452 E196.63747
G1 X134.4 Y103.254 E196.64629
G1 X134.4 Y116.729 E197.09447
G1 X134.043 Y117.11 E197.11183
G1 X134 Y117.14 E197.11358
G1 X134 Y102.869 E197.58823
G1 X133.81 Y102.717 E197.59632
G1 X133.6 Y102.603 E197.60427
G1 X133.6 Y117.402 E198.09649
G1 X133.245 Y117.567 E198.10951
G1 X133.2 Y117.58 E198.11107
G1 X133.2 Y102.428 E198.61502
G1 X132.912 Y102.331 E198.62513
G1 X132.8 Y102.319 E198.62888
G1 X132.8 Y117.69 E199.14012
G1 X132.777 Y117.696 E199.14091
G1 X132.4 Y117.732 E199.15351
G1 X132.4 Y102.275 E199.66761
G1 X132.154 Y102.247 E199.67584
G1 X132 Y102.247 E199.68096
G1 X132 Y117.751 E200.19663
G1 X131.6 Y117.751 E200.20993
G1 X131.6 Y102.247 E200.7256
G1 X131.2 Y102.247 E200.7389
G1 X131.2 Y117.751 E201.25457
G1 X130.799 Y117.751 E201.26791
G1 X130.799 Y102.247 E201.78357
G1 X130.399 Y102.247 E201.79687
G1 X130.399 Y117.751 E202.31254
G1 X129.999 Y117.751 E202.32584
G1 X129.999 Y102.247 E202.84151
G1 X129.599 Y102.247 E202.85481
G1 X129.599 Y117.751 E203.37048
G1 X129.199 Y117.751 E203.38378
G1 X129.199 Y102.247 E203.89945
G1 X128.799 Y102.247 E203.91275
G1 X128.799 Y117.751 E204.42842
G1 X128.399 Y117.751 E204.44172
G1 X128.399 Y102.247 E204.95739
G1 X127.999 Y102.247 E204.97069
G1 X127.999 Y117.751 E205.48636
G1 X127.599 Y117.751 E205.49966
G1 X127.599 Y102.247 E206.01532
G1 X127.199 Y102.247 E206.02863
G1 X127.199 Y117.751 E206.54429
G1 X126.799 Y117.751 E206.5576
G1 X126.799 Y102.247 E207.07326
G1 X126.399 Y102.247 E207.08657
G1 X126.399 Y117.751 E207.60223
G1 X125.999 Y117.751 E207.61554
G1 X125.999 Y102.247 E208.1312
G1 X125.599 Y102.247 E208.14451
G1 X125.599 Y117.751 E208.66017
G1 X125.199 Y117.751 E208.67347
G1 X125.199 Y102.247 E209.18914
G1 X124.799 Y102.247 E209.20244
G1 X124.799 Y117.751 E209.71811
