;FLAVOR:Marlin
;TIME:5224
;Filament used: 2.11301m
;Layer height: 0.2
;MINX:79.4
;MINY:94.4
;MINZ:0.2
;MAXX:140.6
;MAXY:125.6
;MAXZ:62.04
;POSTPROCESSED
;ChangeAtZ instances: 1
;Generated with Cura_SteamEngine 4.5.0
M140 S50
M105
M190 S50
M104 S230
M105
M109 S230
M82 ;absolute extrusion mode
M201 X500.00 Y500.00 Z100.00 E5000.00 ;Setup machine max acceleration
M203 X500.00 Y500.00 Z10.00 E50.00 ;Setup machine max feedrate
M204 P500.00 R1000.00 T500.00 ;Setup Print/Retract/Travel acceleration
M205 X8.00 Y8.00 Z0.40 E5.00 ;Setup Jerk
M220 S100 ;Reset Feedrate
M221 S100 ;Reset Flowrate
G28 ;Home
G92 E0 ;Reset Extruder
G1 Z2.0 F3000 ;Move Z Axis up
G1 X10.1 Y20 Z0.28 F5000.0 ;Move to start position
G1 X10.1 Y200.0 Z0.28 F1500.0 E15 ;Draw the first line
G1 X10.4 Y200.0 Z0.28 F5000.0 ;Move to side a little
G1 X10.4 Y20 Z0.28 F1500.0 E30 ;Draw the second line
G92 E0 ;Reset Extruder
G1 Z2.0 F3000 ;Move Z Axis up
G92 E0
G92 E0
G1 F1800 E-3
;LAYER_COUNT:338
;LAYER:0
M106 S127.5
M204 S500
M205 X6 Y6
G0 F9000 X83.274 Y96.823 Z0.2
;TYPE:SKIRT
G1 F1800 E0
G1 F3000 X84.01 Y96.27 E0.02756
G1 X84.791 Y95.782 E0.05512
G1 X85.611 Y95.364 E0.08268
G1 X86.465 Y95.019 E0.11025
G1 X87.345 Y94.749 E0.1378
G1 X88.245 Y94.557 E0.16535
G1 X89.159 Y94.443 E0.19292
G1 X89.712 Y94.413 E0.2095
G1 X90.33 Y94.4 E0.228
G1 X129.293 Y94.4 E1.39432
G1 X130.143 Y94.411 E1.41977
G1 X131.062 Y94.464 E1.44733
G1 X131.973 Y94.597 E1.47488
G1 X132.869 Y94.808 E1.50244
G1 X133.743 Y95.096 E1.52999
G1 X134.59 Y95.459 E1.55757
G1 X135.401 Y95.894 E1.58512
G1 X136.171 Y96.398 E1.61267
G1 X136.895 Y96.967 E1.64023
G1 X137.567 Y97.597 E1.6678
G1 X138.182 Y98.282 E1.69536
G1 X138.735 Y99.018 E1.72292
G1 X139.222 Y99.799 E1.75047
G1 X139.639 Y100.62 E1.77803
G1 X139.984 Y101.474 E1.8056
G1 X140.253 Y102.354 E1.83315
G1 X140.445 Y103.255 E1.86073
G1 X140.558 Y104.168 E1.88826
G1 X140.587 Y104.712 E1.90457
G1 X140.6 Y105.33 E1.92307
G1 X140.6 Y114.264 E2.19051
G1 X140.59 Y115.122 E2.21619
G1 X140.539 Y116.041 E2.24374
G1 X140.408 Y116.953 E2.27132
G1 X140.198 Y117.849 E2.29887
G1 X139.912 Y118.724 E2.32643
G1 X139.551 Y119.571 E2.35399
G1 X139.117 Y120.383 E2.38155
G1 X138.615 Y121.155 E2.40911
G1 X138.047 Y121.88 E2.43668
G1 X137.419 Y122.553 E2.46424
G1 X136.735 Y123.169 E2.49179
G1 X136 Y123.723 E2.51934
G1 X135.22 Y124.212 E2.5469
G1 X134.4 Y124.631 E2.57447
G1 X133.547 Y124.977 E2.60202
G1 X132.667 Y125.248 E2.62958
G1 X131.767 Y125.441 E2.65714
G1 X130.853 Y125.556 E2.68471
G1 X130.288 Y125.587 E2.70165
G1 X129.67 Y125.6 E2.72015
G1 X90.707 Y125.6 E3.88648
G1 X89.872 Y125.59 E3.91147
G1 X88.953 Y125.538 E3.93903
G1 X88.042 Y125.407 E3.96658
G1 X87.146 Y125.197 E3.99412
G1 X86.271 Y124.91 E4.02169
G1 X85.424 Y124.548 E4.04926
G1 X84.612 Y124.114 E4.07682
G1 X83.841 Y123.612 E4.10436
G1 X83.116 Y123.044 E4.13193
G1 X82.443 Y122.415 E4.15951
G1 X81.828 Y121.731 E4.18704
G1 X81.274 Y120.996 E4.21459
G1 X80.786 Y120.215 E4.24216
G1 X80.367 Y119.395 E4.26972
G1 X80.021 Y118.542 E4.29728
G1 X79.751 Y117.662 E4.32483
G1 X79.558 Y116.761 E4.35242
G1 X79.444 Y115.848 E4.37996
G1 X79.413 Y115.277 E4.39708
G1 X79.4 Y114.658 E4.41561
G1 X79.4 Y105.674 E4.68454
G1 X79.41 Y104.866 E4.70873
G1 X79.462 Y103.946 E4.73631
G1 X79.594 Y103.035 E4.76386
G1 X79.805 Y102.139 E4.79142
G1 X80.092 Y101.264 E4.81898
G1 X80.455 Y100.418 E4.84654
G1 X80.889 Y99.606 E4.8741
G1 X81.392 Y98.835 E4.90166
G1 X81.961 Y98.111 E4.92922
G1 X82.589 Y97.439 E4.95675
G1 X83.274 Y96.823 E4.98433
G0 F9000 X83.662 Y97.024
G1 F3000 X84.394 Y96.494 E5.01138
G1 X85.169 Y96.031 E5.03841
G1 X85.982 Y95.638 E5.06544
G1 X86.827 Y95.318 E5.09248
G1 X87.696 Y95.075 E5.1195
G1 X88.584 Y94.909 E5.14654
G1 X89.723 Y94.813 E5.18075
G1 X90.33 Y94.8 E5.19893
G1 X129.293 Y94.8 E6.36525
G1 X130.137 Y94.811 E6.39052
G1 X131.039 Y94.864 E6.41756
G1 X131.932 Y94.996 E6.44459
G1 X132.81 Y95.207 E6.47162
G1 X133.666 Y95.495 E6.49865
G1 X134.493 Y95.857 E6.52567
G1 X135.285 Y96.292 E6.55272
G1 X136.036 Y96.794 E6.57976
G1 X136.739 Y97.361 E6.6068
G1 X137.389 Y97.988 E6.63383
G1 X137.981 Y98.67 E6.66087
G1 X138.511 Y99.401 E6.68789
G1 X138.973 Y100.177 E6.71493
G1 X139.366 Y100.99 E6.74196
G1 X139.684 Y101.835 E6.76899
G1 X139.927 Y102.705 E6.79602
G1 X140.092 Y103.593 E6.82306
G1 X140.187 Y104.723 E6.85701
G1 X140.2 Y105.33 E6.87518
G1 X140.2 Y114.264 E7.14261
G1 X140.19 Y115.117 E7.16815
G1 X140.139 Y116.019 E7.19519
G1 X140.008 Y116.913 E7.22224
G1 X139.799 Y117.791 E7.24925
G1 X139.513 Y118.648 E7.2763
G1 X139.152 Y119.476 E7.30334
G1 X138.72 Y120.268 E7.33034
G1 X138.219 Y121.02 E7.35739
G1 X137.653 Y121.724 E7.38443
G1 X137.028 Y122.375 E7.41145
G1 X136.347 Y122.969 E7.4385
G1 X135.616 Y123.5 E7.46554
G1 X134.842 Y123.964 E7.49255
G1 X134.029 Y124.358 E7.5196
G1 X133.185 Y124.678 E7.54662
G1 X132.315 Y124.923 E7.57367
G1 X131.428 Y125.089 E7.60069
G1 X130.277 Y125.187 E7.63526
G1 X129.67 Y125.2 E7.65344
G1 X90.707 Y125.2 E8.81976
G1 X89.877 Y125.19 E8.84461
G1 X88.976 Y125.139 E8.87162
G1 X88.082 Y125.007 E8.89867
G1 X87.204 Y124.798 E8.92569
G1 X86.347 Y124.511 E8.95274
G1 X85.52 Y124.15 E8.97976
G1 X84.727 Y123.717 E9.0068
G1 X83.976 Y123.216 E9.03383
G1 X83.272 Y122.65 E9.06087
G1 X82.621 Y122.024 E9.0879
G1 X82.028 Y121.343 E9.11493
G1 X81.498 Y120.612 E9.14196
G1 X81.034 Y119.837 E9.169
G1 X80.64 Y119.024 E9.19604
G1 X80.32 Y118.18 E9.22306
G1 X80.076 Y117.31 E9.25011
G1 X79.91 Y116.422 E9.27715
G1 X79.813 Y115.267 E9.31185
G1 X79.8 Y114.658 E9.33008
G1 X79.8 Y105.674 E9.59901
G1 X79.81 Y104.871 E9.62305
G1 X79.862 Y103.969 E9.65009
G1 X79.994 Y103.076 E9.67711
G1 X80.204 Y102.198 E9.70414
G1 X80.491 Y101.341 E9.73119
G1 X80.853 Y100.514 E9.75821
G1 X81.286 Y99.722 E9.78523
G1 X81.788 Y98.971 E9.81227
G1 X82.355 Y98.267 E9.83933
G1 X82.981 Y97.617 E9.86635
G1 X83.662 Y97.024 E9.89338
G1 F1800 E6.89338
;MESH:190-230_PLA_Temp_calibration.stl
G0 F9000 X90.414 Y104.335
G0 X90.414 Y105.414
G0 X91 Y114
;TYPE:WALL-INNER
G1 F1800 E9.89338
G1 F3000 X91 Y106 E10.13285
G1 X129 Y106 E11.27035
G1 X129 Y114 E11.50982
G1 X91 Y114 E12.64732
G0 F9000 X90.6 Y114.4
G1 F3000 X90.6 Y105.6 E12.91074
G1 X129.4 Y105.6 E14.07218
G1 X129.4 Y114.4 E14.3356
G1 X90.6 Y114.4 E15.49704
G0 F9000 X90.2 Y114.8
;TYPE:WALL-OUTER
G1 F3000 X90.2 Y105.2 E15.78441
G1 X129.8 Y105.2 E16.9698
G1 X129.8 Y114.8 E17.25717
G1 X90.2 Y114.8 E18.44256
G0 F9000 X90.47 Y114.53
G0 X91.11 Y113.61
G0 X91.39 Y113.61
;TYPE:SKIN
G1 F3000 X91.39 Y106.39 E18.65869
G1 X128.61 Y106.39 E19.77283
G1 X128.61 Y113.61 E19.98896
G1 X91.39 Y113.61 E21.10311
G0 F9000 X91.952 Y113.448
G1 F3000 X91.549 Y113.045 E21.12017
G0 F9000 X91.549 Y112.48
G1 F3000 X92.518 Y113.448 E21.16117
G0 F9000 X93.084 Y113.448
G1 F3000 X91.549 Y111.914 E21.22613
G0 F9000 X91.549 Y111.348
G1 F3000 X93.649 Y113.448 E21.31503
G0 F9000 X94.215 Y113.448
G1 F3000 X91.549 Y110.783 E21.42787
G0 F9000 X91.549 Y110.217
G1 F3000 X94.781 Y113.448 E21.56467
G0 F9000 X95.346 Y113.448
G1 F3000 X91.549 Y109.651 E21.72541
G0 F9000 X91.549 Y109.086
G1 F3000 X95.912 Y113.448 E21.91008
G0 F9000 X96.478 Y113.448
G1 F3000 X91.549 Y108.52 E22.11872
G0 F9000 X91.549 Y107.954
G1 F3000 X97.044 Y113.448 E22.35132
G0 F9000 X97.609 Y113.448
G1 F3000 X91.549 Y107.389 E22.60784
G0 F9000 X91.549 Y106.823
G1 F3000 X98.175 Y113.448 E22.88832
G0 F9000 X98.741 Y113.448
G1 F3000 X91.841 Y106.549 E23.1804
G0 F9000 X92.407 Y106.549
G1 F3000 X99.306 Y113.448 E23.47246
G0 F9000 X99.872 Y113.448
G1 F3000 X92.973 Y106.549 E23.76451
G0 F9000 X93.538 Y106.549
G1 F3000 X100.438 Y113.448 E24.05659
G0 F9000 X101.003 Y113.448
G1 F3000 X94.104 Y106.549 E24.34865
G0 F9000 X94.67 Y106.549
G1 F3000 X101.569 Y113.448 E24.64071
G0 F9000 X102.135 Y113.448
G1 F3000 X95.235 Y106.549 E24.93278
G0 F9000 X95.801 Y106.549
G1 F3000 X102.7 Y113.448 E25.22484
G0 F9000 X103.266 Y113.448
G1 F3000 X96.367 Y106.549 E25.5169
G0 F9000 X96.933 Y106.549
G1 F3000 X103.832 Y113.448 E25.80895
G0 F9000 X104.397 Y113.448
G1 F3000 X97.498 Y106.549 E26.10101
G0 F9000 X98.064 Y106.549
G1 F3000 X104.963 Y113.448 E26.39307
G0 F9000 X105.529 Y113.448
G1 F3000 X98.63 Y106.549 E26.68513
G0 F9000 X99.195 Y106.549
G1 F3000 X106.095 Y113.448 E26.9772
G0 F9000 X106.66 Y113.448
G1 F3000 X99.761 Y106.549 E27.26926
G0 F9000 X100.327 Y106.549
G1 F3000 X107.226 Y113.448 E27.56132
G0 F9000 X107.792 Y113.448
G1 F3000 X100.892 Y106.549 E27.8534
G0 F9000 X101.458 Y106.549
G1 F3000 X108.357 Y113.448 E28.14545
G0 F9000 X108.923 Y113.448
G1 F3000 X102.024 Y106.549 E28.43751
G0 F9000 X102.589 Y106.549
G1 F3000 X109.489 Y113.448 E28.72959
G0 F9000 X110.055 Y113.449
G1 F3000 X103.155 Y106.549 E29.02169
G0 F9000 X103.721 Y106.549
G1 F3000 X110.621 Y113.449 E29.31379
G0 F9000 X111.186 Y113.449
G1 F3000 X104.286 Y106.549 E29.60589
G0 F9000 X104.852 Y106.549
G1 F3000 X111.752 Y113.449 E29.89799
G0 F9000 X112.318 Y113.449
G1 F3000 X105.418 Y106.549 E30.19009
G0 F9000 X105.983 Y106.549
G1 F3000 X112.883 Y113.449 E30.48218
G0 F9000 X113.449 Y113.449
G1 F3000 X106.549 Y106.549 E30.77428
G0 F9000 X107.115 Y106.549
G1 F3000 X114.015 Y113.449 E31.06638
G0 F9000 X114.58 Y113.449
G1 F3000 X107.681 Y106.549 E31.35846
G0 F9000 X108.246 Y106.549
G1 F3000 X115.146 Y113.449 E31.65056
G0 F9000 X115.712 Y113.449
G1 F3000 X108.812 Y106.549 E31.94266
G0 F9000 X109.378 Y106.549
G1 F3000 X116.278 Y113.449 E32.23476
G0 F9000 X116.843 Y113.449
G1 F3000 X109.943 Y106.549 E32.52686
G0 F9000 X110.51 Y106.55
G1 F3000 X117.409 Y113.449 E32.81892
G0 F9000 X117.975 Y113.449
G1 F3000 X111.075 Y106.55 E33.11099
G0 F9000 X111.641 Y106.55
G1 F3000 X118.54 Y113.449 E33.40305
G0 F9000 X119.106 Y113.449
G1 F3000 X112.207 Y106.55 E33.69511
G0 F9000 X112.772 Y106.55
G1 F3000 X119.672 Y113.449 E33.98719
G0 F9000 X120.237 Y113.449
G1 F3000 X113.338 Y106.55 E34.27924
G0 F9000 X113.904 Y106.55
G1 F3000 X120.803 Y113.449 E34.5713
G0 F9000 X121.369 Y113.449
G1 F3000 X114.469 Y106.55 E34.86338
G0 F9000 X115.035 Y106.55
G1 F3000 X121.934 Y113.449 E35.15544
G0 F9000 X122.5 Y113.449
G1 F3000 X115.601 Y106.55 E35.44749
G0 F9000 X116.167 Y106.55
G1 F3000 X123.066 Y113.449 E35.73955
G0 F9000 X123.631 Y113.449
G1 F3000 X116.732 Y106.55 E36.03161
G0 F9000 X117.298 Y106.55
G1 F3000 X124.197 Y113.449 E36.32366
G0 F9000 X124.763 Y113.449
G1 F3000 X117.864 Y106.55 E36.61572
G0 F9000 X118.429 Y106.55
G1 F3000 X125.329 Y113.449 E36.9078
G0 F9000 X125.894 Y113.449
G1 F3000 X118.995 Y106.55 E37.19986
G0 F9000 X119.561 Y106.55
G1 F3000 X126.46 Y113.449 E37.49191
G0 F9000 X127.026 Y113.449
G1 F3000 X120.126 Y106.55 E37.78399
G0 F9000 X120.692 Y106.55
G1 F3000 X127.591 Y113.449 E38.07605
G0 F9000 X128.157 Y113.449
G1 F3000 X121.258 Y106.55 E38.36811
G0 F9000 X121.823 Y106.55
G1 F3000 X128.449 Y113.175 E38.64858
G0 F9000 X128.449 Y112.61
G1 F3000 X122.389 Y106.55 E38.90512
G0 F9000 X122.955 Y106.55
G1 F3000 X128.449 Y112.044 E39.1377
G0 F9000 X128.449 Y111.478
G1 F3000 X123.52 Y106.55 E39.34634
G0 F9000 X124.086 Y106.55
G1 F3000 X128.449 Y110.913 E39.53104
G0 F9000 X128.449 Y110.347
G1 F3000 X124.652 Y106.55 E39.69178
G0 F9000 X125.218 Y106.55
G1 F3000 X128.449 Y109.781 E39.82856
G0 F9000 X128.449 Y109.216
G1 F3000 X125.783 Y106.55 E39.94142
G0 F9000 X126.349 Y106.55
G1 F3000 X128.449 Y108.65 E40.03032
G0 F9000 X128.449 Y108.084
G1 F3000 X126.915 Y106.55 E40.09526
G0 F9000 X127.48 Y106.55
G1 F3000 X128.449 Y107.519 E40.13628
G0 F9000 X128.449 Y106.953
G1 F3000 X128.046 Y106.55 E40.15334
G0 F9000 X128.046 Y105.81
G1 F1800 E37.15334
;MESH:NONMESH
G0 F300 X128.046 Y105.81 Z0.44
G0 F9000 X91.182 Y106.182
G0 X91 Y114
;TIME_ELAPSED:45.249335
;LAYER:1
M140 S40
M106 S170
;TYPE:WALL-INNER
;MESH:190-230_PLA_Temp_calibration.stl
G1 F1800 E40.15334
G1 F3000 X91 Y106 E40.44071
G1 X129 Y106 E41.8057
G1 X129 Y114 E42.09307
G1 X91 Y114 E43.45807
G0 F9000 X90.6 Y114.4
G1 F3000 X90.6 Y105.6 E43.77417
G1 X129.4 Y105.6 E45.1679
G1 X129.4 Y114.4 E45.48401
G1 X90.6 Y114.4 E46.87774
G0 F9000 X90.2 Y114.8
;TYPE:WALL-OUTER
G1 F3000 X90.2 Y105.2 E47.22258
G1 X129.8 Y105.2 E48.64505
G1 X129.8 Y114.8 E48.98989
G1 X90.2 Y114.8 E50.41236
G0 F9000 X90.47 Y114.53
G0 X91.11 Y113.61
G0 X91.39 Y113.61
;TYPE:SKIN
G1 F2700 X91.39 Y106.39 E50.67171
G1 X128.61 Y106.39 E52.00869
G1 X128.61 Y113.61 E52.26804
G1 X91.39 Y113.61 E53.60502
G0 F9000 X91.11 Y113.61
G0 X91.11 Y107.005
G0 X91.549 Y107.005
G1 F2700 X92.006 Y106.548 E53.62823
G0 F9000 X92.572 Y106.548
G1 F2700 X91.549 Y107.571 E53.6802
G0 F9000 X91.549 Y108.137
G1 F2700 X93.137 Y106.548 E53.7609
G0 F9000 X93.703 Y106.548
G1 F2700 X91.549 Y108.702 E53.87032
G0 F9000 X91.549 Y109.268
G1 F2700 X94.269 Y106.548 E54.00849
G0 F9000 X94.835 Y106.548
G1 F2700 X91.549 Y109.834 E54.17542
G0 F9000 X91.549 Y110.399
G1 F2700 X95.4 Y106.548 E54.37105
G0 F9000 X95.966 Y106.548
G1 F2700 X91.549 Y110.965 E54.59544
G0 F9000 X91.549 Y111.531
G1 F2700 X96.532 Y106.548 E54.84857
G0 F9000 X97.097 Y106.548
G1 F2700 X91.549 Y112.096 E55.13041
G0 F9000 X91.549 Y112.662
G1 F2700 X97.663 Y106.548 E55.441
G0 F9000 X98.229 Y106.548
G1 F2700 X91.549 Y113.228 E55.78034
G0 F9000 X91.894 Y113.449
G1 F2700 X98.794 Y106.548 E56.13089
G0 F9000 X99.36 Y106.548
G1 F2700 X92.459 Y113.449 E56.48146
G0 F9000 X93.025 Y113.449
G1 F2700 X99.926 Y106.548 E56.83203
G0 F9000 X100.491 Y106.548
G1 F2700 X93.591 Y113.449 E57.18257
G0 F9000 X94.156 Y113.449
G1 F2700 X101.057 Y106.548 E57.53314
G0 F9000 X101.623 Y106.548
G1 F2700 X94.722 Y113.449 E57.88371
G0 F9000 X95.288 Y113.449
G1 F2700 X102.188 Y106.548 E58.23426
G0 F9000 X102.754 Y106.548
G1 F2700 X95.853 Y113.449 E58.58483
G0 F9000 X96.419 Y113.449
G1 F2700 X103.32 Y106.548 E58.9354
G0 F9000 X103.886 Y106.548
G1 F2700 X96.985 Y113.449 E59.28597
G0 F9000 X97.551 Y113.449
G1 F2700 X104.451 Y106.548 E59.63651
G0 F9000 X105.017 Y106.548
G1 F2700 X98.116 Y113.449 E59.98708
G0 F9000 X98.682 Y113.449
G1 F2700 X105.583 Y106.548 E60.33765
G0 F9000 X106.148 Y106.548
G1 F2700 X99.248 Y113.449 E60.6882
G0 F9000 X99.813 Y113.449
G1 F2700 X106.714 Y106.548 E61.03877
G0 F9000 X107.28 Y106.548
G1 F2700 X100.379 Y113.449 E61.38934
G0 F9000 X100.945 Y113.449
G1 F2700 X107.845 Y106.548 E61.73988
G0 F9000 X108.411 Y106.548
G1 F2700 X101.51 Y113.449 E62.09045
G0 F9000 X102.076 Y113.449
G1 F2700 X108.977 Y106.548 E62.44102
G0 F9000 X109.542 Y106.548
G1 F2700 X102.642 Y113.449 E62.79157
G0 F9000 X103.207 Y113.449
G1 F2700 X110.107 Y106.549 E63.14209
G0 F9000 X110.673 Y106.549
G1 F2700 X103.773 Y113.449 E63.49261
G0 F9000 X104.339 Y113.449
G1 F2700 X111.239 Y106.549 E63.84312
G0 F9000 X111.804 Y106.549
G1 F2700 X104.904 Y113.449 E64.19364
G0 F9000 X105.47 Y113.449
G1 F2700 X112.37 Y106.549 E64.54416
G0 F9000 X112.936 Y106.549
G1 F2700 X106.036 Y113.449 E64.89468
G0 F9000 X106.602 Y113.449
G1 F2700 X113.501 Y106.549 E65.24518
G0 F9000 X114.067 Y106.549
G1 F2700 X107.167 Y113.449 E65.5957
G0 F9000 X107.733 Y113.449
G1 F2700 X114.633 Y106.549 E65.94621
G0 F9000 X115.199 Y106.549
G1 F2700 X108.299 Y113.449 E66.29673
G0 F9000 X108.864 Y113.449
G1 F2700 X115.764 Y106.549 E66.64725
G0 F9000 X116.33 Y106.549
G1 F2700 X109.43 Y113.449 E66.99777
G0 F9000 X109.996 Y113.449
G1 F2700 X116.896 Y106.549 E67.34829
G0 F9000 X117.461 Y106.549
G1 F2700 X110.561 Y113.45 E67.69884
G0 F9000 X111.126 Y113.45
G1 F2700 X118.027 Y106.549 E68.04941
G0 F9000 X118.593 Y106.549
G1 F2700 X111.692 Y113.45 E68.39998
G0 F9000 X112.258 Y113.45
G1 F2700 X119.158 Y106.549 E68.75052
G0 F9000 X119.724 Y106.549
G1 F2700 X112.823 Y113.45 E69.10109
G0 F9000 X113.389 Y113.45
G1 F2700 X120.29 Y106.549 E69.45166
G0 F9000 X120.855 Y106.549
G1 F2700 X113.955 Y113.45 E69.80221
G0 F9000 X114.52 Y113.45
G1 F2700 X121.421 Y106.549 E70.15278
G0 F9000 X121.987 Y106.549
G1 F2700 X115.086 Y113.45 E70.50335
G0 F9000 X115.652 Y113.45
G1 F2700 X122.552 Y106.549 E70.85389
G0 F9000 X123.118 Y106.549
G1 F2700 X116.217 Y113.45 E71.20446
G0 F9000 X116.783 Y113.45
G1 F2700 X123.684 Y106.549 E71.55503
G0 F9000 X124.249 Y106.549
G1 F2700 X117.349 Y113.45 E71.90557
G0 F9000 X117.915 Y113.45
G1 F2700 X124.815 Y106.549 E72.25612
G0 F9000 X125.381 Y106.549
G1 F2700 X118.48 Y113.45 E72.60669
G0 F9000 X119.046 Y113.45
