;FLAVOR:Marlin
;TIME:1356
;Filament used: 0.995068m
;Layer height: 0.2
;MINX:90.9
;MINY:90.935
;MINZ:0.2
;MAXX:129.01
;MAXY:129.117
;MAXZ:7.84
;Generated with Cura_SteamEngine 4.5.0
M140 S50
M105
M190 S50
M104 S215
M105
M109 S215
M82 ;absolute extrusion mode
M201 X500.00 Y500.00 Z100.00 E5000.00 ;Setup machine max acceleration
M203 X500.00 Y500.00 Z10.00 E50.00 ;Setup machine max feedrate
M204 P500.00 R1000.00 T500.00 ;Setup Print/Retract/Travel acceleration
M205 X8.00 Y8.00 Z0.40 E5.00 ;Setup Jerk
M220 S100 ;Reset Feedrate
M221 S100 ;Reset Flowrate

G28 ;Home

G92 E0 ;Reset Extruder
G1 Z2.0 F3000 ;Move Z Axis up
G1 X10.1 Y20 Z0.28 F5000.0 ;Move to start position
G1 X10.1 Y200.0 Z0.28 F1500.0 E15 ;Draw the first line
G1 X10.4 Y200.0 Z0.28 F5000.0 ;Move to side a little
G1 X10.4 Y20 Z0.28 F1500.0 E30 ;Draw the second line
G92 E0 ;Reset Extruder
G1 Z2.0 F3000 ;Move Z Axis up

G92 E0
G92 E0
G1 F1800 E-3
;LAYER_COUNT:39
;LAYER:0
M107
;MESH:Think3DDD_Extrusion_ChiTownDIY.stl
G0 F9000 X124.499 Y116.273 Z0.2
;TYPE:WALL-INNER
G1 F1800 E0
G1 F3000 X124.361 Y116.588 E0.01144
G1 X124.332 Y116.648 E0.01365
G1 X124.009 Y117.293 E0.03765
G1 X123.634 Y117.963 E0.06318
G1 X123.218 Y118.628 E0.08927
G1 X122.826 Y119.192 E0.11212
G1 X122.295 Y119.879 E0.141
G1 X121.884 Y120.362 E0.16209
G1 X121.243 Y121.042 E0.19317
G1 X120.836 Y121.437 E0.21204
G1 X120.086 Y122.093 E0.24518
G1 X119.699 Y122.402 E0.26165
G1 X119.283 Y122.707 E0.27881
G1 X118.854 Y123.009 E0.29625
G1 X117.971 Y123.552 E0.33073
G1 X117.495 Y123.825 E0.34898
G1 X116.624 Y124.25 E0.38122
G1 X116.125 Y124.477 E0.39945
G1 X115.206 Y124.814 E0.43201
G1 X114.625 Y125.015 E0.45246
G1 X113.776 Y125.235 E0.48163
G1 X113.113 Y125.393 E0.50429
G1 X112.221 Y125.531 E0.53432
G1 X111.487 Y125.628 E0.55894
G1 X110.625 Y125.689 E0.58768
G1 X110.157 Y125.699 E0.60325
G1 X109.148 Y125.652 E0.63685
G1 X108.378 Y125.603 E0.66251
G1 X106.823 Y125.359 E0.71486
G1 X105.292 Y124.959 E0.76749
G1 X104.537 Y124.685 E0.79421
G1 X103.847 Y124.423 E0.81876
G1 X102.418 Y123.729 E0.87159
G1 X101.76 Y123.33 E0.89719
G1 X101.139 Y122.942 E0.92154
G1 X99.937 Y122.035 E0.97162
G1 X99.342 Y121.496 E0.99833
G1 X98.825 Y121.016 E1.02179
G1 X98.27 Y120.411 E1.0491
G1 X97.814 Y119.893 E1.07205
G1 X97.313 Y119.23 E1.09969
G1 X96.941 Y118.719 E1.12071
G1 X96.472 Y117.958 E1.15045
G1 X96.151 Y117.412 E1.17151
G1 X95.755 Y116.588 E1.20192
G1 X95.528 Y116.116 E1.21934
G1 X96.011 Y116.318 E1.22861
G1 X96.126 Y116.366 E1.23276
G1 X97.024 Y116.397 E1.26264
G1 X97.375 Y116.273 E1.27502
G1 X106.575 Y116.273 E1.58102
G1 X106.575 Y116.241 E1.58208
G1 X106.587 Y116.247
G1 X106.772 Y116.342 E1.58867
G1 X107.504 Y116.42 E1.61315
G1 X108.448 Y116.16 E1.64572
G1 X108.511 Y116.1 E1.64861
G1 X108.516 Y116.152
G1 X108.53 Y116.273 E1.65198
G1 X117.59 Y116.273 E1.95332
G1 X118.45 Y116.214 E1.98199
G1 X118.472 Y116.204 E1.98279
G1 X118.506 Y116.187 E1.98405
G1 X118.506 Y116.214 E1.98408
G1 X118.506 Y116.273 E1.98484
G1 X124.294 Y116.273 E2.17735
G1 X124.361 Y116.273
G1 X124.499 Y116.273 E2.17773
G0 F9000 X124.977 Y116.179
G1 F3000 X124.719 Y116.767 E2.19909
G1 X124.367 Y117.472 E2.2253
G1 X123.978 Y118.168 E2.25182
G1 X123.547 Y118.856 E2.27882
G1 X123.154 Y119.422 E2.30174
G1 X122.6 Y120.138 E2.33185
G1 X122.188 Y120.623 E2.35301
G1 X121.522 Y121.329 E2.38529
G1 X121.115 Y121.724 E2.40416
G1 X120.349 Y122.393 E2.43798
G1 X120.335 Y122.406 E2.43862
G1 X119.945 Y122.717 E2.45521
G1 X119.513 Y123.034 E2.47303
G1 X119.064 Y123.35 E2.49129
G1 X118.181 Y123.893 E2.52577
G1 X117.685 Y124.177 E2.54478
G1 X116.79 Y124.614 E2.57791
G1 X116.271 Y124.85 E2.59687
G1 X115.344 Y125.19 E2.62971
G1 X114.745 Y125.397 E2.65079
G1 X113.869 Y125.624 E2.68089
G1 X113.206 Y125.781 E2.70355
G1 X113.193 Y125.785 E2.704
G1 X113.175 Y125.787 E2.7046
G1 X112.274 Y125.927 E2.73493
G1 X111.537 Y126.025 E2.75966
G1 X110.641 Y126.089 E2.78954
G1 X110.147 Y126.099 E2.80597
G1 X109.13 Y126.052 E2.83983
G1 X108.334 Y126.001 E2.86636
G1 X106.74 Y125.751 E2.92003
G1 X105.171 Y125.341 E2.97396
G1 X104.4 Y125.061 E3.00125
G1 X103.686 Y124.79 E3.02665
G1 X102.226 Y124.081 E3.08063
G1 X101.552 Y123.672 E3.10685
G1 X100.912 Y123.272 E3.13195
G1 X99.68 Y122.342 E3.18329
G1 X99.073 Y121.792 E3.21054
G1 X98.54 Y121.297 E3.23473
G1 X97.975 Y120.681 E3.26253
G1 X97.505 Y120.147 E3.28619
G1 X96.994 Y119.471 E3.31438
G1 X96.601 Y118.931 E3.33659
G1 X96.131 Y118.168 E3.3664
G1 X95.797 Y117.6 E3.38831
G1 X95.131 Y116.214 E3.43946
G1 X94.89 Y115.581 E3.46198
G1 X94.802 Y115.35 E3.47021
G1 X94.771 Y115.261 E3.47334
G1 X94.603 Y114.787 E3.49007
G1 X94.529 Y114.519 E3.49931
G1 X94.344 Y113.85 E3.5224
G1 X94.331 Y113.795 E3.52428
G1 X94.207 Y113.299 E3.54128
G1 X94.188 Y113.206 E3.54444
G1 X94.052 Y112.553 E3.56663
G1 X94.05 Y112.535 E3.56723
G1 X93.984 Y112.069 E3.58288
G1 X93.979 Y111.984 E3.58572
G1 X93.935 Y111.362 E3.60645
G1 X93.905 Y110.937 E3.62063
G1 X93.891 Y110.661 E3.62982
G1 X93.877 Y110.412 E3.63811
G1 X93.871 Y110.067 E3.64959
G1 X93.862 Y109.548 E3.66685
G1 X93.862 Y109.525 E3.66762
G1 X93.891 Y108.784 E3.69228
G1 X93.899 Y108.578 E3.69914
G1 X93.936 Y108.208 E3.71151
G1 X93.958 Y107.987 E3.71889
G1 X94.008 Y107.633 E3.73078
G1 X94.029 Y107.489 E3.73562
G1 X94.111 Y107.047 E3.75058
G1 X94.174 Y106.71 E3.76198
G1 X94.276 Y106.238 E3.77804
G1 X94.35 Y105.895 E3.78971
G1 X94.392 Y105.753 E3.79464
G1 X94.568 Y105.16 E3.81521
G1 X94.951 Y104.011 E3.85549
G1 X95.301 Y103.178 E3.88555
G1 X95.573 Y102.61 E3.90649
G1 X95.816 Y102.188 E3.92269
G1 X95.822 Y102.179 E3.92305
G1 X96.054 Y101.725 E3.94
G1 X96.331 Y101.268 E3.95778
G1 X96.638 Y100.838 E3.97535
G1 X96.928 Y100.386 E3.99321
G1 X97.218 Y99.999 E4.0093
G1 X97.582 Y99.583 E4.02768
G1 X97.932 Y99.138 E4.04651
G1 X98.652 Y98.412 E4.08052
G1 X99.06 Y97.986 E4.10014
G1 X99.819 Y97.363 E4.1328
G1 X100.298 Y96.953 E4.15377
G1 X101.086 Y96.43 E4.18523
G1 X101.638 Y96.043 E4.20765
G1 X102.435 Y95.628 E4.23754
G1 X103.044 Y95.283 E4.26082
G1 X103.858 Y94.956 E4.28999
G1 X104.536 Y94.657 E4.31464
G1 X105.339 Y94.428 E4.34241
G1 X106.063 Y94.19 E4.36776
G1 X106.867 Y94.043 E4.39494
G1 X107.634 Y93.872 E4.42108
G1 X107.667 Y93.864 E4.42221
G1 X108.521 Y93.798 E4.4507
G1 X109.34 Y93.705 E4.47811
G1 X109.989 Y93.727 E4.49971
G1 X110.841 Y93.711 E4.52805
G1 X111.732 Y93.816 E4.55789
G1 X112.503 Y93.88 E4.58363
G1 X113.334 Y94.066 E4.61195
G1 X114.072 Y94.201 E4.6369
G1 X114.906 Y94.475 E4.6661
G1 X115.618 Y94.681 E4.69075
G1 X116.427 Y95.039 E4.72018
G1 X117.122 Y95.32 E4.74511
G1 X117.877 Y95.751 E4.77403
G1 X118.523 Y96.088 E4.79826
G1 X119.219 Y96.579 E4.82659
G1 X119.843 Y96.989 E4.85142
G1 X120.473 Y97.536 E4.87917
G1 X121.06 Y98.009 E4.90425
G1 X121.63 Y98.609 E4.93177
G1 X122.15 Y99.12 E4.95602
G1 X122.173 Y99.142 E4.95708
G1 X122.672 Y99.79 E4.98428
G1 X123.171 Y100.386 E5.01013
G1 X123.598 Y101.066 E5.03684
G1 X124.035 Y101.705 E5.06259
G1 X124.393 Y102.428 E5.08942
G1 X124.763 Y103.098 E5.11488
G1 X125.052 Y103.858 E5.14192
G1 X125.279 Y104.383 E5.16095
G1 X125.342 Y104.529 E5.16624
G1 X125.395 Y104.718 E5.17276
G1 X125.342 Y104.718
G1 X125.183 Y104.718 E5.17689
G1 X118.906 Y104.718 E5.38567
G1 X118.906 Y104.842 E5.38979
G1 X118.906 Y105.06 E5.39704
G1 X118.751 Y104.961 E5.39871
G1 X118.565 Y104.842 E5.40386
G1 X117.91 Y104.718 E5.42603
G1 X115.237 Y104.718 E5.51493
G1 X115.237 Y106.845 E5.58568
G1 X114.447 Y106.859 E5.61196
G1 X114.154 Y107.009 E5.62291
G1 X113.13 Y106.999 E5.65697
G1 X108.867 Y106.999 E5.79875
G1 X108.316 Y107.05 E5.81716
G1 X108.187 Y107.063 E5.82147
G1 X107.881 Y106.884 E5.83326
G1 X107.194 Y106.834 E5.85617
G1 X106.849 Y106.935 E5.86813
G1 X106.849 Y106.834
G1 X106.849 Y104.718 E5.93851
G1 X103.078 Y104.718 E6.06393
G1 X103.021 Y104.558 E6.06958
G1 X102.346 Y103.996 E6.09879
G1 X101.386 Y104.037 E6.13075
G1 X100.771 Y104.655 E6.15975
G1 X100.546 Y105.4 E6.18563
G1 X100.52 Y106.141 E6.2103
G1 X100.613 Y106.683 E6.22859
G1 X100.65 Y106.9 E6.23591
G1 X100.675 Y106.942 E6.23753
G1 X100.71 Y106.999 E6.23976
G1 X100.65 Y106.999 E6.24007
G1 X100.582 Y106.999 E6.24079
G1 X100.37 Y106.939 E6.24596
G1 X100.111 Y106.865 E6.25492
G1 X100.118 Y104.326 E6.33936
G1 X100.118 Y104.126 E6.34601
G1 X99.918 Y104.126 E6.35032
G1 X97.006 Y104.126 E6.44718
G1 X97.006 Y104.571 E6.46198
G1 X97.006 Y104.633 E6.46404
G1 X96.611 Y104.571 E6.47385
G1 X95.879 Y104.731 E6.49877
G1 X95.351 Y105.084 E6.5199
G1 X94.887 Y105.654 E6.54434
G1 X94.868 Y105.694 E6.54582
G1 X94.751 Y105.929 E6.55455
G1 X94.685 Y106.061 E6.5593
G1 X94.566 Y106.3 E6.56652
G1 X94.414 Y106.785 E6.57825
G1 X94.319 Y107.085 E6.58411
G1 X94.225 Y107.53 E6.59193
G1 X94.197 Y107.659 E6.59397
G1 X94.145 Y108.014 E6.59962
G1 X94.113 Y108.225 E6.60279
G1 X94.077 Y108.595 E6.60828
G1 X94.057 Y108.79 E6.611
G1 X94.011 Y109.53 E6.62078
G1 X94.011 Y109.551 E6.6211
G1 X94 Y110.064 E6.62698
G1 X94 Y110.412 E6.63067
G1 X94 Y110.655 E6.63295
G1 X94.008 Y110.933 E6.63543
G1 X94.022 Y111.355 E6.63872
G1 X94.067 Y111.977 E6.64327
G1 X94.076 Y112.058 E6.64383
G1 X94.128 Y112.523 E6.6471
G1 X94.13 Y112.539 E6.64728
G1 X94.239 Y113.195 E6.65087
G1 X94.26 Y113.286 E6.65125
G1 X94.38 Y113.782 E6.65345
G1 X94.397 Y113.83 E6.65357
G1 X94.635 Y114.489 E6.65851
G1 X94.755 Y114.698 E6.66105
G1 X95.027 Y115.17 E6.67152
G1 X95.205 Y115.342 E6.67864
G1 X95.58 Y115.704 E6.69598
G1 X96.213 Y115.969 E6.7188
G1 X96.962 Y115.995 E6.74373
G1 X97.306 Y115.873 E6.75587
G1 X106.175 Y115.873 E7.05085
G1 X106.175 Y115.656 E7.05807
G1 X106.175 Y115.51 E7.06292
G1 X106.309 Y115.656 E7.06507
G1 X106.373 Y115.688 E7.06532
G1 X106.888 Y115.952 E7.08457
G1 X107.471 Y116.014 E7.10407
G1 X108.245 Y115.801 E7.13077
G1 X108.529 Y115.532 E7.14378
G1 X108.819 Y115.256 E7.1571
G1 X108.862 Y115.654 E7.16445
G1 X108.863 Y115.655 E7.16449
G1 X108.888 Y115.873 E7.17179
G1 X117.576 Y115.873 E7.46076
G1 X118.345 Y115.82 E7.48639
G1 X118.777 Y115.61 E7.50237
G1 X118.906 Y115.547 E7.50714
G1 X118.906 Y115.873 E7.51367
G1 X124.836 Y115.873 E7.71091
G1 X125.071 Y115.873 E7.71872
G1 X125.106 Y115.873 E7.71989
G1 X125.071 Y115.964 E7.72144
G1 X124.977 Y116.179 E7.72672
G0 F9000 X125.077 Y116.946
G1 F3000 X124.725 Y117.651 E7.75292
G1 X124.321 Y118.374 E7.78047
G1 X123.885 Y119.07 E7.80779
G1 X123.482 Y119.649 E7.83125
G1 X123.47 Y119.667 E7.83197
G1 X122.917 Y120.383 E7.86206
G1 X122.492 Y120.881 E7.88384
G1 X122.479 Y120.897 E7.88452
G1 X121.801 Y121.616 E7.91739
G1 X121.394 Y122.011 E7.93625
G1 X120.598 Y122.706 E7.9714
G1 X120.584 Y122.719 E7.97204
G1 X120.191 Y123.032 E7.98875
G1 X119.748 Y123.358 E8.00704
G1 X119.274 Y123.691 E8.02631
G1 X118.391 Y124.234 E8.06079
G1 X117.869 Y124.533 E8.08079
G1 X116.965 Y124.974 E8.11425
G1 X116.412 Y125.225 E8.13445
G1 X115.482 Y125.566 E8.16739
G1 X114.865 Y125.779 E8.1891
G1 X113.962 Y126.013 E8.22013
G1 X113.273 Y126.177 E8.24368
G1 X113.255 Y126.179 E8.24429
G1 X112.335 Y126.322 E8.27525
G1 X111.57 Y126.424 E8.30092
G1 X110.657 Y126.489 E8.33137
G1 X110.137 Y126.499 E8.34866
G1 X109.112 Y126.452 E8.38279
G1 X108.29 Y126.399 E8.41019
G1 X106.657 Y126.143 E8.46517
G1 X105.05 Y125.723 E8.52041
G1 X104.263 Y125.437 E8.54826
G1 X103.525 Y125.157 E8.57451
G1 X102.039 Y124.435 E8.62946
G1 X101.345 Y124.014 E8.65646
G1 X100.685 Y123.602 E8.68234
G1 X99.423 Y122.649 E8.73494
G1 X98.804 Y122.088 E8.76272
G1 X98.255 Y121.578 E8.78764
G1 X97.68 Y120.951 E8.81594
G1 X97.206 Y120.411 E8.83984
G1 X97.194 Y120.398 E8.84043
G1 X96.675 Y119.712 E8.86904
G1 X96.261 Y119.143 E8.89244
G1 X95.79 Y118.378 E8.92232
G1 X95.443 Y117.788 E8.94509
G1 X94.764 Y116.375 E8.99723
G1 X94.428 Y115.492 E9.02865
G1 X94.22 Y114.905 E9.04936
G1 X93.958 Y113.956 E9.08211
G1 X93.815 Y113.38 E9.10185
G1 X93.66 Y112.634 E9.12719
G1 X93.586 Y112.114 E9.14466
G1 X93.506 Y110.965 E9.18297
G1 X93.477 Y110.419 E9.20115
G1 X93.462 Y109.533 E9.23063
G1 X93.499 Y108.563 E9.26291
G1 X93.562 Y107.931 E9.28404
G1 X93.633 Y107.433 E9.30077
G1 X93.783 Y106.626 E9.32807
G1 X93.961 Y105.8 E9.35617
G1 X94.189 Y105.033 E9.38279
G1 X94.579 Y103.864 E9.42377
G1 X94.932 Y103.023 E9.45411
G1 X95.22 Y102.42 E9.47634
G1 X95.471 Y101.988 E9.49295
G1 X95.701 Y101.536 E9.50982
G1 X95.998 Y101.046 E9.52888
G1 X96.307 Y100.614 E9.54655
G1 X96.597 Y100.161 E9.56443
G1 X96.905 Y99.75 E9.58152
G1 X97.274 Y99.328 E9.60016
G1 X97.631 Y98.873 E9.6194
G1 X98.366 Y98.133 E9.65409
G1 X98.786 Y97.694 E9.67429
G1 X99.562 Y97.056 E9.70771
G1 X100.059 Y96.631 E9.72946
G1 X100.861 Y96.1 E9.76145
G1 X101.433 Y95.698 E9.7847
G1 X102.244 Y95.276 E9.81511
G1 X102.87 Y94.922 E9.83903
G1 X103.703 Y94.587 E9.86889
G1 X104.402 Y94.279 E9.8943
G1 X105.222 Y94.046 E9.92265
G1 X105.968 Y93.8 E9.94878
G1 X106.788 Y93.651 E9.9765
G1 X107.579 Y93.475 E10.00345
G1 X107.612 Y93.467 E10.00458
G1 X108.483 Y93.4 E10.03363
G1 X109.329 Y93.304 E10.06195
G1 X109.992 Y93.327 E10.08402
G1 X110.859 Y93.311 E10.11286
G1 X111.772 Y93.418 E10.14343
G1 X112.558 Y93.483 E10.16966
G1 X113.414 Y93.674 E10.19883
G1 X114.174 Y93.814 E10.22454
G1 X115.024 Y94.093 E10.25429
G1 X115.759 Y94.306 E10.27974
G1 X116.583 Y94.671 E10.30972
G1 X117.292 Y94.957 E10.33515
G1 X118.069 Y95.4 E10.3649
G1 X118.738 Y95.75 E10.39001
G1 X119.444 Y96.248 E10.41874
G1 X120.083 Y96.667 E10.44416
G1 X120.73 Y97.229 E10.47266
G1 X121.331 Y97.714 E10.49835
G1 X121.915 Y98.329 E10.52656
G1 X122.452 Y98.857 E10.5516
G1 X122.475 Y98.879 E10.55266
G1 X122.984 Y99.539 E10.58038
G1 X123.495 Y100.15 E10.60688
G1 X123.933 Y100.847 E10.63426
G1 X124.384 Y101.508 E10.66087
G1 X124.747 Y102.242 E10.68811
G1 X125.127 Y102.929 E10.71422
G1 X125.423 Y103.708 E10.74194
G1 X125.72 Y104.395 E10.76683
G1 X125.882 Y104.978 E10.78696
G1 X125.898 Y105.035 E10.78892
G1 X125.954 Y105.233 E10.79577
G1 X125.999 Y105.376 E10.80075
G1 X126.171 Y105.91 E10.81941
G1 X126.482 Y107.636 E10.87775
G1 X126.52 Y107.986 E10.88945
G1 X126.538 Y108.152 E10.89501
G1 X126.54 Y108.17 E10.89561
G1 X126.588 Y108.695 E10.91315
G1 X126.48 Y108.183 E10.91444
G1 X126.474 Y108.159 E10.91466
G1 X126.308 Y108.176 E10.91855
G1 X125.4 Y108.273 E10.94893
G1 X125.4 Y111.268 E11.04854
G1 X126.324 Y111.361 E11.07943
G1 X126.483 Y111.376 E11.08474
G1 X126.579 Y110.887 E11.10131
G1 X126.627 Y110.649 E11.10939
G1 X126.623 Y110.895 E11.10994
G1 X126.566 Y111.385 E11.11249
G1 X126.548 Y111.544 E11.11631
G1 X126.481 Y112.115 E11.13543
G1 X126.337 Y113.064 E11.16736
G1 X126.153 Y113.931 E11.19684
G1 X126.004 Y114.489 E11.21605
G1 X125.828 Y114.997 E11.23393
G1 X125.682 Y115.484 E11.25084
G1 X125.443 Y116.112 E11.27319
G1 X125.077 Y116.946 E11.30348
G1 F1800 E8.30348
G0 F9000 X125.779 Y111.104
G0 X125.8 Y110.906
;TYPE:WALL-OUTER
G1 F1800 E11.30348
G1 F3000 X126.161 Y110.942 E11.31555
G1 X126.296 Y110.263 E11.33857
G1 X126.324 Y109.686 E11.35778
G1 X126.284 Y109.189 E11.37437
G1 X126.158 Y108.595 E11.39456
G1 X125.8 Y108.633 E11.40654
G1 X125.8 Y110.906 E11.48214
G0 F9000 X125.779 Y111.104
G0 X124.352 Y111.623
;TYPE:WALL-INNER
G1 F3000 X125.202 Y107.162 E11.63318
G1 X125.261 Y106.94 E11.64082
G1 X125.602 Y106.882 E11.65233
G1 X125.602 Y105.383 E11.70218
G1 X125.602 Y105.233 E11.70679
G1 X125.602 Y105.118 E11.70969
G1 X125.542 Y105.118 E11.71151
G1 X119.306 Y105.118 E11.91892
G1 X119.306 Y105.533 E11.93272
G1 X119.306 Y105.544 E11.93309
G1 X119.306 Y106.005 E11.94842
G1 X118.92 Y105.544 E11.95984
G1 X118.911 Y105.539 E11.96017
G1 X118.415 Y105.221 E11.97977
G1 X117.872 Y105.118 E11.99815
G1 X115.637 Y105.118 E12.07249
G1 X115.637 Y106.961 E12.13379
G1 X116.068 Y106.991 E12.14816
G1 X116.084 Y107.136 E12.15301
G1 X116.084 Y107.61 E12.16878
G1 X116.084 Y107.976 E12.18095
G1 X116.084 Y108.495 E12.19821
G1 X115.909 Y107.976 E12.20275
G1 X115.705 Y107.673 E12.21163
G1 X115.607 Y107.528 E12.21746
G1 X115.14 Y107.247 E12.23558
G1 X114.547 Y107.257 E12.25531
G1 X114.249 Y107.41 E12.26645
G1 X113.128 Y107.399 E12.30374
G1 X111.232 Y107.399 E12.3668
G1 X111.232 Y107.473 E12.36926
G1 X110.721 Y107.473 E12.38626
G1 X110.708 Y107.399 E12.38875
G1 X108.886 Y107.399 E12.44935
G1 X108.227 Y107.461 E12.47137
G1 X108.227 Y107.55 E12.47433
G1 X108.189 Y107.528
