;FLAVOR:Marlin
;TIME:591
;Filament used: 0.54898m
;Layer height: 0.2
;MINX:91.28
;MINY:91.279
;MINZ:0.2
;MAXX:128.72
;MAXY:128.721
;MAXZ:2.48
;Generated with Cura_SteamEngine 4.5.0
M140 S50
M105
M190 S50
M104 S215
M105
M109 S215
M82 ;absolute extrusion mode
M201 X500.00 Y500.00 Z100.00 E5000.00 ;Setup machine max acceleration
M203 X500.00 Y500.00 Z10.00 E50.00 ;Setup machine max feedrate
M204 P500.00 R1000.00 T500.00 ;Setup Print/Retract/Travel acceleration
M205 X8.00 Y8.00 Z0.40 E5.00 ;Setup Jerk
M220 S100 ;Reset Feedrate
M221 S100 ;Reset Flowrate

G28 ;Home

G92 E0 ;Reset Extruder
G1 Z2.0 F3000 ;Move Z Axis up
G1 X10.1 Y20 Z0.28 F5000.0 ;Move to start position
G1 X10.1 Y200.0 Z0.28 F1500.0 E15 ;Draw the first line
G1 X10.4 Y200.0 Z0.28 F5000.0 ;Move to side a little
G1 X10.4 Y20 Z0.28 F1500.0 E30 ;Draw the second line
G92 E0 ;Reset Extruder
G1 Z2.0 F3000 ;Move Z Axis up

G92 E0
G92 E0
G1 F1800 E-3
;LAYER_COUNT:13
;LAYER:0
M107
;MESH:Tapa.stl
G0 F9000 X110.874 Y108.926 Z0.2
;TYPE:WALL-INNER
G1 F1800 E0
G1 F3000 X110.874 Y109.125 E0.00662
G1 X111.073 Y109.125 E0.0109
G1 X125.949 Y109.125 E0.50568
G1 X126.152 Y109.125 E0.51243
G1 X126.148 Y108.922 E0.51678
G1 X126.118 Y107.537 E0.56286
G1 X126.063 Y106.74 E0.58943
G1 X125.995 Y106.174 E0.60839
G1 X125.887 Y105.506 E0.63089
G1 X125.744 Y104.833 E0.65378
G1 X125.566 Y104.157 E0.67703
G1 X125.352 Y103.483 E0.70055
G1 X125.102 Y102.815 E0.72427
G1 X124.817 Y102.15 E0.74834
G1 X124.496 Y101.502 E0.77239
G1 X124.147 Y100.875 E0.79625
G1 X123.767 Y100.266 E0.82013
G1 X123.352 Y99.673 E0.8442
G1 X122.906 Y99.098 E0.86841
G1 X122.431 Y98.549 E0.89255
G1 X121.928 Y98.02 E0.91683
G1 X121.398 Y97.52 E0.94106
G1 X120.846 Y97.049 E0.9652
G1 X120.271 Y96.606 E0.98934
G1 X119.675 Y96.195 E1.01342
G1 X119.064 Y95.818 E1.0373
G1 X118.437 Y95.472 E1.06112
G1 X117.799 Y95.161 E1.08473
G1 X117.153 Y94.884 E1.1081
G1 X116.502 Y94.644 E1.13118
G1 X115.846 Y94.436 E1.15407
G1 X115.189 Y94.261 E1.17668
G1 X114.531 Y94.121 E1.19906
G1 X113.849 Y94.01 E1.22204
G1 X113.162 Y93.931 E1.24504
G1 X112.491 Y93.884 E1.26741
G1 X111.078 Y93.849 E1.31442
G1 X110.874 Y93.844 E1.32121
G1 X110.874 Y94.048 E1.32557
G1 X110.875 Y104.321 E1.66725
G1 X110.874 Y108.926 E1.82041
G0 F9000 X111.274 Y108.725
G1 F3000 X111.473 Y108.725 E1.82703
G1 X125.54 Y108.725 E2.2949
G1 X125.743 Y108.725 E2.30165
G1 X125.739 Y108.522 E2.306
G1 X125.718 Y107.555 E2.33817
G1 X125.665 Y106.778 E2.36408
G1 X125.599 Y106.23 E2.38243
G1 X125.494 Y105.58 E2.40433
G1 X125.355 Y104.926 E2.42657
G1 X125.182 Y104.269 E2.44917
G1 X124.974 Y103.614 E2.47203
G1 X124.731 Y102.964 E2.49511
G1 X124.454 Y102.318 E2.51848
G1 X124.142 Y101.688 E2.54187
G1 X123.802 Y101.078 E2.56509
G1 X123.433 Y100.487 E2.58827
G1 X123.03 Y99.91 E2.61168
G1 X122.597 Y99.352 E2.63517
G1 X122.135 Y98.818 E2.65865
G1 X121.646 Y98.304 E2.68225
G1 X121.131 Y97.818 E2.7058
G1 X120.594 Y97.36 E2.72928
G1 X120.035 Y96.929 E2.75275
G1 X119.456 Y96.53 E2.77614
G1 X118.862 Y96.163 E2.79936
G1 X118.253 Y95.827 E2.8225
G1 X117.633 Y95.525 E2.84544
G1 X117.005 Y95.256 E2.86816
G1 X116.372 Y95.022 E2.8906
G1 X115.734 Y94.82 E2.91286
G1 X115.096 Y94.65 E2.93482
G1 X114.457 Y94.514 E2.95655
G1 X113.794 Y94.406 E2.97889
G1 X113.125 Y94.329 E3.00129
G1 X112.472 Y94.284 E3.02306
G1 X111.478 Y94.259 E3.05613
G1 X111.274 Y94.254 E3.06292
G1 X111.274 Y94.458 E3.06728
G1 X111.275 Y104.321 E3.39532
G1 X111.274 Y108.526 E3.53518
G1 X111.274 Y108.725 E3.53946
G0 F9000 X111.674 Y108.325
;TYPE:WALL-OUTER
G1 F3000 X125.334 Y108.325 E3.9938
G1 X125.318 Y107.573 E4.01881
G1 X125.267 Y106.815 E4.04408
G1 X125.203 Y106.286 E4.06181
G1 X125.101 Y105.654 E4.0831
G1 X124.966 Y105.019 E4.10469
G1 X124.798 Y104.381 E4.12663
G1 X124.596 Y103.745 E4.14883
G1 X124.36 Y103.113 E4.17127
G1 X124.091 Y102.486 E4.19396
G1 X123.788 Y101.874 E4.21667
G1 X123.458 Y101.282 E4.23921
G1 X123.099 Y100.708 E4.26173
G1 X122.708 Y100.147 E4.28448
G1 X122.288 Y99.606 E4.30726
G1 X121.839 Y99.087 E4.33008
G1 X121.364 Y98.588 E4.353
G1 X120.864 Y98.116 E4.37586
G1 X120.342 Y97.671 E4.39868
G1 X119.799 Y97.252 E4.42149
G1 X119.237 Y96.865 E4.44419
G1 X118.66 Y96.508 E4.46675
G1 X118.069 Y96.182 E4.4892
G1 X117.467 Y95.889 E4.51147
G1 X116.857 Y95.628 E4.53354
G1 X116.242 Y95.4 E4.55535
G1 X115.622 Y95.204 E4.57698
G1 X115.003 Y95.039 E4.59829
G1 X114.383 Y94.907 E4.61937
G1 X113.739 Y94.802 E4.64107
G1 X113.089 Y94.727 E4.66284
G1 X112.453 Y94.684 E4.68404
G1 X111.674 Y94.664 E4.70996
G1 X111.675 Y104.321 E5.03115
G1 X111.674 Y108.325 E5.16432
G1 F1800 E2.16432
G0 F9000 X111.375 Y108.324
G0 X110.292 Y93.276
G0 X109.705 Y93.278
G0 X109.123 Y109.125
;TYPE:WALL-INNER
G1 F1800 E5.16432
G1 F3000 X109.123 Y94.052 E5.66565
G1 X109.123 Y93.849 E5.67241
G1 X108.92 Y93.853 E5.67675
G1 X107.524 Y93.881 E5.7232
G1 X106.738 Y93.937 E5.7494
G1 X106.161 Y94.006 E5.76873
G1 X105.494 Y94.114 E5.79121
G1 X104.82 Y94.258 E5.81413
G1 X104.144 Y94.437 E5.83739
G1 X103.47 Y94.651 E5.86091
G1 X102.8 Y94.902 E5.8847
G1 X102.136 Y95.188 E5.90875
G1 X101.488 Y95.509 E5.9328
G1 X100.861 Y95.859 E5.95669
G1 X100.252 Y96.24 E5.98058
G1 X99.681 Y96.639 E6.00375
G1 X99.658 Y96.655 E6.00468
G1 X99.129 Y97.067 E6.02698
G1 X99.085 Y97.102 E6.02885
G1 X98.535 Y97.578 E6.05304
G1 X98.506 Y97.606 E6.05438
G1 X98.008 Y98.081 E6.07727
G1 X97.924 Y98.17 E6.08134
G1 X97.508 Y98.611 E6.10151
G1 X97.325 Y98.825 E6.11087
G1 X97.036 Y99.164 E6.12569
G1 X96.811 Y99.457 E6.13798
G1 X96.593 Y99.742 E6.14991
G1 X96.473 Y99.916 E6.15694
G1 X96.184 Y100.337 E6.17393
G1 X95.806 Y100.948 E6.19782
G1 X95.463 Y101.574 E6.22156
G1 X95.153 Y102.212 E6.24516
G1 X94.878 Y102.858 E6.26851
G1 X94.638 Y103.51 E6.29162
G1 X94.434 Y104.156 E6.31415
G1 X94.43 Y104.166 E6.31451
G1 X94.257 Y104.823 E6.3371
G1 X94.117 Y105.48 E6.35944
G1 X94.006 Y106.162 E6.38243
G1 X93.929 Y106.839 E6.40509
G1 X93.927 Y106.849 E6.40543
G1 X93.882 Y107.521 E6.42783
G1 X93.845 Y108.921 E6.47441
G1 X93.84 Y109.125 E6.4812
G1 X94.044 Y109.125 E6.48555
G1 X109.123 Y109.125 E6.98708
G0 F9000 X108.723 Y108.725
G1 F3000 X108.723 Y94.46 E7.46154
G1 X108.723 Y94.257 E7.46829
G1 X108.52 Y94.261 E7.47264
G1 X107.542 Y94.281 E7.50518
G1 X106.776 Y94.335 E7.53072
G1 X106.217 Y94.402 E7.54944
G1 X105.568 Y94.507 E7.57131
G1 X104.913 Y94.647 E7.59359
G1 X104.256 Y94.821 E7.61619
G1 X103.601 Y95.029 E7.63905
G1 X102.949 Y95.273 E7.6622
G1 X102.304 Y95.551 E7.68556
G1 X101.674 Y95.863 E7.70895
G1 X101.065 Y96.203 E7.73214
G1 X100.473 Y96.574 E7.75538
G1 X99.896 Y96.977 E7.77879
G1 X99.339 Y97.411 E7.80228
G1 X98.804 Y97.874 E7.82581
G1 X98.292 Y98.363 E7.84936
G1 X97.806 Y98.878 E7.87291
G1 X97.347 Y99.416 E7.89643
G1 X96.917 Y99.977 E7.91994
G1 X96.519 Y100.556 E7.94331
G1 X96.152 Y101.15 E7.96653
G1 X95.818 Y101.758 E7.9896
G1 X95.517 Y102.378 E8.01253
G1 X95.25 Y103.006 E8.03522
G1 X95.016 Y103.64 E8.0577
G1 X94.814 Y104.277 E8.07993
G1 X94.646 Y104.916 E8.1019
G1 X94.51 Y105.554 E8.1236
G1 X94.402 Y106.217 E8.14594
G1 X94.325 Y106.885 E8.16831
G1 X94.282 Y107.539 E8.19011
G1 X94.256 Y108.521 E8.22278
G1 X94.251 Y108.725 E8.22957
G1 X94.455 Y108.725 E8.23392
G1 X108.723 Y108.725 E8.70848
G0 F9000 X108.323 Y108.325
;TYPE:WALL-OUTER
G1 F3000 X108.323 Y94.665 E9.16281
G1 X107.56 Y94.681 E9.18819
G1 X106.814 Y94.733 E9.21307
G1 X106.273 Y94.798 E9.23119
G1 X105.642 Y94.9 E9.25245
G1 X105.006 Y95.036 E9.27408
G1 X104.368 Y95.205 E9.29603
G1 X103.732 Y95.407 E9.31823
G1 X103.098 Y95.644 E9.34074
G1 X102.472 Y95.914 E9.36341
G1 X101.86 Y96.217 E9.38613
G1 X101.269 Y96.547 E9.40864
G1 X100.694 Y96.908 E9.43122
G1 X100.133 Y97.299 E9.45397
G1 X99.593 Y97.72 E9.47674
G1 X99.073 Y98.17 E9.49961
G1 X98.576 Y98.645 E9.52248
G1 X98.104 Y99.145 E9.54535
G1 X97.658 Y99.668 E9.56821
G1 X97.241 Y100.212 E9.59101
G1 X96.854 Y100.774 E9.6137
G1 X96.498 Y101.352 E9.63628
G1 X96.173 Y101.942 E9.65868
G1 X95.881 Y102.544 E9.68094
G1 X95.622 Y103.154 E9.70298
G1 X95.394 Y103.77 E9.72483
G1 X95.198 Y104.388 E9.74639
G1 X95.035 Y105.009 E9.76774
G1 X94.903 Y105.628 E9.7888
G1 X94.798 Y106.272 E9.8105
G1 X94.724 Y106.921 E9.83222
G1 X94.682 Y107.557 E9.85342
G1 X94.662 Y108.325 E9.87898
G1 X108.323 Y108.325 E10.33334
G1 F1800 E7.33334
G0 F9000 X108.623 Y108.325
G0 X108.645 Y109.694
G0 X93.323 Y109.707
G0 X93.321 Y110.295
G0 X108.655 Y110.305
G0 X108.919 Y126.152
;TYPE:WALL-INNER
G1 F1800 E10.33334
G1 F3000 X109.123 Y126.157 E10.34013
G1 X109.123 Y125.953 E10.34449
G1 X109.123 Y110.876 E10.84595
G1 X94.048 Y110.876 E11.34735
G1 X94.047 Y110.876 E11.34738
G1 X93.844 Y110.876 E11.35413
G1 X93.847 Y111.079 E11.35848
G1 X93.848 Y111.08 E11.35853
G1 X93.88 Y112.484 E11.40524
G1 X93.936 Y113.262 E11.43118
G1 X94.005 Y113.845 E11.45071
G1 X94.114 Y114.512 E11.47318
G1 X94.257 Y115.185 E11.49607
G1 X94.436 Y115.861 E11.51933
G1 X94.651 Y116.535 E11.54286
G1 X94.902 Y117.206 E11.56669
G1 X95.188 Y117.867 E11.59064
G1 X95.509 Y118.516 E11.61472
G1 X95.86 Y119.141 E11.63856
G1 X96.239 Y119.749 E11.66239
G1 X96.492 Y120.11 E11.67705
G1 X96.596 Y120.259 E11.6831
G1 X96.655 Y120.342 E11.68649
G1 X97.084 Y120.895 E11.70976
G1 X97.101 Y120.916 E11.71066
G1 X97.577 Y121.466 E11.73485
G1 X97.614 Y121.504 E11.73662
G1 X98.08 Y121.991 E11.75904
G1 X98.192 Y122.097 E11.76417
G1 X98.609 Y122.491 E11.78325
G1 X98.804 Y122.656 E11.79174
G1 X99.164 Y122.962 E11.80746
G1 X99.739 Y123.404 E11.83158
G1 X99.771 Y123.426 E11.83287
G1 X100.333 Y123.813 E11.85557
G1 X100.946 Y124.191 E11.87952
G1 X101.57 Y124.533 E11.90319
G1 X102.207 Y124.843 E11.92675
G1 X102.852 Y125.12 E11.9501
G1 X103.504 Y125.361 E11.97322
G1 X104.159 Y125.566 E11.99604
G1 X104.815 Y125.74 E12.01862
G1 X105.462 Y125.878 E12.04062
G1 X105.472 Y125.881 E12.04097
G1 X106.154 Y125.992 E12.06395
G1 X106.831 Y126.068 E12.08661
G1 X106.841 Y126.07 E12.08695
G1 X107.51 Y126.117 E12.10925
G1 X108.919 Y126.152 E12.15613
G0 F9000 X108.723 Y125.747
G1 F3000 X108.723 Y125.543 E12.16292
G1 X108.723 Y111.276 E12.63744
G1 X94.457 Y111.276 E13.11193
G1 X94.456 Y111.276 E13.11196
G1 X94.253 Y111.276 E13.11871
G1 X94.256 Y111.479 E13.12306
G1 X94.257 Y111.48 E13.12311
G1 X94.28 Y112.465 E13.15588
G1 X94.334 Y113.224 E13.18119
G1 X94.401 Y113.789 E13.20011
G1 X94.507 Y114.438 E13.22198
G1 X94.646 Y115.092 E13.24422
G1 X94.82 Y115.749 E13.26683
G1 X95.029 Y116.404 E13.28969
G1 X95.273 Y117.056 E13.31285
G1 X95.551 Y117.699 E13.33615
G1 X95.863 Y118.329 E13.35953
G1 X96.204 Y118.937 E13.38272
G1 X96.573 Y119.528 E13.40589
G1 X96.977 Y120.104 E13.42929
G1 X97.41 Y120.662 E13.45278
G1 X97.873 Y121.197 E13.47631
G1 X98.362 Y121.707 E13.49981
G1 X98.876 Y122.193 E13.52334
G1 X99.415 Y122.651 E13.54687
G1 X99.974 Y123.08 E13.5703
G1 X100.552 Y123.478 E13.59364
G1 X101.147 Y123.845 E13.6169
G1 X101.754 Y124.178 E13.63992
G1 X102.373 Y124.479 E13.66282
G1 X103 Y124.748 E13.68551
G1 X103.633 Y124.982 E13.70796
G1 X104.27 Y125.182 E13.73016
G1 X104.908 Y125.351 E13.75211
G1 X105.546 Y125.488 E13.77382
G1 X106.209 Y125.596 E13.79616
G1 X106.877 Y125.672 E13.81852
G1 X107.529 Y125.717 E13.84026
G1 X108.519 Y125.742 E13.8732
G1 X108.723 Y125.747 E13.87755
G0 F9000 X108.323 Y125.337
;TYPE:WALL-OUTER
G1 F3000 X108.323 Y111.676 E14.33192
G1 X94.662 Y111.676 E14.78629
G1 X94.68 Y112.446 E14.8119
G1 X94.732 Y113.186 E14.83658
G1 X94.797 Y113.733 E14.8549
G1 X94.9 Y114.364 E14.87616
G1 X95.035 Y114.999 E14.89776
G1 X95.204 Y115.637 E14.91971
G1 X95.407 Y116.273 E14.94191
G1 X95.644 Y116.906 E14.96439
G1 X95.914 Y117.531 E14.98704
G1 X96.217 Y118.142 E15.00972
G1 X96.548 Y118.733 E15.03225
G1 X96.907 Y119.307 E15.05477
G1 X97.299 Y119.867 E15.07751
G1 X97.719 Y120.408 E15.10028
G1 X98.169 Y120.927 E15.12313
G1 X98.644 Y121.423 E15.14597
G1 X99.143 Y121.895 E15.16882
G1 X99.666 Y122.34 E15.19166
G1 X100.209 Y122.756 E15.21441
G1 X100.771 Y123.143 E15.2371
G1 X101.348 Y123.499 E15.25965
G1 X101.938 Y123.823 E15.28204
G1 X102.539 Y124.115 E15.30427
G1 X103.148 Y124.376 E15.3263
G1 X103.763 Y124.603 E15.34811
G1 X104.381 Y124.798 E15.36966
G1 X105.001 Y124.962 E15.39099
G1 X105.62 Y125.095 E15.41205
G1 X106.264 Y125.2 E15.43375
G1 X106.913 Y125.274 E15.45548
G1 X107.548 Y125.317 E15.47665
G1 X108.323 Y125.337 E15.50243
G0 F9000 X108.315 Y125.636
G0 X109.705 Y126.721
G0 X110.292 Y126.724
G0 X110.874 Y125.953
;TYPE:WALL-INNER
G1 F3000 X110.874 Y125.954 E15.50246
G1 X110.874 Y126.157 E15.50922
G1 X111.077 Y126.154 E15.51357
G1 X111.078 Y126.153 E15.51361
G1 X112.472 Y126.119 E15.55999
G1 X113.259 Y126.064 E15.58623
G1 X113.832 Y125.996 E15.60542
G1 X114.5 Y125.888 E15.62793
G1 X114.61 Y125.865 E15.63167
G1 X115.173 Y125.744 E15.65082
G1 X115.847 Y125.565 E15.67401
G1 X116.519 Y125.352 E15.69746
G1 X117.189 Y125.103 E15.72123
G1 X117.853 Y124.817 E15.74528
G1 X118.501 Y124.496 E15.76933
G1 X119.126 Y124.148 E15.79313
G1 X119.735 Y123.768 E15.817
G1 X120.328 Y123.352 E15.84109
G1 X120.902 Y122.908 E15.86523
G1 X121.451 Y122.432 E15.8894
G1 X121.97 Y121.936 E15.91327
G1 X121.978 Y121.929 E15.91363
G1 X122.479 Y121.402 E15.93781
G1 X122.951 Y120.848 E15.96202
G1 X123.392 Y120.273 E15.98612
G1 X123.803 Y119.679 E16.01015
G1 X124.18 Y119.068 E16.03402
G1 X124.526 Y118.442 E16.05781
G1 X124.837 Y117.806 E16.08136
G1 X125.114 Y117.159 E16.10477
G1 X125.354 Y116.508 E16.12785
G1 X125.562 Y115.854 E16.15067
G1 X125.737 Y115.196 E16.17332
G1 X125.877 Y114.539 E16.19566
G1 X125.988 Y113.857 E16.21864
G1 X126.067 Y113.172 E16.24158
G1 X126.115 Y112.499 E16.26402
G1 X126.15 Y111.08 E16.31123
G1 X126.155 Y110.876 E16.31802
G1 X125.951 Y110.876 E16.32237
G1 X110.874 Y110.876 E16.82384
G1 X110.874 Y125.953 E17.3253
G0 F9000 X111.274 Y125.747
G1 F3000 X111.477 Y125.744 E17.33205
G1 X111.478 Y125.743 E17.3321
G1 X112.453 Y125.719 E17.36454
G1 X113.222 Y125.666 E17.39017
G1 X113.776 Y125.6 E17.40873
G1 X114.426 Y125.495 E17.43063
G1 X115.08 Y125.355 E17.45288
G1 X115.735 Y125.181 E17.47542
G1 X116.389 Y124.974 E17.49823
G1 X117.04 Y124.732 E17.52133
G1 X117.685 Y124.454 E17.54469
G1 X118.315 Y124.142 E17.56808
G1 X118.923 Y123.803 E17.59123
G1 X119.514 Y123.434 E17.6144
G1 X120.091 Y123.03 E17.63783
G1 X120.648 Y122.598 E17.66127
G1 X121.182 Y122.136 E17.68476
G1 X121.695 Y121.647 E17.70833
G1 X122.181 Y121.134 E17.73184
G1 X122.64 Y120.596 E17.75536
G1 X123.069 Y120.037 E17.77879
G1 X123.468 Y119.46 E17.80213
G1 X123.835 Y118.866 E17.82535
G1 X124.171 Y118.257 E17.84848
G1 X124.473 Y117.639 E17.87136
G1 X124.742 Y117.011 E17.89408
G1 X124.976 Y116.378 E17.91653
G1 X125.178 Y115.742 E17.93872
G1 X125.348 Y115.103 E17.96072
G1 X125.484 Y114.465 E17.98241
G1 X125.592 Y113.802 E18.00476
G1 X125.669 Y113.135 E18.02709
G1 X125.715 Y112.48 E18.04893
G1 X125.74 Y111.48 E18.0822
G1 X125.745 Y111.276 E18.08898
G1 X125.541 Y111.276 E18.09334
G1 X111.274 Y111.276 E18.56786
G1 X111.274 Y125.543 E19.04239
G1 X111.274 Y125.544 E19.04242
G1 X111.274 Y125.747 E19.04677
G0 F9000 X111.674 Y125.337
;TYPE:WALL-OUTER
G1 F3000 X112.435 Y125.319 E19.07209
G1 X113.185 Y125.268 E19.09709
G1 X113.72 Y125.204 E19.11501
G1 X114.352 Y125.102 E19.1363
G1 X114.987 Y124.966 E19.1579
G1 X115.623 Y124.797 E19.17979
G1 X116.259 Y124.596 E19.20197
G1 X116.891 Y124.361 E19.2244
G1 X117.517 Y124.091 E19.24708
G1 X118.129 Y123.788 E19.26979
G1 X118.719 Y123.459 E19.29226
G1 X119.293 Y123.1 E19.31477
G1 X119.854 Y122.708 E19.33754
G1 X120.394 Y122.289 E19.36027
G1 X120.913 Y121.84 E19.3831
G1 X121.412 Y121.365 E19.40601
G1 X121.883 Y120.867 E19.42881
G1 X122.329 Y120.344 E19.45167
G1 X122.746 Y119.801 E19.47444
G1 X123.133 Y119.241 E19.49708
G1 X123.49 Y118.664 E19.51965
G1 X123.816 Y118.073 E19.5421
G1 X124.109 Y117.472 E19.56434
G1 X124.37 Y116.863 E19.58637
G1 X124.598 Y116.248 E19.60819
G1 X124.794 Y115.63 E19.62975
G1 X124.959 Y115.01 E19.65109
G1 X125.091 Y114.391 E19.67214
G1 X125.196 Y113.747 E19.69384
G1 X125.271 Y113.098 E19.71557
G1 X125.315 Y112.461 E19.73681
G1 X125.335 Y111.676 E19.76293
G1 X111.674 Y111.676 E20.2173
G1 X111.674 Y125.337 E20.67166
G0 F9000 X111.374 Y125.337
G0 X110.09 Y126.912
;TYPE:WALL-INNER
G1 F3000 X109.516 Y126.899 E20.69076
