;FLAVOR:Marlin
;TIME:4484
;Filament used: 3.08483m
;Layer height: 0.2
;MINX:46.4
;MINY:75.844
;MINZ:0.24
;MAXX:173.6
;MAXY:144.156
;MAXZ:8
;Generated with Cura_SteamEngine 4.8.0
M82 ;absolute extrusion mode
M201 X500.00 Y500.00 Z100.00 E5000.00 ;Setup machine max acceleration
M203 X500.00 Y500.00 Z10.00 E50.00 ;Setup machine max feedrate
M204 P500.00 R1000.00 T500.00 ;Setup Print/Retract/Travel acceleration
M205 X8.00 Y8.00 Z0.40 E5.00 ;Setup Jerk
M220 S100 ;Reset Feedrate
M221 S100 ;Reset Flowrate

;*** Start Dual Nozzle/Bed Preheating ***
M140 S50 ; start preheating the bed
M104 S215 ﻿T0 ; start preheating hotend
G28 ; home
M190 S50 ; heat to Cura Bed setting and WAIT
M109 S215 ﻿T0 ; heat to Cura Hotend and WAIT
;*** End Preheating ***


G92 E0 ;Reset Extruder
G1 Z2.0 F3000 ;Move Z Axis up

;*** Single Print Start Tone
M300 S1000 P500 ; chirp to indicate starting to print
;*** End Single Start Tone

G1 X10.1 Y20 Z0.28 F5000.0 ;Move to start position
G1 X10.1 Y200.0 Z0.28 F1500.0 E15 ;Draw the first line
G1 X10.4 Y200.0 Z0.28 F5000.0 ;Move to side a little
G1 X10.4 Y20 Z0.28 F1500.0 E30 ;Draw the second line
G92 E0 ;Reset Extruder
G1 Z2.0 F3000 ;Move Z Axis up
G92 E0
G92 E0
G1 F2400 E-3
;LAYER_COUNT:40
;LAYER:0
M106 S63.8
M204 S500
M205 X6 Y6
G1 F300 Z0.44
G0 F9000 X51.807 Y88.888 Z0.44
;TYPE:SKIRT
G1 F300 Z0.24
G1 F2400 E0
G1 F1800 X52.628 Y88.471 E0.03675
G1 X53.482 Y88.127 E0.0735
G1 X54.389 Y87.852 E0.11133
G1 X55.357 Y87.605 E0.1512
G1 X55.571 Y87.553 E0.15999
G1 X104.038 Y76.251 E2.14631
G1 X104.723 Y76.101 E2.1743
G1 X105.63 Y75.944 E2.21104
G1 X106.826 Y75.857 E2.2589
G1 X107.765 Y75.844 E2.29638
G1 X112.293 Y75.844 E2.4771
G1 X113.148 Y75.855 E2.51123
G1 X114.067 Y75.908 E2.54797
G1 X114.979 Y76.041 E2.58475
G1 X115.875 Y76.252 E2.62149
G1 X116.383 Y76.409 E2.64271
G1 X117.4 Y76.752 E2.68555
G1 X119.876 Y77.548 E2.78936
G1 X122.297 Y78.251 E2.88997
G1 X124.546 Y78.832 E2.98268
G1 X124.678 Y78.872 E2.98819
G1 X164.997 Y89.039 E4.64778
G1 X165.715 Y89.23 E4.67743
G1 X166.594 Y89.505 E4.71419
G1 X167.445 Y89.856 E4.75094
G1 X168.263 Y90.278 E4.78767
G1 X169.041 Y90.771 E4.82443
G1 X169.773 Y91.329 E4.86117
G1 X170.454 Y91.948 E4.8979
G1 X171.079 Y92.624 E4.93464
G1 X171.643 Y93.352 E4.9714
G1 X172.142 Y94.126 E5.00816
G1 X172.571 Y94.94 E5.04488
G1 X172.929 Y95.788 E5.08162
G1 X173.211 Y96.665 E5.11839
G1 X173.416 Y97.562 E5.15511
G1 X173.543 Y98.474 E5.19186
G1 X173.58 Y99.014 E5.21347
G1 X173.599 Y99.887 E5.24832
G1 X173.6 Y119.797 E6.04297
G1 X173.589 Y120.671 E6.07785
G1 X173.536 Y121.59 E6.11459
G1 X173.404 Y122.501 E6.15133
G1 X173.193 Y123.397 E6.18807
G1 X172.906 Y124.272 E6.22483
G1 X172.543 Y125.118 E6.26157
G1 X172.109 Y125.93 E6.29832
G1 X171.605 Y126.7 E6.33505
G1 X171.037 Y127.425 E6.37181
G1 X170.408 Y128.097 E6.40854
G1 X169.723 Y128.712 E6.44529
G1 X168.987 Y129.265 E6.48203
G1 X168.206 Y129.753 E6.51878
G1 X167.386 Y130.171 E6.55552
G1 X166.532 Y130.516 E6.59228
G1 X165.985 Y130.693 E6.61523
G1 X165.153 Y130.921 E6.64966
G1 X124.716 Y141.12 E8.31413
G1 X124.481 Y141.184 E8.32385
G1 X122.928 Y141.574 E8.38776
G1 X120.521 Y142.254 E8.48759
G1 X118.066 Y143.021 E8.59024
G1 X116.569 Y143.531 E8.65336
G1 X116.277 Y143.626 E8.66562
G1 X115.39 Y143.872 E8.70236
G1 X114.485 Y144.041 E8.7391
G1 X113.321 Y144.141 E8.78573
G1 X112.67 Y144.156 E8.81172
G1 X107.553 Y144.155 E9.01595
G1 X106.863 Y144.145 E9.04349
G1 X105.944 Y144.092 E9.08023
G1 X104.78 Y143.907 E9.12728
G1 X103.804 Y143.695 E9.16714
G1 X55.14 Y132.346 E11.16154
G1 X54.464 Y132.178 E11.18934
G1 X53.581 Y131.917 E11.22609
G1 X52.724 Y131.581 E11.26283
G1 X51.9 Y131.172 E11.29955
G1 X51.114 Y130.692 E11.33631
G1 X50.372 Y130.147 E11.37305
G1 X49.681 Y129.539 E11.40979
G1 X49.045 Y128.873 E11.44654
G1 X48.469 Y128.154 E11.48331
G1 X47.958 Y127.389 E11.52003
G1 X47.515 Y126.582 E11.55677
G1 X47.144 Y125.739 E11.59353
G1 X46.847 Y124.868 E11.63026
G1 X46.628 Y123.974 E11.667
G1 X46.486 Y123.064 E11.70376
G1 X46.423 Y122.108 E11.742
G1 X46.402 Y121.081 E11.783
G1 X46.4 Y120.864 E11.79166
G1 X46.401 Y98.62 E12.67946
G1 X46.411 Y97.962 E12.70573
G1 X46.465 Y97.043 E12.74247
G1 X46.599 Y96.132 E12.77922
G1 X46.811 Y95.236 E12.81597
G1 X47.1 Y94.362 E12.85271
G1 X47.463 Y93.516 E12.88945
G1 X47.899 Y92.705 E12.9262
G1 X48.404 Y91.935 E12.96296
G1 X48.973 Y91.212 E12.99968
G1 X49.603 Y90.54 E13.03644
G1 X50.289 Y89.926 E13.07319
G1 X51.026 Y89.374 E13.10994
G1 X51.807 Y88.888 E13.14665
G0 F9000 X52.185 Y89.137
G1 F1800 X52.998 Y88.745 E13.18268
G1 X53.844 Y88.427 E13.21875
G1 X54.488 Y88.24 E13.24551
G1 X55.456 Y87.993 E13.28539
G1 X55.661 Y87.943 E13.29381
G1 X104.123 Y76.642 E15.27993
G1 X104.808 Y76.492 E15.30791
G1 X105.698 Y76.338 E15.34396
G1 X106.832 Y76.257 E15.38934
G1 X107.765 Y76.244 E15.42658
G1 X112.293 Y76.244 E15.6073
G1 X113.143 Y76.255 E15.64123
G1 X114.044 Y76.308 E15.67725
G1 X114.938 Y76.44 E15.71332
G1 X115.816 Y76.651 E15.74936
G1 X116.256 Y76.788 E15.76776
G1 X117.298 Y77.139 E15.81164
G1 X119.758 Y77.93 E15.91477
G1 X122.182 Y78.635 E16.01553
G1 X124.446 Y79.219 E16.10885
G1 X124.584 Y79.261 E16.11461
G1 X164.894 Y89.426 E17.77383
G1 X165.612 Y89.617 E17.80349
G1 X166.474 Y89.887 E17.83954
G1 X167.308 Y90.233 E17.87558
G1 X168.109 Y90.651 E17.91164
G1 X168.869 Y91.139 E17.94768
G1 X169.583 Y91.691 E17.9837
G1 X170.246 Y92.305 E18.01977
G1 X170.851 Y92.975 E18.0558
G1 X171.395 Y93.696 E18.09185
G1 X171.874 Y94.462 E18.12791
G1 X172.282 Y95.267 E18.16393
G1 X172.618 Y96.106 E18.2
G1 X172.878 Y96.97 E18.23601
G1 X173.061 Y97.855 E18.27208
G1 X173.18 Y99.031 E18.31926
G1 X173.199 Y99.891 E18.35359
G1 X173.2 Y119.797 E19.14808
G1 X173.189 Y120.665 E19.18273
G1 X173.137 Y121.567 E19.21879
G1 X173.005 Y122.46 E19.25482
G1 X172.794 Y123.338 E19.29086
G1 X172.507 Y124.195 E19.32693
G1 X172.145 Y125.022 E19.36296
G1 X171.712 Y125.814 E19.39899
G1 X171.209 Y126.565 E19.43506
G1 X170.643 Y127.268 E19.47109
G1 X170.017 Y127.919 E19.50713
G1 X169.335 Y128.511 E19.54318
G1 X168.604 Y129.041 E19.57921
G1 X167.828 Y129.504 E19.61528
G1 X167.015 Y129.897 E19.65132
G1 X165.872 Y130.309 E19.69981
G1 X165.051 Y130.534 E19.73379
G1 X124.478 Y140.767 E21.40386
G1 X124.383 Y140.796 E21.40782
G1 X122.836 Y141.185 E21.47149
G1 X120.389 Y141.876 E21.57297
G1 X117.978 Y142.629 E21.67378
G1 X116.446 Y143.151 E21.73838
G1 X116.154 Y143.246 E21.75064
G1 X115.283 Y143.487 E21.78671
G1 X114.395 Y143.65 E21.82274
G1 X113.309 Y143.741 E21.86624
G1 X112.67 Y143.756 E21.89175
G1 X107.559 Y143.755 E22.09574
G1 X106.869 Y143.745 E22.12328
G1 X105.968 Y143.692 E22.1593
G1 X104.865 Y143.516 E22.20388
G1 X103.895 Y143.305 E22.2435
G1 X55.237 Y131.958 E24.23766
G1 X54.561 Y131.79 E24.26546
G1 X53.695 Y131.533 E24.30151
G1 X52.855 Y131.201 E24.33756
G1 X52.048 Y130.797 E24.37358
G1 X51.28 Y130.322 E24.40962
G1 X50.556 Y129.781 E24.4457
G1 X49.884 Y129.178 E24.48173
G1 X49.267 Y128.518 E24.51779
G1 X48.712 Y127.806 E24.55382
G1 X48.221 Y127.048 E24.58987
G1 X47.799 Y126.25 E24.6259
G1 X47.45 Y125.417 E24.66195
G1 X47.175 Y124.556 E24.69802
G1 X46.978 Y123.675 E24.73405
G1 X46.86 Y122.78 E24.77008
G1 X46.823 Y122.1 E24.79726
G1 X46.802 Y121.073 E24.83826
G1 X46.8 Y120.864 E24.8466
G1 X46.801 Y98.626 E25.73417
G1 X46.811 Y97.968 E25.76043
G1 X46.865 Y97.066 E25.7965
G1 X46.998 Y96.173 E25.83253
G1 X47.21 Y95.295 E25.86858
G1 X47.498 Y94.44 E25.90459
G1 X47.861 Y93.613 E25.94064
G1 X48.296 Y92.821 E25.9767
G1 X48.799 Y92.071 E26.01275
G1 X49.367 Y91.369 E26.04879
G1 X49.994 Y90.719 E26.08483
G1 X50.677 Y90.127 E26.12091
G1 X51.409 Y89.599 E26.15693
G1 X52.185 Y89.137 E26.19298
G1 F2400 E23.19298
G1 F300 Z0.44
;MESH:hinge_sample_2.stl
G0 F9000 X106.8 Y116.084 Z0.44
;TYPE:WALL-OUTER
G1 F300 Z0.24
G1 F2400 E26.19298
G1 F1800 X112.8 Y116.084 E26.43245
G1 X112.8 Y119.337 E26.56228
G1 X106.8 Y119.337 E26.80176
G1 X106.8 Y131.498 E27.28713
G1 X112.8 Y131.498 E27.5266
G1 X112.8 Y133.356 E27.60076
G1 X107.024 Y133.356 E27.83129
G1 X57.2 Y121.737 E29.87323
G1 X57.2 Y98.263 E30.81013
G1 X107.024 Y86.644 E32.85207
G1 X112.8 Y86.644 E33.0826
G1 X112.8 Y88.501 E33.15672
G1 X106.8 Y88.502 E33.39619
G1 X106.8 Y100.663 E33.88156
G1 X112.8 Y100.663 E34.12104
G1 X112.8 Y103.916 E34.25087
G1 X107.072 Y103.917 E34.47949
G1 X106.8 Y103.941 E34.49039
G1 X106.8 Y116.084 E34.97504
G1 F2400 E31.97504
G1 F300 Z0.44
G0 F9000 X85.32 Y107.331 Z0.44
G1 F300 Z0.24
G1 F2400 E34.97504
G1 F1800 X86.249 Y106.682 E35.02027
G1 X86.977 Y106.263 E35.05379
G1 X87.636 Y105.96 E35.08274
G1 X88.311 Y105.723 E35.1113
G1 X88.994 Y105.552 E35.1394
G1 X89.694 Y105.446 E35.16766
G1 X90.499 Y105.405 E35.19983
G1 X91.213 Y105.44 E35.22836
G1 X91.785 Y105.524 E35.25143
G1 X92.281 Y105.651 E35.27187
G1 X93.006 Y105.942 E35.30305
G1 X93.495 Y106.246 E35.32603
G1 X94.029 Y106.705 E35.35413
G1 X94.474 Y107.266 E35.38271
G1 X94.853 Y107.991 E35.41536
G1 X95.126 Y108.899 E35.45321
G1 X95.215 Y109.459 E35.47584
G1 X95.261 Y110.001 E35.49755
G1 X95.265 Y110.563 E35.51998
G1 X95.228 Y111.291 E35.54907
G1 X95.093 Y112.147 E35.58366
G1 X94.875 Y112.976 E35.61787
G1 X94.534 Y113.874 E35.65621
G1 X94.164 Y114.636 E35.69002
G1 X93.58 Y115.599 E35.73497
G1 X92.995 Y116.397 E35.77446
G1 X92.093 Y117.444 E35.82962
G1 X92.2 Y117.677 E35.83985
G1 X95.724 Y117.679 E35.9805
G1 X96.443 Y116.666 E36.03008
G1 X97.008 Y115.688 E36.07516
G1 X97.473 Y114.668 E36.1199
G1 X97.838 Y113.605 E36.16476
G1 X98.103 Y112.5 E36.21012
G1 X98.268 Y111.354 E36.25633
G1 X98.334 Y110 E36.31043
G1 X98.283 Y108.843 E36.35665
G1 X98.153 Y107.895 E36.39485
G1 X97.943 Y107.009 E36.43119
G1 X97.698 Y106.297 E36.46124
G1 X97.394 Y105.631 E36.49046
G1 X97.031 Y105.01 E36.51917
G1 X96.682 Y104.527 E36.54295
G1 X96.292 Y104.075 E36.56678
G1 X95.781 Y103.587 E36.59498
G1 X95.323 Y103.225 E36.61828
G1 X94.837 Y102.908 E36.64144
G1 X94.322 Y102.634 E36.66472
G1 X93.669 Y102.362 E36.69296
G1 X92.977 Y102.155 E36.72179
G1 X92.247 Y102.009 E36.7515
G1 X91.605 Y101.935 E36.77729
G1 X91.534 Y101.934 E36.78013
G1 X90.808 Y101.904 E36.80913
G1 X89.948 Y101.941 E36.84348
G1 X89.094 Y102.055 E36.87787
G1 X88.143 Y102.273 E36.91681
G1 X87.201 Y102.587 E36.95644
G1 X86.37 Y102.947 E36.99259
G1 X85.547 Y103.382 E37.02974
G1 X84.364 Y104.143 E37.08588
G1 X82.057 Y105.981 E37.20361
G1 X79.254 Y108.634 E37.35765
G1 X74.143 Y113.8 E37.64769
G1 X73.253 Y114.643 E37.69662
G1 X73.262 Y102.14 E38.19564
G1 X70.029 Y102.138 E38.32468
G1 X70.017 Y119.077 E39.00075
G1 X73.095 Y119.079 E39.1236
G1 X81.175 Y111.03 E39.57879
G1 X84.282 Y108.155 E39.74775
G1 X85.32 Y107.331 E39.80064
G0 F9000 X85.558 Y107.653
;TYPE:WALL-INNER
G1 F1800 X86.459 Y107.023 E39.84452
G1 X87.17 Y106.614 E39.87726
G1 X87.191 Y106.605 E39.87817
G1 X87.784 Y106.332 E39.90423
G1 X88.424 Y106.107 E39.9313
G1 X89.077 Y105.944 E39.95817
G1 X89.713 Y105.848 E39.98384
G1 X89.734 Y105.844 E39.98469
G1 X90.459 Y105.808 E40.01366
G1 X90.489 Y105.806 E40.01486
G1 X91.177 Y105.839 E40.04235
G1 X91.713 Y105.918 E40.06398
G1 X92.154 Y106.031 E40.08215
G1 X92.823 Y106.299 E40.11091
G1 X93.259 Y106.57 E40.1314
G1 X93.739 Y106.983 E40.15667
G1 X94.139 Y107.487 E40.18236
G1 X94.48 Y108.14 E40.21176
G1 X94.735 Y108.988 E40.2471
G1 X94.817 Y109.501 E40.26784
G1 X94.861 Y110.025 E40.28882
G1 X94.865 Y110.566 E40.31042
G1 X94.83 Y111.246 E40.33759
G1 X94.702 Y112.061 E40.37052
G1 X94.493 Y112.855 E40.40329
G1 X94.167 Y113.713 E40.43992
G1 X93.81 Y114.449 E40.47257
G1 X93.249 Y115.374 E40.51575
G1 X92.681 Y116.149 E40.5541
G1 X91.622 Y117.378 E40.61885
G1 X91.943 Y118.077 E40.64955
G1 X95.931 Y118.079 E40.80872
G1 X96.78 Y116.882 E40.86729
G1 X97.364 Y115.871 E40.91389
G1 X97.845 Y114.816 E40.96017
G1 X98.223 Y113.717 E41.00655
G1 X98.496 Y112.575 E41.05342
G1 X98.667 Y111.392 E41.10112
G1 X98.734 Y110.001 E41.15671
G1 X98.682 Y108.807 E41.20441
G1 X98.547 Y107.822 E41.24409
G1 X98.328 Y106.898 E41.28199
G1 X98.07 Y106.149 E41.31361
G1 X97.75 Y105.447 E41.3444
G1 X97.367 Y104.791 E41.37472
G1 X96.996 Y104.279 E41.39995
G1 X96.582 Y103.799 E41.42525
G1 X96.044 Y103.285 E41.45495
G1 X95.557 Y102.9 E41.47973
G1 X95.041 Y102.563 E41.50432
G1 X94.493 Y102.272 E41.52909
G1 X93.804 Y101.985 E41.55888
G1 X93.074 Y101.766 E41.5893
G1 X92.309 Y101.614 E41.62043
G1 X91.631 Y101.535 E41.64767
G1 X91.551 Y101.534 E41.65086
G1 X90.808 Y101.504 E41.68054
G1 X89.913 Y101.542 E41.7163
G1 X89.023 Y101.661 E41.75213
G1 X88.035 Y101.887 E41.79258
G1 X87.058 Y102.213 E41.83369
G1 X86.197 Y102.586 E41.87114
G1 X85.345 Y103.036 E41.9096
G1 X84.131 Y103.818 E41.96724
G1 X81.794 Y105.679 E42.08647
G1 X78.974 Y108.348 E42.24144
G1 X74.339 Y113.033 E42.50448
G1 X73.868 Y113.51 E42.53123
G1 X73.654 Y113.713 E42.543
G1 X73.654 Y113.51 E42.54442
G1 X73.662 Y101.939 E43.00624
G1 X73.662 Y101.74 E43.01418
G1 X73.463 Y101.74 E43.01932
G1 X69.629 Y101.738 E43.17235
G1 X69.617 Y119.278 E43.8724
G1 X69.617 Y119.477 E43.88035
G1 X69.816 Y119.477 E43.88549
G1 X73.26 Y119.479 E44.02294
G1 X81.447 Y111.324 E44.48415
G1 X84.548 Y108.454 E44.65279
G1 X85.558 Y107.653 E44.70424
G0 F9000 X85.796 Y107.975
G1 F1800 X86.674 Y107.361 E44.747
G1 X87.358 Y106.967 E44.77851
G1 X87.932 Y106.704 E44.80371
G1 X88.537 Y106.491 E44.82931
G1 X89.16 Y106.336 E44.85493
G1 X89.774 Y106.242 E44.87972
G1 X90.48 Y106.206 E44.90794
G1 X91.14 Y106.238 E44.93431
G1 X91.641 Y106.312 E44.95452
G1 X92.027 Y106.411 E44.97043
G1 X92.64 Y106.656 E44.99678
G1 X93.023 Y106.894 E45.01477
G1 X93.449 Y107.261 E45.03721
G1 X93.801 Y107.704 E45.0598
G1 X94.109 Y108.294 E45.08636
G1 X94.344 Y109.077 E45.11899
G1 X94.419 Y109.544 E45.13787
G1 X94.461 Y110.048 E45.15805
G1 X94.465 Y110.569 E45.17885
G1 X94.432 Y111.202 E45.20415
G1 X94.311 Y111.975 E45.23537
G1 X94.111 Y112.734 E45.2667
G1 X93.8 Y113.552 E45.30163
G1 X93.456 Y114.262 E45.33312
G1 X92.918 Y115.149 E45.37452
G1 X92.367 Y115.901 E45.41173
G1 X91.151 Y117.311 E45.48605
G1 X91.686 Y118.477 E45.53725
G1 X96.138 Y118.479 E45.71494
G1 X97.117 Y117.098 E45.7825
G1 X97.72 Y116.054 E45.83062
G1 X98.217 Y114.964 E45.87843
G1 X98.608 Y113.829 E45.92635
G1 X98.884 Y112.668 E45.97398
G1 X98.889 Y112.65 E45.97472
G1 X99.066 Y111.43 E46.02392
G1 X99.134 Y110.002 E46.08098
G1 X99.081 Y108.771 E46.13016
G1 X98.941 Y107.749 E46.17133
G1 X98.713 Y106.786 E46.21083
G1 X98.442 Y106.001 E46.24398
G1 X98.106 Y105.263 E46.27634
G1 X97.702 Y104.572 E46.30829
G1 X97.31 Y104.031 E46.33495
G1 X96.872 Y103.523 E46.36172
G1 X96.307 Y102.983 E46.39292
G1 X95.791 Y102.575 E46.41917
G1 X95.245 Y102.218 E46.44521
G1 X94.664 Y101.91 E46.47145
G1 X93.939 Y101.608 E46.5028
G1 X93.171 Y101.377 E46.53481
G1 X92.387 Y101.223 E46.5667
G1 X92.371 Y101.219 E46.56736
G1 X92.356 Y101.218 E46.56796
G1 X91.657 Y101.135 E46.59605
G1 X91.567 Y101.134 E46.59964
G1 X90.808 Y101.104 E46.62996
G1 X89.878 Y101.143 E46.66711
G1 X88.952 Y101.267 E46.7044
G1 X87.927 Y101.501 E46.74636
G1 X86.915 Y101.839 E46.78895
G1 X86.024 Y102.225 E46.8277
G1 X85.143 Y102.69 E46.86746
G1 X83.898 Y103.493 E46.92659
G1 X81.531 Y105.377 E47.04734
G1 X78.694 Y108.062 E47.20324
G1 X74.055 Y112.753 E47.46655
G1 X74.055 Y112.752 E47.46659
G1 X74.062 Y101.539 E47.91413
G1 X74.062 Y101.34 E47.92207
G1 X73.863 Y101.34 E47.92721
G1 X69.229 Y101.338 E48.11216
G1 X69.217 Y119.678 E48.84415
G1 X69.217 Y119.877 E48.8521
G1 X69.416 Y119.877 E48.85723
G1 X73.425 Y119.879 E49.01724
G1 X81.719 Y111.618 E49.48446
G1 X84.814 Y108.753 E49.65279
G1 X85.796 Y107.975 E49.70279
G1 F2400 E46.70279
G1 F300 Z0.44
G0 F9000 X106.4 Y131.898 Z0.44
G1 F300 Z0.24
G1 F2400 E49.70279
G1 F1800 X112.4 Y131.898 E49.94227
G1 X112.4 Y132.956 E49.98449
G1 X107.072 Y132.956 E50.19715
G1 X57.6 Y121.419 E52.22466
G1 X57.6 Y98.581 E53.13617
G1 X107.072 Y87.044 E55.16369
G1 X112.4 Y87.044 E55.37634
G1 X112.4 Y88.101 E55.41853
G1 X106.4 Y88.102 E55.658
G1 X106.4 Y101.063 E56.1753
G1 X112.4 Y101.063 E56.41478
G1 X112.4 Y103.516 E56.51268
G1 X107.054 Y103.517 E56.72605
G1 X106.4 Y103.575 E56.75226
G1 X106.4 Y116.484 E57.26748
G1 X112.4 Y116.484 E57.50696
G1 X112.4 Y118.937 E57.60486
G1 X106.4 Y118.937 E57.84433
G1 X106.4 Y131.898 E58.36163
G0 F9000 X106 Y132.044
