;FLAVOR:Marlin
;TIME:554
;Filament used: 0.212554m
;Layer height: 0.2
;MINX:71.928
;MINY:68.557
;MINZ:0.2
;MAXX:157.787
;MAXY:180.744
;MAXZ:3.8
;Generated with Cura_SteamEngine 4.4.1
M140 S60
M105
M190 S60
M104 S200
M105
M109 S200
M82 ;absolute extrusion mode
M201 X500.00 Y500.00 Z100.00 E5000.00 ;Setup machine max acceleration
M203 X500.00 Y500.00 Z10.00 E50.00 ;Setup machine max feedrate
M204 P500.00 R1000.00 T500.00 ;Setup Print/Retract/Travel acceleration
M205 X8.00 Y8.00 Z0.40 E5.00 ;Setup Jerk
M220 S100 ;Reset Feedrate
M221 S100 ;Reset Flowrate

G28 ;Home

G92 E0 ;Reset Extruder
G1 Z2.0 F3000 ;Move Z Axis up
G1 X10.1 Y20 Z0.28 F5000.0 ;Move to start position
G1 X10.1 Y200.0 Z0.28 F1500.0 E15 ;Draw the first line
G1 X10.4 Y200.0 Z0.28 F5000.0 ;Move to side a little
G1 X10.4 Y20 Z0.28 F1500.0 E30 ;Draw the second line
G92 E0 ;Reset Extruder
G1 Z2.0 F3000 ;Move Z Axis up

G92 E0
G92 E0
G1 F1500 E-6.5
;LAYER_COUNT:20
;LAYER:0
M107
G0 F6000 X97.127 Y72.22 Z0.2
;TYPE:SKIRT
G1 F1500 E0
G1 F1200 X97.63 Y71.611 E0.02627
G1 X98.192 Y71.056 E0.05254
G1 X98.807 Y70.561 E0.0788
G1 X99.469 Y70.131 E0.10505
G1 X100.171 Y69.769 E0.13132
G1 X100.907 Y69.481 E0.15761
G1 X101.667 Y69.268 E0.18386
G1 X102.712 Y69.106 E0.21904
G1 X103.024 Y69.079 E0.22945
G1 X103.286 Y69.061 E0.23819
G1 X103.514 Y69.049 E0.24578
G1 X104.304 Y69.047 E0.27206
G1 X104.379 Y69.055 E0.27456
G1 X104.51 Y69.026 E0.27903
G1 X104.844 Y68.92 E0.29068
G1 X105.609 Y68.72 E0.31698
G1 X106.389 Y68.599 E0.34323
G1 X107.196 Y68.557 E0.37011
G1 X109.664 Y68.557 E0.4522
G1 X111.323 Y68.572 E0.50738
G1 X112.111 Y68.619 E0.53363
G1 X112.89 Y68.746 E0.55989
G1 X113.653 Y68.951 E0.58616
G1 X114.023 Y69.092 E0.59933
G1 X114.375 Y69.193 E0.61151
G1 X115.048 Y69.42 E0.63514
G1 X115.57 Y69.623 E0.65376
G1 X116.291 Y69.946 E0.68004
G1 X116.975 Y70.341 E0.70631
G1 X117.616 Y70.802 E0.73257
G1 X118.207 Y71.326 E0.75884
G1 X118.741 Y71.907 E0.78509
G1 X119.195 Y72.51 E0.81019
G1 X119.267 Y72.616 E0.81446
G1 X119.677 Y73.291 E0.84072
G1 X120.017 Y74.004 E0.867
G1 X120.283 Y74.748 E0.89328
G1 X120.472 Y75.514 E0.91952
G1 X120.583 Y76.296 E0.94579
G1 X120.611 Y77.249 E0.9775
G1 X120.606 Y77.405 E0.98269
G1 X120.541 Y78.192 E1.00895
G1 X120.396 Y78.968 E1.03521
G1 X120.174 Y79.726 E1.06148
G1 X119.876 Y80.457 E1.08774
G1 X119.506 Y81.155 E1.11401
G1 X119.188 Y81.645 E1.13344
G1 X119.119 Y81.743 E1.13743
G1 X118.632 Y82.365 E1.1637
G1 X118.085 Y82.935 E1.18998
G1 X117.483 Y83.446 E1.21624
G1 X116.833 Y83.894 E1.2425
G1 X116.14 Y84.273 E1.26877
G1 X115.583 Y84.517 E1.28899
G1 X115.22 Y84.659 E1.30196
G1 X114.436 Y84.919 E1.32943
G1 X114.198 Y84.984 E1.33764
G1 X113.937 Y85.064 E1.34672
G1 X113.504 Y85.217 E1.36199
G1 X112.737 Y85.404 E1.38825
G1 X111.955 Y85.513 E1.41451
G1 X111.281 Y85.543 E1.43695
G1 X107.196 Y85.547 E1.57282
G1 X106.407 Y85.508 E1.59909
G1 X105.626 Y85.389 E1.62537
G1 X104.969 Y85.21 E1.64802
G1 X104.41 Y85.081 E1.6671
G1 X103.807 Y85.108 E1.68717
G1 X102.942 Y85.054 E1.716
G1 X102.453 Y84.996 E1.73238
G1 X101.675 Y84.863 E1.75863
G1 X100.914 Y84.652 E1.78489
G1 X100.178 Y84.366 E1.81116
G1 X99.475 Y84.007 E1.83741
G1 X98.812 Y83.578 E1.86368
G1 X98.195 Y83.084 E1.88996
G1 X97.632 Y82.531 E1.91621
G1 X97.127 Y81.924 E1.94247
G1 X96.687 Y81.268 E1.96875
G1 X96.315 Y80.572 E1.995
G1 X96.015 Y79.841 E2.02128
G1 X95.791 Y79.084 E2.04753
G1 X95.644 Y78.308 E2.0738
G1 X95.577 Y77.521 E2.10007
G1 X95.576 Y76.999 E2.11743
G1 X95.588 Y76.626 E2.12985
G1 X95.653 Y75.839 E2.15611
G1 X95.798 Y75.063 E2.18237
G1 X96.02 Y74.305 E2.20864
G1 X96.318 Y73.574 E2.23489
G1 X96.688 Y72.876 E2.26117
G1 X97.127 Y72.22 E2.28742
G0 F6000 X97.52 Y72.363
G1 F1200 X98.021 Y71.779 E2.31302
G1 X98.579 Y71.249 E2.33861
G1 X99.189 Y70.781 E2.36418
G1 X99.844 Y70.379 E2.38975
G1 X100.538 Y70.046 E2.41535
G1 X101.262 Y69.788 E2.44091
G1 X102.01 Y69.606 E2.46652
G1 X102.746 Y69.505 E2.49122
G1 X103.058 Y69.478 E2.50164
G1 X103.307 Y69.46 E2.50994
G1 X103.535 Y69.448 E2.51754
G1 X104.304 Y69.448 E2.54311
G1 X104.403 Y69.458 E2.54642
G1 X104.618 Y69.411 E2.55374
G1 X104.965 Y69.301 E2.56585
G1 X105.71 Y69.108 E2.59145
G1 X106.47 Y68.993 E2.61701
G1 X107.196 Y68.957 E2.64119
G1 X109.66 Y68.957 E2.72314
G1 X111.319 Y68.972 E2.77832
G1 X112.087 Y69.019 E2.80392
G1 X112.845 Y69.146 E2.82948
G1 X113.587 Y69.35 E2.85507
G1 X113.91 Y69.476 E2.8666
G1 X114.264 Y69.578 E2.87886
G1 X114.903 Y69.793 E2.90128
G1 X115.425 Y69.996 E2.91991
G1 X116.127 Y70.312 E2.94551
G1 X116.791 Y70.699 E2.97108
G1 X117.412 Y71.152 E2.99664
G1 X117.983 Y71.668 E3.02224
G1 X118.497 Y72.24 E3.04782
G1 X118.864 Y72.735 E3.06831
G1 X118.936 Y72.841 E3.07257
G1 X119.335 Y73.499 E3.09817
G1 X119.663 Y74.195 E3.12376
G1 X119.917 Y74.921 E3.14934
G1 X120.094 Y75.669 E3.17491
G1 X120.193 Y76.432 E3.2005
G1 X120.211 Y77.236 E3.22725
G1 X120.206 Y77.392 E3.23244
G1 X120.142 Y78.158 E3.258
G1 X119.998 Y78.914 E3.2836
G1 X119.776 Y79.651 E3.3092
G1 X119.48 Y80.36 E3.33475
G1 X119.111 Y81.035 E3.36034
G1 X118.861 Y81.415 E3.37547
G1 X118.792 Y81.513 E3.37946
G1 X118.317 Y82.118 E3.40504
G1 X117.782 Y82.671 E3.43063
G1 X117.192 Y83.165 E3.45622
G1 X116.554 Y83.595 E3.48181
G1 X115.876 Y83.956 E3.50736
G1 X115.437 Y84.144 E3.52325
G1 X115.074 Y84.286 E3.53621
G1 X114.33 Y84.533 E3.56228
G1 X114.081 Y84.601 E3.57087
G1 X113.83 Y84.677 E3.57959
G1 X113.352 Y84.845 E3.59644
G1 X112.603 Y85.022 E3.62204
G1 X111.84 Y85.121 E3.64763
G1 X111.28 Y85.143 E3.66627
G1 X107.195 Y85.147 E3.80214
G1 X106.427 Y85.108 E3.82772
G1 X105.667 Y84.989 E3.8533
G1 X105.018 Y84.811 E3.87568
G1 X104.45 Y84.68 E3.89507
G1 X103.79 Y84.708 E3.91704
G1 X102.989 Y84.656 E3.94374
G1 X102.5 Y84.598 E3.96012
G1 X101.742 Y84.468 E3.9857
G1 X101.002 Y84.26 E4.01126
G1 X100.287 Y83.976 E4.03685
G1 X99.606 Y83.62 E4.06241
G1 X98.965 Y83.194 E4.08801
G1 X98.371 Y82.705 E4.1136
G1 X97.832 Y82.156 E4.13919
G1 X97.353 Y81.555 E4.16475
G1 X96.939 Y80.907 E4.19033
G1 X96.594 Y80.219 E4.21592
G1 X96.322 Y79.5 E4.24149
G1 X96.127 Y78.756 E4.26707
G1 X96.01 Y77.995 E4.29268
G1 X95.976 Y77.012 E4.3254
G1 X95.988 Y76.639 E4.33781
G1 X96.052 Y75.873 E4.36338
G1 X96.196 Y75.117 E4.38897
G1 X96.418 Y74.38 E4.41457
G1 X96.715 Y73.671 E4.44014
G1 X97.083 Y72.996 E4.46571
G1 X97.52 Y72.363 E4.49129
G0 F6000 X97.913 Y72.51
G1 F1200 X98.41 Y71.951 E4.51617
G1 X98.965 Y71.449 E4.54106
G1 X99.569 Y71.008 E4.56594
G1 X100.217 Y70.634 E4.59082
G1 X100.901 Y70.332 E4.61569
G1 X101.614 Y70.104 E4.64059
G1 X102.347 Y69.954 E4.66547
G1 X102.78 Y69.903 E4.67997
G1 X103.092 Y69.876 E4.69039
G1 X103.328 Y69.86 E4.69826
G1 X103.556 Y69.848 E4.70585
G1 X104.304 Y69.848 E4.73073
G1 X104.432 Y69.862 E4.73501
G1 X104.723 Y69.798 E4.74492
G1 X105.086 Y69.683 E4.75759
G1 X105.81 Y69.496 E4.78246
G1 X106.55 Y69.387 E4.80733
G1 X107.196 Y69.357 E4.82884
G1 X109.656 Y69.357 E4.91066
G1 X111.315 Y69.372 E4.96584
G1 X112.062 Y69.419 E4.99074
G1 X112.799 Y69.545 E5.01561
G1 X113.519 Y69.749 E5.0405
G1 X113.782 Y69.855 E5.04993
G1 X114.154 Y69.962 E5.0628
G1 X114.758 Y70.166 E5.08401
G1 X115.28 Y70.369 E5.10264
G1 X115.962 Y70.677 E5.12752
G1 X116.607 Y71.056 E5.15241
G1 X117.208 Y71.502 E5.1773
G1 X117.757 Y72.009 E5.20215
G1 X118.25 Y72.572 E5.22704
G1 X118.534 Y72.96 E5.24304
G1 X118.606 Y73.066 E5.2473
G1 X118.992 Y73.706 E5.27216
G1 X119.308 Y74.384 E5.29704
G1 X119.55 Y75.092 E5.32192
G1 X119.715 Y75.822 E5.34681
G1 X119.802 Y76.565 E5.3717
G1 X119.811 Y77.223 E5.39358
G1 X119.806 Y77.379 E5.39877
G1 X119.743 Y78.125 E5.42367
G1 X119.599 Y78.859 E5.44855
G1 X119.379 Y79.574 E5.47343
G1 X119.083 Y80.261 E5.49831
G1 X118.534 Y81.185 E5.53406
G1 X118.465 Y81.283 E5.53805
G1 X118.002 Y81.871 E5.56294
G1 X117.479 Y82.406 E5.58782
G1 X116.902 Y82.882 E5.6127
G1 X116.278 Y83.294 E5.63757
G1 X115.291 Y83.772 E5.67405
G1 X114.928 Y83.914 E5.68701
G1 X114.225 Y84.147 E5.71165
G1 X113.964 Y84.218 E5.72064
G1 X113.741 Y84.286 E5.7284
G1 X113.2 Y84.473 E5.74743
G1 X112.471 Y84.64 E5.77231
G1 X111.728 Y84.728 E5.79719
G1 X111.28 Y84.743 E5.8121
G1 X107.195 Y84.747 E5.94797
G1 X106.448 Y84.708 E5.97285
G1 X105.709 Y84.589 E5.99775
G1 X105.088 Y84.416 E6.01919
G1 X104.491 Y84.278 E6.03957
G1 X103.773 Y84.307 E6.06347
G1 X103.037 Y84.259 E6.088
G1 X102.548 Y84.201 E6.10438
G1 X101.81 Y84.074 E6.12928
G1 X101.091 Y83.868 E6.15416
G1 X100.398 Y83.587 E6.17903
G1 X99.739 Y83.233 E6.20391
G1 X99.121 Y82.811 E6.2288
G1 X98.552 Y82.326 E6.25367
G1 X98.038 Y81.783 E6.27854
G1 X97.584 Y81.187 E6.30346
G1 X97.197 Y80.547 E6.32833
G1 X96.881 Y79.87 E6.35318
G1 X96.638 Y79.162 E6.37808
G1 X96.473 Y78.432 E6.40297
G1 X96.386 Y77.689 E6.42785
G1 X96.376 Y77.025 E6.44994
G1 X96.388 Y76.652 E6.46235
G1 X96.452 Y75.907 E6.48722
G1 X96.595 Y75.172 E6.51213
G1 X96.815 Y74.458 E6.53698
G1 X97.111 Y73.77 E6.56189
G1 X97.478 Y73.119 E6.58674
G1 X97.913 Y72.51 E6.61163
G0 F6000 X98.306 Y72.662
G1 F1200 X98.8 Y72.129 E6.63581
G1 X99.349 Y71.654 E6.65995
G1 X99.948 Y71.242 E6.68413
G1 X100.588 Y70.899 E6.70828
G1 X101.261 Y70.628 E6.73241
G1 X101.961 Y70.432 E6.75659
G1 X102.815 Y70.302 E6.78532
G1 X103.127 Y70.275 E6.79574
G1 X103.349 Y70.259 E6.80314
G1 X103.577 Y70.247 E6.81073
G1 X104.303 Y70.249 E6.83488
G1 X104.454 Y70.266 E6.83994
G1 X104.828 Y70.184 E6.85267
G1 X105.206 Y70.064 E6.86586
G1 X105.91 Y69.884 E6.89003
G1 X106.629 Y69.781 E6.91419
G1 X107.196 Y69.757 E6.93306
G1 X109.653 Y69.757 E7.01478
G1 X111.312 Y69.772 E7.06996
G1 X112.037 Y69.819 E7.09413
G1 X112.752 Y69.945 E7.11828
G1 X113.449 Y70.148 E7.14242
G1 X113.667 Y70.239 E7.15028
G1 X114.043 Y70.347 E7.16329
G1 X114.613 Y70.539 E7.18329
G1 X115.135 Y70.742 E7.20192
G1 X115.797 Y71.042 E7.2261
G1 X116.421 Y71.413 E7.25024
G1 X117.001 Y71.85 E7.2744
G1 X117.529 Y72.349 E7.29856
G1 X118.203 Y73.185 E7.33428
G1 X118.275 Y73.291 E7.33854
G1 X118.649 Y73.913 E7.36268
G1 X118.953 Y74.573 E7.38685
G1 X119.182 Y75.262 E7.41099
G1 X119.335 Y75.972 E7.43515
G1 X119.408 Y76.695 E7.45932
G1 X119.412 Y77.21 E7.47645
G1 X119.407 Y77.366 E7.48164
G1 X119.343 Y78.09 E7.50582
G1 X119.201 Y78.802 E7.52996
G1 X118.981 Y79.495 E7.55415
G1 X118.687 Y80.159 E7.5783
G1 X118.207 Y80.955 E7.60921
G1 X118.138 Y81.053 E7.6132
G1 X117.687 Y81.623 E7.63738
G1 X117.177 Y82.14 E7.66153
G1 X116.613 Y82.598 E7.68569
G1 X116.003 Y82.991 E7.70983
G1 X115.145 Y83.399 E7.74143
G1 X114.782 Y83.541 E7.75439
G1 X114.119 Y83.761 E7.77763
G1 X113.88 Y83.827 E7.78587
G1 X113.628 Y83.903 E7.79463
G1 X113.049 Y84.1 E7.81497
G1 X112.34 Y84.256 E7.83912
G1 X111.279 Y84.343 E7.87452
G1 X107.194 Y84.347 E8.01039
G1 X106.469 Y84.308 E8.03454
G1 X105.753 Y84.189 E8.05868
G1 X105.173 Y84.026 E8.07872
G1 X104.521 Y83.875 E8.10098
G1 X104.483 Y83.879 E8.10225
G1 X103.757 Y83.907 E8.12641
G1 X103.084 Y83.862 E8.14885
G1 X102.595 Y83.804 E8.16523
G1 X101.879 Y83.679 E8.1894
G1 X101.182 Y83.476 E8.21355
G1 X100.511 Y83.198 E8.2377
G1 X99.875 Y82.847 E8.26186
G1 X99.281 Y82.429 E8.28602
G1 X98.736 Y81.948 E8.3102
G1 X98.248 Y81.41 E8.33436
G1 X97.822 Y80.822 E8.35851
G1 X97.463 Y80.19 E8.38268
G1 X97.176 Y79.523 E8.40683
G1 X96.964 Y78.829 E8.43097
G1 X96.829 Y78.115 E8.45514
G1 X96.775 Y77.038 E8.491
G1 X96.787 Y76.665 E8.50342
G1 X96.851 Y75.941 E8.52759
G1 X96.993 Y75.229 E8.55174
G1 X97.213 Y74.537 E8.57589
G1 X97.507 Y73.873 E8.60004
G1 X97.873 Y73.245 E8.62422
G1 X98.306 Y72.662 E8.64837
G0 F6000 X98.268 Y73.375
G1 F1200 X98.698 Y72.818 E8.67178
G1 X99.188 Y72.313 E8.69518
G1 X99.732 Y71.866 E8.7186
G1 X100.324 Y71.485 E8.74201
G1 X100.955 Y71.173 E8.76542
G1 X101.617 Y70.934 E8.78883
G1 X102.302 Y70.772 E8.81225
G1 X102.849 Y70.7 E8.8306
G1 X103.161 Y70.673 E8.84101
G1 X103.37 Y70.659 E8.84798
G1 X103.598 Y70.647 E8.85557
G1 X104.302 Y70.65 E8.87899
G1 X104.479 Y70.671 E8.88492
G1 X104.925 Y70.572 E8.90011
G1 X105.327 Y70.445 E8.91413
G1 X106.009 Y70.272 E8.93754
G1 X106.707 Y70.176 E8.96097
G1 X107.196 Y70.157 E8.97725
G1 X109.649 Y70.157 E9.05883
G1 X111.308 Y70.172 E9.11401
G1 X112.011 Y70.219 E9.13745
G1 X112.703 Y70.344 E9.16084
G1 X113.377 Y70.548 E9.18426
G1 X113.54 Y70.618 E9.19016
G1 X113.933 Y70.731 E9.20376
G1 X114.468 Y70.912 E9.22254
G1 X114.99 Y71.115 E9.24117
G1 X115.631 Y71.407 E9.2646
G1 X116.234 Y71.769 E9.28799
G1 X116.792 Y72.198 E9.3114
G1 X117.299 Y72.687 E9.33483
G1 X117.872 Y73.409 E9.36549
G1 X117.944 Y73.515 E9.36975
G1 X118.306 Y74.119 E9.39317
G1 X118.597 Y74.76 E9.41658
G1 X118.813 Y75.43 E9.44
G1 X118.952 Y76.12 E9.46341
G1 X119.012 Y76.822 E9.48684
G1 X119.012 Y77.198 E9.49935
G1 X119.007 Y77.354 E9.50454
G1 X118.944 Y78.055 E9.52795
G1 X118.803 Y78.744 E9.55134
G1 X118.584 Y79.414 E9.57478
G1 X118.291 Y80.054 E9.5982
G1 X117.879 Y80.724 E9.62436
G1 X117.81 Y80.822 E9.62834
G1 X117.373 Y81.374 E9.65176
G1 X116.876 Y81.873 E9.67518
G1 X116.326 Y82.312 E9.69859
G1 X115.729 Y82.685 E9.722
G1 X115 Y83.027 E9.74878
G1 X114.637 Y83.169 E9.76175
G1 X114.014 Y83.375 E9.78357
G1 X113.763 Y83.444 E9.79223
G1 X113.556 Y83.507 E9.79943
G1 X112.9 Y83.726 E9.82243
G1 X112.211 Y83.872 E9.84586
G1 X111.279 Y83.943 E9.87694
G1 X107.194 Y83.947 E10.01281
G1 X106.491 Y83.908 E10.03623
G1 X105.797 Y83.789 E10.05965
G1 X105.256 Y83.634 E10.07837
G1 X104.583 Y83.479 E10.10134
G1 X104.514 Y83.473 E10.10364
G1 X104.445 Y83.48 E10.10595
G1 X103.741 Y83.507 E10.12938
G1 X103.131 Y83.465 E10.14972
G1 X102.642 Y83.407 E10.16609
G1 X101.948 Y83.284 E10.18954
G1 X101.274 Y83.084 E10.21292
G1 X100.626 Y82.809 E10.23633
G1 X100.013 Y82.461 E10.25978
G1 X99.444 Y82.047 E10.28318
G1 X98.926 Y81.571 E10.30658
G1 X98.465 Y81.039 E10.32999
G1 X98.067 Y80.458 E10.35342
G1 X97.737 Y79.836 E10.37684
G1 X97.48 Y79.181 E10.40024
G1 X97.299 Y78.5 E10.42368
G1 X97.197 Y77.804 E10.44707
G1 X97.175 Y77.051 E10.47213
G1 X97.187 Y76.678 E10.48454
G1 X97.25 Y75.976 E10.50798
G1 X97.391 Y75.287 E10.53137
G1 X97.61 Y74.618 E10.55479
G1 X97.904 Y73.978 E10.57821
G1 X98.268 Y73.375 E10.60164
G0 F6000 X98.662 Y73.51
G1 F1200 X99.089 Y72.979 E10.6243
G1 X99.575 Y72.503 E10.64693
G1 X100.114 Y72.087 E10.66957
G1 X100.698 Y71.736 E10.69223
G1 X101.319 Y71.457 E10.71488
G1 X101.968 Y71.252 E10.73752
G1 X102.884 Y71.099 E10.7684
G1 X103.196 Y71.072 E10.77882
G1 X103.391 Y71.058 E10.78532
G1 X103.619 Y71.046 E10.79292
G1 X104.3 Y71.05 E10.81557
G1 X104.503 Y71.075 E10.82237
G1 X105.029 Y70.959 E10.84028
G1 X105.447 Y70.827 E10.85486
G1 X106.108 Y70.66 E10.87754
G1 X106.783 Y70.572 E10.90018
G1 X107.196 Y70.557 E10.91393
G1 X109.645 Y70.557 E10.99538
G1 X111.304 Y70.572 E11.05056
G1 X111.984 Y70.618 E11.07323
G1 X112.653 Y70.744 E11.09587
G1 X113.303 Y70.947 E11.11852
G1 X113.421 Y70.999 E11.12281
G1 X113.823 Y71.115 E11.13673
G1 X114.323 Y71.284 E11.15428
G1 X114.845 Y71.487 E11.17291
G1 X115.464 Y71.771 E11.19556
G1 X116.046 Y72.125 E11.21822
G1 X116.582 Y72.545 E11.24087
G1 X117.065 Y73.025 E11.26351
G1 X117.541 Y73.634 E11.28922
G1 X117.613 Y73.74 E11.29348
G1 X117.962 Y74.325 E11.31614
G1 X118.24 Y74.946 E11.33877
G1 X118.443 Y75.596 E11.36142
G1 X118.568 Y76.265 E11.38406
G1 X118.612 Y77.185 E11.41469
G1 X118.607 Y77.341 E11.41988
G1 X118.545 Y78.019 E11.44253
G1 X118.405 Y78.685 E11.46516
G1 X118.187 Y79.33 E11.48781
G1 X117.895 Y79.945 E11.51045
G1 X117.552 Y80.494 E11.53198
G1 X117.483 Y80.592 E11.53597
G1 X117.059 Y81.125 E11.55862
G1 X116.576 Y81.604 E11.58124
G1 X116.04 Y82.024 E11.60389
G1 X115.458 Y82.377 E11.62653
G1 X114.854 Y82.654 E11.64863
G1 X114.491 Y82.796 E11.6616
G1 X113.908 Y82.989 E11.68202
G1 X113.678 Y83.052 E11.68995
G1 X113.412 Y83.133 E11.6992
G1 X113.399 Y83.139 E11.69968
G1 X112.752 Y83.351 E11.72232
G1 X112.084 Y83.486 E11.74499
G1 X111.279 Y83.543 E11.77183
G1 X107.194 Y83.547 E11.9077
G1 X106.514 Y83.508 E11.93035
G1 X105.843 Y83.389 E11.95302
G1 X105.334 Y83.242 E11.97064
G1 X104.644 Y83.082 E11.9942
G1 X104.514 Y83.072 E11.99854
G1 X104.407 Y83.082 E12.00211
G1 X103.727 Y83.106 E12.02474
G1 X103.178 Y83.068 E12.04305
G1 X102.689 Y83.01 E12.05942
G1 X102.019 Y82.89 E12.08206
G1 X101.367 Y82.692 E12.10473
G1 X100.743 Y82.42 E12.12737
G1 X100.155 Y82.076 E12.15002
G1 X99.612 Y81.666 E12.17265
