;FLAVOR:Marlin
;TIME:9276
;Filament used: 4.15427m
;Layer height: 0.16
;MINX:81.432
;MINY:82.84
;MINZ:0.2
;MAXX:138.568
;MAXY:137.16
;MAXZ:33.8
;Generated with Cura_SteamEngine 4.4.1
M140 S80
M105
M190 S80
M104 S240
M105
M109 S240
M82 ;absolute extrusion mode
M201 X500.00 Y500.00 Z100.00 E5000.00 ;Setup machine max acceleration
M203 X500.00 Y500.00 Z10.00 E50.00 ;Setup machine max feedrate
M204 P500.00 R1000.00 T500.00 ;Setup Print/Retract/Travel acceleration
M205 X8.00 Y8.00 Z0.40 E5.00 ;Setup Jerk
M220 S100 ;Reset Feedrate
M221 S100 ;Reset Flowrate

G28 ;Home

G92 E0 ;Reset Extruder
G1 Z2.0 F3000 ;Move Z Axis up
G1 X10.1 Y20 Z0.28 F5000.0 ;Move to start position
G1 X10.1 Y200.0 Z0.28 F1500.0 E15 ;Draw the first line
G1 X10.4 Y200.0 Z0.28 F5000.0 ;Move to side a little
G1 X10.4 Y20 Z0.28 F1500.0 E30 ;Draw the second line
G92 E0 ;Reset Extruder
G1 Z2.0 F3000 ;Move Z Axis up

G92 E0
G92 E0
G1 F1800 E-3
;LAYER_COUNT:260
;LAYER:0
M107
G0 F6000 X83.842 Y85.126 Z0.2
;TYPE:SKIRT
G1 F1800 E0
G1 F1200 X84.428 Y84.596 E0.02628
G1 X85.064 Y84.129 E0.05252
G1 X85.744 Y83.728 E0.07878
G1 X86.462 Y83.398 E0.10506
G1 X87.209 Y83.143 E0.13132
G1 X87.978 Y82.964 E0.15758
G1 X88.762 Y82.864 E0.18386
G1 X89.356 Y82.841 E0.20363
G1 X97.6 Y82.84 E0.47783
G1 X98.389 Y82.88 E0.50411
G1 X99.169 Y82.999 E0.53035
G1 X99.934 Y83.197 E0.55663
G1 X100.674 Y83.471 E0.58288
G1 X101.384 Y83.819 E0.60918
G1 X102.054 Y84.236 E0.63542
G1 X102.679 Y84.719 E0.6617
G1 X103.116 Y85.125 E0.68154
G1 X103.233 Y85.242 E0.68704
G1 X103.763 Y85.828 E0.71332
G1 X103.788 Y85.862 E0.71472
G1 X116.227 Y85.862 E1.12845
G1 X116.362 Y85.688 E1.13577
G1 X116.767 Y85.251 E1.15559
G1 X116.892 Y85.126 E1.16147
G1 X117.478 Y84.596 E1.18775
G1 X118.114 Y84.129 E1.21399
G1 X118.794 Y83.728 E1.24025
G1 X119.512 Y83.398 E1.26653
G1 X120.259 Y83.143 E1.29278
G1 X121.028 Y82.964 E1.31904
G1 X121.812 Y82.864 E1.34533
G1 X122.406 Y82.841 E1.3651
G1 X130.65 Y82.84 E1.6393
G1 X131.439 Y82.88 E1.66557
G1 X132.219 Y82.999 E1.69182
G1 X132.984 Y83.197 E1.7181
G1 X133.724 Y83.471 E1.74434
G1 X134.434 Y83.819 E1.77064
G1 X135.104 Y84.236 E1.79689
G1 X135.729 Y84.719 E1.82316
G1 X136.166 Y85.125 E1.843
G1 X136.283 Y85.242 E1.84851
G1 X136.813 Y85.828 E1.87479
G1 X137.28 Y86.464 E1.90103
G1 X137.681 Y87.144 E1.92729
G1 X138.011 Y87.862 E1.95357
G1 X138.266 Y88.609 E1.97982
G1 X138.445 Y89.378 E2.00608
G1 X138.545 Y90.162 E2.03237
G1 X138.568 Y90.757 E2.05217
G1 X138.568 Y92.353 E2.10526
G1 X138.548 Y92.75 E2.11848
G1 X138.568 Y93.27 E2.13579
G1 X138.568 Y126.729 E3.24864
G1 X138.547 Y127.139 E3.26229
G1 X138.558 Y127.243 E3.26577
G1 X138.568 Y127.646 E3.27918
G1 X138.568 Y129.234 E3.33199
G1 X138.528 Y130.023 E3.35827
G1 X138.409 Y130.803 E3.38451
G1 X138.211 Y131.568 E3.4108
G1 X137.937 Y132.308 E3.43704
G1 X137.589 Y133.017 E3.46331
G1 X137.171 Y133.688 E3.4896
G1 X136.688 Y134.312 E3.51585
G1 X136.283 Y134.749 E3.53567
G1 X136.158 Y134.874 E3.54155
G1 X135.572 Y135.404 E3.56783
G1 X134.936 Y135.871 E3.59407
G1 X134.256 Y136.272 E3.62033
G1 X133.538 Y136.602 E3.64661
G1 X132.791 Y136.857 E3.67286
G1 X132.022 Y137.036 E3.69912
G1 X131.238 Y137.136 E3.72541
G1 X130.644 Y137.159 E3.74518
G1 X122.4 Y137.16 E4.01938
G1 X121.611 Y137.12 E4.04565
G1 X120.831 Y137.001 E4.0719
G1 X120.538 Y136.925 E4.08196
G1 X120.196 Y137.005 E4.09365
G1 X119.412 Y137.105 E4.11993
G1 X118.817 Y137.128 E4.13974
G1 X101.183 Y137.128 E4.72625
G1 X100.394 Y137.088 E4.75252
G1 X99.614 Y136.969 E4.77877
G1 X99.453 Y136.927 E4.7843
G1 X98.994 Y137.035 E4.79998
G1 X98.211 Y137.136 E4.82624
G1 X97.609 Y137.159 E4.84628
G1 X89.35 Y137.16 E5.12097
G1 X88.561 Y137.12 E5.14725
G1 X87.781 Y137.001 E5.17349
G1 X87.016 Y136.803 E5.19978
G1 X86.276 Y136.529 E5.22602
G1 X85.566 Y136.181 E5.25232
G1 X84.896 Y135.764 E5.27857
G1 X84.271 Y135.281 E5.30484
G1 X83.834 Y134.875 E5.32468
G1 X83.717 Y134.758 E5.33018
G1 X83.187 Y134.172 E5.35646
G1 X82.72 Y133.536 E5.38271
G1 X82.319 Y132.856 E5.40896
G1 X81.989 Y132.138 E5.43524
G1 X81.734 Y131.391 E5.4615
G1 X81.555 Y130.622 E5.48776
G1 X81.455 Y129.838 E5.51405
G1 X81.432 Y129.243 E5.53385
G1 X81.432 Y127.646 E5.58697
G1 X81.452 Y127.243 E5.60039
G1 X81.432 Y126.729 E5.6175
G1 X81.432 Y93.271 E6.73031
G1 X81.453 Y92.861 E6.74397
G1 X81.442 Y92.756 E6.74748
G1 X81.432 Y92.354 E6.76085
G1 X81.432 Y90.766 E6.81367
G1 X81.472 Y89.977 E6.83995
G1 X81.591 Y89.197 E6.86619
G1 X81.789 Y88.432 E6.89247
G1 X82.063 Y87.692 E6.91872
G1 X82.411 Y86.983 E6.94499
G1 X82.829 Y86.312 E6.97128
G1 X83.312 Y85.688 E6.99753
G1 X83.717 Y85.251 E7.01734
G1 X83.842 Y85.126 E7.02322
G0 F6000 X84.124 Y85.408
G1 F1200 X84.696 Y84.894 E7.0488
G1 X85.318 Y84.441 E7.07439
G1 X85.983 Y84.055 E7.09997
G1 X86.685 Y83.74 E7.12556
G1 X87.416 Y83.5 E7.15115
G1 X88.167 Y83.337 E7.17671
G1 X88.932 Y83.253 E7.2023
G1 X89.356 Y83.241 E7.21641
G1 X97.6 Y83.24 E7.49061
G1 X98.368 Y83.28 E7.51619
G1 X99.128 Y83.399 E7.54177
G1 X99.871 Y83.597 E7.56735
G1 X100.59 Y83.871 E7.59294
G1 X101.277 Y84.217 E7.61852
G1 X101.924 Y84.634 E7.64413
G1 X102.524 Y85.115 E7.6697
G1 X102.834 Y85.407 E7.68387
G1 X102.951 Y85.524 E7.68937
G1 X103.465 Y86.096 E7.71495
G1 X103.586 Y86.262 E7.72178
G1 X116.421 Y86.262 E8.14867
G1 X116.757 Y85.843 E8.16654
G1 X117.049 Y85.533 E8.1807
G1 X117.174 Y85.408 E8.18658
G1 X117.746 Y84.894 E8.21216
G1 X118.368 Y84.441 E8.23775
G1 X119.033 Y84.055 E8.26333
G1 X119.735 Y83.74 E8.28892
G1 X120.466 Y83.5 E8.31451
G1 X121.217 Y83.337 E8.34007
G1 X121.982 Y83.253 E8.36566
G1 X122.406 Y83.241 E8.37977
G1 X130.65 Y83.24 E8.65397
G1 X131.418 Y83.28 E8.67955
G1 X132.178 Y83.399 E8.70513
G1 X132.921 Y83.597 E8.73071
G1 X133.64 Y83.871 E8.7563
G1 X134.327 Y84.217 E8.78188
G1 X134.974 Y84.634 E8.80748
G1 X135.574 Y85.115 E8.83306
G1 X135.884 Y85.407 E8.84723
G1 X136.001 Y85.524 E8.85273
G1 X136.515 Y86.096 E8.87831
G1 X136.968 Y86.718 E8.9039
G1 X137.354 Y87.383 E8.92947
G1 X137.669 Y88.085 E8.95507
G1 X137.909 Y88.816 E8.98066
G1 X138.072 Y89.567 E9.00622
G1 X138.156 Y90.332 E9.03181
G1 X138.168 Y90.757 E9.04595
G1 X138.168 Y92.353 E9.09904
G1 X138.147 Y92.761 E9.11262
G1 X138.156 Y92.845 E9.11543
G1 X138.168 Y93.27 E9.12958
G1 X138.168 Y126.729 E10.24243
G1 X138.143 Y127.211 E10.25848
G1 X138.168 Y127.646 E10.27297
G1 X138.168 Y129.234 E10.32579
G1 X138.128 Y130.002 E10.35137
G1 X138.009 Y130.762 E10.37695
G1 X137.811 Y131.505 E10.40253
G1 X137.537 Y132.224 E10.42812
G1 X137.19 Y132.91 E10.45369
G1 X136.774 Y133.557 E10.47927
G1 X136.293 Y134.157 E10.50485
G1 X136.001 Y134.467 E10.51901
G1 X135.876 Y134.592 E10.52489
G1 X135.304 Y135.106 E10.55047
G1 X134.682 Y135.559 E10.57606
G1 X134.017 Y135.945 E10.60164
G1 X133.315 Y136.26 E10.62723
G1 X132.584 Y136.5 E10.65282
G1 X131.833 Y136.663 E10.67838
G1 X131.068 Y136.747 E10.70398
G1 X130.644 Y136.759 E10.71808
G1 X122.4 Y136.76 E10.99228
G1 X121.632 Y136.72 E11.01786
G1 X120.872 Y136.601 E11.04344
G1 X120.548 Y136.515 E11.05459
G1 X120.007 Y136.632 E11.073
G1 X119.242 Y136.716 E11.0986
G1 X118.817 Y136.728 E11.11274
G1 X101.183 Y136.728 E11.69925
G1 X100.415 Y136.688 E11.72483
G1 X99.655 Y136.569 E11.75041
G1 X99.464 Y136.518 E11.75699
G1 X98.805 Y136.662 E11.77943
G1 X98.04 Y136.746 E11.80502
G1 X97.609 Y136.759 E11.81936
G1 X89.35 Y136.76 E12.09406
G1 X88.582 Y136.72 E12.11964
G1 X87.822 Y136.601 E12.14522
G1 X87.079 Y136.403 E12.1708
G1 X86.36 Y136.129 E12.19639
G1 X85.673 Y135.783 E12.22197
G1 X85.026 Y135.366 E12.24758
G1 X84.426 Y134.885 E12.27315
G1 X84.116 Y134.593 E12.28732
G1 X83.999 Y134.476 E12.29282
G1 X83.485 Y133.904 E12.3184
G1 X83.032 Y133.282 E12.34399
G1 X82.646 Y132.617 E12.36957
G1 X82.331 Y131.915 E12.39516
G1 X82.091 Y131.184 E12.42075
G1 X81.928 Y130.433 E12.44631
G1 X81.844 Y129.668 E12.4719
G1 X81.832 Y129.243 E12.48604
G1 X81.832 Y127.646 E12.53916
G1 X81.853 Y127.238 E12.55275
G1 X81.844 Y127.154 E12.55556
G1 X81.832 Y126.729 E12.5697
G1 X81.832 Y93.271 E13.68252
G1 X81.857 Y92.789 E13.69857
G1 X81.832 Y92.354 E13.71306
G1 X81.832 Y90.766 E13.76588
G1 X81.872 Y89.998 E13.79146
G1 X81.991 Y89.238 E13.81704
G1 X82.189 Y88.495 E13.84262
G1 X82.463 Y87.776 E13.86821
G1 X82.81 Y87.09 E13.89378
G1 X83.226 Y86.443 E13.91936
G1 X83.707 Y85.843 E13.94494
G1 X83.999 Y85.533 E13.9591
G1 X84.124 Y85.408 E13.96498
G0 F6000 X84.407 Y85.691
G1 F1200 X84.964 Y85.191 E13.98988
G1 X85.57 Y84.754 E14.01473
G1 X86.22 Y84.383 E14.03962
G1 X86.906 Y84.084 E14.06451
G1 X87.62 Y83.86 E14.0894
G1 X88.353 Y83.713 E14.11427
G1 X89.356 Y83.641 E14.14771
G1 X97.6 Y83.64 E14.42191
G1 X98.347 Y83.68 E14.44679
G1 X99.086 Y83.799 E14.47168
G1 X99.807 Y83.997 E14.49655
G1 X100.503 Y84.27 E14.52142
G1 X101.167 Y84.616 E14.54632
G1 X101.789 Y85.031 E14.57119
G1 X102.551 Y85.69 E14.6047
G1 X102.668 Y85.807 E14.6102
G1 X103.168 Y86.364 E14.6351
G1 X103.383 Y86.662 E14.64732
G1 X116.617 Y86.662 E15.08748
G1 X116.674 Y86.577 E15.09089
G1 X117.332 Y85.816 E15.12435
G1 X117.457 Y85.691 E15.13023
G1 X118.014 Y85.191 E15.15512
G1 X118.62 Y84.754 E15.17997
G1 X119.27 Y84.383 E15.20487
G1 X119.956 Y84.084 E15.22976
G1 X120.67 Y83.86 E15.25464
G1 X121.403 Y83.713 E15.27951
G1 X122.406 Y83.641 E15.31296
G1 X130.65 Y83.64 E15.58715
G1 X131.397 Y83.68 E15.61203
G1 X132.136 Y83.799 E15.63693
G1 X132.857 Y83.997 E15.6618
G1 X133.553 Y84.27 E15.68666
G1 X134.217 Y84.616 E15.71157
G1 X134.839 Y85.031 E15.73644
G1 X135.601 Y85.69 E15.76994
G1 X135.718 Y85.807 E15.77545
G1 X136.218 Y86.364 E15.80034
G1 X136.655 Y86.97 E15.82519
G1 X137.026 Y87.62 E15.85008
G1 X137.325 Y88.306 E15.87497
G1 X137.549 Y89.02 E15.89986
G1 X137.696 Y89.753 E15.92473
G1 X137.768 Y90.757 E15.95821
G1 X137.768 Y92.353 E16.01129
G1 X137.74 Y92.878 E16.02878
G1 X137.768 Y93.27 E16.04185
G1 X137.768 Y126.729 E17.1547
G1 X137.747 Y127.115 E17.16756
G1 X137.749 Y127.128 E17.16799
G1 X137.768 Y127.646 E17.18523
G1 X137.768 Y129.234 E17.23805
G1 X137.728 Y129.981 E17.26293
G1 X137.609 Y130.719 E17.2878
G1 X137.411 Y131.441 E17.3127
G1 X137.138 Y132.137 E17.33756
G1 X136.791 Y132.8 E17.36245
G1 X136.376 Y133.423 E17.38735
G1 X135.718 Y134.184 E17.42081
G1 X135.593 Y134.309 E17.42669
G1 X135.036 Y134.809 E17.45158
G1 X134.43 Y135.246 E17.47643
G1 X133.78 Y135.617 E17.50133
G1 X133.094 Y135.916 E17.52622
G1 X132.38 Y136.14 E17.5511
G1 X131.647 Y136.287 E17.57597
G1 X130.644 Y136.359 E17.60942
G1 X122.4 Y136.36 E17.88361
G1 X121.653 Y136.32 E17.90849
G1 X120.914 Y136.201 E17.93339
G1 X120.566 Y136.105 E17.9454
G1 X120.554 Y136.109 E17.94582
G1 X119.821 Y136.256 E17.97068
G1 X118.817 Y136.328 E18.00416
G1 X101.183 Y136.328 E18.59067
G1 X100.436 Y136.288 E18.61555
G1 X99.698 Y136.169 E18.64041
G1 X99.46 Y136.104 E18.64862
G1 X99.352 Y136.138 E18.65239
G1 X98.619 Y136.286 E18.67726
G1 X97.609 Y136.359 E18.71094
G1 X89.35 Y136.36 E18.98563
G1 X88.603 Y136.32 E19.01051
G1 X87.864 Y136.201 E19.03541
G1 X87.143 Y136.003 E19.06028
G1 X86.447 Y135.73 E19.08514
G1 X85.783 Y135.384 E19.11005
G1 X85.161 Y134.969 E19.13492
G1 X84.399 Y134.31 E19.16842
G1 X84.282 Y134.193 E19.17393
G1 X83.782 Y133.636 E19.19882
G1 X83.345 Y133.03 E19.22367
G1 X82.974 Y132.38 E19.24857
G1 X82.675 Y131.694 E19.27345
G1 X82.451 Y130.98 E19.29834
G1 X82.304 Y130.247 E19.32321
G1 X82.232 Y129.243 E19.35669
G1 X82.232 Y127.646 E19.4098
G1 X82.26 Y127.121 E19.42729
G1 X82.232 Y126.729 E19.44036
G1 X82.232 Y93.271 E20.55318
G1 X82.253 Y92.884 E20.56607
G1 X82.251 Y92.871 E20.56651
G1 X82.232 Y92.354 E20.58371
G1 X82.232 Y90.766 E20.63653
G1 X82.272 Y90.019 E20.66141
G1 X82.391 Y89.281 E20.68628
G1 X82.589 Y88.559 E20.71118
G1 X82.862 Y87.863 E20.73604
G1 X83.209 Y87.2 E20.76093
G1 X83.624 Y86.577 E20.78583
G1 X84.282 Y85.816 E20.81929
G1 X84.407 Y85.691 E20.82517
G0 F6000 X84.69 Y85.974
G1 F1200 X85.231 Y85.49 E20.84931
G1 X85.822 Y85.067 E20.87349
G1 X86.456 Y84.713 E20.89764
G1 X87.125 Y84.43 E20.9218
G1 X87.821 Y84.222 E20.94596
G1 X88.536 Y84.092 E20.97013
G1 X89.356 Y84.041 E20.99745
G1 X97.6 Y84.04 E21.27165
G1 X98.325 Y84.08 E21.2958
G1 X99.042 Y84.199 E21.31997
G1 X99.741 Y84.397 E21.34414
G1 X100.414 Y84.67 E21.36829
G1 X101.053 Y85.015 E21.39245
G1 X101.65 Y85.428 E21.41659
G1 X102.268 Y85.973 E21.444
G1 X102.385 Y86.09 E21.4495
G1 X102.869 Y86.631 E21.47364
G1 X103.177 Y87.062 E21.49126
G1 X116.831 Y87.062 E21.9454
G1 X117.071 Y86.716 E21.9594
G1 X117.615 Y86.099 E21.98676
G1 X117.74 Y85.974 E21.99264
G1 X118.281 Y85.49 E22.01679
G1 X118.872 Y85.067 E22.04096
G1 X119.506 Y84.713 E22.06511
G1 X120.175 Y84.43 E22.08927
G1 X120.871 Y84.222 E22.11343
G1 X121.586 Y84.092 E22.1376
G1 X122.406 Y84.041 E22.16493
G1 X130.65 Y84.04 E22.43912
G1 X131.375 Y84.08 E22.46327
G1 X132.092 Y84.199 E22.48745
G1 X132.791 Y84.397 E22.51161
G1 X133.464 Y84.67 E22.53577
G1 X134.103 Y85.015 E22.55992
G1 X134.7 Y85.428 E22.58406
G1 X135.318 Y85.973 E22.61147
G1 X135.435 Y86.09 E22.61697
G1 X135.919 Y86.631 E22.64112
G1 X136.342 Y87.222 E22.66529
G1 X136.696 Y87.856 E22.68944
G1 X136.979 Y88.525 E22.7136
G1 X137.187 Y89.221 E22.73776
G1 X137.317 Y89.936 E22.76193
G1 X137.368 Y90.757 E22.78929
G1 X137.368 Y92.353 E22.84238
G1 X137.341 Y92.839 E22.85856
G1 X137.368 Y93.27 E22.87293
G1 X137.368 Y126.729 E23.98578
G1 X137.34 Y127.241 E24.00283
G1 X137.368 Y127.646 E24.01634
G1 X137.368 Y129.234 E24.06915
G1 X137.328 Y129.959 E24.0933
G1 X137.209 Y130.676 E24.11748
G1 X137.011 Y131.375 E24.14164
G1 X136.738 Y132.048 E24.1658
G1 X136.393 Y132.687 E24.18995
G1 X135.979 Y133.284 E24.21411
G1 X135.435 Y133.901 E24.24147
G1 X135.31 Y134.026 E24.24735
G1 X134.769 Y134.51 E24.27149
G1 X134.178 Y134.933 E24.29567
G1 X133.544 Y135.287 E24.31982
G1 X132.875 Y135.57 E24.34398
G1 X132.179 Y135.778 E24.36814
G1 X131.464 Y135.908 E24.39231
G1 X130.644 Y135.959 E24.41964
G1 X122.4 Y135.96 E24.69383
G1 X121.675 Y135.92 E24.71798
G1 X120.958 Y135.801 E24.74216
G1 X120.555 Y135.687 E24.75609
G1 X120.353 Y135.747 E24.7631
G1 X119.638 Y135.877 E24.78727
G1 X118.817 Y135.928 E24.81463
G1 X101.183 Y135.928 E25.40114
G1 X100.458 Y135.888 E25.42529
G1 X99.741 Y135.769 E25.44946
G1 X99.45 Y135.686 E25.45952
G1 X99.15 Y135.776 E25.46994
G1 X98.435 Y135.907 E25.49412
G1 X97.609 Y135.959 E25.52165
G1 X89.35 Y135.96 E25.79634
G1 X88.625 Y135.92 E25.82049
G1 X87.908 Y135.801 E25.84466
G1 X87.209 Y135.603 E25.86883
G1 X86.536 Y135.33 E25.89298
G1 X85.897 Y134.985 E25.91714
G1 X85.3 Y134.572 E25.94128
G1 X84.682 Y134.027 E25.96869
G1 X84.565 Y133.91 E25.97419
G1 X84.081 Y133.369 E25.99833
G1 X83.658 Y132.778 E26.02251
G1 X83.304 Y132.144 E26.04666
G1 X83.021 Y131.475 E26.07082
G1 X82.813 Y130.779 E26.09498
G1 X82.683 Y130.064 E26.11915
G1 X82.632 Y129.243 E26.14651
G1 X82.632 Y127.646 E26.19963
G1 X82.659 Y127.16 E26.21582
G1 X82.632 Y126.729 E26.23018
G1 X82.632 Y93.271 E27.343
G1 X82.66 Y92.759 E27.36005
G1 X82.632 Y92.354 E27.37355
G1 X82.632 Y90.766 E27.42637
G1 X82.672 Y90.041 E27.45052
G1 X82.791 Y89.324 E27.47469
G1 X82.989 Y88.625 E27.49886
G1 X83.262 Y87.952 E27.52301
G1 X83.607 Y87.313 E27.54717
G1 X84.021 Y86.716 E27.57133
G1 X84.565 Y86.099 E27.59869
G1 X84.69 Y85.974 E27.60457
G0 F6000 X84.973 Y86.257
G1 F1200 X85.498 Y85.788 E27.62798
G1 X86.073 Y85.382 E27.65139
G1 X86.691 Y85.044 E27.67482
G1 X87.342 Y84.777 E27.69823
G1 X88.02 Y84.587 E27.72164
G1 X88.715 Y84.474 E27.74506
G1 X89.356 Y84.441 E27.76641
G1 X97.6 Y84.44 E28.04061
G1 X98.303 Y84.48 E28.06403
G1 X98.997 Y84.599 E28.08745
G1 X99.673 Y84.796 E28.11087
G1 X100.322 Y85.069 E28.13428
G1 X100.936 Y85.413 E28.15769
G1 X101.507 Y85.825 E28.18111
G1 X101.985 Y86.256 E28.20252
G1 X102.102 Y86.373 E28.20802
G1 X102.571 Y86.898 E28.23144
G1 X102.969 Y87.462 E28.2544
G1 X117.039 Y87.462 E28.72237
G1 X117.056 Y87.431 E28.72354
G1 X117.467 Y86.86 E28.74694
G1 X117.898 Y86.382 E28.76835
G1 X118.023 Y86.257 E28.77423
G1 X118.548 Y85.788 E28.79764
G1 X119.123 Y85.382 E28.82105
G1 X119.741 Y85.044 E28.84448
G1 X120.392 Y84.777 E28.86788
G1 X121.07 Y84.587 E28.8913
G1 X121.765 Y84.474 E28.91472
G1 X122.406 Y84.441 E28.93607
G1 X130.65 Y84.44 E29.21027
G1 X131.353 Y84.48 E29.23369
G1 X132.047 Y84.599 E29.25711
