;FLAVOR:Marlin
;TIME:3280
;Filament used: 2.52056m
;Layer height: 0.16
;MINX:90.212
;MINY:90.212
;MINZ:0.24
;MAXX:129.788
;MAXY:129.788
;MAXZ:39.24
;Generated with Cura_SteamEngine 4.5.0
M140 S50
M105
M190 S50
M104 S225
M105
M109 S225
M82 ;absolute extrusion mode
M201 X500.00 Y500.00 Z100.00 E5000.00 ;Setup machine max acceleration
M203 X500.00 Y500.00 Z10.00 E50.00 ;Setup machine max feedrate
M204 P500.00 R1000.00 T500.00 ;Setup Print/Retract/Travel acceleration
M205 X8.00 Y8.00 Z0.40 E5.00 ;Setup Jerk
M220 S100 ;Reset Feedrate
M221 S100 ;Reset Flowrate

G28 ;Home

G92 E0 ;Reset Extruder
G1 Z2.0 F3000 ;Move Z Axis up
G1 X10.1 Y20 Z0.28 F5000.0 ;Move to start position
G1 X10.1 Y200.0 Z0.28 F1500.0 E15 ;Draw the first line
G1 X10.4 Y200.0 Z0.28 F5000.0 ;Move to side a little
G1 X10.4 Y20 Z0.28 F1500.0 E30 ;Draw the second line
G92 E0 ;Reset Extruder
G1 Z2.0 F3000 ;Move Z Axis up

G92 E0
G92 E0
G1 F1800 E-3
;LAYER_COUNT:225
;LAYER:0
M106 S127.5
M204 S500
M205 X6 Y6
G0 F9000 X103.413 Y104.119 Z0.24
;TYPE:SKIRT
G1 F1800 E0
G1 F3000 X103.806 Y103.728 E0.01991
G1 X104.375 Y103.206 E0.04765
G1 X105.13 Y102.649 E0.08135
G1 X105.686 Y102.304 E0.10486
G1 X106.489 Y101.912 E0.13696
G1 X107.083 Y101.674 E0.15994
G1 X107.927 Y101.429 E0.19151
G1 X108.575 Y101.293 E0.21529
G1 X109.465 Y101.198 E0.24745
G1 X110.119 Y101.179 E0.27095
G1 X111.537 Y101.316 E0.32212
G1 X112.691 Y101.595 E0.36477
G1 X113.87 Y102.078 E0.41053
G1 X114.656 Y102.512 E0.44279
G1 X115.319 Y102.963 E0.47159
G1 X116.082 Y103.62 E0.50776
G1 X116.601 Y104.136 E0.53405
G1 X116.929 Y104.527 E0.55238
G1 X117.346 Y105.122 E0.57848
G1 X117.696 Y105.686 E0.60232
G1 X118.088 Y106.489 E0.63442
G1 X118.326 Y107.083 E0.65741
G1 X118.571 Y107.927 E0.68898
G1 X118.707 Y108.571 E0.71262
G1 X118.802 Y109.463 E0.74484
G1 X118.821 Y110.119 E0.76842
G1 X118.761 Y110.993 E0.79988
G1 X118.671 Y111.631 E0.82303
G1 X118.405 Y112.69 E0.86225
G1 X117.922 Y113.869 E0.90802
G1 X117.488 Y114.656 E0.9403
G1 X117.035 Y115.321 E0.9692
G1 X116.587 Y115.881 E0.99496
G1 X116.194 Y116.272 E1.01488
G1 X115.625 Y116.794 E1.04262
G1 X114.87 Y117.351 E1.07632
G1 X114.314 Y117.696 E1.09982
G1 X113.511 Y118.088 E1.13192
G1 X112.917 Y118.326 E1.15491
G1 X112.073 Y118.571 E1.18647
G1 X111.416 Y118.708 E1.21058
G1 X110.539 Y118.802 E1.24227
G1 X109.881 Y118.821 E1.26591
G1 X109.007 Y118.761 E1.29738
G1 X108.369 Y118.671 E1.32052
G1 X107.31 Y118.405 E1.35975
G1 X106.127 Y117.921 E1.40566
G1 X105.343 Y117.488 E1.43783
G1 X104.679 Y117.035 E1.46671
G1 X103.917 Y116.379 E1.50282
G1 X103.399 Y115.864 E1.52906
G1 X103.072 Y115.474 E1.54734
G1 X102.654 Y114.878 E1.57349
G1 X102.301 Y114.309 E1.59755
G1 X101.912 Y113.511 E1.62943
G1 X101.674 Y112.917 E1.65242
G1 X101.429 Y112.073 E1.68399
G1 X101.292 Y111.416 E1.7081
G1 X101.198 Y110.542 E1.73967
G1 X101.179 Y109.881 E1.76343
G1 X101.239 Y109.007 E1.7949
G1 X101.329 Y108.369 E1.81804
G1 X101.595 Y107.31 E1.85726
G1 X102.078 Y106.131 E1.90303
G1 X102.512 Y105.344 E1.93531
G1 X102.965 Y104.679 E1.96422
G1 X103.413 Y104.119 E1.98998
G0 F9000 X103.695 Y104.403
G1 F3000 X104.088 Y104.012 E2.00989
G1 X104.645 Y103.501 E2.03704
G1 X105.358 Y102.977 E2.06883
G1 X105.894 Y102.646 E2.09146
G1 X106.657 Y102.275 E2.12193
G1 X107.229 Y102.046 E2.14406
G1 X108.03 Y101.815 E2.17401
G1 X108.654 Y101.685 E2.1969
G1 X109.499 Y101.596 E2.22743
G1 X110.127 Y101.578 E2.24999
G1 X111.491 Y101.713 E2.29923
G1 X112.586 Y101.981 E2.33972
G1 X113.709 Y102.444 E2.38336
G1 X114.456 Y102.858 E2.41403
G1 X115.089 Y103.29 E2.44156
G1 X115.815 Y103.918 E2.47604
G1 X116.317 Y104.418 E2.5015
G1 X117.018 Y105.352 E2.54344
G1 X117.354 Y105.894 E2.56635
G1 X117.725 Y106.657 E2.59683
G1 X117.954 Y107.229 E2.61896
G1 X118.185 Y108.03 E2.6489
G1 X118.315 Y108.65 E2.67166
G1 X118.404 Y109.497 E2.70225
G1 X118.422 Y110.127 E2.72489
G1 X118.363 Y110.958 E2.75482
G1 X118.276 Y111.572 E2.77709
G1 X118.019 Y112.585 E2.81463
G1 X117.556 Y113.708 E2.85827
G1 X117.142 Y114.456 E2.88898
G1 X116.708 Y115.091 E2.9166
G1 X116.305 Y115.597 E2.93984
G1 X115.912 Y115.988 E2.95975
G1 X115.355 Y116.499 E2.98691
G1 X114.642 Y117.023 E3.01869
G1 X114.106 Y117.354 E3.04132
G1 X113.343 Y117.725 E3.0718
G1 X112.771 Y117.954 E3.09393
G1 X111.97 Y118.185 E3.12387
G1 X111.339 Y118.316 E3.14702
G1 X110.504 Y118.403 E3.17718
G1 X109.873 Y118.421 E3.19985
G1 X109.042 Y118.363 E3.22978
G1 X108.428 Y118.276 E3.25205
G1 X107.415 Y118.019 E3.28959
G1 X106.288 Y117.555 E3.33337
G1 X105.543 Y117.142 E3.36397
G1 X104.909 Y116.708 E3.39157
G1 X104.184 Y116.081 E3.426
G1 X103.683 Y115.582 E3.4514
G1 X102.981 Y114.648 E3.49337
G1 X102.643 Y114.101 E3.51647
G1 X102.275 Y113.343 E3.54674
G1 X102.046 Y112.771 E3.56887
G1 X101.815 Y111.97 E3.59881
G1 X101.684 Y111.339 E3.62196
G1 X101.597 Y110.507 E3.65201
G1 X101.578 Y109.873 E3.6748
G1 X101.637 Y109.042 E3.70472
G1 X101.724 Y108.428 E3.727
G1 X101.981 Y107.415 E3.76454
G1 X102.444 Y106.292 E3.80817
G1 X102.858 Y105.544 E3.83888
G1 X103.292 Y104.909 E3.86651
G1 X103.695 Y104.403 E3.88975
G0 F9000 X103.977 Y104.686
G1 F3000 X104.37 Y104.295 E3.90966
G1 X104.914 Y103.797 E3.93615
G1 X105.587 Y103.306 E3.96608
G1 X106.102 Y102.988 E3.98782
G1 X106.825 Y102.638 E4.01667
G1 X107.375 Y102.418 E4.03795
G1 X108.133 Y102.202 E4.06626
G1 X108.733 Y102.077 E4.08828
G1 X109.533 Y101.995 E4.11717
G1 X110.135 Y101.978 E4.1388
G1 X111.445 Y102.111 E4.1861
G1 X112.481 Y102.367 E4.22443
G1 X113.548 Y102.81 E4.26593
G1 X114.256 Y103.204 E4.29503
G1 X114.858 Y103.617 E4.32126
G1 X115.548 Y104.215 E4.35406
G1 X116.034 Y104.699 E4.3787
G1 X116.691 Y105.581 E4.4182
G1 X117.012 Y106.102 E4.44018
G1 X117.362 Y106.825 E4.46904
G1 X117.582 Y107.375 E4.49032
G1 X117.798 Y108.133 E4.51863
G1 X117.923 Y108.729 E4.5405
G1 X118.005 Y109.531 E4.56946
G1 X118.022 Y110.135 E4.59117
G1 X117.964 Y110.922 E4.61951
G1 X117.88 Y111.513 E4.64095
G1 X117.633 Y112.48 E4.67681
G1 X117.19 Y113.547 E4.71831
G1 X116.796 Y114.256 E4.74744
G1 X116.39 Y114.848 E4.77323
G1 X116.023 Y115.314 E4.79453
G1 X115.63 Y115.705 E4.81445
G1 X115.086 Y116.203 E4.84094
G1 X114.413 Y116.694 E4.87087
G1 X113.898 Y117.012 E4.89261
G1 X113.175 Y117.362 E4.92146
G1 X112.625 Y117.582 E4.94274
G1 X111.867 Y117.798 E4.97105
G1 X111.261 Y117.923 E4.99328
G1 X110.47 Y118.005 E5.02184
G1 X109.865 Y118.022 E5.04358
G1 X109.078 Y117.964 E5.07193
G1 X108.487 Y117.88 E5.09337
G1 X107.52 Y117.633 E5.12922
G1 X106.45 Y117.189 E5.17084
G1 X105.743 Y116.795 E5.19991
G1 X105.14 Y116.381 E5.22618
G1 X104.451 Y115.784 E5.25893
G1 X103.966 Y115.301 E5.28352
G1 X103.309 Y114.418 E5.32305
G1 X102.986 Y113.894 E5.34517
G1 X102.638 Y113.175 E5.37386
G1 X102.418 Y112.625 E5.39514
G1 X102.202 Y111.867 E5.42345
G1 X102.077 Y111.261 E5.44568
G1 X101.995 Y110.473 E5.47413
G1 X101.978 Y109.865 E5.49598
G1 X102.036 Y109.078 E5.52433
G1 X102.12 Y108.487 E5.54577
G1 X102.367 Y107.52 E5.58162
G1 X102.81 Y106.453 E5.62312
G1 X103.204 Y105.744 E5.65226
G1 X103.61 Y105.152 E5.67804
G1 X103.977 Y104.686 E5.69935
G0 F9000 X104.259 Y104.97
G1 F3000 X104.652 Y104.579 E5.71927
G1 X105.184 Y104.093 E5.74515
G1 X105.815 Y103.634 E5.77318
G1 X106.309 Y103.33 E5.79401
G1 X106.993 Y103.001 E5.82128
G1 X107.521 Y102.791 E5.84169
G1 X108.236 Y102.588 E5.86839
G1 X108.811 Y102.469 E5.88948
G1 X109.567 Y102.393 E5.91677
G1 X110.143 Y102.378 E5.93747
G1 X111.398 Y102.508 E5.98279
G1 X112.376 Y102.753 E6.01901
G1 X113.387 Y103.176 E6.05837
G1 X114.056 Y103.551 E6.08592
G1 X114.628 Y103.945 E6.11087
G1 X115.281 Y104.513 E6.14196
G1 X115.75 Y104.981 E6.16576
G1 X116.363 Y105.811 E6.20283
G1 X116.67 Y106.309 E6.22384
G1 X116.999 Y106.993 E6.2511
G1 X117.209 Y107.521 E6.27152
G1 X117.412 Y108.236 E6.29821
G1 X117.531 Y108.808 E6.3192
G1 X117.607 Y109.565 E6.34653
G1 X117.622 Y110.143 E6.3673
G1 X117.566 Y110.886 E6.39406
G1 X117.484 Y111.454 E6.41468
G1 X117.247 Y112.375 E6.44884
G1 X116.824 Y113.386 E6.48821
G1 X116.449 Y114.056 E6.51579
G1 X116.054 Y114.63 E6.54082
G1 X115.741 Y115.03 E6.55906
G1 X115.348 Y115.421 E6.57897
G1 X114.816 Y115.907 E6.60486
G1 X114.185 Y116.366 E6.63289
G1 X113.691 Y116.67 E6.65372
G1 X113.007 Y116.999 E6.68099
G1 X112.479 Y117.209 E6.7014
G1 X111.764 Y117.412 E6.7281
G1 X111.183 Y117.531 E6.7494
G1 X110.435 Y117.606 E6.7764
G1 X109.857 Y117.622 E6.79717
G1 X109.114 Y117.566 E6.82394
G1 X108.546 Y117.484 E6.84455
G1 X107.625 Y117.247 E6.87871
G1 X106.611 Y116.822 E6.91821
G1 X105.944 Y116.449 E6.94566
G1 X105.37 Y116.054 E6.97069
G1 X104.718 Y115.486 E7.00175
G1 X104.25 Y115.019 E7.0255
G1 X103.636 Y114.189 E7.06258
G1 X103.328 Y113.687 E7.08374
G1 X103.001 Y113.007 E7.11084
G1 X102.791 Y112.479 E7.13125
G1 X102.588 Y111.764 E7.15795
G1 X102.469 Y111.183 E7.17926
G1 X102.394 Y110.438 E7.20615
G1 X102.378 Y109.857 E7.22703
G1 X102.434 Y109.114 E7.2538
G1 X102.516 Y108.546 E7.27441
G1 X102.753 Y107.625 E7.30857
G1 X103.176 Y106.614 E7.34794
G1 X103.551 Y105.944 E7.37552
G1 X103.946 Y105.37 E7.40055
G1 X104.259 Y104.97 E7.41879
G0 F9000 X104.542 Y105.254
G1 F3000 X104.935 Y104.863 E7.43871
G1 X105.453 Y104.388 E7.46395
G1 X106.044 Y103.962 E7.49012
G1 X106.517 Y103.671 E7.51007
G1 X107.161 Y103.364 E7.5357
G1 X107.666 Y103.163 E7.55522
G1 X108.34 Y102.974 E7.58037
G1 X108.89 Y102.861 E7.60053
G1 X109.601 Y102.792 E7.62619
G1 X110.151 Y102.778 E7.64596
G1 X111.352 Y102.905 E7.68934
G1 X112.271 Y103.139 E7.7234
G1 X113.226 Y103.543 E7.76065
G1 X113.856 Y103.897 E7.78661
G1 X114.398 Y104.272 E7.81028
G1 X115.014 Y104.811 E7.83969
G1 X115.466 Y105.263 E7.86265
G1 X116.035 Y106.041 E7.89727
G1 X116.329 Y106.517 E7.91737
G1 X116.636 Y107.161 E7.94299
G1 X116.837 Y107.666 E7.96252
G1 X117.026 Y108.34 E7.98766
G1 X117.138 Y108.887 E8.00772
G1 X117.208 Y109.599 E8.03342
G1 X117.222 Y110.151 E8.05325
G1 X117.167 Y110.851 E8.07848
G1 X117.089 Y111.395 E8.09822
G1 X116.861 Y112.27 E8.1307
G1 X116.458 Y113.225 E8.16793
G1 X116.103 Y113.856 E8.19394
G1 X115.727 Y114.4 E8.21769
G1 X115.065 Y115.137 E8.25328
G1 X114.547 Y115.612 E8.27852
G1 X113.956 Y116.038 E8.30469
G1 X113.483 Y116.329 E8.32464
G1 X112.839 Y116.636 E8.35027
G1 X112.334 Y116.837 E8.36979
G1 X111.66 Y117.026 E8.39494
G1 X111.106 Y117.138 E8.41524
G1 X110.401 Y117.208 E8.44069
G1 X109.85 Y117.222 E8.46049
G1 X109.149 Y117.167 E8.48575
G1 X108.605 Y117.089 E8.50549
G1 X107.73 Y116.861 E8.53797
G1 X106.772 Y116.456 E8.57533
G1 X106.144 Y116.103 E8.60121
G1 X105.6 Y115.727 E8.62496
G1 X104.985 Y115.188 E8.65434
G1 X104.534 Y114.737 E8.67725
G1 X103.964 Y113.959 E8.71189
G1 X103.67 Y113.48 E8.73208
G1 X103.364 Y112.839 E8.75759
G1 X103.163 Y112.334 E8.77712
G1 X102.974 Y111.66 E8.80226
G1 X102.862 Y111.106 E8.82256
G1 X102.792 Y110.403 E8.84794
G1 X102.778 Y109.849 E8.86785
G1 X102.833 Y109.149 E8.89307
G1 X102.911 Y108.605 E8.91281
G1 X103.139 Y107.73 E8.94529
G1 X103.542 Y106.775 E8.98253
G1 X103.897 Y106.144 E9.00853
G1 X104.273 Y105.6 E9.03229
G1 X104.542 Y105.254 E9.04803
G0 F9000 X104.824 Y105.537
G1 F3000 X105.217 Y105.146 E9.06794
G1 X105.722 Y104.684 E9.09253
G1 X106.273 Y104.29 E9.11686
G1 X106.725 Y104.013 E9.1359
G1 X107.328 Y103.727 E9.15988
G1 X107.812 Y103.536 E9.17857
G1 X108.443 Y103.361 E9.20209
G1 X108.968 Y103.254 E9.22134
G1 X109.634 Y103.191 E9.24537
G1 X110.158 Y103.178 E9.26419
G1 X111.306 Y103.303 E9.30568
G1 X112.166 Y103.525 E9.33758
G1 X113.065 Y103.909 E9.3727
G1 X113.655 Y104.243 E9.39705
G1 X114.168 Y104.599 E9.41948
G1 X114.747 Y105.109 E9.4472
G1 X115.182 Y105.545 E9.46932
G1 X115.708 Y106.27 E9.50149
G1 X115.987 Y106.725 E9.52067
G1 X116.273 Y107.328 E9.54464
G1 X116.464 Y107.812 E9.56333
G1 X116.639 Y108.443 E9.58685
G1 X116.746 Y108.966 E9.60603
G1 X116.809 Y109.632 E9.63006
G1 X116.822 Y110.158 E9.64896
G1 X116.769 Y110.815 E9.67263
G1 X116.693 Y111.336 E9.69155
G1 X116.475 Y112.165 E9.72234
G1 X116.091 Y113.064 E9.75745
G1 X115.757 Y113.655 E9.78184
G1 X115.4 Y114.17 E9.80435
G1 X115.176 Y114.463 E9.8176
G1 X114.783 Y114.854 E9.83751
G1 X114.278 Y115.316 E9.8621
G1 X113.727 Y115.71 E9.88643
G1 X113.275 Y115.987 E9.90547
G1 X112.672 Y116.273 E9.92944
G1 X112.188 Y116.464 E9.94813
G1 X111.557 Y116.639 E9.97166
G1 X111.028 Y116.746 E9.99104
G1 X110.366 Y116.809 E10.01493
G1 X109.842 Y116.822 E10.03376
G1 X109.185 Y116.769 E10.05743
G1 X108.664 Y116.693 E10.07635
G1 X107.835 Y116.475 E10.10714
G1 X106.933 Y116.09 E10.14237
G1 X106.344 Y115.757 E10.16667
G1 X105.83 Y115.4 E10.18915
G1 X105.252 Y114.89 E10.21684
G1 X104.818 Y114.455 E10.23891
G1 X104.291 Y113.729 E10.27114
G1 X104.012 Y113.272 E10.29037
G1 X103.727 Y112.672 E10.31423
G1 X103.536 Y112.188 E10.33292
G1 X103.361 Y111.557 E10.35644
G1 X103.254 Y111.028 E10.37583
G1 X103.191 Y110.369 E10.39961
G1 X103.178 Y109.842 E10.41855
G1 X103.231 Y109.185 E10.44222
G1 X103.307 Y108.664 E10.46114
G1 X103.525 Y107.835 E10.49193
G1 X103.909 Y106.936 E10.52704
G1 X104.243 Y106.345 E10.55143
G1 X104.6 Y105.83 E10.57394
G1 X104.824 Y105.537 E10.58719
G0 F9000 X105.106 Y105.821
G1 F3000 X105.499 Y105.43 E10.6071
G1 X105.992 Y104.98 E10.63108
G1 X106.501 Y104.619 E10.65349
G1 X106.932 Y104.355 E10.67165
G1 X107.496 Y104.09 E10.69403
G1 X108.022 Y103.887 E10.71428
G1 X108.546 Y103.747 E10.73377
G1 X109.047 Y103.646 E10.75212
G1 X109.668 Y103.589 E10.77453
G1 X110.166 Y103.578 E10.79242
G1 X111.259 Y103.7 E10.83192
G1 X112.061 Y103.911 E10.86171
G1 X112.904 Y104.275 E10.8947
G1 X113.455 Y104.59 E10.9175
G1 X113.938 Y104.926 E10.93863
G1 X114.48 Y105.406 E10.96464
G1 X114.898 Y105.826 E10.98592
G1 X115.38 Y106.5 E11.01569
G1 X115.645 Y106.932 E11.03389
G1 X115.91 Y107.496 E11.05628
G1 X116.113 Y108.022 E11.07653
G1 X116.253 Y108.546 E11.09601
G1 X116.354 Y109.045 E11.1143
G1 X116.411 Y109.666 E11.1367
G1 X116.422 Y110.166 E11.15466
G1 X116.371 Y110.779 E11.17676
G1 X116.297 Y111.277 E11.19485
G1 X116.089 Y112.06 E11.22395
G1 X115.725 Y112.903 E11.25693
G1 X115.41 Y113.455 E11.27976
G1 X115.073 Y113.939 E11.30095
G1 X114.894 Y114.179 E11.3117
G1 X114.501 Y114.57 E11.33161
G1 X114.008 Y115.02 E11.35559
G1 X113.499 Y115.381 E11.37801
G1 X113.068 Y115.645 E11.39616
G1 X112.504 Y115.91 E11.41855
G1 X111.978 Y116.113 E11.4388
G1 X111.454 Y116.253 E11.45828
G1 X110.95 Y116.354 E11.47675
G1 X110.332 Y116.411 E11.49904
G1 X109.769 Y116.42 E11.51926
G1 X109.221 Y116.371 E11.53903
G1 X108.723 Y116.297 E11.55711
G1 X107.94 Y116.089 E11.58621
G1 X107.094 Y115.724 E11.61931
G1 X106.545 Y115.41 E11.64203
G1 X106.061 Y115.073 E11.66321
G1 X105.519 Y114.593 E11.68922
G1 X105.102 Y114.174 E11.71046
G1 X104.619 Y113.5 E11.74024
G1 X104.354 Y113.065 E11.75854
G1 X104.09 Y112.504 E11.78081
G1 X103.887 Y111.978 E11.80106
G1 X103.747 Y111.454 E11.82054
G1 X103.646 Y110.95 E11.83901
G1 X103.589 Y110.334 E11.86123
G1 X103.578 Y109.834 E11.8792
G1 X103.629 Y109.221 E11.90129
G1 X103.703 Y108.723 E11.91938
G1 X103.911 Y107.94 E11.94848
G1 X104.275 Y107.097 E11.98146
G1 X104.59 Y106.545 E12.00429
G1 X104.927 Y106.061 E12.02548
G1 X105.106 Y105.821 E12.03623
G0 F9000 X105.388 Y106.104
G1 F3000 X105.781 Y105.713 E12.05614
G1 X106.261 Y105.275 E12.07949
G1 X106.73 Y104.947 E12.10004
G1 X107.16 Y104.686 E12.11811
G1 X107.664 Y104.453 E12.13806
G1 X108.125 Y104.274 E12.15582
G1 X108.649 Y104.134 E12.1753
G1 X109.148 Y104.035 E12.19358
G1 X109.702 Y103.988 E12.21355
G1 X110.201 Y103.979 E12.23148
G1 X111.213 Y104.097 E12.26808
G1 X111.956 Y104.297 E12.29572
G1 X112.743 Y104.641 E12.32657
G1 X113.255 Y104.936 E12.34779
G1 X113.708 Y105.253 E12.36765
G1 X114.213 Y105.704 E12.39198
G1 X114.614 Y106.108 E12.41242
G1 X115.053 Y106.729 E12.43974
G1 X115.314 Y107.16 E12.45784
G1 X115.547 Y107.664 E12.47779
G1 X115.726 Y108.125 E12.49555
G1 X115.866 Y108.649 E12.51503
G1 X115.965 Y109.146 E12.53324
G1 X116.012 Y109.7 E12.55321
G1 X116.021 Y110.196 E12.57103
G1 X115.972 Y110.744 E12.59079
G1 X115.897 Y111.242 E12.60888
G1 X115.703 Y111.955 E12.63542
G1 X115.359 Y112.742 E12.66628
G1 X115.064 Y113.255 E12.68753
G1 X114.746 Y113.709 E12.70744
G1 X114.635 Y113.868 E12.71441
G1 X114.219 Y114.287 E12.73562
G1 X113.739 Y114.725 E12.75896
G1 X113.27 Y115.053 E12.77952
