;FLAVOR:Marlin
;TIME:1457
;Filament used: 0.512845m
;Layer height: 0.16
;MINX:89.216
;MINY:89.216
;MINZ:0.24
;MAXX:130.783
;MAXY:130.783
;MAXZ:11.84
;Generated with Cura_SteamEngine 4.5.0
M140 S50
M105
M190 S50
M104 S215
M105
M109 S215
M82 ;absolute extrusion mode
M201 X500.00 Y500.00 Z100.00 E5000.00 ;Setup machine max acceleration
M203 X500.00 Y500.00 Z10.00 E50.00 ;Setup machine max feedrate
M204 P500.00 R1000.00 T500.00 ;Setup Print/Retract/Travel acceleration
M205 X8.00 Y8.00 Z0.40 E5.00 ;Setup Jerk
M220 S100 ;Reset Feedrate
M221 S100 ;Reset Flowrate

G28 ;Home

G92 E0 ;Reset Extruder
G1 Z2.0 F3000 ;Move Z Axis up
G1 X10.1 Y20 Z0.28 F5000.0 ;Move to start position
G1 X10.1 Y200.0 Z0.28 F1500.0 E15 ;Draw the first line
G1 X10.4 Y200.0 Z0.28 F5000.0 ;Move to side a little
G1 X10.4 Y20 Z0.28 F1500.0 E30 ;Draw the second line
G92 E0 ;Reset Extruder
G1 Z2.0 F3000 ;Move Z Axis up

G92 E0
G92 E0
G1 F1800 E-3
;LAYER_COUNT:60
;LAYER:0
M106 S63.8
M204 S500
M205 X6 Y6
G0 F9000 X96.029 Y94.734 Z0.24
;TYPE:SKIRT
G1 F1800 E0
G1 X96.62 Y94.158 E0.03294
G1 X97.308 Y93.546 E0.06969
G1 X98.046 Y92.996 E0.10642
G1 X99.034 Y92.401 E0.15246
G1 X99.714 Y92.04 E0.18318
G1 X101.331 Y91.214 E0.25566
G1 X102.127 Y90.819 E0.29112
G1 X102.969 Y90.446 E0.32788
G1 X103.84 Y90.148 E0.36462
G1 X105.008 Y89.875 E0.41249
G1 X105.831 Y89.731 E0.44584
G1 X107.685 Y89.437 E0.52076
G1 X108.435 Y89.326 E0.55102
G1 X109.351 Y89.231 E0.58778
G1 X110.272 Y89.216 E0.62454
G1 X111.464 Y89.316 E0.67228
G1 X112.329 Y89.438 E0.70715
G1 X114.124 Y89.721 E0.77968
G1 X114.947 Y89.862 E0.813
G1 X115.846 Y90.059 E0.84974
G1 X116.725 Y90.332 E0.88647
G1 X117.801 Y90.787 E0.9331
G1 X118.528 Y91.143 E0.96541
G1 X120.281 Y92.035 E1.04391
G1 X120.95 Y92.388 E1.0741
G1 X121.743 Y92.856 E1.11085
G1 X122.493 Y93.39 E1.1476
G1 X123.299 Y94.087 E1.19013
G1 X123.782 Y94.549 E1.2168
G1 X125.266 Y96.03 E1.30048
G1 X125.826 Y96.603 E1.33246
G1 X126.44 Y97.289 E1.36921
G1 X126.991 Y98.026 E1.40593
G1 X127.603 Y99.039 E1.45317
G1 X127.994 Y99.777 E1.4865
G1 X128.809 Y101.376 E1.55813
G1 X129.191 Y102.148 E1.59251
G1 X129.562 Y102.99 E1.62924
G1 X129.859 Y103.862 E1.666
G1 X130.129 Y105.021 E1.7135
G1 X130.272 Y105.841 E1.74672
G1 X130.564 Y107.675 E1.82084
G1 X130.681 Y108.48 E1.85331
G1 X130.772 Y109.396 E1.89005
G1 X130.783 Y110.317 E1.92681
G1 X130.685 Y111.463 E1.97272
G1 X130.572 Y112.266 E2.00508
G1 X130.273 Y114.171 E2.08205
G1 X130.139 Y114.95 E2.11359
G1 X129.942 Y115.849 E2.15033
G1 X129.668 Y116.728 E2.18707
G1 X129.226 Y117.775 E2.23243
G1 X128.914 Y118.416 E2.26089
G1 X128.019 Y120.176 E2.33969
G1 X127.611 Y120.949 E2.37458
G1 X127.145 Y121.743 E2.41132
G1 X126.612 Y122.494 E2.44808
G1 X125.848 Y123.373 E2.49456
G1 X125.349 Y123.887 E2.52315
G1 X123.868 Y125.369 E2.60678
G1 X123.389 Y125.835 E2.63345
G1 X122.701 Y126.447 E2.6702
G1 X121.964 Y126.998 E2.70693
G1 X120.96 Y127.603 E2.75371
G1 X120.258 Y127.975 E2.78542
G1 X118.697 Y128.772 E2.85538
G1 X117.864 Y129.185 E2.89248
G1 X117.022 Y129.557 E2.92922
G1 X116.151 Y129.855 E2.96597
G1 X114.985 Y130.128 E3.01376
G1 X114.167 Y130.271 E3.0469
G1 X112.327 Y130.563 E3.12126
G1 X111.52 Y130.681 E3.15381
G1 X110.604 Y130.772 E3.19055
G1 X109.683 Y130.783 E3.22732
G1 X108.551 Y130.687 E3.27266
G1 X107.776 Y130.579 E3.30389
G1 X105.876 Y130.279 E3.38066
G1 X105.065 Y130.14 E3.4135
G1 X104.165 Y129.945 E3.45026
G1 X103.286 Y129.672 E3.48699
G1 X102.192 Y129.209 E3.53441
G1 X101.418 Y128.829 E3.56882
G1 X99.865 Y128.04 E3.63834
G1 X99.082 Y127.628 E3.67366
G1 X98.287 Y127.164 E3.7104
G1 X97.535 Y126.633 E3.74714
G1 X96.659 Y125.876 E3.79335
G1 X96.112 Y125.348 E3.82369
G1 X94.734 Y123.971 E3.90144
G1 X94.158 Y123.38 E3.93438
G1 X93.546 Y122.692 E3.97113
G1 X92.996 Y121.954 E4.00787
G1 X92.401 Y120.966 E4.0539
G1 X92.04 Y120.286 E4.08463
G1 X91.214 Y118.669 E4.1571
G1 X90.815 Y117.864 E4.19296
G1 X90.443 Y117.022 E4.2297
G1 X90.145 Y116.151 E4.26644
G1 X89.875 Y114.997 E4.31374
G1 X89.727 Y114.155 E4.34786
G1 X89.436 Y112.324 E4.42186
G1 X89.319 Y111.522 E4.45421
G1 X89.228 Y110.606 E4.49095
G1 X89.216 Y109.686 E4.52767
G1 X89.317 Y108.513 E4.57466
G1 X89.431 Y107.714 E4.60687
G1 X89.727 Y105.829 E4.68303
G1 X89.861 Y105.05 E4.71458
G1 X90.058 Y104.151 E4.75131
G1 X90.332 Y103.272 E4.78806
G1 X90.773 Y102.227 E4.83333
G1 X91.078 Y101.6 E4.86116
G1 X92.036 Y99.717 E4.94548
G1 X92.385 Y99.055 E4.97535
G1 X92.852 Y98.261 E5.01211
G1 X93.385 Y97.511 E5.04884
G1 X94.103 Y96.681 E5.09264
G1 X94.562 Y96.203 E5.11909
G1 X96.029 Y94.734 E5.20195
G0 F9000 X96.312 Y95.017
G1 F1800 X96.899 Y94.445 E5.23466
G1 X97.574 Y93.845 E5.27071
G1 X98.3 Y93.307 E5.30677
G1 X99.221 Y92.754 E5.34965
G1 X99.901 Y92.393 E5.38037
G1 X101.512 Y91.571 E5.45256
G1 X102.305 Y91.177 E5.4879
G1 X103.131 Y90.812 E5.52394
G1 X103.986 Y90.522 E5.55998
G1 X105.077 Y90.269 E5.60468
G1 X105.9 Y90.125 E5.63802
G1 X107.747 Y89.832 E5.71266
G1 X108.494 Y89.721 E5.74281
G1 X109.392 Y89.629 E5.77883
G1 X110.295 Y89.617 E5.81488
G1 X111.409 Y89.712 E5.8595
G1 X112.274 Y89.834 E5.89437
G1 X114.061 Y90.116 E5.96657
G1 X114.879 Y90.256 E5.9997
G1 X115.761 Y90.45 E6.03574
G1 X116.622 Y90.72 E6.07175
G1 X117.625 Y91.146 E6.11525
G1 X118.352 Y91.502 E6.14756
G1 X120.099 Y92.391 E6.22579
G1 X120.762 Y92.742 E6.25573
G1 X121.54 Y93.201 E6.29179
G1 X122.274 Y93.726 E6.3278
G1 X123.022 Y94.376 E6.36735
G1 X123.505 Y94.838 E6.39403
G1 X125.075 Y96.405 E6.48256
G1 X125.54 Y96.882 E6.50915
G1 X126.141 Y97.556 E6.54519
G1 X126.68 Y98.28 E6.58122
G1 X127.249 Y99.227 E6.62531
G1 X127.64 Y99.965 E6.65865
G1 X128.452 Y101.557 E6.72998
G1 X128.832 Y102.325 E6.76417
G1 X129.196 Y103.152 E6.80024
G1 X129.485 Y104.007 E6.83626
G1 X129.735 Y105.09 E6.88062
G1 X129.878 Y105.91 E6.91384
G1 X130.169 Y107.737 E6.98768
G1 X130.285 Y108.537 E7.01995
G1 X130.373 Y109.436 E7.056
G1 X130.382 Y110.339 E7.09204
G1 X130.288 Y111.407 E7.13483
G1 X130.175 Y112.21 E7.1672
G1 X129.877 Y114.109 E7.24392
G1 X129.745 Y114.882 E7.27522
G1 X129.551 Y115.764 E7.31126
G1 X129.28 Y116.625 E7.34729
G1 X128.866 Y117.6 E7.38956
G1 X128.554 Y118.241 E7.41802
G1 X127.662 Y119.995 E7.49656
G1 X127.257 Y120.762 E7.53117
G1 X126.8 Y121.541 E7.56722
G1 X126.275 Y122.276 E7.60327
G1 X125.561 Y123.094 E7.64661
G1 X125.062 Y123.608 E7.6752
G1 X123.589 Y125.082 E7.75837
G1 X123.11 Y125.548 E7.78504
G1 X122.435 Y126.148 E7.82109
G1 X121.71 Y126.687 E7.85714
G1 X120.773 Y127.25 E7.90077
G1 X120.071 Y127.622 E7.93248
G1 X118.516 Y128.415 E8.00215
G1 X117.686 Y128.827 E8.03913
G1 X116.86 Y129.191 E8.07516
G1 X116.005 Y129.481 E8.1112
G1 X114.916 Y129.734 E8.15582
G1 X114.098 Y129.877 E8.18896
G1 X112.265 Y130.168 E8.26304
G1 X111.463 Y130.285 E8.29538
G1 X110.564 Y130.373 E8.33144
G1 X109.661 Y130.382 E8.36748
G1 X108.606 Y130.29 E8.40975
G1 X107.831 Y130.182 E8.44098
G1 X105.939 Y129.884 E8.51742
G1 X105.133 Y129.746 E8.55006
G1 X104.251 Y129.554 E8.58609
G1 X103.389 Y129.284 E8.62214
G1 X102.368 Y128.85 E8.66642
G1 X101.594 Y128.47 E8.70083
G1 X100.047 Y127.683 E8.77011
G1 X99.268 Y127.274 E8.80522
G1 X98.488 Y126.818 E8.84128
G1 X97.752 Y126.295 E8.87732
G1 X96.937 Y125.588 E8.92038
G1 X96.39 Y125.06 E8.95073
G1 X95.017 Y123.688 E9.0282
G1 X94.445 Y123.101 E9.06091
G1 X93.845 Y122.426 E9.09695
G1 X93.307 Y121.7 E9.13302
G1 X92.754 Y120.779 E9.1759
G1 X92.393 Y120.099 E9.20662
G1 X91.571 Y118.488 E9.27881
G1 X91.174 Y117.687 E9.31449
G1 X90.809 Y116.86 E9.35057
G1 X90.519 Y116.005 E9.3866
G1 X90.269 Y114.928 E9.43073
G1 X90.121 Y114.086 E9.46485
G1 X89.831 Y112.262 E9.53857
G1 X89.715 Y111.465 E9.57071
G1 X89.626 Y110.567 E9.60673
G1 X89.617 Y109.664 E9.64277
G1 X89.713 Y108.569 E9.68664
G1 X89.827 Y107.77 E9.71886
G1 X90.123 Y105.891 E9.79478
G1 X90.255 Y105.118 E9.82607
G1 X90.449 Y104.236 E9.86212
G1 X90.72 Y103.375 E9.89814
G1 X91.133 Y102.402 E9.94033
G1 X91.438 Y101.775 E9.96816
G1 X92.392 Y99.898 E10.0522
G1 X92.739 Y99.242 E10.08182
G1 X93.197 Y98.464 E10.11785
G1 X93.722 Y97.729 E10.1539
G1 X94.392 Y96.958 E10.19467
G1 X94.851 Y96.48 E10.22112
G1 X96.312 Y95.017 E10.30364
G1 F1800 E7.30364
;MESH:Object 1
G0 F9000 X105.688 Y106.867
G0 X104.168 Y105.763
G0 X103.552 Y110
G0 X103.866 Y111.993
G0 X104.872 Y113.878
G0 X106.122 Y115.125
G0 X107.646 Y115.939
G0 X110 Y117.014
;TYPE:WALL-INNER
G1 F1800 E10.30364
G1 X112.168 Y116.673 E10.39123
G1 X114.106 Y115.685 E10.47805
G1 X115.674 Y114.125 E10.56633
G1 X116.522 Y112.465 E10.64073
G1 X116.699 Y112.007 E10.66033
G1 X116.983 Y110.196 E10.73349
G1 X116.984 Y109.808 E10.74898
G1 X116.672 Y107.832 E10.82882
G1 X115.844 Y106.209 E10.90154
G1 X115.653 Y105.855 E10.9176
G1 X114.375 Y104.577 E10.98973
G1 X114.097 Y104.311 E11.00509
G1 X112.168 Y103.327 E11.09152
G1 X110 Y102.984 E11.17912
G1 X108.214 Y103.266 E11.25129
G1 X107.832 Y103.327 E11.26673
G1 X106.171 Y104.176 E11.34118
G1 X105.751 Y104.45 E11.3612
G1 X104.324 Y105.877 E11.44174
G1 X103.483 Y107.525 E11.51559
G1 X103.307 Y107.956 E11.53417
G1 X102.984 Y110 E11.61676
G1 X103.327 Y112.168 E11.70437
G1 X104.173 Y113.824 E11.77859
G1 X104.434 Y114.231 E11.79789
G1 X105.783 Y115.581 E11.87406
G1 X107.823 Y116.672 E11.96639
G1 X110 Y117.014 E12.05434
G0 F9000 X110 Y116.609
G1 F1800 X112.043 Y116.288 E12.13689
G1 X113.868 Y115.357 E12.21866
G1 X115.347 Y113.886 E12.30191
G1 X116.156 Y112.302 E12.3729
G1 X116.31 Y111.903 E12.38997
G1 X116.583 Y110.164 E12.46023
G1 X116.584 Y109.839 E12.4732
G1 X116.287 Y107.957 E12.54924
G1 X115.49 Y106.395 E12.61923
G1 X115.329 Y106.097 E12.63275
G1 X114.095 Y104.863 E12.7024
G1 X113.863 Y104.641 E12.71522
G1 X112.043 Y103.712 E12.79678
G1 X110 Y103.389 E12.87933
G1 X108.276 Y103.661 E12.94899
G1 X107.957 Y103.712 E12.96188
G1 X106.372 Y104.522 E13.03293
G1 X106.005 Y104.762 E13.05043
G1 X104.652 Y106.115 E13.1268
G1 X103.847 Y107.692 E13.19746
G1 X103.695 Y108.064 E13.2135
G1 X103.389 Y110 E13.29173
G1 X103.712 Y112.043 E13.37429
G1 X104.52 Y113.625 E13.44519
G1 X104.747 Y113.979 E13.46197
G1 X106.024 Y115.256 E13.53405
G1 X107.952 Y116.287 E13.62131
G1 X110 Y116.609 E13.70406
G0 F9000 X110 Y116.204
;TYPE:WALL-OUTER
G1 F1800 X111.918 Y115.903 E13.78154
G1 X113.63 Y115.029 E13.85826
G1 X115.02 Y113.647 E13.9365
G1 X115.79 Y112.139 E14.00407
G1 X115.921 Y111.799 E14.01862
G1 X116.183 Y110.132 E14.08597
G1 X116.184 Y109.87 E14.09642
G1 X115.902 Y108.082 E14.16867
G1 X115.136 Y106.581 E14.23593
G1 X115.005 Y106.338 E14.24695
G1 X113.816 Y105.149 E14.31406
G1 X113.629 Y104.971 E14.32436
G1 X111.918 Y104.097 E14.40105
G1 X110 Y103.794 E14.47855
G1 X108.338 Y104.056 E14.5457
G1 X108.082 Y104.097 E14.55605
G1 X106.573 Y104.868 E14.62368
G1 X106.259 Y105.074 E14.63867
G1 X104.98 Y106.353 E14.71086
G1 X104.211 Y107.859 E14.77835
G1 X104.083 Y108.172 E14.79185
G1 X103.794 Y110 E14.86572
G1 X104.097 Y111.918 E14.94322
G1 X104.867 Y113.426 E15.0108
G1 X105.06 Y113.727 E15.02507
G1 X106.265 Y114.931 E15.09305
G1 X108.081 Y115.902 E15.17524
G1 X110 Y116.204 E15.25278
G0 F9000 X110 Y116.644
G1 F1800 E12.25278
G0 F9000 X110 Y117.207
G0 X109.723 Y118.95
G0 X110 Y119.187
;TYPE:WALL-INNER
G1 F1800 E15.25278
G1 X107.159 Y118.738 E15.36758
G1 X104.601 Y117.434 E15.48217
G1 X102.566 Y115.399 E15.59704
G1 X101.262 Y112.841 E15.71163
G1 X100.813 Y110 E15.82643
G1 X101.262 Y107.159 E15.94123
G1 X102.566 Y104.601 E16.05582
G1 X104.601 Y102.566 E16.17069
G1 X107.159 Y101.262 E16.28528
G1 X110.001 Y100.813 E16.40012
G1 X112.616 Y101.226 E16.50578
G1 X112.841 Y101.262 E16.51488
G1 X115.362 Y102.547 E16.62782
G1 X115.398 Y102.565 E16.62942
G1 X117.434 Y104.601 E16.74434
G1 X118.738 Y107.159 E16.85894
G1 X119.187 Y110 E16.97374
G1 X118.738 Y112.841 E17.08853
G1 X117.434 Y115.399 E17.20313
G1 X115.4 Y117.433 E17.31794
G1 X112.841 Y118.738 E17.43259
G1 X110 Y119.187 E17.54738
G0 F9000 X110 Y119.592
G1 F1800 X107.034 Y119.123 E17.66723
G1 X104.362 Y117.761 E17.78694
G1 X102.239 Y115.638 E17.90677
G1 X100.877 Y112.966 E18.02647
G1 X100.408 Y110 E18.14632
G1 X100.877 Y107.034 E18.26617
G1 X102.239 Y104.362 E18.38587
G1 X104.362 Y102.239 E18.5057
G1 X107.034 Y100.877 E18.6254
G1 X110.001 Y100.408 E18.74529
G1 X112.68 Y100.831 E18.85354
G1 X112.966 Y100.877 E18.8651
G1 X115.544 Y102.191 E18.98059
G1 X115.639 Y102.24 E18.98486
G1 X117.761 Y104.362 E19.10463
G1 X119.123 Y107.034 E19.22433
G1 X119.592 Y110 E19.34418
G1 X119.123 Y112.966 E19.46403
G1 X117.761 Y115.638 E19.58373
G1 X115.639 Y117.76 E19.70351
G1 X112.966 Y119.123 E19.82326
G1 X110 Y119.592 E19.94311
G0 F9000 X110 Y119.997
;TYPE:WALL-OUTER
G1 F1800 X106.909 Y119.508 E20.06802
G1 X104.123 Y118.088 E20.19282
G1 X101.912 Y115.877 E20.31762
G1 X100.492 Y113.091 E20.44242
G1 X100.003 Y110 E20.56733
G1 X100.492 Y106.909 E20.69223
G1 X101.912 Y104.123 E20.81704
G1 X104.123 Y101.912 E20.94183
G1 X106.909 Y100.492 E21.06664
G1 X110 Y100.003 E21.19154
G1 X112.742 Y100.436 E21.30234
G1 X113.091 Y100.492 E21.31645
G1 X115.727 Y101.835 E21.43452
G1 X115.877 Y101.912 E21.44125
G1 X118.088 Y104.123 E21.56605
G1 X119.508 Y106.909 E21.69086
G1 X119.997 Y110 E21.81576
G1 X119.508 Y113.091 E21.94066
G1 X118.088 Y115.877 E22.06547
G1 X115.878 Y118.087 E22.19021
G1 X113.091 Y119.508 E22.31507
G1 X110 Y119.997 E22.43997
G0 F9000 X110 Y119.557
G0 X110 Y118.791
;TYPE:SKIN
G1 F1800 X107.277 Y118.361 E22.55
G1 X104.832 Y117.115 E22.65953
G1 X102.885 Y115.168 E22.76942
G1 X101.639 Y112.723 E22.87895
G1 X101.209 Y110 E22.98898
G1 X101.639 Y107.277 E23.099
G1 X102.885 Y104.832 E23.20853
G1 X104.832 Y102.885 E23.31843
G1 X107.277 Y101.639 E23.42795
G1 X110.001 Y101.209 E23.53802
G1 X112.555 Y101.612 E23.64122
G1 X112.723 Y101.639 E23.64801
G1 X115.172 Y102.889 E23.75775
G1 X117.115 Y104.832 E23.86742
G1 X118.361 Y107.277 E23.97695
G1 X118.791 Y110 E24.08697
G1 X118.361 Y112.723 E24.197
G1 X117.115 Y115.168 E24.30653
G1 X115.169 Y117.114 E24.41637
G1 X112.723 Y118.361 E24.52595
G1 X110 Y118.791 E24.63598
G0 F9000 X109.956 Y119.068
G0 X109.715 Y118.93
G0 X109.988 Y117.206
G0 X110.001 Y117.126
G0 X110 Y117.408
G1 F1800 X112.289 Y117.049 E24.72845
G1 X114.338 Y116.005 E24.82024
G1 X115.993 Y114.357 E24.91345
G1 X116.879 Y112.625 E24.9911
G1 X117.078 Y112.108 E25.01321
G1 X117.373 Y110.227 E25.0892
G1 X117.374 Y109.778 E25.10712
G1 X117.048 Y107.71 E25.19068
G1 X116.189 Y106.028 E25.26606
G1 X115.969 Y105.619 E25.2846
G1 X114.648 Y104.298 E25.35916
G1 X114.325 Y103.989 E25.377
G1 X112.29 Y102.951 E25.46818
G1 X110 Y102.59 E25.56071
G1 X108.153 Y102.88 E25.63533
G1 X107.709 Y102.951 E25.65327
G1 X105.976 Y103.838 E25.73098
G1 X105.504 Y104.146 E25.75347
G1 X104.004 Y105.645 E25.83811
G1 X103.128 Y107.363 E25.91508
G1 X102.929 Y107.851 E25.93611
G1 X102.59 Y110 E26.02294
G1 X102.951 Y112.291 E26.11551
G1 X103.834 Y114.019 E26.19296
G1 X104.128 Y114.477 E26.21468
G1 X105.549 Y115.897 E26.29486
G1 X107.698 Y117.047 E26.39214
G1 X110 Y117.408 E26.48514
G1 F1800 E23.48514
G0 F9000 X110.001 Y117.126
G0 X105.977 Y115.901
G0 X105.158 Y117.504
G0 X105.088 Y117.559
G0 X105.288 Y117.168
G1 F1800 E26.48514
G1 X102.83 Y114.709 E26.62391
G0 F9000 X102.438 Y114.907
G0 X102.228 Y114.275
G0 X103.767 Y113.49
G0 X103.857 Y113.446
G0 X103.463 Y113.646
G1 F1800 X101.662 Y111.844 E26.7256
G0 F9000 X101.767 Y112.515
G1 F1800 X107.483 Y118.231 E27.04823
G0 F9000 X108.154 Y118.336
G1 F1800 X106.292 Y116.475 E27.1533
G0 F9000 X106.499 Y116.089
G0 X107.109 Y116.528
G0 X106.32 Y118.075
G0 X106.242 Y118.147
G0 X106.442 Y117.756
G1 F1800 X102.241 Y113.555 E27.39042
G0 F9000 X101.85 Y113.753
G0 X101.621 Y113.127
G0 X103.176 Y112.333
G0 X103.266 Y112.29
G0 X102.872 Y112.489
G1 F1800 X101.556 Y111.173 E27.46471
G0 F9000 X101.45 Y110.501
G1 F1800 X102.705 Y111.756 E27.53554
G0 F9000 X102.599 Y111.085
G1 F1800 X101.391 Y109.876 E27.60376
G0 F9000 X101.467 Y109.387
G1 F1800 X102.494 Y110.414 E27.66172
G0 F9000 X102.458 Y109.812
G1 F1800 X101.544 Y108.898 E27.71331
G0 F9000 X101.621 Y108.41
G1 F1800 X102.535 Y109.323 E27.76488
G0 F9000 X102.613 Y108.835
G1 F1800 X101.698 Y107.921 E27.81649
G0 F9000 X101.775 Y107.432
G1 F1800 X102.69 Y108.347 E27.86814
G0 F9000 X102.767 Y107.858
G1 F1800 X101.941 Y107.032 E27.91476
