;FLAVOR:Marlin
;TIME:1041
;Filament used: 0.371395m
;Layer height: 0.16
;MINX:90.515
;MINY:90.518
;MINZ:0.24
;MAXX:129.485
;MAXY:129.485
;MAXZ:11.84
;Generated with Cura_SteamEngine 4.5.0
M140 S50
M105
M190 S50
M104 S215
M105
M109 S215
M82 ;absolute extrusion mode
M201 X500.00 Y500.00 Z100.00 E5000.00 ;Setup machine max acceleration
M203 X500.00 Y500.00 Z10.00 E50.00 ;Setup machine max feedrate
M204 P500.00 R1000.00 T500.00 ;Setup Print/Retract/Travel acceleration
M205 X8.00 Y8.00 Z0.40 E5.00 ;Setup Jerk
M220 S100 ;Reset Feedrate
M221 S100 ;Reset Flowrate

G28 ;Home

G92 E0 ;Reset Extruder
G1 Z2.0 F3000 ;Move Z Axis up
G1 X10.1 Y20 Z0.28 F5000.0 ;Move to start position
G1 X10.1 Y200.0 Z0.28 F1500.0 E15 ;Draw the first line
G1 X10.4 Y200.0 Z0.28 F5000.0 ;Move to side a little
G1 X10.4 Y20 Z0.28 F1500.0 E30 ;Draw the second line
G92 E0 ;Reset Extruder
G1 Z2.0 F3000 ;Move Z Axis up

G92 E0
G92 E0
G1 F1800 E-3
;LAYER_COUNT:60
;LAYER:0
M106 S63.8
M204 S500
M205 X6 Y6
G0 F9000 X96.745 Y95.826 Z0.24
;TYPE:SKIRT
G1 F1800 E0
G1 X97.332 Y95.253 E0.03274
G1 X98.032 Y94.628 E0.07019
G1 X98.782 Y94.065 E0.10762
G1 X99.855 Y93.416 E0.15767
G1 X100.531 Y93.058 E0.1882
G1 X101.731 Y92.445 E0.24199
G1 X102.501 Y92.065 E0.27626
G1 X103.359 Y91.688 E0.31366
G1 X104.247 Y91.384 E0.35112
G1 X105.429 Y91.105 E0.3996
G1 X106.243 Y90.96 E0.4326
G1 X107.537 Y90.753 E0.4849
G1 X108.377 Y90.63 E0.51878
G1 X109.31 Y90.534 E0.55622
G1 X110.248 Y90.518 E0.59366
G1 X111.462 Y90.616 E0.64227
G1 X112.345 Y90.737 E0.67784
G1 X113.639 Y90.939 E0.73011
G1 X114.488 Y91.084 E0.76449
G1 X115.404 Y91.283 E0.8019
G1 X116.3 Y91.559 E0.83932
G1 X117.461 Y92.048 E0.8896
G1 X118.203 Y92.412 E0.92259
G1 X119.45 Y93.046 E0.97842
G1 X120.163 Y93.424 E1.01063
G1 X120.971 Y93.9 E1.04806
G1 X121.735 Y94.443 E1.08547
G1 X122.637 Y95.226 E1.13314
G1 X123.135 Y95.708 E1.16081
G1 X124.174 Y96.745 E1.2194
G1 X124.747 Y97.332 E1.25214
G1 X125.372 Y98.032 E1.28959
G1 X125.935 Y98.782 E1.32702
G1 X126.584 Y99.856 E1.3771
G1 X126.943 Y100.534 E1.40772
G1 X127.57 Y101.761 E1.46272
G1 X127.938 Y102.505 E1.49585
G1 X128.316 Y103.363 E1.53327
G1 X128.619 Y104.25 E1.57068
G1 X128.907 Y105.477 E1.62098
G1 X129.043 Y106.257 E1.65258
G1 X129.252 Y107.567 E1.70553
G1 X129.377 Y108.431 E1.74037
G1 X129.471 Y109.364 E1.7778
G1 X129.485 Y110.302 E1.81524
G1 X129.38 Y111.538 E1.86475
G1 X129.274 Y112.286 E1.8949
G1 X129.044 Y113.751 E1.95409
G1 X128.916 Y114.492 E1.9841
G1 X128.716 Y115.408 E2.02152
G1 X128.438 Y116.304 E2.05897
G1 X127.985 Y117.385 E2.10575
G1 X127.656 Y118.066 E2.13593
G1 X126.987 Y119.383 E2.19489
G1 X126.591 Y120.136 E2.22885
G1 X126.117 Y120.945 E2.26627
G1 X125.576 Y121.711 E2.3037
G1 X124.753 Y122.661 E2.35386
G1 X124.255 Y123.173 E2.38237
G1 X123.255 Y124.174 E2.43884
G1 X122.669 Y124.746 E2.47153
G1 X121.97 Y125.37 E2.50893
G1 X121.22 Y125.933 E2.54636
G1 X120.144 Y126.583 E2.59653
G1 X119.477 Y126.936 E2.62665
G1 X118.275 Y127.55 E2.68052
G1 X117.52 Y127.925 E2.71417
G1 X116.662 Y128.305 E2.75162
G1 X115.776 Y128.611 E2.78903
G1 X114.539 Y128.902 E2.83975
G1 X113.696 Y129.05 E2.87391
G1 X112.429 Y129.253 E2.92512
G1 X111.576 Y129.377 E2.95953
G1 X110.643 Y129.471 E2.99695
G1 X109.705 Y129.485 E3.03439
G1 X108.446 Y129.378 E3.08483
G1 X107.665 Y129.266 E3.11632
G1 X106.364 Y129.062 E3.16888
G1 X105.512 Y128.916 E3.20338
G1 X104.596 Y128.717 E3.24079
G1 X103.7 Y128.441 E3.27821
G1 X102.536 Y127.95 E3.32863
G1 X101.813 Y127.595 E3.36078
G1 X100.642 Y127 E3.4132
G1 X99.89 Y126.604 E3.44712
G1 X99.08 Y126.132 E3.48454
G1 X98.314 Y125.592 E3.52195
G1 X97.403 Y124.807 E3.56994
G1 X96.834 Y124.26 E3.60144
G1 X95.826 Y123.255 E3.65826
G1 X95.253 Y122.668 E3.691
G1 X94.628 Y121.968 E3.72845
G1 X94.065 Y121.218 E3.76588
G1 X93.416 Y120.145 E3.81593
G1 X93.058 Y119.469 E3.84646
G1 X92.46 Y118.299 E3.8989
G1 X92.064 Y117.496 E3.93464
G1 X91.686 Y116.637 E3.9721
G1 X91.383 Y115.749 E4.00954
G1 X91.106 Y114.575 E4.05769
G1 X90.958 Y113.746 E4.0913
G1 X90.747 Y112.429 E4.14453
G1 X90.623 Y111.569 E4.17921
G1 X90.529 Y110.636 E4.21664
G1 X90.515 Y109.698 E4.25408
G1 X90.62 Y108.462 E4.30359
G1 X90.726 Y107.714 E4.33374
G1 X90.956 Y106.249 E4.39293
G1 X91.086 Y105.496 E4.42343
G1 X91.288 Y104.58 E4.46087
G1 X91.566 Y103.685 E4.49827
G1 X92.021 Y102.601 E4.54519
G1 X92.348 Y101.926 E4.57513
G1 X93.044 Y100.554 E4.63653
G1 X93.424 Y99.836 E4.66895
G1 X93.9 Y99.028 E4.70638
G1 X94.443 Y98.264 E4.74379
G1 X95.234 Y97.353 E4.79195
G1 X95.715 Y96.857 E4.81952
G1 X96.745 Y95.826 E4.87769
G0 F9000 X97.131 Y96.006
G1 F1800 X97.611 Y95.539 E4.90442
G1 X98.298 Y94.927 E4.94114
G1 X99.036 Y94.376 E4.9779
G1 X100.042 Y93.77 E5.02477
G1 X100.718 Y93.412 E5.0553
G1 X101.913 Y92.802 E5.10885
G1 X102.677 Y92.424 E5.14287
G1 X103.52 Y92.054 E5.17962
G1 X104.392 Y91.758 E5.21637
G1 X105.499 Y91.499 E5.26175
G1 X106.313 Y91.354 E5.29475
G1 X107.6 Y91.148 E5.34677
G1 X108.435 Y91.026 E5.38045
G1 X109.351 Y90.932 E5.4172
G1 X110.271 Y90.918 E5.45392
G1 X111.408 Y91.012 E5.49946
G1 X112.291 Y91.133 E5.53503
G1 X113.576 Y91.334 E5.58694
G1 X114.42 Y91.479 E5.62112
G1 X115.319 Y91.674 E5.65784
G1 X116.198 Y91.948 E5.69458
G1 X117.285 Y92.407 E5.74168
G1 X118.027 Y92.771 E5.77466
G1 X119.269 Y93.403 E5.83028
G1 X119.974 Y93.777 E5.86214
G1 X120.767 Y94.245 E5.89889
G1 X121.516 Y94.78 E5.93562
G1 X122.359 Y95.513 E5.98021
G1 X122.857 Y95.995 E6.00787
G1 X123.994 Y97.131 E6.07202
G1 X124.461 Y97.611 E6.09875
G1 X125.073 Y98.298 E6.13547
G1 X125.624 Y99.036 E6.17223
G1 X126.231 Y100.043 E6.21916
G1 X126.59 Y100.721 E6.24978
G1 X127.213 Y101.942 E6.30449
G1 X127.579 Y102.681 E6.3374
G1 X127.949 Y103.524 E6.37415
G1 X128.245 Y104.396 E6.4109
G1 X128.512 Y105.545 E6.45798
G1 X128.648 Y106.325 E6.48958
G1 X128.857 Y107.629 E6.54229
G1 X128.981 Y108.488 E6.57693
G1 X129.072 Y109.404 E6.61367
G1 X129.084 Y110.324 E6.65039
G1 X128.984 Y111.482 E6.69678
G1 X128.878 Y112.23 E6.72694
G1 X128.649 Y113.689 E6.78588
G1 X128.522 Y114.423 E6.81561
G1 X128.324 Y115.322 E6.85235
G1 X128.05 Y116.201 E6.8891
G1 X127.625 Y117.211 E6.93284
G1 X127.296 Y117.892 E6.96302
G1 X126.631 Y119.202 E7.02166
G1 X126.237 Y119.948 E7.05533
G1 X125.772 Y120.743 E7.09209
G1 X125.239 Y121.494 E7.12884
G1 X124.466 Y122.382 E7.17583
G1 X123.968 Y122.894 E7.20434
G1 X122.972 Y123.891 E7.26059
G1 X122.39 Y124.459 E7.29305
G1 X121.703 Y125.072 E7.32979
G1 X120.965 Y125.622 E7.36653
G1 X119.957 Y126.23 E7.41351
G1 X119.29 Y126.583 E7.44363
G1 X118.094 Y127.193 E7.49722
G1 X117.342 Y127.566 E7.53072
G1 X116.5 Y127.939 E7.56748
G1 X115.629 Y128.237 E7.60422
G1 X114.47 Y128.508 E7.65172
G1 X113.627 Y128.656 E7.68589
G1 X112.366 Y128.858 E7.73686
G1 X111.519 Y128.981 E7.77102
G1 X110.603 Y129.072 E7.80776
G1 X109.682 Y129.084 E7.84452
G1 X108.502 Y128.982 E7.89179
G1 X107.721 Y128.87 E7.92328
G1 X106.427 Y128.666 E7.97556
G1 X105.58 Y128.521 E8.00986
G1 X104.681 Y128.326 E8.04658
G1 X103.802 Y128.052 E8.08332
G1 X102.712 Y127.591 E8.13056
G1 X101.989 Y127.236 E8.16271
G1 X100.824 Y126.644 E8.21486
G1 X100.077 Y126.251 E8.24855
G1 X99.282 Y125.786 E8.28531
G1 X98.531 Y125.254 E8.32204
G1 X97.68 Y124.519 E8.36692
G1 X97.111 Y123.972 E8.39843
G1 X96.006 Y122.869 E8.46074
G1 X95.539 Y122.389 E8.48747
G1 X94.927 Y121.702 E8.52419
G1 X94.376 Y120.964 E8.56095
G1 X93.77 Y119.958 E8.60782
G1 X93.412 Y119.282 E8.63836
G1 X92.816 Y118.118 E8.69055
G1 X92.423 Y117.319 E8.72609
G1 X92.053 Y116.476 E8.76283
G1 X91.757 Y115.604 E8.79959
G1 X91.5 Y114.505 E8.84463
G1 X91.352 Y113.676 E8.87824
G1 X91.142 Y112.366 E8.9312
G1 X91.019 Y111.512 E8.96563
G1 X90.928 Y110.596 E9.00237
G1 X90.916 Y109.676 E9.03909
G1 X91.016 Y108.518 E9.08548
G1 X91.122 Y107.77 E9.11564
G1 X91.351 Y106.311 E9.17458
G1 X91.48 Y105.565 E9.2048
G1 X91.679 Y104.666 E9.24155
G1 X91.954 Y103.788 E9.27827
G1 X92.381 Y102.776 E9.32211
G1 X92.708 Y102.101 E9.35204
G1 X93.4 Y100.736 E9.41313
G1 X93.777 Y100.025 E9.44525
G1 X94.245 Y99.232 E9.482
G1 X94.78 Y98.482 E9.51877
G1 X95.521 Y97.632 E9.56377
G1 X96.002 Y97.136 E9.59135
G1 X97.131 Y96.006 E9.6551
G0 F9000 X97.41 Y96.293
G1 F1800 X97.89 Y95.826 E9.68183
G1 X98.565 Y95.226 E9.71788
G1 X99.29 Y94.687 E9.75393
G1 X100.229 Y94.123 E9.79765
G1 X100.905 Y93.765 E9.82818
G1 X102.094 Y93.158 E9.88146
G1 X102.854 Y92.783 E9.91529
G1 X103.681 Y92.421 E9.95132
G1 X104.537 Y92.133 E9.98737
G1 X105.569 Y91.893 E10.02966
G1 X106.383 Y91.748 E10.06266
G1 X107.662 Y91.544 E10.11435
G1 X108.493 Y91.421 E10.14788
G1 X109.391 Y91.33 E10.1839
G1 X110.294 Y91.319 E10.21995
G1 X111.354 Y91.408 E10.2624
G1 X112.237 Y91.529 E10.29797
G1 X113.514 Y91.729 E10.34956
G1 X114.351 Y91.873 E10.38346
G1 X115.234 Y92.066 E10.41953
G1 X116.095 Y92.336 E10.45555
G1 X117.108 Y92.767 E10.49949
G1 X117.85 Y93.131 E10.53247
G1 X119.087 Y93.759 E10.58784
G1 X119.786 Y94.13 E10.61943
G1 X120.563 Y94.589 E10.65545
G1 X121.297 Y95.116 E10.69151
G1 X122.081 Y95.801 E10.73306
G1 X122.579 Y96.283 E10.76072
G1 X123.707 Y97.41 E10.82436
G1 X124.174 Y97.89 E10.85109
G1 X124.774 Y98.565 E10.88714
G1 X125.313 Y99.29 E10.9232
G1 X125.877 Y100.23 E10.96695
G1 X126.236 Y100.908 E10.99757
G1 X126.857 Y102.124 E11.05206
G1 X127.22 Y102.858 E11.08475
G1 X127.583 Y103.685 E11.12079
G1 X127.871 Y104.541 E11.15684
G1 X128.118 Y105.614 E11.20079
G1 X128.254 Y106.394 E11.23239
G1 X128.462 Y107.692 E11.28485
G1 X128.585 Y108.544 E11.31921
G1 X128.674 Y109.443 E11.35527
G1 X128.683 Y110.346 E11.39131
G1 X128.588 Y111.426 E11.43458
G1 X128.482 Y112.174 E11.46473
G1 X128.254 Y113.626 E11.5234
G1 X128.128 Y114.354 E11.55289
G1 X127.933 Y115.236 E11.58894
G1 X127.662 Y116.098 E11.625
G1 X127.264 Y117.037 E11.66571
G1 X126.935 Y117.718 E11.69589
G1 X126.274 Y119.02 E11.75417
G1 X125.884 Y119.761 E11.78759
G1 X125.426 Y120.54 E11.82366
G1 X124.902 Y121.275 E11.85969
G1 X124.18 Y122.103 E11.90353
G1 X123.682 Y122.615 E11.93204
G1 X122.689 Y123.608 E11.98809
G1 X122.111 Y124.172 E12.02032
G1 X121.437 Y124.773 E12.05636
G1 X120.712 Y125.311 E12.0924
G1 X119.77 Y125.876 E12.13624
G1 X119.103 Y126.229 E12.16636
G1 X117.912 Y126.837 E12.21973
G1 X117.165 Y127.208 E12.25302
G1 X116.338 Y127.573 E12.2891
G1 X115.483 Y127.863 E12.32513
G1 X114.401 Y128.114 E12.36946
G1 X113.558 Y128.262 E12.40363
G1 X112.304 Y128.462 E12.45431
G1 X111.462 Y128.585 E12.48827
G1 X110.563 Y128.674 E12.52433
G1 X109.66 Y128.683 E12.56037
G1 X108.559 Y128.586 E12.60448
G1 X107.778 Y128.474 E12.63597
G1 X106.489 Y128.271 E12.68805
G1 X105.649 Y128.127 E12.72207
G1 X104.766 Y127.934 E12.75814
G1 X103.905 Y127.664 E12.79416
G1 X102.888 Y127.232 E12.83826
G1 X102.165 Y126.877 E12.87041
G1 X101.005 Y126.287 E12.92235
G1 X100.264 Y125.897 E12.95577
G1 X99.485 Y125.44 E12.99182
G1 X98.749 Y124.917 E13.02785
G1 X97.957 Y124.23 E13.0697
G1 X97.388 Y123.683 E13.1012
G1 X96.293 Y122.59 E13.16295
G1 X95.826 Y122.11 E13.18968
G1 X95.226 Y121.435 E13.22573
G1 X94.687 Y120.71 E13.26178
G1 X94.123 Y119.771 E13.3055
G1 X93.765 Y119.095 E13.33603
G1 X93.173 Y117.936 E13.38797
G1 X92.782 Y117.143 E13.42326
G1 X92.419 Y116.315 E13.45935
G1 X92.132 Y115.459 E13.49538
G1 X91.894 Y114.435 E13.53734
G1 X91.746 Y113.606 E13.57095
G1 X91.538 Y112.303 E13.62361
G1 X91.415 Y111.456 E13.65777
G1 X91.326 Y110.557 E13.69383
G1 X91.317 Y109.654 E13.72987
G1 X91.412 Y108.574 E13.77315
G1 X91.518 Y107.826 E13.8033
G1 X91.746 Y106.374 E13.86196
G1 X91.874 Y105.634 E13.89193
G1 X92.07 Y104.753 E13.92796
G1 X92.342 Y103.892 E13.96399
G1 X92.741 Y102.95 E14.00483
G1 X93.068 Y102.275 E14.03476
G1 X93.757 Y100.917 E14.09554
G1 X94.13 Y100.213 E14.12734
G1 X94.59 Y99.435 E14.16341
G1 X95.116 Y98.702 E14.19942
G1 X95.809 Y97.91 E14.24142
G1 X96.29 Y97.414 E14.269
G1 X97.41 Y96.293 E14.33224
G1 F1800 E11.33224
;MESH:GlassHolder_TemplesHolder.stl
G0 F9000 X106.497 Y107.455
G0 X104.977 Y106.351
G0 X104.552 Y109.999
G0 X104.818 Y111.684
G0 X105.669 Y113.278
G0 X106.722 Y114.33
G0 X109.994 Y116.015
;TYPE:WALL-INNER
G1 F1800 E14.33224
G1 X111.858 Y115.721 E14.40756
G1 X113.521 Y114.875 E14.48203
G1 X114.865 Y113.537 E14.55772
G1 X115.587 Y112.122 E14.62112
G1 X115.744 Y111.716 E14.6385
G1 X115.986 Y110.177 E14.70068
G1 X115.987 Y109.827 E14.71465
G1 X115.72 Y108.141 E14.78278
G1 X115.018 Y106.763 E14.8445
G1 X114.846 Y106.444 E14.85897
G1 X113.52 Y105.125 E14.93361
G1 X111.859 Y104.279 E15.00801
G1 X110 Y103.985 E15.08313
G1 X108.486 Y104.224 E15.14431
G1 X108.141 Y104.279 E15.15825
G1 X106.725 Y105.002 E15.22171
G1 X106.353 Y105.245 E15.23944
G1 X105.133 Y106.465 E15.3083
G1 X104.418 Y107.868 E15.37115
G1 X104.261 Y108.25 E15.38764
G1 X103.984 Y109.999 E15.45831
G1 X104.279 Y111.859 E15.53348
G1 X104.999 Y113.272 E15.59677
G1 X105.231 Y113.632 E15.61387
G1 X106.384 Y114.786 E15.67897
G1 X108.051 Y115.678 E15.75443
G1 X109.994 Y116.015 E15.83314
G0 F9000 X109.997 Y115.61
G1 F1800 X111.733 Y115.336 E15.90329
G1 X113.283 Y114.547 E15.9727
G1 X114.538 Y113.298 E16.04337
G1 X115.221 Y111.959 E16.10337
G1 X115.355 Y111.612 E16.11821
G1 X115.586 Y110.145 E16.17748
G1 X115.587 Y109.858 E16.18894
G1 X115.335 Y108.266 E16.25327
G1 X114.664 Y106.949 E16.31226
G1 X114.522 Y106.686 E16.32419
G1 X113.282 Y105.453 E16.39399
G1 X111.734 Y104.664 E16.46333
G1 X110 Y104.39 E16.5334
G1 X108.548 Y104.619 E16.59207
G1 X108.266 Y104.664 E16.60347
G1 X106.926 Y105.348 E16.66351
G1 X106.607 Y105.557 E16.67873
G1 X105.461 Y106.703 E16.74342
G1 X104.782 Y108.035 E16.80309
G1 X104.649 Y108.359 E16.81707
G1 X104.389 Y109.999 E16.88334
G1 X104.664 Y111.734 E16.95346
G1 X105.346 Y113.072 E17.0134
G1 X105.544 Y113.379 E17.02798
G1 X106.625 Y114.461 E17.08902
G1 X108.183 Y115.295 E17.15955
G1 X109.997 Y115.61 E17.23304
G0 F9000 X110 Y115.205
;TYPE:WALL-OUTER
G1 F1800 X111.608 Y114.951 E17.29801
G1 X113.045 Y114.219 E17.36238
G1 X114.211 Y113.059 E17.42802
G1 X114.855 Y111.796 E17.48461
G1 X114.966 Y111.508 E17.49692
G1 X115.186 Y110.113 E17.55329
G1 X115.187 Y109.889 E17.56223
G1 X114.95 Y108.391 E17.62276
G1 X114.31 Y107.135 E17.67903
G1 X114.198 Y106.928 E17.68842
G1 X113.044 Y105.781 E17.75336
G1 X111.609 Y105.049 E17.81765
G1 X110 Y104.795 E17.88267
G1 X108.61 Y105.014 E17.93883
G1 X108.391 Y105.049 E17.94768
G1 X107.127 Y105.694 E18.00432
G1 X106.861 Y105.869 E18.01703
G1 X105.789 Y106.941 E18.07754
G1 X105.146 Y108.202 E18.13403
G1 X105.037 Y108.468 E18.1455
G1 X104.794 Y109.999 E18.20737
G1 X105.049 Y111.609 E18.27243
G1 X105.693 Y112.872 E18.32902
G1 X105.857 Y113.127 E18.34112
G1 X106.866 Y114.136 E18.39807
G1 X108.315 Y114.912 E18.46367
G1 X110 Y115.205 E18.53194
G0 F9000 X109.997 Y115.645
G1 F1800 E15.53194
G0 F9000 X109.992 Y116.208
G0 X109.823 Y117.266
G0 X110 Y117.487
;TYPE:WALL-INNER
G1 F1800 E18.53194
G1 X107.684 Y117.121 E18.62552
G1 X105.6 Y116.059 E18.71887
G1 X103.942 Y114.401 E18.81246
G1 X102.879 Y112.316 E18.90587
G1 X102.513 Y109.999 E18.99949
G1 X102.879 Y107.684 E19.09303
G1 X103.941 Y105.6 E19.18639
G1 X105.599 Y103.942 E19.27997
G1 X107.684 Y102.879 E19.37338
G1 X110.001 Y102.513 E19.467
G1 X112.154 Y102.853 E19.554
G1 X112.316 Y102.879 E19.56055
G1 X114.392 Y103.937 E19.65355
G1 X114.4 Y103.941 E19.6539
G1 X116.059 Y105.6 E19.74754
G1 X117.121 Y107.684 E19.8409
G1 X117.487 Y109.999 E19.93444
G1 X117.121 Y112.316 E20.02807
G1 X116.059 Y114.4 E20.12142
G1 X114.401 Y116.058 E20.215
G1 X112.316 Y117.121 E20.30841
G1 X110 Y117.487 E20.402
G0 F9000 X110 Y117.892
G1 F1800 X107.559 Y117.506 E20.50063
G1 X105.361 Y116.386 E20.59909
G1 X103.615 Y114.64 E20.69764
G1 X102.494 Y112.441 E20.79616
G1 X102.108 Y109.999 E20.89483
G1 X102.494 Y107.559 E20.99343
G1 X103.614 Y105.361 E21.09189
G1 X105.36 Y103.615 E21.19044
G1 X107.559 Y102.494 E21.28895
G1 X110.001 Y102.108 E21.38763
G1 X112.216 Y102.458 E21.47713
G1 X112.441 Y102.494 E21.48623
G1 X114.575 Y103.581 E21.58181
G1 X114.639 Y103.614 E21.58469
G1 X116.386 Y105.361 E21.68329
G1 X117.506 Y107.559 E21.78175
G1 X117.892 Y109.999 E21.88035
G1 X117.506 Y112.441 E21.97903
G1 X116.386 Y114.639 E22.07748
G1 X114.64 Y116.385 E22.17604
G1 X112.441 Y117.506 E22.27455
G1 X110 Y117.892 E22.37319
G0 F9000 X110 Y118.297
;TYPE:WALL-OUTER
