;FLAVOR:Marlin
;TIME:206
;Filament used: 0.0611315m
;Layer height: 0.24
;MINX:106.203
;MINY:106.203
;MINZ:0.24
;MAXX:113.797
;MAXY:113.797
;MAXZ:9.48
;Generated with Cura_SteamEngine 4.10.0
M82 ;absolute extrusion mode
M201 X500.00 Y500.00 Z100.00 E5000.00 ;Setup machine max acceleration
M203 X500.00 Y500.00 Z10.00 E50.00 ;Setup machine max feedrate
M204 P500.00 R1000.00 T500.00 ;Setup Print/Retract/Travel acceleration
M205 X8.00 Y8.00 Z0.40 E5.00 ;Setup Jerk
M220 S100 ;Reset Feedrate
M221 S100 ;Reset Flowrate

;*** Start Dual Nozzle/Bed Preheating ***
M140 S50 ; start preheating the bed
M104 S195 ?T0 ; start preheating hotend
M190 S50 ; heat to Cura Bed setting and WAIT
M109 S195 ?T0 ; heat to Cura Hotend and WAIT
;*** End Preheating ***

;*** Single Print Start Tone
M300 S1000 P500 ; chirp to indicate starting to print
;*** End Single Start Tone

G28 ;Home

G92 E0 ;Reset Extruder
G1 Z2.0 F3000 ;Move Z Axis up

G1 X10.1 Y20 Z0.28 F5000.0 ;Move to start position
G1 X10.1 Y200.0 Z0.28 F1500.0 E15 ;Draw the first line
G1 X10.4 Y200.0 Z0.28 F5000.0 ;Move to side a little
G1 X10.4 Y20 Z0.28 F1500.0 E30 ;Draw the second line
G92 E0 ;Reset Extruder
G1 Z2.0 F3000 ;Move Z Axis up
G92 E0
G92 E0
G1 F2400 E-3.2
;LAYER_COUNT:37
;LAYER:0
M106 S63.8
M204 S500
M205 X6 Y6
;MESH:metal_shelve_endcap_small.stl
G0 F9000 X108.855 Y113.524 Z0.24
;TYPE:WALL-OUTER
G1 F1440 E0
G1 F600 X110 Y113.706 E0.04627
G1 X111.145 Y113.524 E0.09255
G1 X112.178 Y112.998 E0.13881
G1 X112.998 Y112.178 E0.1851
G1 X113.524 Y111.145 E0.23136
G1 X113.706 Y110 E0.27764
G1 X113.523 Y108.852 E0.32403
G1 X112.998 Y107.822 E0.37018
G1 X112.178 Y107.002 E0.41646
G1 X111.145 Y106.476 E0.46273
G1 X110 Y106.294 E0.509
G1 X108.855 Y106.476 E0.55527
G1 X107.822 Y107.002 E0.60154
G1 X107.002 Y107.822 E0.64782
G1 X106.476 Y108.855 E0.69409
G1 X106.294 Y110 E0.74036
G1 X106.476 Y111.145 E0.78664
G1 X107.002 Y112.178 E0.8329
G1 X107.822 Y112.998 E0.87919
G1 X108.263 Y113.223 E0.89895
G0 F540 X108.855 Y113.524
G0 F9000 X111.175 Y113.611
G1 F600 X111.16 Y113.613 E0.89955
G1 X110.015 Y113.794 E0.90993
G1 X110 Y113.797 E0.91055
G1 X109.986 Y113.795 E0.91089
G1 X108.841 Y113.614 E0.92136
G1 X108.825 Y113.611 E0.92176
G1 X108.814 Y113.606 E0.92205
G1 X107.781 Y113.079 E0.93253
G1 X107.766 Y113.071 E0.93294
G1 X107.758 Y113.063 E0.93339
G1 X106.938 Y112.243 E0.94392
G1 X106.929 Y112.234 E0.94424
G1 X106.922 Y112.22 E0.94486
G1 X106.395 Y111.187 E0.95535
G1 X106.389 Y111.175 E0.95568
G1 X106.387 Y111.16 E0.95628
G1 X106.206 Y110.015 E0.96667
G1 X106.203 Y110 E0.96728
G1 X106.205 Y109.987 E0.9678
G1 X106.385 Y108.841 E0.97831
G1 X106.388 Y108.828 E0.97863
G1 X106.395 Y108.814 E0.97902
G1 X106.921 Y107.781 E0.98943
G1 X106.929 Y107.766 E0.98984
G1 X106.937 Y107.758 E0.9903
G1 X107.757 Y106.938 E1.00083
G1 X107.766 Y106.929 E1.00114
G1 X107.78 Y106.922 E1.00176
G1 X108.813 Y106.395 E1.01225
G1 X108.825 Y106.389 E1.01258
G1 X108.84 Y106.387 E1.01318
G1 X109.985 Y106.206 E1.02357
G1 X110 Y106.203 E1.02418
G1 X110.014 Y106.205 E1.02452
G1 X111.159 Y106.386 E1.03499
G1 X111.175 Y106.389 E1.03539
G1 X111.186 Y106.394 E1.03569
G1 X112.219 Y106.921 E1.04616
G1 X112.234 Y106.929 E1.04657
G1 X112.242 Y106.937 E1.04703
G1 X113.062 Y107.757 E1.05756
G1 X113.071 Y107.766 E1.05787
G1 X113.078 Y107.78 E1.05849
G1 X113.603 Y108.81 E1.06891
G1 X113.611 Y108.825 E1.06958
G1 X113.613 Y108.837 E1.06988
G1 X113.794 Y109.985 E1.08033
G1 X113.797 Y110 E1.08094
G1 X113.795 Y110.014 E1.08129
G1 X113.614 Y111.159 E1.09176
G1 X113.611 Y111.175 E1.09216
G1 X113.606 Y111.186 E1.09245
G1 X113.079 Y112.219 E1.10293
G1 X113.071 Y112.234 E1.10334
G1 X113.063 Y112.242 E1.10379
G1 X112.243 Y113.062 E1.11432
G1 X112.234 Y113.071 E1.11464
G1 X112.22 Y113.078 E1.11526
G1 X111.187 Y113.605 E1.12575
G1 X111.175 Y113.611 E1.12608
M104 S195
G0 F9000 X111.131 Y113.728
;MESH:NONMESH
G0 F300 X111.131 Y113.728 Z0.52
G0 F9000 X111.131 Y113.72
G0 X108.855 Y113.524
;TIME_ELAPSED:9.465051
;LAYER:1
M140 S40
M106 S127.5
;TYPE:WALL-OUTER
;MESH:metal_shelve_endcap_small.stl
G1 F600 X110 Y113.706 E1.18006
G1 X111.145 Y113.524 E1.23405
G1 X112.178 Y112.998 E1.28803
G1 X112.998 Y112.178 E1.34202
G1 X113.524 Y111.145 E1.396
G1 X113.706 Y110 E1.44999
G1 X113.524 Y108.855 E1.50397
G1 X112.998 Y107.822 E1.55795
G1 X112.178 Y107.002 E1.61195
G1 X111.145 Y106.476 E1.66593
G1 X110 Y106.294 E1.71991
G1 X108.855 Y106.476 E1.7739
G1 X107.822 Y107.002 E1.82787
G1 X107.002 Y107.822 E1.88187
G1 X106.476 Y108.855 E1.93585
G1 X106.295 Y110 E1.98983
G1 X106.465 Y111.079 E2.04069
G1 X106.478 Y111.147 E2.04391
G1 X107.002 Y112.178 E2.09777
G1 X107.822 Y112.998 E2.15177
G1 X108.347 Y113.266 E2.17921
G0 F540 X108.855 Y113.524
G0 F10500 X111.175 Y113.611
G1 F600 X111.16 Y113.613 E2.17992
G1 X110.015 Y113.794 E2.19203
G1 X110 Y113.797 E2.19274
G1 X109.986 Y113.795 E2.19315
G1 X108.841 Y113.614 E2.20536
G1 X108.825 Y113.611 E2.20583
G1 X108.814 Y113.606 E2.20617
G1 X107.781 Y113.079 E2.21839
G1 X107.766 Y113.071 E2.21887
G1 X107.758 Y113.063 E2.2194
G1 X106.938 Y112.243 E2.23169
G1 X106.929 Y112.234 E2.23205
G1 X106.922 Y112.22 E2.23278
G1 X106.397 Y111.189 E2.24497
G1 X106.389 Y111.175
G1 X106.387 Y111.161
G1 X106.377 Y111.094 E2.24564
G1 X106.206 Y110.015 E2.25706
G1 X106.203 Y110 E2.25778
G1 X106.205 Y109.986 E2.25818
G1 X106.386 Y108.841 E2.27046
G1 X106.389 Y108.825 E2.27093
G1 X106.394 Y108.814 E2.27127
G1 X106.921 Y107.781 E2.28349
G1 X106.929 Y107.766 E2.28397
G1 X106.937 Y107.758 E2.2845
G1 X107.757 Y106.938 E2.29679
G1 X107.766 Y106.929 E2.29715
G1 X107.78 Y106.922 E2.29788
G1 X108.813 Y106.395 E2.31011
G1 X108.825 Y106.389 E2.3105
G1 X108.84 Y106.387 E2.3112
G1 X109.985 Y106.206 E2.32332
G1 X110 Y106.203 E2.32403
G1 X110.014 Y106.205 E2.32443
G1 X111.159 Y106.386 E2.33665
G1 X111.175 Y106.389 E2.33711
G1 X111.186 Y106.394 E2.33746
G1 X112.219 Y106.921 E2.34967
G1 X112.234 Y106.929 E2.35016
G1 X112.242 Y106.937 E2.35069
G1 X113.062 Y107.757 E2.36297
G1 X113.071 Y107.766 E2.36334
G1 X113.078 Y107.78 E2.36406
G1 X113.605 Y108.813 E2.3763
G1 X113.611 Y108.825 E2.37668
G1 X113.613 Y108.84 E2.37739
G1 X113.794 Y109.985 E2.3895
G1 X113.797 Y110 E2.39021
G1 X113.795 Y110.014 E2.39062
G1 X113.614 Y111.159 E2.40283
G1 X113.611 Y111.175 E2.4033
G1 X113.606 Y111.186 E2.40364
G1 X113.079 Y112.219 E2.41586
G1 X113.071 Y112.234 E2.41634
G1 X113.063 Y112.242 E2.41687
G1 X112.243 Y113.062 E2.42916
G1 X112.234 Y113.071 E2.42952
G1 X112.22 Y113.078 E2.43025
G1 X111.187 Y113.605 E2.44248
G1 X111.175 Y113.611 E2.44287
G0 F10500 X111.131 Y113.728
;MESH:NONMESH
G0 F300 X111.131 Y113.728 Z0.8
G0 F10500 X111.131 Y113.72
G0 X108.855 Y113.524
;TIME_ELAPSED:14.538164
;LAYER:2
M106 S191.3
;TYPE:WALL-OUTER
;MESH:metal_shelve_endcap_small.stl
G1 F600 X110 Y113.706 E2.49685
G1 X111.145 Y113.524 E2.55084
G1 X112.178 Y112.998 E2.60482
G1 X112.998 Y112.178 E2.65882
G1 X113.524 Y111.145 E2.71279
G1 X113.706 Y110 E2.76678
G1 X113.524 Y108.855 E2.82076
G1 X112.998 Y107.822 E2.87474
G1 X112.178 Y107.002 E2.92874
G1 X111.145 Y106.476 E2.98272
G1 X110 Y106.294 E3.0367
G1 X108.855 Y106.476 E3.09069
G1 X107.822 Y107.002 E3.14467
G1 X107.002 Y107.822 E3.19866
G1 X106.476 Y108.855 E3.25264
G1 X106.294 Y110 E3.30663
G1 X106.476 Y111.145 E3.36061
G1 X107.002 Y112.178 E3.41459
G1 X107.822 Y112.998 E3.46859
G1 X108.347 Y113.266 E3.49604
G0 F540 X108.855 Y113.524
G0 F12000 X111.175 Y113.611
G1 F600 X111.16 Y113.613 E3.49674
G1 X110.015 Y113.794 E3.50885
G1 X110 Y113.797 E3.50957
G1 X109.986 Y113.795 E3.50997
G1 X108.841 Y113.614 E3.52218
G1 X108.825 Y113.611 E3.52265
G1 X108.814 Y113.606 E3.52299
G1 X107.781 Y113.079 E3.53521
G1 X107.766 Y113.071 E3.5357
G1 X107.758 Y113.063 E3.53622
G1 X106.938 Y112.243 E3.54851
G1 X106.929 Y112.234 E3.54887
G1 X106.922 Y112.22 E3.5496
G1 X106.395 Y111.187 E3.56184
G1 X106.389 Y111.175 E3.56222
G1 X106.387 Y111.16 E3.56293
G1 X106.206 Y110.015 E3.57504
G1 X106.203 Y110 E3.57575
G1 X106.205 Y109.986 E3.57615
G1 X106.386 Y108.841 E3.58837
G1 X106.389 Y108.825 E3.58883
G1 X106.394 Y108.814 E3.58918
G1 X106.921 Y107.781 E3.6014
G1 X106.929 Y107.766 E3.60188
G1 X106.937 Y107.758 E3.60241
G1 X107.757 Y106.938 E3.61469
G1 X107.766 Y106.929 E3.61506
G1 X107.78 Y106.922 E3.61579
G1 X108.813 Y106.395 E3.62802
G1 X108.825 Y106.389 E3.62841
G1 X108.84 Y106.387 E3.62911
G1 X109.985 Y106.206 E3.64122
G1 X110 Y106.203 E3.64194
G1 X110.014 Y106.205 E3.64234
G1 X111.159 Y106.386 E3.65455
G1 X111.175 Y106.389 E3.65502
G1 X111.186 Y106.394 E3.65536
G1 X112.219 Y106.921 E3.66758
G1 X112.234 Y106.929 E3.66807
G1 X112.242 Y106.937 E3.66859
G1 X113.062 Y107.757 E3.68088
G1 X113.071 Y107.766 E3.68124
G1 X113.078 Y107.78 E3.68197
G1 X113.605 Y108.813 E3.69421
G1 X113.611 Y108.825 E3.69459
G1 X113.613 Y108.84 E3.6953
G1 X113.794 Y109.985 E3.70741
G1 X113.797 Y110 E3.70812
G1 X113.795 Y110.014 E3.70853
G1 X113.614 Y111.159 E3.72074
G1 X113.611 Y111.175 E3.7212
G1 X113.606 Y111.186 E3.72155
G1 X113.079 Y112.219 E3.73377
G1 X113.071 Y112.234 E3.73425
G1 X113.063 Y112.242 E3.73478
G1 X112.243 Y113.062 E3.74706
G1 X112.234 Y113.071 E3.74743
G1 X112.22 Y113.078 E3.74816
G1 X111.187 Y113.605 E3.76039
G1 X111.175 Y113.611 E3.76078
G0 F12000 X111.131 Y113.728
;MESH:NONMESH
G0 F300 X111.131 Y113.728 Z1.08
G0 F12000 X111.131 Y113.72
G0 X108.855 Y113.524
;TIME_ELAPSED:19.611873
;LAYER:3
M106 S255
;TYPE:WALL-OUTER
;MESH:metal_shelve_endcap_small.stl
G1 F600 X110 Y113.706 E3.81476
G1 X111.145 Y113.524 E3.86875
G1 X112.178 Y112.998 E3.92272
G1 X112.998 Y112.178 E3.97672
G1 X113.524 Y111.145 E4.0307
G1 X113.706 Y110 E4.08469
G1 X113.522 Y108.851 E4.13887
G1 X112.998 Y107.822 E4.19264
G1 X112.178 Y107.002 E4.24664
G1 X111.145 Y106.476 E4.30061
G1 X110 Y106.294 E4.3546
G1 X108.855 Y106.476 E4.40859
G1 X107.822 Y107.002 E4.46256
G1 X107.002 Y107.822 E4.51656
G1 X106.476 Y108.855 E4.57054
G1 X106.294 Y110 E4.62452
G1 X106.476 Y111.145 E4.67851
G1 X107.002 Y112.178 E4.73249
G1 X107.822 Y112.998 E4.78649
G1 X108.347 Y113.266 E4.81393
G0 F540 X108.855 Y113.524
G0 F12000 X111.175 Y113.611
G1 F600 X111.16 Y113.613 E4.81464
G1 X110.015 Y113.794 E4.82675
G1 X110 Y113.797 E4.82746
G1 X109.986 Y113.795 E4.82787
G1 X108.841 Y113.614 E4.84008
G1 X108.825 Y113.611 E4.84055
G1 X108.814 Y113.606 E4.84089
G1 X107.781 Y113.079 E4.85311
G1 X107.766 Y113.071 E4.85359
G1 X107.758 Y113.063 E4.85412
G1 X106.938 Y112.243 E4.86641
G1 X106.929 Y112.234 E4.86677
G1 X106.922 Y112.22 E4.8675
G1 X106.395 Y111.187 E4.87973
G1 X106.389 Y111.175 E4.88012
G1 X106.387 Y111.16 E4.88082
G1 X106.206 Y110.015 E4.89294
G1 X106.203 Y110 E4.89365
G1 X106.205 Y109.987 E4.89426
G1 X106.385 Y108.841 E4.90652
G1 X106.388 Y108.828 E4.9069
G1 X106.395 Y108.814 E4.90735
G1 X106.921 Y107.781 E4.91949
G1 X106.929 Y107.766 E4.91998
G1 X106.937 Y107.758 E4.92051
G1 X107.757 Y106.938 E4.93279
G1 X107.766 Y106.929 E4.93315
G1 X107.78 Y106.922 E4.93388
G1 X108.813 Y106.395 E4.94612
G1 X108.825 Y106.389 E4.9465
G1 X108.84 Y106.387 E4.94721
G1 X109.985 Y106.206 E4.95932
G1 X110 Y106.203 E4.96003
G1 X110.014 Y106.205 E4.96044
G1 X111.159 Y106.386 E4.97265
G1 X111.175 Y106.389 E4.97312
G1 X111.186 Y106.394 E4.97346
G1 X112.219 Y106.921 E4.98568
G1 X112.234 Y106.929 E4.98616
G1 X112.242 Y106.937 E4.98669
G1 X113.062 Y107.757 E4.99898
G1 X113.071 Y107.766 E4.99934
G1 X113.078 Y107.78 E5.00007
G1 X113.603 Y108.809 E5.01227
G1 X113.611 Y108.825 E5.01279
G1 X113.612 Y108.836 E5.0133
G1 X113.794 Y109.985 E5.02551
G1 X113.797 Y110 E5.02622
G1 X113.795 Y110.014 E5.02662
G1 X113.614 Y111.159 E5.03884
G1 X113.611 Y111.175 E5.0393
G1 X113.606 Y111.186 E5.03965
G1 X113.079 Y112.219 E5.05186
G1 X113.071 Y112.234 E5.05235
G1 X113.063 Y112.242 E5.05288
G1 X112.243 Y113.062 E5.06516
G1 X112.234 Y113.071 E5.06553
G1 X112.22 Y113.078 E5.06625
G1 X111.187 Y113.605 E5.07849
G1 X111.175 Y113.611 E5.07887
G0 F12000 X111.131 Y113.728
;MESH:NONMESH
G0 F300 X111.131 Y113.728 Z1.36
G0 F12000 X111.131 Y113.72
G0 X108.855 Y113.524
;TIME_ELAPSED:24.685567
;LAYER:4
;TYPE:WALL-OUTER
;MESH:metal_shelve_endcap_small.stl
G1 F600 X110 Y113.706 E5.13286
G1 X111.145 Y113.524 E5.18684
G1 X112.178 Y112.998 E5.24082
G1 X112.998 Y112.178 E5.29482
G1 X113.524 Y111.145 E5.3488
G1 X113.706 Y110 E5.40278
G1 X113.522 Y108.85 E5.45701
G1 X112.998 Y107.822 E5.51074
G1 X112.178 Y107.002 E5.56474
G1 X111.145 Y106.476 E5.61872
G1 X110 Y106.294 E5.6727
G1 X108.855 Y106.476 E5.72669
G1 X107.822 Y107.002 E5.78067
G1 X107.002 Y107.822 E5.83466
G1 X106.476 Y108.855 E5.88864
G1 X106.294 Y110 E5.94263
G1 X106.476 Y111.145 E5.99661
G1 X107.002 Y112.178 E6.05059
G1 X107.822 Y112.998 E6.10459
G1 X108.347 Y113.266 E6.13204
G0 F540 X108.855 Y113.524
G0 F12000 X111.175 Y113.611
G1 F600 X111.16 Y113.613 E6.13274
G1 X110.015 Y113.794 E6.14485
G1 X110 Y113.797 E6.14557
G1 X109.986 Y113.795 E6.14597
G1 X108.841 Y113.614 E6.15818
G1 X108.825 Y113.611 E6.15865
G1 X108.814 Y113.606 E6.15899
G1 X107.781 Y113.079 E6.17121
G1 X107.767 Y113.072 E6.17194
G1 X107.758 Y113.063 E6.17253
G1 X106.938 Y112.243 E6.18482
G1 X106.929 Y112.234 E6.18518
G1 X106.922 Y112.22 E6.18591
G1 X106.395 Y111.187 E6.19815
G1 X106.389 Y111.175 E6.19853
G1 X106.387 Y111.16 E6.19923
G1 X106.206 Y110.015 E6.21135
G1 X106.203 Y110 E6.21206
G1 X106.205 Y109.986 E6.21246
G1 X106.386 Y108.841 E6.22468
G1 X106.389 Y108.825 E6.22514
G1 X106.394 Y108.814 E6.22549
G1 X106.921 Y107.781 E6.23771
G1 X106.929 Y107.766 E6.23819
G1 X106.937 Y107.758 E6.23872
G1 X107.757 Y106.938 E6.251
G1 X107.766 Y106.929 E6.25137
G1 X107.78 Y106.922 E6.2521
G1 X108.813 Y106.395 E6.26433
G1 X108.825 Y106.389 E6.26471
G1 X108.84 Y106.387 E6.26542
G1 X109.985 Y106.206 E6.27753
G1 X110 Y106.203 E6.27825
G1 X110.014 Y106.205 E6.27865
G1 X111.159 Y106.386 E6.29086
G1 X111.175 Y106.389 E6.29133
G1 X111.186 Y106.394 E6.29167
G1 X112.219 Y106.921 E6.30389
G1 X112.233 Y106.928 E6.30462
G1 X112.242 Y106.937 E6.30521
G1 X113.062 Y107.757 E6.3175
G1 X113.071 Y107.766 E6.31786
G1 X113.078 Y107.78 E6.31859
G1 X113.602 Y108.808 E6.33068
G1 X113.611 Y108.825 E6.33157
G1 X113.612 Y108.835 E6.33204
G1 X113.794 Y109.985 E6.34426
G1 X113.797 Y110 E6.34497
G1 X113.795 Y110.014 E6.34537
G1 X113.614 Y111.159 E6.35759
G1 X113.611 Y111.175 E6.35805
G1 X113.606 Y111.186 E6.3584
G1 X113.079 Y112.219 E6.37062
G1 X113.072 Y112.233 E6.37134
G1 X113.063 Y112.242 E6.37194
G1 X112.243 Y113.062 E6.38422
G1 X112.234 Y113.071 E6.38459
G1 X112.22 Y113.078 E6.38532
G1 X111.187 Y113.605 E6.39755
G1 X111.175 Y113.611 E6.39793
G0 F12000 X111.131 Y113.728
;MESH:NONMESH
G0 F300 X111.131 Y113.728 Z1.64
G0 F12000 X111.131 Y113.72
G0 X108.855 Y113.524
;TIME_ELAPSED:29.759287
;LAYER:5
;TYPE:WALL-OUTER
;MESH:metal_shelve_endcap_small.stl
G1 F600 X110 Y113.706 E6.45192
G1 X111.145 Y113.524 E6.5059
G1 X112.178 Y112.998 E6.55988
G1 X112.998 Y112.178 E6.61388
G1 X113.524 Y111.145 E6.66786
G1 X113.706 Y110 E6.72184
G1 X113.524 Y108.855 E6.77583
G1 X112.998 Y107.822 E6.82981
G1 X112.178 Y107.002 E6.88381
G1 X111.145 Y106.476 E6.93778
G1 X110 Y106.294 E6.99177
G1 X108.855 Y106.476 E7.04575
G1 X107.822 Y107.002 E7.09973
G1 X107.002 Y107.822 E7.15373
G1 X106.476 Y108.855 E7.20771
G1 X106.294 Y110 E7.26169
G1 X106.476 Y111.145 E7.31568
G1 X107.002 Y112.178 E7.36966
G1 X107.822 Y112.998 E7.42365
G1 X108.347 Y113.266 E7.4511
G0 F540 X108.855 Y113.524
G0 F12000 X111.175 Y113.611
G1 F600 X111.16 Y113.613 E7.45181
G1 X110.015 Y113.794 E7.46392
G1 X110 Y113.797 E7.46463
G1 X109.986 Y113.795 E7.46504
G1 X108.841 Y113.614 E7.47725
G1 X108.825 Y113.611 E7.47771
G1 X108.814 Y113.606 E7.47806
G1 X107.781 Y113.079 E7.49028
G1 X107.766 Y113.071 E7.49076
G1 X107.758 Y113.063 E7.49129
G1 X106.938 Y112.243 E7.50357
G1 X106.929 Y112.234 E7.50394
G1 X106.922 Y112.22 E7.50467
G1 X106.395 Y111.187 E7.5169
G1 X106.389 Y111.175 E7.51729
G1 X106.387 Y111.16 E7.51799
G1 X106.206 Y110.015 E7.5301
G1 X106.203 Y110 E7.53082
G1 X106.205 Y109.987 E7.53143
G1 X106.385 Y108.841 E7.54369
G1 X106.388 Y108.828 E7.54407
G1 X106.395 Y108.814 E7.54452
G1 X106.921 Y107.781 E7.55666
G1 X106.929 Y107.766 E7.55715
G1 X106.937 Y107.758 E7.55767
