;FLAVOR:Marlin
;TIME:13504
;Filament used: 16.069m
;Layer height: 0.24
;MINX:66.537
;MINY:43.592
;MINZ:0.3
;MAXX:152.99
;MAXY:176.408
;MAXZ:24.94
;Generated with Cura_SteamEngine 4.10.0
M82 ;absolute extrusion mode
M201 X500.00 Y500.00 Z100.00 E5000.00 ;Setup machine max acceleration
M203 X500.00 Y500.00 Z10.00 E50.00 ;Setup machine max feedrate
M204 P500.00 R1000.00 T500.00 ;Setup Print/Retract/Travel acceleration
M205 X8.00 Y8.00 Z0.40 E5.00 ;Setup Jerk
M220 S100 ;Reset Feedrate
M221 S100 ;Reset Flowrate

;*** Start Dual Nozzle/Bed Preheating ***
M140 S50 ; start preheating the bed
M104 S200 ?T0 ; start preheating hotend
M190 S50 ; heat to Cura Bed setting and WAIT
M109 S200 ?T0 ; heat to Cura Hotend and WAIT
;*** End Preheating ***

;*** Single Print Start Tone
M300 S1000 P500 ; chirp to indicate starting to print
;*** End Single Start Tone

G28 ;Home

G92 E0 ;Reset Extruder
G1 Z2.0 F3000 ;Move Z Axis up

G1 X10.1 Y20 Z0.28 F5000.0 ;Move to start position
G1 X10.1 Y200.0 Z0.28 F1500.0 E15 ;Draw the first line
G1 X10.4 Y200.0 Z0.28 F5000.0 ;Move to side a little
G1 X10.4 Y20 Z0.28 F1500.0 E30 ;Draw the second line
G92 E0 ;Reset Extruder
G1 Z2.0 F3000 ;Move Z Axis up
G92 E0
G92 E0
G1 F2400 E-3.2
;LAYER_COUNT:104
;LAYER:0
M106 S63.8
M204 S500
M205 X6 Y6
;MESH:SoapHolderBase.stl
G0 F9000 X108.859 Y176.045 Z0.3
;TYPE:WALL-OUTER
G1 F1440 E0
G1 F1800 X108.189 Y175.947 E0.03378
G1 X107.532 Y175.812 E0.06724
G1 X106.892 Y175.64 E0.10031
G1 X106.252 Y175.428 E0.13394
G1 X105.625 Y175.177 E0.16764
G1 X105.027 Y174.9 E0.20052
G1 X104.428 Y174.577 E0.23447
G1 X73.434 Y156.681 E2.02002
G1 X72.859 Y156.326 E2.05373
G1 X72.318 Y155.949 E2.08663
G1 X71.785 Y155.526 E2.12058
G1 X71.293 Y155.088 E2.15344
G1 X70.81 Y154.607 E2.18745
G1 X70.373 Y154.116 E2.22024
G1 X69.957 Y153.59 E2.2537
G1 X69.567 Y153.033 E2.28762
G1 X69.22 Y152.47 E2.32062
G1 X68.899 Y151.872 E2.35448
G1 X68.619 Y151.274 E2.38742
G1 X68.368 Y150.643 E2.4213
G1 X68.158 Y150.007 E2.45472
G1 X67.987 Y149.369 E2.48767
G1 X67.851 Y148.704 E2.52153
G1 X67.753 Y148.041 E2.55497
G1 X67.696 Y147.386 E2.58777
G1 X67.677 Y146.71 E2.62151
G1 X67.677 Y73.296 E6.28415
G1 X67.696 Y72.614 E6.31819
G1 X67.754 Y71.96 E6.35095
G1 X67.85 Y71.296 E6.38442
G1 X67.988 Y70.629 E6.4184
G1 X68.159 Y69.994 E6.45121
G1 X68.373 Y69.347 E6.48521
G1 X68.621 Y68.725 E6.51861
G1 X68.899 Y68.128 E6.55147
G1 X69.221 Y67.528 E6.58544
G1 X69.568 Y66.967 E6.61835
G1 X69.951 Y66.418 E6.65175
G1 X70.373 Y65.884 E6.6857
G1 X70.818 Y65.384 E6.7191
G1 X71.284 Y64.918 E6.75198
G1 X71.784 Y64.473 E6.78537
G1 X72.309 Y64.058 E6.81876
G1 X72.868 Y63.667 E6.85279
G1 X73.433 Y63.318 E6.88592
G1 X104.428 Y45.423 E8.67149
G1 X105.016 Y45.106 E8.70482
G1 X105.633 Y44.818 E8.73879
G1 X106.252 Y44.572 E8.77202
G1 X106.893 Y44.36 E8.8057
G1 X107.531 Y44.188 E8.83867
G1 X108.193 Y44.053 E8.87238
G1 X108.86 Y43.956 E8.906
G1 X109.515 Y43.898 E8.93881
G1 X110.19 Y43.878 E8.9725
G1 X110.866 Y43.898 E9.00624
G1 X111.522 Y43.955 E9.03909
G1 X112.192 Y44.053 E9.07287
G1 X112.848 Y44.188 E9.10629
G1 X113.488 Y44.36 E9.13935
G1 X114.129 Y44.572 E9.17303
G1 X114.757 Y44.822 E9.20676
G1 X115.358 Y45.102 E9.23984
G1 X115.953 Y45.423 E9.27356
G1 X146.942 Y63.316 E11.05882
G1 X147.513 Y63.667 E11.09226
G1 X148.071 Y64.058 E11.12626
G1 X148.587 Y64.465 E11.15904
G1 X149.098 Y64.92 E11.19318
G1 X149.569 Y65.392 E11.22645
G1 X150.007 Y65.884 E11.25931
G1 X150.423 Y66.409 E11.29273
G1 X150.814 Y66.967 E11.32672
G1 X151.159 Y67.528 E11.35958
G1 X151.477 Y68.116 E11.39293
G1 X151.766 Y68.736 E11.42706
G1 X152.008 Y69.346 E11.4598
G1 X152.223 Y69.993 E11.49381
G1 X152.393 Y70.629 E11.52665
G1 X152.529 Y71.284 E11.56003
G1 X152.628 Y71.958 E11.59402
G1 X152.685 Y72.614 E11.62687
G1 X152.705 Y73.29 E11.66061
G1 X152.704 Y146.704 E15.32325
G1 X152.685 Y147.386 E15.35729
G1 X152.628 Y148.041 E15.39009
G1 X152.53 Y148.704 E15.42352
G1 X152.394 Y149.369 E15.45739
G1 X152.223 Y150.007 E15.49034
G1 X152.012 Y150.643 E15.52377
G1 X151.761 Y151.276 E15.55774
G1 X151.483 Y151.873 E15.5906
G1 X151.16 Y152.47 E15.62446
G1 X150.809 Y153.042 E15.65795
G1 X150.423 Y153.591 E15.69143
G1 X150.007 Y154.116 E15.72485
G1 X149.569 Y154.608 E15.75771
G1 X149.09 Y155.088 E15.79154
G1 X148.597 Y155.527 E15.82448
G1 X148.071 Y155.942 E15.8579
G1 X147.513 Y156.333 E15.89189
G1 X146.942 Y156.685 E15.92536
G1 X115.953 Y174.577 E17.71059
G1 X115.353 Y174.9 E17.74459
G1 X114.756 Y175.177 E17.77742
G1 X114.131 Y175.426 E17.81099
G1 X113.489 Y175.64 E17.84475
G1 X112.85 Y175.81 E17.87774
G1 X112.188 Y175.947 E17.91147
G1 X111.521 Y176.045 E17.9451
G1 X110.866 Y176.102 E17.9779
G1 X110.19 Y176.121 E18.01164
G1 X109.514 Y176.102 E18.04538
G1 X108.859 Y176.045 E18.07818
G1 F2400 E14.87818
G0 F9000 X108.899 Y175.748
G0 X113.24 Y174.701
G0 X114.912 Y174.034
G0 X146.955 Y155.536
G0 X148.427 Y154.378
G0 X149.656 Y152.996
G0 X150.611 Y151.442
G0 X151.301 Y149.702
G0 X151.667 Y147.897
G0 X151.733 Y146.676
G0 X151.714 Y72.642
G0 X151.441 Y70.826
G0 X150.877 Y69.127
G0 X149.993 Y67.488
G0 X148.858 Y66.054
G0 X147.513 Y64.854
G0 X146.902 Y64.452
G0 X113.362 Y44.74
;TYPE:WALL-INNER
G1 F1440 E18.07818
G1 F1800 X113.992 Y44.948 E18.11128
G1 X114.597 Y45.189 E18.14377
G1 X115.185 Y45.463 E18.17614
G1 X115.763 Y45.775 E18.20891
G1 X146.733 Y63.657 E19.99307
G1 X147.283 Y63.995 E20.02528
G1 X147.841 Y64.386 E20.05927
G1 X148.329 Y64.771 E20.09028
G1 X148.823 Y65.211 E20.12329
G1 X149.278 Y65.667 E20.15542
G1 X149.701 Y66.142 E20.18716
G1 X150.095 Y66.639 E20.2188
G1 X150.48 Y67.189 E20.25229
G1 X150.818 Y67.738 E20.28446
G1 X151.114 Y68.285 E20.31549
G1 X151.398 Y68.894 E20.34901
G1 X151.628 Y69.473 E20.38009
G1 X151.843 Y70.119 E20.41406
G1 X152.001 Y70.71 E20.44458
G1 X152.135 Y71.353 E20.47735
G1 X152.232 Y72.016 E20.51078
G1 X152.285 Y72.626 E20.54133
G1 X152.305 Y73.29 E20.57447
G1 X152.304 Y146.693 E24.23656
G1 X152.285 Y147.374 E24.27055
G1 X152.232 Y147.983 E24.30104
G1 X152.135 Y148.637 E24.33403
G1 X152.003 Y149.282 E24.36688
G1 X151.843 Y149.881 E24.39781
G1 X151.634 Y150.512 E24.43097
G1 X151.398 Y151.107 E24.46291
G1 X151.122 Y151.699 E24.49549
G1 X150.813 Y152.271 E24.52793
G1 X150.474 Y152.823 E24.56025
G1 X150.109 Y153.343 E24.59194
G1 X149.701 Y153.858 E24.62472
G1 X149.278 Y154.333 E24.65645
G1 X148.815 Y154.797 E24.68916
G1 X148.339 Y155.221 E24.72096
G1 X147.841 Y155.614 E24.75261
G1 X147.283 Y156.005 E24.7866
G1 X146.738 Y156.341 E24.81854
G1 X115.763 Y174.225 E26.60297
G1 X115.174 Y174.542 E26.63634
G1 X114.605 Y174.806 E26.66764
G1 X113.983 Y175.054 E26.70105
G1 X113.386 Y175.253 E26.73244
G1 X112.755 Y175.421 E26.76502
G1 X112.117 Y175.553 E26.79752
G1 X111.463 Y175.649 E26.8305
G1 X110.853 Y175.702 E26.86105
G1 X110.19 Y175.721 E26.89414
G1 X109.527 Y175.702 E26.92723
G1 X108.917 Y175.649 E26.95778
G1 X108.259 Y175.553 E26.99095
G1 X107.616 Y175.421 E27.0237
G1 X107.017 Y175.26 E27.05465
G1 X106.381 Y175.049 E27.08808
G1 X105.787 Y174.811 E27.12
G1 X105.206 Y174.542 E27.15194
G1 X104.618 Y174.225 E27.18527
G1 X73.634 Y156.335 E28.97024
G1 X73.085 Y155.996 E29.00243
G1 X72.556 Y155.627 E29.03461
G1 X72.046 Y155.222 E29.0671
G1 X71.559 Y154.789 E29.09961
G1 X71.108 Y154.34 E29.13136
G1 X70.679 Y153.858 E29.16355
G1 X70.272 Y153.343 E29.1963
G1 X69.901 Y152.812 E29.22862
G1 X69.561 Y152.26 E29.26096
G1 X69.26 Y151.699 E29.29273
G1 X68.989 Y151.122 E29.32453
G1 X68.742 Y150.501 E29.35787
G1 X68.538 Y149.882 E29.39039
G1 X68.378 Y149.282 E29.42137
G1 X68.246 Y148.637 E29.45421
G1 X68.149 Y147.983 E29.4872
G1 X68.096 Y147.373 E29.51775
G1 X68.077 Y146.71 E29.55084
G1 X68.077 Y73.307 E33.21293
G1 X68.096 Y72.625 E33.24697
G1 X68.15 Y72.017 E33.27742
G1 X68.244 Y71.365 E33.31028
G1 X68.38 Y70.71 E33.34366
G1 X68.539 Y70.12 E33.37414
G1 X68.749 Y69.484 E33.40756
G1 X68.989 Y68.884 E33.4398
G1 X69.262 Y68.297 E33.4721
G1 X69.567 Y67.729 E33.50426
G1 X69.896 Y67.196 E33.53551
G1 X70.272 Y66.657 E33.5683
G1 X70.679 Y66.142 E33.60105
G1 X71.11 Y65.658 E33.63338
G1 X71.559 Y65.209 E33.66506
G1 X72.042 Y64.779 E33.69732
G1 X72.549 Y64.378 E33.72957
G1 X73.097 Y63.995 E33.76293
G1 X73.643 Y63.658 E33.79494
G1 X104.618 Y45.775 E35.57934
G1 X105.206 Y45.458 E35.61267
G1 X105.781 Y45.19 E35.64432
G1 X106.389 Y44.948 E35.67697
G1 X107.019 Y44.74 E35.71007
G1 X107.618 Y44.579 E35.74101
G1 X108.259 Y44.448 E35.77365
G1 X108.918 Y44.352 E35.80688
G1 X109.527 Y44.298 E35.83738
G1 X110.19 Y44.278 E35.87047
G1 X110.854 Y44.298 E35.90361
G1 X111.464 Y44.351 E35.93416
G1 X112.122 Y44.447 E35.96734
G1 X112.764 Y44.579 E36.00004
G1 X113.362 Y44.74 E36.03093
G1 F2400 E32.83093
G0 F9000 X146.953 Y64.462
G0 X148.548 Y65.502
G1 F1440 E36.03093
G1 F1800 X148.986 Y65.941 E36.06187
G1 X149.402 Y66.408 E36.09307
G1 X149.767 Y66.868 E36.12237
G1 X150.139 Y67.399 E36.15472
G1 X150.477 Y67.948 E36.18688
G1 X150.751 Y68.454 E36.21559
G1 X151.031 Y69.053 E36.24858
G1 X151.251 Y69.609 E36.27841
G1 X151.463 Y70.245 E36.31185
G1 X151.609 Y70.792 E36.3401
G1 X151.743 Y71.435 E36.37287
G1 X151.836 Y72.074 E36.40508
G1 X151.885 Y72.638 E36.43333
G1 X151.905 Y73.29 E36.46587
G1 X151.904 Y146.682 E40.12741
G1 X151.885 Y147.362 E40.16135
G1 X151.836 Y147.924 E40.1895
G1 X151.74 Y148.573 E40.22223
G1 X151.611 Y149.2 E40.25416
G1 X151.463 Y149.755 E40.28282
G1 X151.256 Y150.381 E40.31572
G1 X151.035 Y150.938 E40.34561
G1 X150.761 Y151.525 E40.37793
G1 X150.466 Y152.071 E40.40889
G1 X150.138 Y152.606 E40.4402
G1 X149.795 Y153.095 E40.47
G1 X149.395 Y153.6 E40.50214
G1 X148.988 Y154.057 E40.53267
G1 X148.54 Y154.506 E40.56432
G1 X148.088 Y154.909 E40.59453
G1 X147.611 Y155.286 E40.62486
G1 X147.053 Y155.677 E40.65885
G1 X146.538 Y155.995 E40.68905
G1 X115.573 Y173.873 E42.4729
G1 X114.995 Y174.184 E42.50564
G1 X114.453 Y174.436 E42.53546
G1 X113.835 Y174.682 E42.56865
G1 X113.283 Y174.866 E42.59768
G1 X112.66 Y175.032 E42.62984
G1 X112.046 Y175.159 E42.66113
G1 X111.405 Y175.253 E42.69345
G1 X110.841 Y175.302 E42.72169
G1 X110.19 Y175.321 E42.75418
G1 X109.539 Y175.302 E42.78668
G1 X108.975 Y175.253 E42.81492
G1 X108.326 Y175.158 E42.84764
G1 X107.703 Y175.03 E42.87937
G1 X107.142 Y174.88 E42.90835
G1 X106.51 Y174.67 E42.94157
G1 X105.949 Y174.445 E42.97173
G1 X105.385 Y174.184 E43.00273
G1 X104.808 Y173.873 E43.03543
G1 X73.834 Y155.989 E44.81982
G1 X73.31 Y155.665 E44.85056
G1 X72.794 Y155.305 E44.88195
G1 X72.307 Y154.918 E44.91298
G1 X71.825 Y154.49 E44.94514
G1 X71.406 Y154.073 E44.97463
G1 X70.985 Y153.6 E45.00622
G1 X70.592 Y153.103 E45.03783
G1 X70.236 Y152.593 E45.06886
G1 X69.902 Y152.05 E45.10067
G1 X69.621 Y151.526 E45.13033
G1 X69.355 Y150.96 E45.16153
G1 X69.114 Y150.353 E45.19412
G1 X68.918 Y149.757 E45.22542
G1 X68.77 Y149.2 E45.25417
G1 X68.641 Y148.573 E45.28611
G1 X68.545 Y147.924 E45.31884
G1 X68.496 Y147.361 E45.34703
G1 X68.477 Y146.71 E45.37953
G1 X68.477 Y73.318 E49.04107
G1 X68.496 Y72.636 E49.07511
G1 X68.546 Y72.074 E49.10325
G1 X68.638 Y71.435 E49.13546
G1 X68.772 Y70.791 E49.16828
G1 X68.919 Y70.245 E49.19649
G1 X69.126 Y69.618 E49.22943
G1 X69.352 Y69.053 E49.25979
G1 X69.625 Y68.466 E49.29209
G1 X69.914 Y67.928 E49.32256
G1 X70.224 Y67.425 E49.35204
G1 X70.592 Y66.897 E49.38414
G1 X70.985 Y66.4 E49.41576
G1 X71.401 Y65.933 E49.44696
G1 X71.834 Y65.5 E49.47751
G1 X72.3 Y65.085 E49.50864
G1 X72.789 Y64.698 E49.53975
G1 X73.326 Y64.323 E49.57243
G1 X73.843 Y64.004 E49.60274
G1 X104.808 Y46.127 E51.38656
G1 X105.379 Y45.819 E51.41893
G1 X105.941 Y45.557 E51.44986
G1 X106.531 Y45.322 E51.48155
G1 X107.138 Y45.122 E51.51343
G1 X107.705 Y44.97 E51.54272
G1 X108.325 Y44.843 E51.57429
G1 X108.976 Y44.748 E51.60711
G1 X109.539 Y44.698 E51.63531
G1 X110.19 Y44.678 E51.66781
G1 X110.842 Y44.698 E51.70035
G1 X111.406 Y44.747 E51.72859
G1 X112.052 Y44.841 E51.76116
G1 X112.68 Y44.97 E51.79315
G1 X113.243 Y45.122 E51.82224
G1 X113.85 Y45.322 E51.85413
G1 X114.437 Y45.556 E51.88565
G1 X115.011 Y45.824 E51.91726
G1 X115.573 Y46.127 E51.94911
G1 X146.524 Y63.998 E53.73218
G1 X147.053 Y64.323 E53.76316
G1 X147.611 Y64.714 E53.79715
G1 X148.071 Y65.077 E53.82638
G1 X148.548 Y65.502 E53.85826
G0 F9000 X148.271 Y65.777
;TYPE:SKIN
G1 F1800 X148.709 Y66.216 E53.88919
G1 X149.096 Y66.65 E53.91821
G1 X149.447 Y67.092 E53.94636
G1 X149.813 Y67.614 E53.97817
G1 X150.139 Y68.143 E54.00917
G1 X150.403 Y68.63 E54.03681
G1 X150.668 Y69.197 E54.06803
G1 X150.884 Y69.742 E54.09728
G1 X151.089 Y70.357 E54.12962
G1 X151.229 Y70.882 E54.15673
G1 X151.361 Y71.515 E54.18899
G1 X151.45 Y72.13 E54.21999
G1 X151.495 Y72.65 E54.24603
G1 X151.515 Y73.29 E54.27798
G1 X151.514 Y146.671 E57.93897
G1 X151.495 Y147.349 E57.97281
G1 X151.45 Y147.867 E57.99875
G1 X151.356 Y148.504 E58.03087
G1 X151.232 Y149.108 E58.06164
G1 X151.089 Y149.643 E58.08926
G1 X150.893 Y150.237 E58.12047
G1 X150.673 Y150.792 E58.15026
G1 X150.418 Y151.34 E58.18041
G1 X150.133 Y151.867 E58.2103
G1 X149.811 Y152.392 E58.24103
G1 X149.477 Y152.869 E58.27008
G1 X149.09 Y153.357 E58.30115
G1 X148.704 Y153.79 E58.33009
G1 X148.272 Y154.223 E58.36061
G1 X147.846 Y154.603 E58.38909
G1 X147.387 Y154.966 E58.41828
G1 X146.838 Y155.351 E58.45174
G1 X146.343 Y155.657 E58.48077
G1 X115.383 Y173.533 E60.26435
G1 X114.815 Y173.838 E60.29652
G1 X114.309 Y174.073 E60.32435
G1 X113.696 Y174.317 E60.35727
G1 X113.171 Y174.492 E60.38488
G1 X112.57 Y174.652 E60.4159
G1 X111.981 Y174.774 E60.44591
G1 X111.347 Y174.867 E60.47788
G1 X110.829 Y174.912 E60.50382
G1 X110.19 Y174.931 E60.53572
G1 X109.551 Y174.912 E60.56761
G1 X109.031 Y174.867 E60.59365
G1 X108.39 Y174.774 E60.62597
G1 X107.795 Y174.651 E60.65628
G1 X107.253 Y174.506 E60.68427
G1 X106.645 Y174.304 E60.71623
G1 X106.104 Y174.087 E60.74531
G1 X105.554 Y173.832 E60.77556
G1 X104.998 Y173.532 E60.80708
G1 X74.029 Y155.651 E62.59117
G1 X73.515 Y155.333 E62.62133
G1 X73.027 Y154.992 E62.65103
G1 X72.558 Y154.619 E62.68093
G1 X72.092 Y154.205 E62.71202
G1 X71.681 Y153.796 E62.74095
G1 X71.29 Y153.357 E62.77028
G1 X70.904 Y152.869 E62.80132
G1 X70.556 Y152.37 E62.83168
G1 X70.239 Y151.854 E62.86189
G1 X69.969 Y151.35 E62.89041
G1 X69.716 Y150.812 E62.92007
G1 X69.476 Y150.209 E62.95245
G1 X69.292 Y149.646 E62.982
G1 X69.15 Y149.111 E63.00962
G1 X69.025 Y148.504 E63.04054
G1 X68.931 Y147.867 E63.07266
G1 X68.886 Y147.349 E63.0986
G1 X68.867 Y146.71 E63.1305
G1 X68.867 Y73.329 E66.79149
G1 X68.886 Y72.647 E66.82553
G1 X68.932 Y72.13 E66.85142
G1 X69.02 Y71.515 E66.88242
G1 X69.154 Y70.871 E66.91524
G1 X69.289 Y70.367 E66.94127
G1 X69.488 Y69.763 E66.97299
G1 X69.71 Y69.207 E67.00286
G1 X69.968 Y68.651 E67.03344
G1 X70.252 Y68.123 E67.06335
G1 X70.544 Y67.648 E67.09117
G1 X70.905 Y67.13 E67.12267
G1 X71.291 Y66.642 E67.15371
G1 X71.692 Y66.192 E67.18378
G1 X72.093 Y65.791 E67.21208
G1 X72.542 Y65.391 E67.24208
G1 X73.013 Y65.018 E67.27205
G1 X73.541 Y64.649 E67.30419
G1 X74.038 Y64.342 E67.33333
G1 X104.998 Y46.467 E69.11689
G1 X105.554 Y46.166 E69.14843
G1 X106.085 Y45.92 E69.17763
G1 X106.67 Y45.686 E69.20906
G1 X107.255 Y45.494 E69.23978
G1 X107.786 Y45.351 E69.26722
G1 X108.389 Y45.227 E69.29793
G1 X109.03 Y45.134 E69.33024
G1 X109.552 Y45.088 E69.35639
G1 X110.19 Y45.068 E69.38823
G1 X110.83 Y45.088 E69.42018
G1 X111.351 Y45.133 E69.44627
G1 X111.988 Y45.225 E69.47838
G1 X112.594 Y45.35 E69.50925
G1 X113.13 Y45.495 E69.53695
G1 X113.716 Y45.688 E69.56773
G1 X114.283 Y45.914 E69.59818
G1 X114.836 Y46.171 E69.62861
G1 X115.383 Y46.468 E69.65966
G1 X146.324 Y64.333 E71.44215
G1 X146.829 Y64.643 E71.47171
G1 X147.387 Y65.034 E71.5057
G1 X147.829 Y65.383 E71.5338
G1 X148.271 Y65.777 E71.56334
G0 F9000 X148.457 Y65.57
G0 X147.293 Y64.627
G0 X147.028 Y65.003
G1 F1800 X149.483 Y67.459 E71.73659
G0 F9000 X149.861 Y67.195
G0 X150.722 Y68.652
G0 X150.305 Y68.846
G1 F1800 X145.556 Y64.097 E72.07166
G0 F9000 X145.786 Y63.7
G0 X144.447 Y62.927
G0 X144.217 Y63.324
G1 F1800 X150.722 Y69.829 E72.53062
G0 F9000 X150.981 Y70.654
G1 F1800 X142.879 Y62.552 E73.10226
G0 F9000 X143.11 Y62.154
G0 X141.771 Y61.381
G0 X141.54 Y61.779
G1 F1800 X151.15 Y71.388 E73.78026
G0 F9000 X151.257 Y72.061
