;FLAVOR:Marlin
;TIME:5815
;Filament used: 5.05839m
;Layer height: 0.24
;MINX:70.7
;MINY:47.247
;MINZ:0.3
;MAXX:149.3
;MAXY:172.753
;MAXZ:7.9
;Generated with Cura_SteamEngine 4.10.0
M82 ;absolute extrusion mode
M201 X500.00 Y500.00 Z100.00 E5000.00 ;Setup machine max acceleration
M203 X500.00 Y500.00 Z10.00 E50.00 ;Setup machine max feedrate
M204 P500.00 R1000.00 T500.00 ;Setup Print/Retract/Travel acceleration
M205 X8.00 Y8.00 Z0.40 E5.00 ;Setup Jerk
M220 S100 ;Reset Feedrate
M221 S100 ;Reset Flowrate

;*** Start Dual Nozzle/Bed Preheating ***
M140 S50 ; start preheating the bed
M104 S200 ?T0 ; start preheating hotend
M190 S50 ; heat to Cura Bed setting and WAIT
M109 S200 ?T0 ; heat to Cura Hotend and WAIT
;*** End Preheating ***

;*** Single Print Start Tone
M300 S1000 P500 ; chirp to indicate starting to print
;*** End Single Start Tone

G28 ;Home

G92 E0 ;Reset Extruder
G1 Z2.0 F3000 ;Move Z Axis up

G1 X10.1 Y20 Z0.28 F5000.0 ;Move to start position
G1 X10.1 Y200.0 Z0.28 F1500.0 E15 ;Draw the first line
G1 X10.4 Y200.0 Z0.28 F5000.0 ;Move to side a little
G1 X10.4 Y20 Z0.28 F1500.0 E30 ;Draw the second line
G92 E0 ;Reset Extruder
G1 Z2.0 F3000 ;Move Z Axis up
G92 E0
G92 E0
G1 F2400 E-3.2
;LAYER_COUNT:35
;LAYER:0
M106 S63.8
M204 S500
M205 X6 Y6
;MESH:SoapHolderGrille.STL
G0 F9000 X85.4 Y62.159 Z0.3
;TYPE:WALL-OUTER
G1 F1440 E0
G1 F1800 X85.4 Y62.013 E0.00728
G1 X85.2 Y61.897 E0.01882
G1 X85.074 Y61.97 E0.02608
G1 X76.397 Y66.979 E0.52593
G1 X75.969 Y67.244 E0.55105
G1 X75.555 Y67.537 E0.57635
G1 X75.16 Y67.856 E0.60168
G1 X74.786 Y68.199 E0.627
G1 X74.432 Y68.563 E0.65233
G1 X74.102 Y68.95 E0.67771
G1 X73.797 Y69.357 E0.70308
G1 X73.528 Y69.762 E0.72734
G1 X73.276 Y70.2 E0.75255
G1 X73.049 Y70.654 E0.77787
G1 X72.851 Y71.123 E0.80327
G1 X72.683 Y71.603 E0.82864
G1 X72.546 Y72.09 E0.85388
G1 X72.437 Y72.587 E0.87927
G1 X72.361 Y73.089 E0.9046
G1 X72.315 Y73.574 E0.9289
G1 X72.3 Y74.098 E0.95505
G1 X72.3 Y76.253 E1.06257
G1 X78 Y79.545 E1.39096
G1 X85.4 Y75.272 E1.81728
G1 X85.4 Y62.159 E2.47149
G1 F2400 E-0.72851
G0 F9000 X85.7 Y62.159
G0 X86.451 Y60.83
G0 X86.6 Y61.089
G1 F1440 E2.47149
G1 F1800 X86.6 Y75.272 E3.17908
G1 X94 Y79.545 E3.6054
G1 X101.4 Y75.272 E4.03171
G1 X101.4 Y59.203 E4.8334
G1 X95.633 Y55.873 E5.16564
G1 X86.6 Y61.089 E5.68603
G1 F2400 E2.48603
G0 F9000 X86.451 Y60.83
G0 X75.836 Y67.044
G0 X74.62 Y68.027
G0 X73.602 Y69.219
G0 X72.831 Y70.554
G0 X72.314 Y72.032
G0 X72.1 Y73.407
G0 X72 Y77.985
G0 X72.3 Y77.985
G1 F1440 E5.68603
G1 F1800 X72.3 Y77.986 E5.68608
G1 X72.3 Y99.221 E6.7455
G1 X72.3 Y99.367 E6.75278
G1 X72.5 Y99.483 E6.76432
G1 X72.626 Y99.41 E6.77158
G1 X77.4 Y96.653 E7.04662
G1 X77.4 Y80.584 E7.84831
G1 X72.599 Y77.813 E8.12487
G1 X72.3 Y77.64 E8.1421
G1 X72.3 Y77.985 E8.15185
G1 F2400 E4.95185
G0 F9000 X72 Y77.985
G0 X72.08 Y77.26
G0 X77.634 Y80.449
G0 X78.366 Y96.787
G0 X86 Y101.197
G0 X93.549 Y96.912
G0 X93.4 Y96.653
G1 F1440 E8.15185
G1 F1800 X93.4 Y80.584 E8.95354
G1 X86 Y76.312 E9.37983
G1 X78.6 Y80.584 E9.80612
G1 X78.6 Y96.653 E10.60781
G1 X86 Y100.926 E11.03412
G1 X93.4 Y96.653 E11.46044
G0 F9000 X93.549 Y96.912
G0 X94.151 Y97.434
G0 X94 Y97.693
G1 F1800 X86.6 Y101.966 E11.88676
G1 X86.6 Y118.034 E12.68839
G1 X94 Y122.307 E13.11471
G1 X101.4 Y118.034 E13.54102
G1 X101.4 Y101.966 E14.34266
G1 X94 Y97.693 E14.76898
G1 F2400 E11.56898
G0 F9000 X94.151 Y97.434
G0 X102 Y101.197
G0 X109.549 Y96.912
G0 X109.4 Y96.653
G1 F1440 E14.76898
G1 F1800 X109.4 Y80.584 E15.57066
G1 X102 Y76.312 E15.99695
G1 X94.6 Y80.584 E16.42324
G1 X94.6 Y96.653 E17.22493
G1 X102 Y100.926 E17.65125
G1 X109.4 Y96.653 E18.07756
G0 F9000 X109.549 Y96.912
G0 X110.45 Y96.911
G0 X110.6 Y96.653
G1 F1800 X118 Y100.926 E18.50388
G1 X125.4 Y96.653 E18.93019
G1 X125.4 Y80.584 E19.73188
G1 X118 Y76.312 E20.15817
G1 X110.6 Y80.584 E20.58446
G1 X110.6 Y96.653 E21.38615
G1 F2400 E18.18615
G0 F9000 X110.45 Y96.911
G0 X117.55 Y101.708
G0 X117.4 Y101.966
G1 F1440 E21.38615
G1 F1800 X110 Y97.693 E21.81246
G1 X102.6 Y101.966 E22.23878
G1 X102.6 Y118.034 E23.04042
G1 X110 Y122.307 E23.46673
G1 X117.4 Y118.034 E23.89305
G1 X117.4 Y101.966 E24.69468
G1 F2400 E21.49468
G0 F9000 X117.55 Y101.708
G0 X126 Y97.422
G0 X133.55 Y101.708
G0 X133.4 Y101.966
G1 F1440 E24.69468
G1 F1800 X126 Y97.693 E25.121
G1 X118.6 Y101.966 E25.54732
G1 X118.6 Y118.034 E26.34895
G1 X126 Y122.307 E26.77527
G1 X133.4 Y118.034 E27.20158
G1 X133.4 Y101.966 E28.00322
G1 F2400 E24.80322
G0 F9000 X133.55 Y101.708
G0 X142 Y97.422
G0 X147.223 Y99.669
G0 X147.374 Y99.41
G1 F1440 E28.00322
G1 F1800 X147.5 Y99.483 E28.01049
G1 X147.7 Y99.367 E28.02202
G1 X147.7 Y99.221 E28.0293
G1 X147.7 Y77.986 E29.08872
G1 X147.7 Y77.985 E29.08877
G1 X147.7 Y77.64 E29.10598
G1 X147.401 Y77.813 E29.11575
G1 X142.6 Y80.584 E29.39231
G1 X142.6 Y96.653 E30.19399
G1 X147.374 Y99.41 E30.46903
G1 F2400 E27.26903
G0 F9000 X147.223 Y99.669
G0 X142 Y97.422
G0 X134.366 Y101.832
G0 X134.366 Y118.168
G0 X134.45 Y118.292
G0 X134.6 Y118.034
G1 F1440 E30.46903
G1 F1800 X142 Y122.307 E30.89535
G1 X147.7 Y119.016 E31.22372
G1 X147.7 Y100.984 E32.12334
G1 X142 Y97.693 E32.45171
G1 X134.6 Y101.966 E32.87802
G1 X134.6 Y118.034 E33.67966
G0 F9000 X134.45 Y118.292
G0 X134.151 Y118.815
G0 X134 Y119.074
G1 F1800 X126.6 Y123.347 E34.10598
G1 X126.6 Y139.416 E34.90766
G1 X134 Y143.688 E35.33395
G1 X141.4 Y139.416 E35.76024
G1 X141.4 Y123.347 E36.56193
G1 X134 Y119.074 E36.98825
G1 F2400 E33.78825
G0 F9000 X134.151 Y118.815
G0 X141.634 Y123.213
G0 X141.613 Y137.574
G0 X142.45 Y139.674
G0 X142.6 Y139.416
G1 F1440 E36.98825
G1 F1800 X147.401 Y142.187 E37.2648
G1 X147.7 Y142.36 E37.28204
G1 X147.7 Y142.015 E37.29179
G1 X147.7 Y142.014 E37.29184
G1 X147.7 Y120.779 E38.35126
G1 X147.7 Y120.633 E38.35854
G1 X147.5 Y120.517 E38.37008
G1 X147.374 Y120.59 E38.37734
G1 X142.6 Y123.347 E38.65238
G1 X142.6 Y139.416 E39.45407
G1 F2400 E36.25407
G0 F9000 X142.45 Y139.674
G0 X134.366 Y144.594
G0 X134.366 Y158.121
G0 X134.649 Y158.361
G0 X134.8 Y158.103
G1 F1440 E39.45407
G1 F1800 X134.926 Y158.03 E39.46133
G1 X143.603 Y153.021 E39.96118
G1 X144.031 Y152.756 E39.9863
G1 X144.445 Y152.463 E40.0116
G1 X144.84 Y152.144 E40.03693
G1 X145.214 Y151.801 E40.06225
G1 X145.568 Y151.437 E40.08758
G1 X145.898 Y151.05 E40.11295
G1 X146.203 Y150.643 E40.13833
G1 X146.472 Y150.238 E40.16258
G1 X146.724 Y149.8 E40.1878
G1 X146.951 Y149.346 E40.21312
G1 X147.149 Y148.877 E40.23852
G1 X147.317 Y148.397 E40.26389
G1 X147.454 Y147.91 E40.28913
G1 X147.563 Y147.413 E40.31451
G1 X147.639 Y146.911 E40.33984
G1 X147.685 Y146.426 E40.36415
G1 X147.7 Y145.902 E40.3903
G1 X147.7 Y143.747 E40.49782
G1 X142 Y140.455 E40.82621
G1 X134.6 Y144.728 E41.25253
G1 X134.6 Y157.841 E41.90674
G1 X134.6 Y157.987 E41.91402
G1 X134.8 Y158.103 E41.92556
G1 F2400 E38.72556
G0 F9000 X134.649 Y158.361
G0 X133.634 Y159.045
G0 X124.367 Y164.398
G0 X124.216 Y164.386
G0 X124.367 Y164.127
G1 F1440 E41.92556
G1 F1800 X133.4 Y158.911 E42.44595
G1 X133.4 Y144.728 E43.15354
G1 X126 Y140.455 E43.57986
G1 X118.6 Y144.728 E44.00618
G1 X118.6 Y160.797 E44.80786
G1 X124.367 Y164.127 E45.1401
G1 F2400 E41.9401
G0 F9000 X124.216 Y164.386
G0 X123.607 Y164.82
G0 X113.77 Y170.503
G0 X112.354 Y171.119
G0 X112.289 Y170.827
G1 F1440 E45.1401
G1 F1800 X113.213 Y170.497 E45.18905
G1 X113.664 Y170.289 E45.21383
G1 X114.116 Y170.045 E45.23945
G1 X122.868 Y164.993 E45.74362
G1 X123.167 Y164.82 E45.76085
G1 X122.868 Y164.647 E45.77062
G1 X118 Y161.836 E46.05106
G1 X110.6 Y166.109 E46.47738
G1 X110.601 Y170.913 E46.71705
G1 X110.601 Y170.914 E46.7171
G1 X110.601 Y171.141 E46.72843
G1 X110.827 Y171.111 E46.73552
G1 X111.316 Y171.046 E46.76013
G1 X112.289 Y170.827 E46.80989
G1 F2400 E43.60989
G0 F9000 X112.354 Y171.119
G0 X110.375 Y171.399
G0 X109.769 Y171.399
G0 X107.632 Y171.114
G0 X107.732 Y170.832
G1 F1440 E46.80989
G1 F1800 X108.704 Y171.05 E46.85958
G1 X109.175 Y171.112 E46.88329
G1 X109.4 Y171.141 E46.8946
G1 X109.4 Y170.915 E46.90164
G1 X109.4 Y170.914 E46.90169
G1 X109.4 Y166.109 E47.14141
G1 X102 Y161.836 E47.56773
G1 X97.132 Y164.647 E47.84818
G1 X96.833 Y164.82 E47.86541
G1 X97.132 Y164.993 E47.87518
G1 X105.903 Y170.056 E48.38043
G1 X106.791 Y170.499 E48.42994
G1 X107.732 Y170.832 E48.47974
G1 F2400 E45.27974
G0 F9000 X107.632 Y171.114
G0 X109.626 Y171.399
G0 X110 Y165.341
G0 X117.634 Y160.931
G0 X117.634 Y144.594
G0 X117.55 Y144.47
G0 X117.4 Y144.728
G1 F1440 E48.47974
G1 F1800 X110 Y140.455 E48.90606
G1 X102.6 Y144.728 E49.33238
G1 X102.6 Y160.797 E50.13406
G1 X110 Y165.07 E50.56038
G1 X117.4 Y160.797 E50.98669
G1 X117.4 Y144.728 E51.78838
G1 F2400 E48.58838
G0 F9000 X117.55 Y144.47
G0 X110.45 Y139.674
G0 X110.6 Y139.416
G1 F1440 E51.78838
G1 F1800 X118 Y143.688 E52.21467
G1 X125.4 Y139.416 E52.64096
G1 X125.4 Y123.347 E53.44265
G1 X118 Y119.074 E53.86896
G1 X110.6 Y123.347 E54.29528
G1 X110.6 Y139.416 E55.09697
G1 F2400 E51.89697
G0 F9000 X110.45 Y139.674
G0 X109.627 Y138.82
G0 X109.634 Y123.213
G0 X102 Y118.803
G0 X94.451 Y123.088
G0 X94.6 Y123.347
G1 F1440 E55.09697
G1 F1800 X94.6 Y139.416 E55.89865
G1 X102 Y143.688 E56.32494
G1 X109.4 Y139.416 E56.75123
G1 X109.4 Y123.347 E57.55292
G1 X102 Y119.074 E57.97924
G1 X94.6 Y123.347 E58.40555
G1 F2400 E55.20555
G0 F9000 X94.451 Y123.088
G0 X86 Y118.803
G0 X78.451 Y123.088
G0 X78.6 Y123.347
G1 F1440 E58.40555
G1 F1800 X78.6 Y139.416 E59.20724
G1 X86 Y143.688 E59.63353
G1 X93.4 Y139.416 E60.05982
G1 X93.4 Y123.347 E60.86151
G1 X86 Y119.074 E61.28782
G1 X78.6 Y123.347 E61.71414
G0 F9000 X78.451 Y123.088
G0 X77.55 Y123.089
G0 X77.4 Y123.347
G1 F1800 X72.626 Y120.59 E61.98918
G1 X72.5 Y120.517 E61.99644
G1 X72.3 Y120.633 E62.00798
G1 X72.3 Y120.779 E62.01526
G1 X72.3 Y142.014 E63.07468
G1 X72.3 Y142.015 E63.07473
G1 X72.3 Y142.36 E63.09194
G1 X72.599 Y142.187 E63.10171
G1 X77.4 Y139.416 E63.37826
G1 X77.4 Y123.347 E64.17995
G1 F2400 E60.97995
G0 F9000 X77.55 Y123.089
G0 X72.15 Y119.274
G0 X72.3 Y119.016
G1 F1440 E64.17995
G1 F1800 X78 Y122.307 E64.50832
G1 X85.4 Y118.034 E64.93463
G1 X85.4 Y101.966 E65.73627
G1 X78 Y97.693 E66.16259
G1 X72.3 Y100.984 E66.49096
G1 X72.3 Y119.016 E67.39058
G1 F2400 E64.19058
G0 F9000 X72.15 Y119.274
G0 X77.634 Y123.213
G0 X78.366 Y139.551
G0 X85.55 Y144.47
G0 X85.4 Y144.728
G1 F1440 E67.39058
G1 F1800 X78 Y140.455 E67.81689
G1 X72.3 Y143.747 E68.14529
G1 X72.3 Y145.923 E68.25385
G1 X72.315 Y146.427 E68.279
G1 X72.362 Y146.933 E68.30436
G1 X72.44 Y147.434 E68.32965
G1 X72.55 Y147.93 E68.355
G1 X72.689 Y148.418 E68.38031
G1 X72.858 Y148.896 E68.40561
G1 X73.05 Y149.349 E68.43016
G1 X73.276 Y149.801 E68.45537
G1 X73.529 Y150.239 E68.4806
G1 X73.809 Y150.662 E68.50591
G1 X74.115 Y151.068 E68.53128
G1 X74.446 Y151.452 E68.55657
G1 X74.801 Y151.816 E68.58193
G1 X75.176 Y152.157 E68.60722
G1 X75.573 Y152.475 E68.6326
G1 X75.971 Y152.757 E68.65693
G1 X76.417 Y153.032 E68.68308
G1 X85.074 Y158.03 E69.18179
G1 X85.2 Y158.103 E69.18905
G1 X85.4 Y157.987 E69.20059
G1 X85.4 Y157.841 E69.20787
G1 X85.4 Y144.728 E69.86208
G0 F9000 X85.55 Y144.47
G0 X86.451 Y144.469
G0 X86.6 Y144.728
G1 F1800 X86.6 Y158.911 E70.56967
G1 X95.633 Y164.127 E71.09007
G1 X101.4 Y160.797 E71.42231
G1 X101.4 Y144.728 E72.22399
G1 X94 Y140.455 E72.65031
G1 X86.6 Y144.728 E73.07662
G1 F2400 E69.87662
G0 F9000 X86.451 Y144.469
G0 X93.634 Y139.551
G0 X94.366 Y123.213
G0 X101.634 Y118.168
G0 X102.366 Y101.832
G0 X109.634 Y96.787
G0 X110.366 Y80.449
G0 X117.549 Y75.531
G0 X117.4 Y75.272
G1 F1440 E73.07662
G1 F1800 X117.4 Y59.203 E73.87831
G1 X110 Y54.93 E74.30463
G1 X102.6 Y59.203 E74.73094
G1 X102.6 Y75.272 E75.53263
G1 X110 Y79.545 E75.95894
G1 X117.4 Y75.272 E76.38526
G0 F9000 X117.549 Y75.531
G0 X118.45 Y75.53
G0 X118.6 Y75.272
G1 F1800 X126 Y79.545 E76.81158
G1 X133.4 Y75.272 E77.23789
G1 X133.4 Y61.089 E77.94549
G1 X124.367 Y55.873 E78.46588
G1 X118.6 Y59.203 E78.79812
G1 X118.6 Y75.272 E79.5998
G1 F2400 E76.3998
G0 F9000 X118.45 Y75.53
G0 X126 Y79.816
G0 X131.921 Y76.381
G0 X134.151 Y76.053
G0 X134 Y76.312
G1 F1440 E79.5998
G1 F1800 X126.6 Y80.584 E80.02609
G1 X126.6 Y96.653 E80.82778
G1 X134 Y100.926 E81.2541
G1 X141.4 Y96.653 E81.68041
G1 X141.4 Y80.584 E82.4821
G1 X134 Y76.312 E82.90839
G1 F2400 E79.70839
G0 F9000 X134.151 Y76.053
G0 X142 Y79.816
G0 X147.934 Y76.387
G0 X147.924 Y73.559
G0 X147.682 Y72.012
G0 X147.168 Y70.551
G0 X146.112 Y68.736
G0 X145.885 Y68.932
G1 F1440 E82.90839
G1 F1800 X145.554 Y68.548 E82.93368
G1 X145.199 Y68.184 E82.95905
G1 X144.824 Y67.843 E82.98434
G1 X144.427 Y67.525 E83.00971
G1 X144.029 Y67.243 E83.03405
G1 X143.583 Y66.968 E83.06019
G1 X134.926 Y61.97 E83.5589
G1 X134.8 Y61.897 E83.56617
G1 X134.6 Y62.013 E83.5777
G1 X134.6 Y62.159 E83.58498
G1 X134.6 Y75.272 E84.23919
G1 X142 Y79.545 E84.66551
G1 X147.7 Y76.253 E84.99391
G1 X147.7 Y74.077 E85.10247
G1 X147.685 Y73.573 E85.12762
G1 X147.638 Y73.067 E85.15298
G1 X147.56 Y72.566 E85.17827
G1 X147.45 Y72.07 E85.20362
G1 X147.311 Y71.582 E85.22893
G1 X147.142 Y71.104 E85.25423
G1 X146.95 Y70.651 E85.27877
G1 X146.724 Y70.199 E85.30399
G1 X146.471 Y69.761 E85.32922
G1 X146.191 Y69.338 E85.35453
G1 X145.885 Y68.932 E85.37989
G1 F2400 E82.17989
G0 F9000 X146.112 Y68.736
G0 X144.571 Y67.334
G0 X144.081 Y67.011
G0 X114.231 Y49.677
G0 X114.097 Y49.944
G1 F1440 E85.37989
G1 F1800 X113.209 Y49.501 E85.4294
G1 X112.268 Y49.168 E85.4792
G1 X111.296 Y48.95 E85.5289
G1 X110.825 Y48.888 E85.5526
G1 X110.6 Y48.859 E85.56392
G1 X110.6 Y49.085 E85.57095
G1 X110.6 Y49.086 E85.571
G1 X110.6 Y53.891 E85.81073
G1 X118 Y58.164 E86.23704
G1 X122.868 Y55.353 E86.51749
G1 X123.167 Y55.18 E86.53473
G1 X122.868 Y55.007 E86.54449
G1 X114.097 Y49.944 E87.04975
G1 F2400 E83.84975
G0 F9000 X114.231 Y49.677
G0 X114.184 Y48.712
G0 X114.319 Y48.445
G1 F1440 E87.04975
G1 F1800 X114.818 Y48.715 E87.07806
G1 X144.308 Y65.741 E88.77692
G1 X144.784 Y66.034 E88.80481
G1 X145.252 Y66.362 E88.83332
G1 X145.692 Y66.709 E88.86128
G1 X146.101 Y67.075 E88.88866
G1 X146.505 Y67.478 E88.91713
G1 X146.869 Y67.887 E88.94444
G1 X147.217 Y68.327 E88.97243
G1 X147.544 Y68.795 E89.00091
G1 X147.832 Y69.261 E89.02824
G1 X148.098 Y69.752 E89.0561
G1 X148.336 Y70.261 E89.08414
G1 X148.542 Y70.781 E89.11204
G1 X148.722 Y71.323 E89.14053
G1 X148.864 Y71.853 E89.16791
G1 X148.977 Y72.401 E89.19582
G1 X149.06 Y72.967 E89.22436
G1 X149.108 Y73.513 E89.25171
G1 X149.124 Y74.079 E89.27996
G1 X149.124 Y145.915 E92.86387
G1 X149.108 Y146.486 E92.89237
G1 X149.06 Y147.033 E92.91976
G1 X148.979 Y147.588 E92.94775
G1 X148.865 Y148.144 E92.97606
G1 X148.722 Y148.677 E93.00359
G1 X148.546 Y149.208 E93.0315
G1 X148.337 Y149.737 E93.05988
G1 X148.104 Y150.236 E93.08736
G1 X147.833 Y150.737 E93.11577
G1 X147.544 Y151.205 E93.14322
G1 X147.218 Y151.672 E93.17163
G1 X146.869 Y152.113 E93.19969
G1 X146.505 Y152.522 E93.227
G1 X146.101 Y152.925 E93.25547
G1 X145.692 Y153.291 E93.28285
G1 X145.252 Y153.638 E93.31081
G1 X144.784 Y153.966 E93.33932
G1 X144.313 Y154.256 E93.36692
G1 X114.818 Y171.285 E95.06607
G1 X114.322 Y171.553 E95.0942
G1 X113.81 Y171.792 E95.12239
G1 X113.297 Y171.995 E95.14992
G1 X112.756 Y172.175 E95.17836
G1 X112.223 Y172.318 E95.20589
G1 X111.674 Y172.431 E95.23386
G1 X111.113 Y172.513 E95.26214
G1 X110.565 Y172.561 E95.28959
G1 X110 Y172.577 E95.31779
G1 X109.435 Y172.561 E95.34599
G1 X108.887 Y172.513 E95.37343
G1 X108.326 Y172.431 E95.40172
G1 X107.777 Y172.318 E95.42968
G1 X107.244 Y172.175 E95.45721
G1 X106.703 Y171.995 E95.48566
G1 X106.189 Y171.792 E95.51323
G1 X105.681 Y171.555 E95.54119
G1 X105.182 Y171.285 E95.5695
G1 X75.687 Y154.256 E97.26866
G1 X75.216 Y153.966 E97.29625
G1 X74.748 Y153.638 E97.32476
G1 X74.308 Y153.291 E97.35272
G1 X73.899 Y152.925 E97.3801
G1 X73.495 Y152.522 E97.40857
G1 X73.131 Y152.113 E97.43589
G1 X72.782 Y151.672 E97.46395
G1 X72.456 Y151.205 E97.49236
G1 X72.167 Y150.737 E97.5198
G1 X71.897 Y150.238 E97.54811
G1 X71.663 Y149.736 E97.57574
G1 X71.454 Y149.208 E97.60407
G1 X71.278 Y148.677 E97.63198
G1 X71.135 Y148.144 E97.65951
G1 X71.021 Y147.588 E97.68783
G1 X70.94 Y147.033 E97.71581
G1 X70.892 Y146.486 E97.7432
G1 X70.876 Y145.921 E97.7714
