;FLAVOR:Marlin
;TIME:4079
;Filament used: 3.34066m
;Layer height: 0.24
;MINX:93.509
;MINY:93.879
;MINZ:0.28
;MAXX:126.209
;MAXY:123.764
;MAXZ:50.68
;Generated with Cura_SteamEngine 4.7.1
M140 S110
M105
M190 S110
M104 S240
M105
M109 S240
M82 ;absolute extrusion mode
M201 X500.00 Y500.00 Z100.00 E5000.00 ;Setup machine max acceleration
M203 X500.00 Y500.00 Z10.00 E50.00 ;Setup machine max feedrate
M204 P500.00 R1000.00 T500.00 ;Setup Print/Retract/Travel acceleration
M205 X8.00 Y8.00 Z0.40 E5.00 ;Setup Jerk
M220 S100 ;Reset Feedrate
M221 S100 ;Reset Flowrate

G28 ;Home

G92 E0 ;Reset Extruder
G1 Z2.0 F3000 ;Move Z Axis up
G1 X10.1 Y20 Z0.28 F5000.0 ;Move to start position
G1 X10.1 Y200.0 Z0.28 F1500.0 E15 ;Draw the first line
G1 X10.4 Y200.0 Z0.28 F5000.0 ;Move to side a little
G1 X10.4 Y20 Z0.28 F1500.0 E30 ;Draw the second line
G92 E0 ;Reset Extruder
G1 Z2.0 F3000 ;Move Z Axis up

G92 E0
G92 E0
G1 F1800 E-3
;LAYER_COUNT:224
;LAYER:0
M107
M205 X6 Y6
G0 F9000 X97.54 Y96.323 Z0.28
;TYPE:SKIRT
G1 F1800 E0
G1 F2400 X97.853 Y96.009 E0.02064
G1 X98.972 Y95.096 E0.08789
G1 X99.43 Y94.808 E0.11309
G1 X100.62 Y94.251 E0.17427
G1 X101.217 Y94.07 E0.20331
G1 X102.448 Y93.88 E0.26131
G1 X103.115 Y93.879 E0.29237
G1 X103.844 Y93.99 E0.32671
G1 X104.357 Y94.071 E0.35089
G1 X104.947 Y94.251 E0.37962
G1 X106.137 Y94.808 E0.4408
G1 X106.594 Y95.096 E0.46595
G1 X107.711 Y96.007 E0.53307
G1 X108.025 Y96.32 E0.55371
G1 X109.037 Y97.559 E0.6282
G1 X109.244 Y97.86 E0.64521
G1 X109.55 Y98.396 E0.67395
G1 X109.854 Y97.864 E0.70248
G1 X110.061 Y97.563 E0.71949
G1 X111.073 Y96.323 E0.79402
G1 X111.387 Y96.009 E0.8147
G1 X112.507 Y95.096 E0.88198
G1 X112.964 Y94.809 E0.90711
G1 X114.153 Y94.252 E0.96825
G1 X114.75 Y94.07 E0.99731
G1 X115.981 Y93.88 E1.05531
G1 X116.648 Y93.879 E1.08637
G1 X117.377 Y93.99 E1.12071
G1 X117.89 Y94.071 E1.14489
G1 X118.48 Y94.251 E1.17361
G1 X119.67 Y94.808 E1.23479
G1 X120.127 Y95.096 E1.25995
G1 X121.244 Y96.007 E1.32706
G1 X121.558 Y96.32 E1.34771
G1 X122.57 Y97.559 E1.4222
G1 X122.778 Y97.862 E1.43931
G1 X123.282 Y98.747 E1.48674
G1 X123.645 Y99.379 E1.52067
G1 X123.78 Y99.659 E1.53515
G1 X124.488 Y101.431 E1.624
G1 X124.571 Y101.679 E1.63618
G1 X125.093 Y103.634 E1.7304
G1 X125.142 Y103.872 E1.74172
G1 X125.326 Y105.085 E1.79885
G1 X125.46 Y105.951 E1.83965
G1 X125.483 Y106.179 E1.85032
G1 X125.545 Y107.432 E1.90874
G1 X125.591 Y108.324 E1.95033
G1 X125.591 Y108.545 E1.96062
G1 X125.529 Y109.808 E2.0195
G1 X125.483 Y110.701 E2.06114
G1 X125.461 Y110.92 E2.07139
G1 X125.142 Y113.007 E2.16969
G1 X125.092 Y113.243 E2.18093
G1 X124.57 Y115.197 E2.2751
G1 X124.488 Y115.445 E2.28727
G1 X123.78 Y117.217 E2.37612
G1 X123.648 Y117.492 E2.39032
G1 X122.779 Y119.014 E2.47193
G1 X122.572 Y119.315 E2.48894
G1 X121.56 Y120.554 E2.56344
G1 X121.246 Y120.867 E2.58408
G1 X120.125 Y121.781 E2.65143
G1 X119.669 Y122.068 E2.67652
G1 X118.481 Y122.625 E2.73762
G1 X117.881 Y122.807 E2.76681
G1 X116.651 Y122.996 E2.82476
G1 X115.99 Y122.998 E2.85554
G1 X115.256 Y122.887 E2.8901
G1 X114.743 Y122.806 E2.91429
G1 X114.151 Y122.625 E2.94311
G1 X112.964 Y122.068 E3.00417
G1 X112.51 Y121.782 E3.02915
G1 X111.388 Y120.868 E3.09654
G1 X111.073 Y120.554 E3.11725
G1 X110.061 Y119.315 E3.19174
G1 X109.854 Y119.013 E3.20879
G1 X109.55 Y118.48 E3.23736
G1 X109.246 Y119.013 E3.26593
G1 X109.039 Y119.315 E3.28298
G1 X108.027 Y120.554 E3.35747
G1 X107.713 Y120.867 E3.37812
G1 X106.592 Y121.781 E3.44547
G1 X106.136 Y122.068 E3.47056
G1 X104.948 Y122.625 E3.53165
G1 X104.348 Y122.807 E3.56085
G1 X103.118 Y122.996 E3.61879
G1 X102.457 Y122.998 E3.64957
G1 X101.723 Y122.887 E3.68414
G1 X101.21 Y122.806 E3.70832
G1 X100.619 Y122.625 E3.73711
G1 X99.431 Y122.068 E3.7982
G1 X98.975 Y121.781 E3.82329
G1 X97.854 Y120.867 E3.89064
G1 X97.54 Y120.554 E3.91128
G1 X96.528 Y119.315 E3.98578
G1 X96.321 Y119.013 E4.00283
G1 X95.453 Y117.491 E4.08441
G1 X95.321 Y117.218 E4.09853
G1 X94.612 Y115.446 E4.1874
G1 X94.53 Y115.197 E4.19961
G1 X94.008 Y113.243 E4.29379
G1 X93.958 Y113.005 E4.30511
G1 X93.773 Y111.785 E4.36257
G1 X93.64 Y110.924 E4.40314
G1 X93.617 Y110.696 E4.41381
G1 X93.555 Y109.44 E4.47236
G1 X93.509 Y108.552 E4.51377
G1 X93.509 Y108.331 E4.52406
G1 X93.571 Y107.068 E4.58294
G1 X93.617 Y106.176 E4.62453
G1 X93.639 Y105.957 E4.63478
G1 X93.958 Y103.87 E4.73309
G1 X94.007 Y103.634 E4.74431
G1 X94.529 Y101.679 E4.83853
G1 X94.612 Y101.43 E4.85075
G1 X95.321 Y99.658 E4.93963
G1 X95.453 Y99.385 E4.95375
G1 X96.321 Y97.864 E5.03529
G1 X96.528 Y97.563 E5.0523
G1 X97.54 Y96.323 E5.12683
G0 F9000 X97.849 Y96.576
G1 F2400 X98.106 Y96.319 E5.14375
G1 X99.225 Y95.406 E5.211
G1 X99.6 Y95.171 E5.23161
G1 X100.79 Y94.614 E5.29279
G1 X101.278 Y94.465 E5.31655
G1 X102.509 Y94.275 E5.37455
G1 X103.055 Y94.274 E5.39997
G1 X103.782 Y94.385 E5.43422
G1 X104.295 Y94.466 E5.4584
G1 X104.777 Y94.614 E5.48188
G1 X105.967 Y95.171 E5.54306
G1 X106.342 Y95.406 E5.56366
G1 X107.459 Y96.317 E5.63078
G1 X107.715 Y96.573 E5.64764
G1 X108.727 Y97.812 E5.72213
G1 X108.896 Y98.059 E5.73607
G1 X109.55 Y99.205 E5.79751
G1 X110.202 Y98.062 E5.85878
G1 X110.37 Y97.816 E5.87265
G1 X111.382 Y96.576 E5.94718
G1 X111.64 Y96.319 E5.96414
G1 X112.76 Y95.406 E6.03142
G1 X113.133 Y95.171 E6.05195
G1 X114.322 Y94.614 E6.11309
G1 X114.811 Y94.465 E6.13689
G1 X116.042 Y94.275 E6.19489
G1 X116.588 Y94.274 E6.22032
G1 X117.315 Y94.385 E6.25456
G1 X117.828 Y94.466 E6.27874
G1 X118.31 Y94.614 E6.30222
G1 X119.5 Y95.171 E6.3634
G1 X119.875 Y95.406 E6.38401
G1 X120.992 Y96.317 E6.45113
G1 X121.248 Y96.573 E6.46799
G1 X122.26 Y97.812 E6.54248
G1 X122.43 Y98.06 E6.55648
G1 X122.935 Y98.946 E6.60396
G1 X123.298 Y99.578 E6.6379
G1 X123.409 Y99.807 E6.64975
G1 X124.117 Y101.579 E6.73861
G1 X124.184 Y101.783 E6.7486
G1 X124.706 Y103.738 E6.84283
G1 X124.747 Y103.932 E6.85206
G1 X124.931 Y105.146 E6.90923
G1 X125.065 Y106.012 E6.95004
G1 X125.084 Y106.198 E6.95874
G1 X125.146 Y107.452 E7.01721
G1 X125.192 Y108.344 E7.0588
G1 X125.192 Y108.526 E7.06727
G1 X125.13 Y109.788 E7.12611
G1 X125.084 Y110.681 E7.16774
G1 X125.065 Y110.86 E7.17613
G1 X124.746 Y112.947 E7.27443
G1 X124.706 Y113.14 E7.28361
G1 X124.184 Y115.094 E7.37779
G1 X124.117 Y115.297 E7.38774
G1 X123.409 Y117.069 E7.4766
G1 X123.3 Y117.293 E7.4882
G1 X122.431 Y118.815 E7.56981
G1 X122.262 Y119.062 E7.58374
G1 X121.25 Y120.301 E7.65823
G1 X120.993 Y120.557 E7.67512
G1 X119.872 Y121.471 E7.74247
G1 X119.499 Y121.706 E7.763
G1 X118.311 Y122.263 E7.8241
G1 X117.82 Y122.412 E7.84799
G1 X116.59 Y122.601 E7.90594
G1 X116.049 Y122.602 E7.93113
G1 X115.318 Y122.492 E7.96555
G1 X114.805 Y122.411 E7.98973
G1 X114.321 Y122.263 E8.0133
G1 X113.134 Y121.706 E8.07436
G1 X112.762 Y121.472 E8.09482
G1 X111.64 Y120.558 E8.16221
G1 X111.383 Y120.301 E8.17913
G1 X110.371 Y119.062 E8.25362
G1 X110.201 Y118.815 E8.26758
G1 X109.55 Y117.674 E8.32875
G1 X108.899 Y118.815 E8.38992
G1 X108.729 Y119.062 E8.40388
G1 X107.717 Y120.301 E8.47838
G1 X107.46 Y120.557 E8.49527
G1 X106.339 Y121.471 E8.56262
G1 X105.966 Y121.706 E8.58315
G1 X104.778 Y122.263 E8.64424
G1 X104.287 Y122.412 E8.66813
G1 X103.057 Y122.601 E8.72608
G1 X102.516 Y122.602 E8.75127
G1 X101.785 Y122.492 E8.78569
G1 X101.272 Y122.411 E8.80988
G1 X100.789 Y122.263 E8.8334
G1 X99.601 Y121.706 E8.8945
G1 X99.228 Y121.471 E8.91502
G1 X98.107 Y120.557 E8.98237
G1 X97.85 Y120.301 E8.99927
G1 X96.838 Y119.062 E9.07376
G1 X96.668 Y118.815 E9.08772
G1 X95.8 Y117.293 E9.16931
G1 X95.693 Y117.07 E9.18082
G1 X94.984 Y115.298 E9.26969
G1 X94.916 Y115.094 E9.27971
G1 X94.394 Y113.14 E9.37388
G1 X94.353 Y112.945 E9.38316
G1 X94.168 Y111.725 E9.44062
G1 X94.035 Y110.863 E9.48123
G1 X94.016 Y110.677 E9.48994
G1 X93.954 Y109.421 E9.5485
G1 X93.908 Y108.532 E9.58995
G1 X93.908 Y108.35 E9.59842
G1 X93.97 Y107.088 E9.65726
G1 X94.016 Y106.196 E9.69885
G1 X94.035 Y106.017 E9.70723
G1 X94.354 Y103.93 E9.80554
G1 X94.394 Y103.738 E9.81467
G1 X94.916 Y101.783 E9.90889
G1 X94.984 Y101.578 E9.91895
G1 X95.693 Y99.806 E10.00782
G1 X95.801 Y99.583 E10.01936
G1 X96.669 Y98.062 E10.1009
G1 X96.837 Y97.816 E10.11477
G1 X97.849 Y96.576 E10.1893
G0 F9000 X98.159 Y96.829
G1 F2400 X98.359 Y96.629 E10.20247
G1 X99.478 Y95.716 E10.26972
G1 X99.77 Y95.533 E10.28577
G1 X100.96 Y94.976 E10.34695
G1 X101.339 Y94.86 E10.3654
G1 X102.57 Y94.67 E10.4234
G1 X102.994 Y94.67 E10.44315
G1 X103.719 Y94.78 E10.47729
G1 X104.232 Y94.861 E10.50147
G1 X104.607 Y94.976 E10.51974
G1 X105.797 Y95.533 E10.58092
G1 X106.089 Y95.716 E10.59697
G1 X107.206 Y96.627 E10.66408
G1 X107.405 Y96.826 E10.67719
G1 X108.417 Y98.065 E10.75168
G1 X108.549 Y98.257 E10.76253
G1 X109.419 Y99.781 E10.84424
G1 X109.55 Y100.072 E10.8591
G1 X109.681 Y99.781 E10.87396
G1 X110.549 Y98.26 E10.95551
G1 X110.68 Y98.069 E10.96629
G1 X111.692 Y96.829 E11.04082
G1 X111.892 Y96.629 E11.05399
G1 X113.012 Y95.716 E11.12127
G1 X113.303 Y95.533 E11.13728
G1 X114.492 Y94.976 E11.19842
G1 X114.872 Y94.86 E11.21692
G1 X116.103 Y94.67 E11.27492
G1 X116.527 Y94.67 E11.29466
G1 X117.252 Y94.78 E11.32881
G1 X117.765 Y94.861 E11.35299
G1 X118.14 Y94.976 E11.37126
G1 X119.33 Y95.533 E11.43244
G1 X119.622 Y95.716 E11.44848
G1 X120.739 Y96.627 E11.5156
G1 X120.938 Y96.826 E11.5287
G1 X121.95 Y98.065 E11.6032
G1 X122.083 Y98.258 E11.61411
G1 X122.59 Y99.15 E11.66189
G1 X122.951 Y99.778 E11.69562
G1 X123.037 Y99.956 E11.70482
G1 X123.745 Y101.728 E11.79367
G1 X123.798 Y101.886 E11.80143
G1 X124.32 Y103.841 E11.89566
G1 X124.351 Y103.992 E11.90283
G1 X124.536 Y105.207 E11.96006
G1 X124.67 Y106.073 E12.00087
G1 X124.684 Y106.218 E12.00765
G1 X124.746 Y107.473 E12.06616
G1 X124.792 Y108.365 E12.10775
G1 X124.792 Y108.506 E12.11432
G1 X124.73 Y109.767 E12.1731
G1 X124.684 Y110.66 E12.21474
G1 X124.67 Y110.8 E12.22129
G1 X124.351 Y112.887 E12.3196
G1 X124.32 Y113.036 E12.32669
G1 X123.798 Y114.99 E12.42086
G1 X123.745 Y115.148 E12.42862
G1 X123.037 Y116.92 E12.51748
G1 X122.953 Y117.095 E12.52652
G1 X122.084 Y118.617 E12.60813
G1 X121.952 Y118.809 E12.61898
G1 X120.94 Y120.048 E12.69347
G1 X120.741 Y120.247 E12.70657
G1 X119.62 Y121.161 E12.77392
G1 X119.329 Y121.344 E12.78993
G1 X118.141 Y121.901 E12.85103
G1 X117.76 Y122.017 E12.86957
G1 X116.53 Y122.206 E12.92752
G1 X116.109 Y122.206 E12.94712
G1 X115.381 Y122.097 E12.9814
G1 X114.868 Y122.016 E13.00558
G1 X114.491 Y121.9 E13.02395
G1 X113.304 Y121.343 E13.085
G1 X113.015 Y121.161 E13.1009
G1 X111.893 Y120.247 E13.16829
G1 X111.693 Y120.048 E13.18143
G1 X110.681 Y118.809 E13.25592
G1 X110.549 Y118.617 E13.26677
G1 X109.681 Y117.095 E13.34836
G1 X109.55 Y116.803 E13.36326
G1 X109.419 Y117.095 E13.37816
G1 X108.551 Y118.617 E13.45975
G1 X108.419 Y118.809 E13.4706
G1 X107.407 Y120.048 E13.54509
G1 X107.208 Y120.247 E13.55819
G1 X106.087 Y121.161 E13.62554
G1 X105.796 Y121.344 E13.64155
G1 X104.608 Y121.901 E13.70264
G1 X104.227 Y122.017 E13.72119
G1 X102.997 Y122.206 E13.77914
G1 X102.576 Y122.206 E13.79874
G1 X101.848 Y122.097 E13.83302
G1 X101.335 Y122.016 E13.8572
G1 X100.959 Y121.901 E13.87551
G1 X99.771 Y121.344 E13.9366
G1 X99.48 Y121.161 E13.95261
G1 X98.359 Y120.247 E14.01996
G1 X98.16 Y120.048 E14.03307
G1 X97.148 Y118.809 E14.10756
G1 X97.016 Y118.617 E14.11841
G1 X96.148 Y117.095 E14.19999
G1 X96.064 Y116.921 E14.20899
G1 X95.355 Y115.149 E14.29786
G1 X95.302 Y114.99 E14.30567
G1 X94.78 Y113.036 E14.39984
G1 X94.749 Y112.885 E14.40702
G1 X94.564 Y111.669 E14.46429
G1 X94.43 Y110.802 E14.50514
G1 X94.416 Y110.657 E14.51193
G1 X94.354 Y109.401 E14.57048
G1 X94.308 Y108.511 E14.61198
G1 X94.308 Y108.37 E14.61855
G1 X94.37 Y107.109 E14.67734
G1 X94.416 Y106.217 E14.71893
G1 X94.43 Y106.077 E14.72548
G1 X94.749 Y103.99 E14.82379
G1 X94.78 Y103.841 E14.83087
G1 X95.302 Y101.886 E14.92509
G1 X95.355 Y101.727 E14.9329
G1 X96.064 Y99.955 E15.02177
G1 X96.148 Y99.781 E15.03077
G1 X97.016 Y98.26 E15.11231
G1 X97.147 Y98.069 E15.1231
G1 X98.159 Y96.829 E15.19762
G0 F9000 X98.469 Y97.082
G1 F2400 X98.612 Y96.939 E15.20704
G1 X99.731 Y96.026 E15.27429
G1 X99.939 Y95.895 E15.28574
G1 X101.129 Y95.338 E15.34692
G1 X101.4 Y95.256 E15.3601
G1 X102.631 Y95.066 E15.4181
G1 X102.934 Y95.065 E15.43221
G1 X103.657 Y95.175 E15.46626
G1 X104.17 Y95.256 E15.49045
G1 X104.438 Y95.338 E15.5035
G1 X105.628 Y95.895 E15.56468
G1 X105.836 Y96.026 E15.57612
G1 X106.953 Y96.937 E15.64324
G1 X107.095 Y97.079 E15.65259
G1 X108.107 Y98.318 E15.72708
G1 X108.201 Y98.455 E15.73482
G1 X109.071 Y99.979 E15.81653
G1 X109.131 Y100.104 E15.82299
G1 X109.549 Y101.15 E15.87544
G1 X109.969 Y100.102 E15.92801
G1 X110.028 Y99.979 E15.93436
G1 X110.896 Y98.458 E16.01591
G1 X110.99 Y98.322 E16.02361
G1 X112.002 Y97.082 E16.09814
G1 X112.145 Y96.939 E16.10755
G1 X113.265 Y96.026 E16.17484
G1 X113.473 Y95.895 E16.18628
G1 X114.662 Y95.338 E16.24742
G1 X114.933 Y95.256 E16.26061
G1 X116.164 Y95.066 E16.31861
G1 X116.467 Y95.065 E16.33271
G1 X117.19 Y95.175 E16.36677
G1 X117.703 Y95.256 E16.39095
G1 X117.971 Y95.338 E16.404
G1 X119.161 Y95.895 E16.46518
G1 X119.369 Y96.026 E16.47663
G1 X120.486 Y96.937 E16.54375
G1 X120.628 Y97.079 E16.5531
G1 X121.64 Y98.318 E16.62759
G1 X121.735 Y98.456 E16.63539
G1 X122.241 Y99.345 E16.68302
G1 X122.604 Y99.977 E16.71696
G1 X122.666 Y100.104 E16.72354
G1 X123.374 Y101.876 E16.81239
G1 X123.411 Y101.989 E16.81793
G1 X123.933 Y103.944 E16.91215
G1 X123.956 Y104.052 E16.91729
G1 X124.14 Y105.271 E16.9747
G1 X124.274 Y106.134 E17.01537
G1 X124.285 Y106.238 E17.02023
G1 X124.347 Y107.493 E17.07874
G1 X124.393 Y108.385 E17.12033
G1 X124.393 Y108.486 E17.12504
G1 X124.331 Y109.746 E17.18378
G1 X124.285 Y110.639 E17.22542
G1 X124.275 Y110.739 E17.2301
G1 X123.956 Y112.826 E17.3284
G1 X123.933 Y112.933 E17.3335
G1 X123.411 Y114.887 E17.42768
G1 X123.374 Y115 E17.43321
G1 X122.666 Y116.772 E17.52207
G1 X122.605 Y116.897 E17.52854
G1 X121.736 Y118.419 E17.61015
G1 X121.642 Y118.556 E17.61789
G1 X120.63 Y119.795 E17.69238
G1 X120.488 Y119.937 E17.70173
G1 X119.367 Y120.851 E17.76908
G1 X119.16 Y120.981 E17.78046
G1 X117.972 Y121.538 E17.84156
G1 X117.699 Y121.621 E17.85485
G1 X116.469 Y121.81 E17.91279
G1 X116.168 Y121.811 E17.92681
G1 X115.443 Y121.702 E17.96095
G1 X114.93 Y121.621 E17.98513
G1 X114.661 Y121.538 E17.99824
G1 X113.474 Y120.981 E18.05929
G1 X113.267 Y120.851 E18.07068
G1 X112.145 Y119.937 E18.13806
G1 X112.003 Y119.795 E18.14741
G1 X110.991 Y118.556 E18.22191
G1 X110.896 Y118.418 E18.22971
G1 X110.028 Y116.896 E18.31129
G1 X109.968 Y116.772 E18.31771
G1 X109.55 Y115.725 E18.3702
G1 X109.131 Y116.772 E18.42271
G1 X109.072 Y116.896 E18.42911
G1 X108.204 Y118.418 E18.51069
G1 X108.109 Y118.556 E18.51849
G1 X107.097 Y119.795 E18.59299
G1 X106.955 Y119.937 E18.60234
G1 X105.834 Y120.851 E18.66969
G1 X105.627 Y120.981 E18.68107
G1 X104.439 Y121.538 E18.74217
G1 X104.166 Y121.621 E18.75545
G1 X102.936 Y121.81 E18.8134
G1 X102.635 Y121.811 E18.82741
G1 X101.91 Y121.702 E18.86155
G1 X101.397 Y121.621 E18.88574
G1 X101.128 Y121.538 E18.89885
G1 X99.94 Y120.981 E18.95994
G1 X99.733 Y120.851 E18.97132
G1 X98.612 Y119.937 E19.03867
G1 X98.47 Y119.795 E19.04802
G1 X97.458 Y118.556 E19.12252
G1 X97.363 Y118.418 E19.13032
G1 X96.495 Y116.896 E19.2119
G1 X96.436 Y116.772 E19.2183
G1 X95.727 Y115 E19.30717
G1 X95.689 Y114.887 E19.31272
G1 X95.167 Y112.933 E19.4069
G1 X95.144 Y112.825 E19.41204
G1 X94.96 Y111.605 E19.46949
G1 X94.826 Y110.741 E19.5102
G1 X94.815 Y110.637 E19.51507
G1 X94.753 Y109.381 E19.57363
G1 X94.707 Y108.49 E19.61517
G1 X94.707 Y108.39 E19.61983
G1 X94.769 Y107.129 E19.67862
G1 X94.815 Y106.237 E19.72021
G1 X94.825 Y106.138 E19.72484
G1 X95.144 Y104.051 E19.82315
G1 X95.167 Y103.944 E19.82824
G1 X95.689 Y101.989 E19.92247
G1 X95.727 Y101.876 E19.92802
G1 X96.436 Y100.104 E20.01689
G1 X96.495 Y99.979 E20.02333
G1 X97.363 Y98.458 E20.10487
G1 X97.457 Y98.322 E20.11257
G1 X98.469 Y97.082 E20.1871
G0 F9000 X98.779 Y97.335
G1 F2400 X98.865 Y97.249 E20.19276
G1 X99.984 Y96.336 E20.26001
G1 X100.109 Y96.258 E20.26687
G1 X101.299 Y95.701 E20.32805
G1 X101.461 Y95.651 E20.33595
G1 X102.692 Y95.461 E20.39394
G1 X102.874 Y95.461 E20.40242
