;FLAVOR:Marlin
;TIME:2020
;Filament used: 1.3576m
;Layer height: 0.24
;MINX:99.076
;MINY:99.324
;MINZ:0.28
;MAXX:120.739
;MAXY:119.108
;MAXZ:33.68
;Generated with Cura_SteamEngine 4.7.1
M140 S110
M105
M190 S110
M104 S240
M105
M109 S240
M82 ;absolute extrusion mode
M201 X500.00 Y500.00 Z100.00 E5000.00 ;Setup machine max acceleration
M203 X500.00 Y500.00 Z10.00 E50.00 ;Setup machine max feedrate
M204 P500.00 R1000.00 T500.00 ;Setup Print/Retract/Travel acceleration
M205 X8.00 Y8.00 Z0.40 E5.00 ;Setup Jerk
M220 S100 ;Reset Feedrate
M221 S100 ;Reset Flowrate

G28 ;Home

G92 E0 ;Reset Extruder
G1 Z2.0 F3000 ;Move Z Axis up
G1 X10.1 Y20 Z0.28 F5000.0 ;Move to start position
G1 X10.1 Y200.0 Z0.28 F1500.0 E15 ;Draw the first line
G1 X10.4 Y200.0 Z0.28 F5000.0 ;Move to side a little
G1 X10.4 Y20 Z0.28 F1500.0 E30 ;Draw the second line
G92 E0 ;Reset Extruder
G1 Z2.0 F3000 ;Move Z Axis up

G92 E0
G92 E0
G1 F1800 E-3
;LAYER_COUNT:150
;LAYER:0
M107
M205 X6 Y6
G0 F9000 X101.746 Y100.93 Z0.28
;TYPE:SKIRT
G1 F1800 E0
G1 F2400 X101.945 Y100.731 E0.0131
G1 X102.69 Y100.122 E0.05791
G1 X102.982 Y99.938 E0.07398
G1 X103.774 Y99.567 E0.11471
G1 X104.156 Y99.451 E0.1333
G1 X104.977 Y99.325 E0.17197
G1 X105.401 Y99.325 E0.19172
G1 X106.222 Y99.451 E0.23039
G1 X106.604 Y99.567 E0.24898
G1 X107.396 Y99.938 E0.28971
G1 X107.688 Y100.122 E0.30578
G1 X108.43 Y100.729 E0.35042
G1 X108.627 Y100.926 E0.36339
G1 X109.303 Y101.751 E0.41305
G1 X109.436 Y101.944 E0.42397
G1 X109.7 Y102.407 E0.44879
G1 X109.963 Y101.947 E0.47346
G1 X110.094 Y101.756 E0.48424
G1 X110.768 Y100.93 E0.53389
G1 X110.968 Y100.73 E0.54706
G1 X111.714 Y100.121 E0.5919
G1 X112.005 Y99.938 E0.6079
G1 X112.797 Y99.567 E0.64863
G1 X113.179 Y99.451 E0.66722
G1 X114 Y99.325 E0.7059
G1 X114.419 Y99.324 E0.72541
G1 X115.248 Y99.452 E0.76446
G1 X115.626 Y99.567 E0.78286
G1 X116.418 Y99.938 E0.82359
G1 X116.71 Y100.122 E0.83966
G1 X117.453 Y100.729 E0.88433
G1 X117.651 Y100.927 E0.89737
G1 X118.325 Y101.752 E0.94698
G1 X118.457 Y101.943 E0.95779
G1 X119.037 Y102.958 E1.01222
G1 X119.121 Y103.133 E1.02126
G1 X119.593 Y104.314 E1.08048
G1 X119.646 Y104.473 E1.08829
G1 X119.993 Y105.775 E1.15103
G1 X120.024 Y105.924 E1.15812
G1 X120.237 Y107.313 E1.22355
G1 X120.251 Y107.458 E1.23033
G1 X120.277 Y107.991 E1.25518
G1 X120.324 Y108.883 E1.29678
G1 X120.324 Y109.024 E1.30334
G1 X120.298 Y109.572 E1.32889
G1 X120.251 Y110.464 E1.37048
G1 X120.237 Y110.599 E1.3768
G1 X120.158 Y111.128 E1.4017
G1 X120.024 Y111.995 E1.44256
G1 X119.993 Y112.142 E1.44955
G1 X119.646 Y113.443 E1.51225
G1 X119.593 Y113.602 E1.52005
G1 X119.121 Y114.783 E1.57927
G1 X119.037 Y114.957 E1.58827
G1 X118.459 Y115.97 E1.64258
G1 X118.328 Y116.161 E1.65336
G1 X117.654 Y116.987 E1.70301
G1 X117.455 Y117.186 E1.71611
G1 X116.71 Y117.795 E1.76092
G1 X116.418 Y117.979 E1.77699
G1 X115.626 Y118.35 E1.81771
G1 X115.245 Y118.466 E1.83626
G1 X114.425 Y118.592 E1.87489
G1 X114 Y118.592 E1.89468
G1 X113.179 Y118.466 E1.93335
G1 X112.797 Y118.35 E1.95194
G1 X112.005 Y117.979 E1.99267
G1 X111.714 Y117.796 E2.00867
G1 X110.968 Y117.187 E2.05352
G1 X110.768 Y116.987 E2.06669
G1 X110.094 Y116.161 E2.11633
G1 X109.963 Y115.97 E2.12711
G1 X109.7 Y115.509 E2.15183
G1 X109.438 Y115.969 E2.17648
G1 X109.305 Y116.163 E2.18743
G1 X108.629 Y116.989 E2.23713
G1 X108.433 Y117.185 E2.25004
G1 X107.689 Y117.794 E2.29481
G1 X107.396 Y117.979 E2.31094
G1 X106.604 Y118.35 E2.35167
G1 X106.222 Y118.466 E2.37026
G1 X105.401 Y118.592 E2.40893
G1 X104.977 Y118.592 E2.42868
G1 X104.156 Y118.466 E2.46735
G1 X103.774 Y118.35 E2.48594
G1 X102.982 Y117.979 E2.52667
G1 X102.69 Y117.795 E2.54274
G1 X101.945 Y117.186 E2.58754
G1 X101.746 Y116.987 E2.60065
G1 X101.072 Y116.161 E2.65029
G1 X100.941 Y115.97 E2.66108
G1 X100.363 Y114.957 E2.71538
G1 X100.279 Y114.784 E2.72434
G1 X99.806 Y113.603 E2.78358
G1 X99.753 Y113.443 E2.79143
G1 X99.406 Y112.142 E2.85412
G1 X99.375 Y111.992 E2.86126
G1 X99.163 Y110.601 E2.92677
G1 X99.149 Y110.457 E2.93351
G1 X99.123 Y109.918 E2.95864
G1 X99.077 Y109.031 E3
G1 X99.076 Y108.894 E3.00638
G1 X99.102 Y108.344 E3.03201
G1 X99.149 Y107.453 E3.07356
G1 X99.163 Y107.316 E3.07997
G1 X99.375 Y105.925 E3.14549
G1 X99.406 Y105.775 E3.15262
G1 X99.753 Y104.473 E3.21537
G1 X99.806 Y104.313 E3.22322
G1 X100.279 Y103.132 E3.28245
G1 X100.363 Y102.959 E3.29141
G1 X100.941 Y101.947 E3.34568
G1 X101.072 Y101.756 E3.35646
G1 X101.746 Y100.93 E3.4061
G0 F9000 X102.056 Y101.183
G1 F2400 X102.198 Y101.041 E3.41545
G1 X102.943 Y100.432 E3.46026
G1 X103.152 Y100.3 E3.47177
G1 X103.944 Y99.929 E3.51249
G1 X104.216 Y99.847 E3.52572
G1 X105.037 Y99.721 E3.5644
G1 X105.341 Y99.721 E3.57856
G1 X106.162 Y99.847 E3.61723
G1 X106.434 Y99.929 E3.63046
G1 X107.226 Y100.3 E3.67119
G1 X107.435 Y100.432 E3.6827
G1 X108.177 Y101.039 E3.72733
G1 X108.317 Y101.179 E3.73655
G1 X108.993 Y102.004 E3.78622
G1 X109.089 Y102.143 E3.79408
G1 X109.668 Y103.158 E3.8485
G1 X109.7 Y103.225 E3.85195
G1 X109.733 Y103.157 E3.85547
G1 X110.311 Y102.145 E3.90974
G1 X110.404 Y102.009 E3.91741
G1 X111.078 Y101.183 E3.96705
G1 X111.221 Y101.04 E3.97647
G1 X111.967 Y100.431 E4.02131
G1 X112.175 Y100.3 E4.03276
G1 X112.967 Y99.929 E4.07348
G1 X113.239 Y99.847 E4.08671
G1 X114.06 Y99.721 E4.12539
G1 X114.674 Y99.767 E4.15406
G1 X115.186 Y99.847 E4.17819
G1 X115.456 Y99.929 E4.19133
G1 X116.248 Y100.3 E4.23205
G1 X116.457 Y100.432 E4.24356
G1 X117.2 Y101.039 E4.28824
G1 X117.341 Y101.18 E4.29752
G1 X118.015 Y102.005 E4.34713
G1 X118.109 Y102.142 E4.35487
G1 X118.689 Y103.157 E4.4093
G1 X118.75 Y103.282 E4.41578
G1 X119.222 Y104.463 E4.475
G1 X119.259 Y104.576 E4.48054
G1 X119.606 Y105.878 E4.54328
G1 X119.628 Y105.984 E4.54832
G1 X119.841 Y107.373 E4.61375
G1 X119.852 Y107.477 E4.61862
G1 X119.878 Y108.012 E4.64356
G1 X119.925 Y108.904 E4.68516
G1 X119.925 Y109.005 E4.68986
G1 X119.899 Y109.551 E4.71531
G1 X119.852 Y110.443 E4.75691
G1 X119.842 Y110.539 E4.7614
G1 X119.628 Y111.934 E4.82712
G1 X119.606 Y112.039 E4.83211
G1 X119.259 Y113.34 E4.89481
G1 X119.222 Y113.453 E4.90035
G1 X118.75 Y114.634 E4.95957
G1 X118.69 Y114.759 E4.96602
G1 X118.112 Y115.772 E5.02033
G1 X118.018 Y115.908 E5.02803
G1 X117.344 Y116.734 E5.07767
G1 X117.202 Y116.876 E5.08702
G1 X116.457 Y117.485 E5.13183
G1 X116.248 Y117.617 E5.14334
G1 X115.456 Y117.988 E5.18406
G1 X115.184 Y118.07 E5.19729
G1 X114.364 Y118.196 E5.23592
G1 X114.06 Y118.196 E5.25008
G1 X113.239 Y118.07 E5.28876
G1 X112.967 Y117.988 E5.30198
G1 X112.175 Y117.617 E5.34271
G1 X111.967 Y117.486 E5.35415
G1 X111.221 Y116.877 E5.399
G1 X111.078 Y116.734 E5.40841
G1 X110.404 Y115.908 E5.45805
G1 X110.31 Y115.772 E5.46575
G1 X109.732 Y114.759 E5.52006
G1 X109.7 Y114.692 E5.52352
G1 X109.668 Y114.758 E5.52693
G1 X109.091 Y115.771 E5.58122
G1 X108.996 Y115.909 E5.58902
G1 X108.32 Y116.735 E5.63872
G1 X108.179 Y116.876 E5.64801
G1 X107.435 Y117.485 E5.69278
G1 X107.226 Y117.617 E5.70429
G1 X106.434 Y117.988 E5.74501
G1 X106.162 Y118.07 E5.75824
G1 X105.341 Y118.196 E5.79692
G1 X105.037 Y118.196 E5.81107
G1 X104.216 Y118.07 E5.84975
G1 X103.944 Y117.988 E5.86298
G1 X103.152 Y117.617 E5.9037
G1 X102.943 Y117.485 E5.91521
G1 X102.198 Y116.876 E5.96002
G1 X102.056 Y116.734 E5.96937
G1 X101.382 Y115.908 E6.01901
G1 X101.288 Y115.772 E6.02671
G1 X100.71 Y114.759 E6.08102
G1 X100.651 Y114.635 E6.08741
G1 X100.178 Y113.454 E6.14665
G1 X100.14 Y113.34 E6.15224
G1 X99.793 Y112.039 E6.21494
G1 X99.77 Y111.932 E6.22004
G1 X99.558 Y110.541 E6.28556
G1 X99.548 Y110.438 E6.29038
G1 X99.522 Y109.899 E6.3155
G1 X99.476 Y109.011 E6.35691
G1 X99.476 Y108.913 E6.36147
G1 X99.501 Y108.365 E6.38701
G1 X99.548 Y107.474 E6.42856
G1 X99.558 Y107.376 E6.43315
G1 X99.77 Y105.985 E6.49867
G1 X99.793 Y105.878 E6.50376
G1 X100.14 Y104.576 E6.56651
G1 X100.178 Y104.462 E6.5721
G1 X100.651 Y103.281 E6.63134
G1 X100.711 Y103.157 E6.63775
G1 X101.289 Y102.145 E6.69202
G1 X101.382 Y102.009 E6.69969
G1 X102.056 Y101.183 E6.74933
G0 F9000 X102.366 Y101.436
G1 F2400 X102.451 Y101.35 E6.75497
G1 X103.196 Y100.741 E6.79977
G1 X103.321 Y100.663 E6.80663
G1 X104.113 Y100.292 E6.84736
G1 X104.277 Y100.242 E6.85534
G1 X105.098 Y100.116 E6.89402
G1 X105.28 Y100.116 E6.90249
G1 X106.101 Y100.242 E6.94117
G1 X106.265 Y100.292 E6.94915
G1 X107.057 Y100.663 E6.98988
G1 X107.182 Y100.742 E6.99676
G1 X107.924 Y101.349 E7.0414
G1 X108.008 Y101.433 E7.04693
G1 X108.684 Y102.258 E7.0966
G1 X108.741 Y102.341 E7.10129
G1 X109.32 Y103.356 E7.1557
G1 X109.356 Y103.43 E7.15953
G1 X109.7 Y104.289 E7.20262
G1 X110.044 Y103.43 E7.2457
G1 X110.08 Y103.355 E7.24958
G1 X110.658 Y102.343 E7.30384
G1 X110.714 Y102.262 E7.30843
G1 X111.388 Y101.436 E7.35807
G1 X111.474 Y101.35 E7.36373
G1 X112.22 Y100.741 E7.40858
G1 X112.344 Y100.663 E7.4154
G1 X113.136 Y100.292 E7.45612
G1 X113.3 Y100.242 E7.46411
G1 X114.121 Y100.116 E7.50278
G1 X114.613 Y100.162 E7.52579
G1 X115.125 Y100.242 E7.54992
G1 X115.287 Y100.292 E7.55782
G1 X116.079 Y100.663 E7.59854
G1 X116.204 Y100.741 E7.6054
G1 X116.947 Y101.348 E7.65008
G1 X117.032 Y101.433 E7.65567
G1 X117.706 Y102.258 E7.70528
G1 X117.762 Y102.34 E7.7099
G1 X118.342 Y103.355 E7.76434
G1 X118.378 Y103.43 E7.76821
G1 X118.85 Y104.611 E7.82743
G1 X118.873 Y104.679 E7.83078
G1 X119.22 Y105.981 E7.89352
G1 X119.233 Y106.045 E7.89656
G1 X119.446 Y107.434 E7.96199
G1 X119.452 Y107.496 E7.96489
G1 X119.478 Y108.033 E7.98993
G1 X119.525 Y108.925 E8.03152
G1 X119.525 Y108.986 E8.03436
G1 X119.499 Y109.53 E8.05972
G1 X119.452 Y110.422 E8.10131
G1 X119.446 Y110.479 E8.10398
G1 X119.367 Y111.006 E8.1288
G1 X119.233 Y111.873 E8.16965
G1 X119.22 Y111.936 E8.17264
G1 X118.873 Y113.237 E8.23534
G1 X118.85 Y113.305 E8.23868
G1 X118.378 Y114.486 E8.2979
G1 X118.342 Y114.56 E8.30174
G1 X117.764 Y115.573 E8.35604
G1 X117.708 Y115.655 E8.36067
G1 X117.034 Y116.481 E8.41031
G1 X116.949 Y116.567 E8.41594
G1 X116.204 Y117.176 E8.46075
G1 X116.079 Y117.254 E8.46761
G1 X115.287 Y117.625 E8.50833
G1 X115.123 Y117.675 E8.51631
G1 X114.303 Y117.801 E8.55495
G1 X114.121 Y117.801 E8.56342
G1 X113.3 Y117.675 E8.6021
G1 X113.136 Y117.625 E8.61008
G1 X112.344 Y117.254 E8.6508
G1 X112.22 Y117.176 E8.65763
G1 X111.474 Y116.567 E8.70247
G1 X111.388 Y116.481 E8.70813
G1 X110.714 Y115.655 E8.75777
G1 X110.658 Y115.573 E8.7624
G1 X110.08 Y114.56 E8.8167
G1 X110.044 Y114.486 E8.82054
G1 X109.7 Y113.627 E8.86362
G1 X109.356 Y114.486 E8.90671
G1 X109.32 Y114.56 E8.91054
G1 X108.743 Y115.573 E8.96483
G1 X108.686 Y115.656 E8.96951
G1 X108.01 Y116.482 E9.01922
G1 X107.926 Y116.566 E9.02475
G1 X107.182 Y117.175 E9.06952
G1 X107.057 Y117.254 E9.0764
G1 X106.265 Y117.625 E9.11713
G1 X106.101 Y117.675 E9.12511
G1 X105.28 Y117.801 E9.16379
G1 X105.098 Y117.801 E9.17226
G1 X104.277 Y117.675 E9.21094
G1 X104.113 Y117.625 E9.21892
G1 X103.321 Y117.254 E9.25965
G1 X103.196 Y117.176 E9.26651
G1 X102.451 Y116.567 E9.31131
G1 X102.366 Y116.481 E9.31694
G1 X101.692 Y115.655 E9.36659
G1 X101.636 Y115.573 E9.37121
G1 X101.058 Y114.56 E9.42552
G1 X101.022 Y114.486 E9.42935
G1 X100.549 Y113.305 E9.48859
G1 X100.526 Y113.237 E9.49193
G1 X100.179 Y111.936 E9.55463
G1 X100.166 Y111.871 E9.55771
G1 X99.954 Y110.48 E9.62323
G1 X99.948 Y110.419 E9.62609
G1 X99.922 Y109.88 E9.65121
G1 X99.876 Y108.99 E9.69271
G1 X99.876 Y108.931 E9.69546
G1 X99.901 Y108.386 E9.72086
G1 X99.948 Y107.495 E9.76241
G1 X99.954 Y107.437 E9.76513
G1 X100.166 Y106.046 E9.83064
G1 X100.179 Y105.981 E9.83373
G1 X100.526 Y104.679 E9.89647
G1 X100.549 Y104.611 E9.89982
G1 X101.022 Y103.43 E9.95905
G1 X101.058 Y103.355 E9.96293
G1 X101.636 Y102.343 E10.0172
G1 X101.692 Y102.262 E10.02178
G1 X102.366 Y101.436 E10.07142
G0 F9000 X102.676 Y101.689
G1 F2400 X102.704 Y101.66 E10.0733
G1 X103.449 Y101.051 E10.11811
G1 X103.491 Y101.025 E10.12041
G1 X104.283 Y100.654 E10.16113
G1 X104.338 Y100.637 E10.16381
G1 X105.159 Y100.511 E10.20249
G1 X105.219 Y100.511 E10.20528
G1 X106.04 Y100.637 E10.24396
G1 X106.095 Y100.654 E10.24664
G1 X106.887 Y101.025 E10.28736
G1 X106.929 Y101.051 E10.28966
G1 X107.671 Y101.658 E10.3343
G1 X107.699 Y101.686 E10.33615
G1 X108.375 Y102.511 E10.38581
G1 X108.394 Y102.539 E10.38739
G1 X108.973 Y103.554 E10.4418
G1 X108.985 Y103.579 E10.44309
G1 X109.458 Y104.76 E10.50233
G1 X109.465 Y104.782 E10.5034
G1 X109.7 Y105.664 E10.54591
G1 X109.942 Y104.76 E10.58948
G1 X110.415 Y103.579 E10.64872
G1 X110.427 Y103.554 E10.65001
G1 X111.005 Y102.542 E10.70428
G1 X111.024 Y102.515 E10.70582
G1 X111.698 Y101.689 E10.75546
G1 X111.727 Y101.66 E10.75737
G1 X112.473 Y101.051 E10.80221
G1 X112.514 Y101.025 E10.80447
G1 X113.306 Y100.654 E10.8452
G1 X113.361 Y100.637 E10.84788
G1 X114.182 Y100.511 E10.88655
G1 X114.551 Y100.557 E10.90387
G1 X115.063 Y100.637 E10.928
G1 X115.117 Y100.654 E10.93063
G1 X115.909 Y101.025 E10.97136
G1 X115.951 Y101.051 E10.97366
G1 X116.694 Y101.658 E11.01833
G1 X116.722 Y101.686 E11.02018
G1 X117.396 Y102.511 E11.06978
G1 X117.415 Y102.539 E11.07136
G1 X117.995 Y103.554 E11.12579
G1 X118.007 Y103.579 E11.12709
G1 X118.479 Y104.76 E11.18631
G1 X118.486 Y104.782 E11.18738
G1 X118.838 Y106.106 E11.25117
G1 X119.051 Y107.495 E11.31661
G1 X119.126 Y108.947 E11.38431
G1 X119.1 Y109.508 E11.41046
G1 X119.051 Y110.42 E11.45299
G1 X118.972 Y110.944 E11.47766
G1 X118.838 Y111.811 E11.51851
G1 X118.486 Y113.134 E11.58226
G1 X118.479 Y113.156 E11.58334
G1 X118.007 Y114.337 E11.64256
G1 X117.995 Y114.362 E11.64385
G1 X117.417 Y115.375 E11.69816
G1 X117.398 Y115.402 E11.69969
G1 X116.724 Y116.228 E11.74934
G1 X116.696 Y116.257 E11.75121
G1 X115.951 Y116.866 E11.79602
G1 X115.909 Y116.892 E11.79832
G1 X115.117 Y117.263 E11.83904
G1 X115.062 Y117.28 E11.84172
G1 X114.242 Y117.406 E11.88035
G1 X114.182 Y117.406 E11.88315
G1 X113.361 Y117.28 E11.92183
G1 X113.306 Y117.263 E11.92451
G1 X112.514 Y116.892 E11.96523
G1 X112.473 Y116.866 E11.96749
G1 X111.727 Y116.257 E12.01233
G1 X111.698 Y116.228 E12.01424
G1 X111.024 Y115.402 E12.06388
G1 X111.005 Y115.375 E12.06542
G1 X110.427 Y114.362 E12.11973
G1 X110.415 Y114.337 E12.12102
G1 X109.942 Y113.156 E12.18026
G1 X109.935 Y113.134 E12.18133
G1 X109.7 Y112.253 E12.22379
G1 X109.458 Y113.156 E12.26732
G1 X108.985 Y114.337 E12.32656
G1 X108.973 Y114.362 E12.32785
G1 X108.396 Y115.375 E12.38214
G1 X108.377 Y115.403 E12.38371
G1 X107.701 Y116.229 E12.43341
G1 X107.673 Y116.257 E12.43526
G1 X106.929 Y116.866 E12.48003
G1 X106.887 Y116.892 E12.48233
G1 X106.095 Y117.263 E12.52305
G1 X106.04 Y117.28 E12.52573
G1 X105.219 Y117.406 E12.56441
G1 X105.159 Y117.406 E12.5672
G1 X104.338 Y117.28 E12.60588
G1 X104.283 Y117.263 E12.60856
G1 X103.491 Y116.892 E12.64929
G1 X103.449 Y116.866 E12.65159
G1 X102.704 Y116.257 E12.69639
G1 X102.676 Y116.228 E12.69827
G1 X102.002 Y115.402 E12.74791
G1 X101.983 Y115.375 E12.74945
G1 X101.405 Y114.362 E12.80376
G1 X101.393 Y114.337 E12.80505
G1 X100.92 Y113.156 E12.86429
G1 X100.913 Y113.134 E12.86536
G1 X100.561 Y111.811 E12.92911
G1 X100.349 Y110.42 E12.99463
G1 X100.275 Y108.95 E13.06316
G1 X100.3 Y108.407 E13.08847
G1 X100.349 Y107.497 E13.13091
G1 X100.561 Y106.106 E13.19643
G1 X100.913 Y104.782 E13.26022
G1 X100.92 Y104.76 E13.2613
G1 X101.393 Y103.579 E13.32053
G1 X101.405 Y103.554 E13.32183
G1 X101.983 Y102.542 E13.37609
G1 X102.002 Y102.515 E13.37763
G1 X102.676 Y101.689 E13.42727
G1 F1800 E10.42727
;MESH:GuyWithSecretBody_short_legs.stl
G0 F9000 X103.687 Y102.677
G0 X103.126 Y103.306
G0 X102.636 Y104.162
G0 X102.222 Y105.196
G0 X101.905 Y106.382
G0 X101.713 Y107.646
G0 X101.646 Y108.973
G0 X101.713 Y110.271
G0 X101.906 Y111.541
G0 X102.219 Y112.712
G0 X102.638 Y113.758
G0 X103.124 Y114.609
G0 X103.659 Y115.268
G0 X104.208 Y115.714
G0 X104.715 Y115.951
G0 X105.189 Y116.024
G0 X105.663 Y115.951
G0 X106.169 Y115.714
G0 X106.713 Y115.271
G0 X107.258 Y114.602
G0 X107.74 Y113.758
G0 X108.16 Y112.707
G0 X108.474 Y111.528
G0 X110.142 Y110.08
G0 X111.66 Y113.758
G0 X112.144 Y114.606
G0 X112.687 Y115.274
G0 X113.228 Y115.713
G0 X113.639 Y115.905
G0 X115.555 Y116.285
G0 X115.715 Y116.541
;TYPE:WALL-OUTER
G1 F1800 E13.42727
G1 F2400 X114.973 Y116.889 E13.46543
