;FLAVOR:Marlin
;TIME:1419
;Filament used: 0.387007m
;Layer height: 0.2
;MINX:103.161
;MINY:103.162
;MINZ:0.24
;MAXX:116.839
;MAXY:116.838
;MAXZ:21.36
;Generated with Cura_SteamEngine 4.7.1
M140 S110
M105
M190 S110
M104 S240
M105
M109 S240
M82 ;absolute extrusion mode
M201 X500.00 Y500.00 Z100.00 E5000.00 ;Setup machine max acceleration
M203 X500.00 Y500.00 Z10.00 E50.00 ;Setup machine max feedrate
M204 P500.00 R1000.00 T500.00 ;Setup Print/Retract/Travel acceleration
M205 X8.00 Y8.00 Z0.40 E5.00 ;Setup Jerk
M220 S100 ;Reset Feedrate
M221 S100 ;Reset Flowrate

G28 ;Home

G92 E0 ;Reset Extruder
G1 Z2.0 F3000 ;Move Z Axis up
G1 X10.1 Y20 Z0.28 F5000.0 ;Move to start position
G1 X10.1 Y200.0 Z0.28 F1500.0 E15 ;Draw the first line
G1 X10.4 Y200.0 Z0.28 F5000.0 ;Move to side a little
G1 X10.4 Y20 Z0.28 F1500.0 E30 ;Draw the second line
G92 E0 ;Reset Extruder
G1 Z2.0 F3000 ;Move Z Axis up

G92 E0
G92 E0
G1 F1800 E-3
;LAYER_COUNT:134
;LAYER:0
M107
M205 X6 Y6
G0 F9000 X105.094 Y105.235 Z0.24
;TYPE:SKIRT
G1 F1800 E0
G1 F2400 X105.617 Y104.791 E0.02738
G1 X106.863 Y103.958 E0.0872
G1 X107.29 Y103.72 E0.10671
G1 X107.946 Y103.509 E0.13422
G1 X109.416 Y103.217 E0.19403
G1 X109.902 Y103.162 E0.21355
G1 X110.584 Y103.217 E0.24086
G1 X112.054 Y103.509 E0.30068
G1 X112.525 Y103.644 E0.32024
G1 X113.137 Y103.958 E0.34769
G1 X114.383 Y104.791 E0.40751
G1 X114.767 Y105.095 E0.42706
G1 X115.21 Y105.617 E0.45438
G1 X116.042 Y106.861 E0.51412
G1 X116.28 Y107.289 E0.53366
G1 X116.49 Y107.943 E0.56108
G1 X116.783 Y109.413 E0.6209
G1 X116.839 Y109.899 E0.64043
G1 X116.784 Y110.582 E0.66778
G1 X116.494 Y112.046 E0.72734
G1 X116.36 Y112.517 E0.74689
G1 X116.048 Y113.125 E0.77416
G1 X115.218 Y114.372 E0.83395
G1 X114.915 Y114.756 E0.85347
G1 X114.363 Y115.224 E0.88236
G1 X113.136 Y116.043 E0.94124
G1 X112.708 Y116.281 E0.96078
G1 X112.054 Y116.491 E0.9882
G1 X110.584 Y116.783 E1.04801
G1 X110.098 Y116.838 E1.06753
G1 X109.416 Y116.783 E1.09484
G1 X107.946 Y116.491 E1.15466
G1 X107.475 Y116.356 E1.17422
G1 X106.863 Y116.042 E1.20167
G1 X105.617 Y115.209 E1.26149
G1 X105.233 Y114.905 E1.28104
G1 X104.79 Y114.383 E1.30836
G1 X103.958 Y113.139 E1.36809
G1 X103.72 Y112.711 E1.38764
G1 X103.51 Y112.057 E1.41506
G1 X103.217 Y110.585 E1.47496
G1 X103.161 Y110.098 E1.49452
G1 X103.216 Y109.415 E1.52187
G1 X103.507 Y107.949 E1.58153
G1 X103.642 Y107.478 E1.60108
G1 X103.956 Y106.866 E1.62853
G1 X104.79 Y105.618 E1.68844
G1 X105.094 Y105.235 E1.70796
G0 F9000 X105.408 Y105.485
G1 F2400 X105.839 Y105.124 E1.7304
G1 X107.085 Y104.291 E1.79022
G1 X107.484 Y104.071 E1.80841
G1 X108.023 Y103.902 E1.83095
G1 X109.493 Y103.61 E1.89077
G1 X109.946 Y103.561 E1.90895
G1 X110.507 Y103.61 E1.93143
G1 X111.977 Y103.902 E1.99125
G1 X112.414 Y104.029 E2.00941
G1 X112.915 Y104.291 E2.03197
G1 X114.161 Y105.124 E2.0918
G1 X114.516 Y105.409 E2.10997
G1 X114.877 Y105.84 E2.1324
G1 X115.709 Y107.084 E2.19214
G1 X115.928 Y107.483 E2.2103
G1 X116.098 Y108.021 E2.23282
G1 X116.391 Y109.491 E2.29265
G1 X116.44 Y109.944 E2.31083
G1 X116.391 Y110.504 E2.33327
G1 X116.101 Y111.968 E2.39283
G1 X115.974 Y112.406 E2.41104
G1 X115.715 Y112.904 E2.43344
G1 X114.885 Y114.151 E2.49323
G1 X114.601 Y114.506 E2.51137
G1 X114.14 Y114.892 E2.53537
G1 X112.913 Y115.711 E2.59425
G1 X112.514 Y115.929 E2.6124
G1 X111.977 Y116.098 E2.63487
G1 X110.507 Y116.39 E2.69468
G1 X110.054 Y116.439 E2.71287
G1 X109.493 Y116.39 E2.73534
G1 X108.023 Y116.098 E2.79516
G1 X107.586 Y115.971 E2.81332
G1 X107.085 Y115.709 E2.83589
G1 X105.839 Y114.876 E2.89571
G1 X105.484 Y114.591 E2.91388
G1 X105.123 Y114.16 E2.93632
G1 X104.291 Y112.916 E2.99605
G1 X104.072 Y112.517 E3.01422
G1 X103.902 Y111.979 E3.03674
G1 X103.609 Y110.507 E3.09664
G1 X103.56 Y110.054 E3.11483
G1 X103.609 Y109.493 E3.1373
G1 X103.9 Y108.027 E3.19695
G1 X104.027 Y107.589 E3.21516
G1 X104.288 Y107.088 E3.2377
G1 X105.122 Y105.84 E3.29761
G1 X105.408 Y105.485 E3.31581
G0 F9000 X105.72 Y105.738
G1 F2400 X106.061 Y105.456 E3.33347
G1 X107.307 Y104.623 E3.39329
G1 X107.676 Y104.424 E3.41002
G1 X108.101 Y104.294 E3.42776
G1 X109.571 Y104.002 E3.48758
G1 X109.988 Y103.96 E3.5043
G1 X110.429 Y104.002 E3.52198
G1 X111.899 Y104.294 E3.5818
G1 X112.3 Y104.415 E3.59852
G1 X112.693 Y104.623 E3.61627
G1 X113.939 Y105.456 E3.67609
G1 X114.263 Y105.721 E3.69279
G1 X114.545 Y106.062 E3.71045
G1 X115.377 Y107.306 E3.77019
G1 X115.575 Y107.675 E3.7869
G1 X115.706 Y108.099 E3.80461
G1 X115.999 Y109.569 E3.86444
G1 X116.041 Y109.986 E3.88116
G1 X115.999 Y110.426 E3.89881
G1 X115.709 Y111.89 E3.95837
G1 X115.589 Y112.292 E3.97512
G1 X115.382 Y112.682 E3.99274
G1 X114.552 Y113.929 E4.05253
G1 X114.288 Y114.254 E4.06924
G1 X113.918 Y114.559 E4.08838
G1 X112.691 Y115.378 E4.14726
G1 X112.322 Y115.576 E4.16397
G1 X111.899 Y115.706 E4.18163
G1 X110.429 Y115.998 E4.24145
G1 X110.012 Y116.04 E4.25818
G1 X109.571 Y115.998 E4.27586
G1 X108.101 Y115.706 E4.33567
G1 X107.7 Y115.585 E4.35239
G1 X107.307 Y115.377 E4.37014
G1 X106.061 Y114.544 E4.42996
G1 X105.737 Y114.279 E4.44666
G1 X105.455 Y113.938 E4.46433
G1 X104.623 Y112.694 E4.52406
G1 X104.425 Y112.325 E4.54077
G1 X104.294 Y111.9 E4.55852
G1 X104.001 Y110.428 E4.61843
G1 X103.959 Y110.012 E4.63511
G1 X104.001 Y109.571 E4.65279
G1 X104.292 Y108.105 E4.71245
G1 X104.412 Y107.703 E4.72919
G1 X104.621 Y107.311 E4.74692
G1 X105.455 Y106.063 E4.80683
G1 X105.72 Y105.738 E4.82357
G0 F9000 X106.03 Y105.994
G1 F2400 X106.284 Y105.789 E4.83659
G1 X107.53 Y104.956 E4.89642
G1 X107.865 Y104.779 E4.91154
G1 X108.179 Y104.686 E4.92461
G1 X109.649 Y104.394 E4.98443
G1 X110.027 Y104.36 E4.99957
G1 X110.351 Y104.394 E5.01258
G1 X111.821 Y104.686 E5.07239
G1 X112.183 Y104.799 E5.08753
G1 X112.47 Y104.956 E5.10059
G1 X113.716 Y105.789 E5.16041
G1 X114.008 Y106.031 E5.17554
G1 X114.212 Y106.284 E5.18851
G1 X115.044 Y107.528 E5.24825
G1 X115.221 Y107.864 E5.2634
G1 X115.313 Y108.177 E5.27642
G1 X115.606 Y109.647 E5.33625
G1 X115.641 Y110.025 E5.3514
G1 X115.607 Y110.349 E5.3644
G1 X115.317 Y111.813 E5.42397
G1 X115.204 Y112.175 E5.43911
G1 X115.049 Y112.46 E5.45205
G1 X114.219 Y113.707 E5.51184
G1 X113.838 Y114.121 E5.5343
G1 X113.696 Y114.226 E5.54135
G1 X112.469 Y115.045 E5.60022
G1 X112.134 Y115.221 E5.61533
G1 X111.821 Y115.314 E5.62836
G1 X110.351 Y115.606 E5.68818
G1 X109.973 Y115.64 E5.70333
G1 X109.649 Y115.606 E5.71633
G1 X108.179 Y115.314 E5.77615
G1 X107.817 Y115.201 E5.79128
G1 X107.53 Y115.044 E5.80434
G1 X106.284 Y114.211 E5.86416
G1 X105.992 Y113.969 E5.87929
G1 X105.788 Y113.716 E5.89227
G1 X104.956 Y112.472 E5.952
G1 X104.779 Y112.136 E5.96716
G1 X104.687 Y111.822 E5.98021
G1 X104.394 Y110.35 E6.04012
G1 X104.359 Y109.973 E6.05523
G1 X104.393 Y109.649 E6.06823
G1 X104.684 Y108.183 E6.12788
G1 X104.797 Y107.821 E6.14302
G1 X104.953 Y107.533 E6.15609
G1 X105.787 Y106.285 E6.216
G1 X106.03 Y105.994 E6.23113
G0 F9000 X106.337 Y106.254
G1 F2400 X106.506 Y106.121 E6.23972
G1 X107.752 Y105.288 E6.29954
G1 X108.05 Y105.137 E6.31287
G1 X108.257 Y105.079 E6.32145
G1 X109.727 Y104.787 E6.38127
G1 X110.06 Y104.761 E6.3946
G1 X110.273 Y104.787 E6.40316
G1 X111.743 Y105.079 E6.46298
G1 X112.06 Y105.183 E6.4763
G1 X112.248 Y105.288 E6.48489
G1 X113.494 Y106.121 E6.54471
G1 X113.748 Y106.339 E6.55807
G1 X113.88 Y106.507 E6.5666
G1 X114.712 Y107.751 E6.62633
G1 X114.863 Y108.049 E6.63966
G1 X114.921 Y108.255 E6.64821
G1 X115.214 Y109.725 E6.70803
G1 X115.24 Y110.058 E6.72136
G1 X115.214 Y110.271 E6.72993
G1 X114.924 Y111.735 E6.78949
G1 X114.821 Y112.053 E6.80283
G1 X114.716 Y112.239 E6.81136
G1 X113.886 Y113.486 E6.87115
G1 X113.474 Y113.893 E6.89426
G1 X112.247 Y114.712 E6.95314
G1 X111.949 Y114.863 E6.96647
G1 X111.743 Y114.921 E6.97501
G1 X110.273 Y115.213 E7.03483
G1 X109.94 Y115.239 E7.04816
G1 X109.727 Y115.213 E7.05673
G1 X108.257 Y114.921 E7.11654
G1 X107.94 Y114.817 E7.12986
G1 X107.752 Y114.712 E7.13846
G1 X106.506 Y113.879 E7.19828
G1 X106.252 Y113.661 E7.21163
G1 X106.12 Y113.493 E7.22016
G1 X105.288 Y112.249 E7.27989
G1 X105.137 Y111.951 E7.29323
G1 X105.079 Y111.744 E7.30181
G1 X104.786 Y110.272 E7.36171
G1 X104.76 Y109.939 E7.37504
G1 X104.786 Y109.726 E7.38361
G1 X105.077 Y108.26 E7.44326
G1 X105.18 Y107.943 E7.45656
G1 X105.286 Y107.755 E7.46518
G1 X106.12 Y106.507 E7.52509
G1 X106.337 Y106.254 E7.53839
G0 F9000 X106.453 Y106.729
G1 F2400 X106.728 Y106.454 E7.55391
G1 X107.974 Y105.621 E7.61373
G1 X108.335 Y105.471 E7.62933
G1 X109.805 Y105.179 E7.68915
G1 X110.195 Y105.179 E7.70472
G1 X111.665 Y105.471 E7.76453
G1 X112.026 Y105.621 E7.78014
G1 X113.272 Y106.454 E7.83996
G1 X113.547 Y106.729 E7.85548
G1 X114.379 Y107.973 E7.91521
G1 X114.529 Y108.334 E7.93081
G1 X114.822 Y109.804 E7.99064
G1 X114.822 Y110.193 E8.00616
G1 X114.532 Y111.657 E8.06573
G1 X114.383 Y112.017 E8.08128
G1 X113.553 Y113.264 E8.14107
G1 X113.252 Y113.561 E8.15795
G1 X112.025 Y114.38 E8.21683
G1 X111.665 Y114.529 E8.23238
G1 X110.195 Y114.821 E8.29219
G1 X109.805 Y114.821 E8.30776
G1 X108.335 Y114.529 E8.36758
G1 X107.974 Y114.379 E8.38318
G1 X106.728 Y113.546 E8.443
G1 X106.453 Y113.271 E8.45852
G1 X105.621 Y112.027 E8.51825
G1 X105.471 Y111.666 E8.53386
G1 X105.178 Y110.194 E8.59376
G1 X105.178 Y109.804 E8.60932
G1 X105.469 Y108.338 E8.66898
G1 X105.619 Y107.977 E8.68458
G1 X106.453 Y106.729 E8.74449
G0 F9000 X106.785 Y106.952
G1 F2400 X106.951 Y106.786 E8.75386
G1 X108.197 Y105.953 E8.81368
G1 X108.413 Y105.863 E8.82302
G1 X109.883 Y105.571 E8.88284
G1 X110.117 Y105.571 E8.89218
G1 X111.587 Y105.863 E8.95199
G1 X111.803 Y105.953 E8.96133
G1 X113.049 Y106.786 E9.02115
G1 X113.215 Y106.951 E9.03049
G1 X114.047 Y108.195 E9.09023
G1 X114.136 Y108.412 E9.09959
G1 X114.429 Y109.882 E9.15941
G1 X114.43 Y110.116 E9.16875
G1 X114.14 Y111.58 E9.22832
G1 X114.05 Y111.795 E9.23762
G1 X113.22 Y113.042 E9.29741
G1 X113.03 Y113.228 E9.30802
G1 X111.803 Y114.047 E9.3669
G1 X111.587 Y114.137 E9.37624
G1 X110.117 Y114.429 E9.43606
G1 X109.883 Y114.429 E9.4454
G1 X108.413 Y114.137 E9.50521
G1 X108.197 Y114.047 E9.51455
G1 X106.951 Y113.214 E9.57437
G1 X106.785 Y113.049 E9.58371
G1 X105.953 Y111.805 E9.64345
G1 X105.864 Y111.588 E9.65281
G1 X105.571 Y110.116 E9.71271
G1 X105.57 Y109.882 E9.72205
G1 X105.861 Y108.416 E9.7817
G1 X105.951 Y108.2 E9.79104
G1 X106.785 Y106.952 E9.85095
G0 F9000 X107.118 Y107.174
G1 F2400 X107.173 Y107.119 E9.85406
G1 X108.419 Y106.286 E9.91388
G1 X108.491 Y106.256 E9.91699
G1 X109.961 Y105.964 E9.97681
G1 X110.039 Y105.964 E9.97992
G1 X111.509 Y106.256 E10.03974
G1 X111.581 Y106.286 E10.04285
G1 X112.827 Y107.119 E10.10267
G1 X112.882 Y107.174 E10.10577
G1 X113.714 Y108.418 E10.16551
G1 X113.744 Y108.49 E10.16862
G1 X114.037 Y109.96 E10.22844
G1 X114.037 Y110.038 E10.23156
G1 X113.747 Y111.502 E10.29112
G1 X113.717 Y111.574 E10.29424
G1 X112.887 Y112.821 E10.35402
G1 X112.808 Y112.895 E10.35835
G1 X111.581 Y113.714 E10.41722
G1 X111.509 Y113.744 E10.42034
G1 X110.039 Y114.036 E10.48016
G1 X109.961 Y114.036 E10.48327
G1 X108.491 Y113.744 E10.54309
G1 X108.419 Y113.714 E10.5462
G1 X107.173 Y112.881 E10.60602
G1 X107.118 Y112.826 E10.60912
G1 X106.286 Y111.582 E10.66886
G1 X106.256 Y111.51 E10.67197
G1 X105.963 Y110.038 E10.73187
G1 X105.963 Y109.96 E10.73498
G1 X106.254 Y108.494 E10.79464
G1 X106.284 Y108.422 E10.79775
G1 X107.118 Y107.174 E10.85766
G1 F1800 E7.85766
;MESH:GuyWithSecretThread.stl
G0 F9000 X107.585 Y107.586
G0 X110 Y107.759
G0 X110.855 Y107.931
G0 X111.445 Y108.325
G0 X113.332 Y109.998
G0 X113.638 Y109.999
;TYPE:WALL-OUTER
G1 F1800 E10.85766
G1 F2400 X113.363 Y111.383 E10.91398
G1 X112.57 Y112.574 E10.97109
G1 X111.392 Y113.36 E11.02761
G1 X110 Y113.637 E11.08425
G1 X108.608 Y113.36 E11.1409
G1 X107.429 Y112.573 E11.19748
G1 X106.64 Y111.391 E11.2542
G1 X106.362 Y109.999 E11.31085
G1 X106.638 Y108.611 E11.36734
G1 X107.427 Y107.428 E11.42409
G1 X108.608 Y106.64 E11.48076
G1 X110 Y106.363 E11.5374
G1 X111.392 Y106.64 E11.59405
G1 X112.573 Y107.428 E11.65072
G1 X113.36 Y108.607 E11.70729
G1 X113.638 Y109.999 E11.76395
G0 F9000 X113.198 Y109.999
G0 X111.584 Y108.418
G0 X110.994 Y108.024
G0 X108.765 Y107.016
;TYPE:WALL-INNER
G1 F2400 X108.844 Y107.001 E11.76716
G1 X109.922 Y106.787 E11.81102
G1 X110 Y106.771 E11.8142
G1 X111.235 Y107.016 E11.86445
G1 X112.284 Y107.717 E11.91481
G1 X112.984 Y108.764 E11.96508
G1 X112.999 Y108.842 E11.96825
G1 X113.214 Y109.92 E12.01212
G1 X113.23 Y109.999 E12.01534
G1 X112.987 Y111.226 E12.06526
G1 X112.281 Y112.286 E12.11609
G1 X111.235 Y112.984 E12.16628
G1 X111.156 Y112.999 E12.16949
G1 X110.078 Y113.213 E12.21335
G1 X110 Y113.229 E12.21653
G1 X108.765 Y112.984 E12.26679
G1 X107.718 Y112.284 E12.31705
G1 X107.016 Y111.234 E12.36746
G1 X107.001 Y111.156 E12.37063
G1 X106.786 Y110.078 E12.41451
G1 X106.77 Y109.999 E12.41772
G1 X107.014 Y108.768 E12.46781
G1 X107.716 Y107.717 E12.51826
G1 X108.765 Y107.016 E12.56861
G0 F9000 X108.922 Y107.392
G1 F2400 X109.001 Y107.377 E12.57182
G1 X109.922 Y107.194 E12.6093
G1 X110 Y107.178 E12.61248
G1 X111.078 Y107.392 E12.65634
G1 X111.996 Y108.006 E12.70042
G1 X112.608 Y108.921 E12.74436
G1 X112.823 Y109.999 E12.78823
G1 X112.611 Y111.069 E12.83177
G1 X111.992 Y111.998 E12.87632
G1 X111.078 Y112.608 E12.92018
G1 X110.999 Y112.623 E12.92339
G1 X110.078 Y112.806 E12.96087
G1 X110 Y112.822 E12.96404
G1 X108.922 Y112.608 E13.00791
G1 X108.007 Y111.995 E13.05187
G1 X107.392 Y111.077 E13.09597
G1 X107.377 Y110.999 E13.09914
G1 X107.177 Y109.999 E13.13984
G1 X107.39 Y108.925 E13.18354
G1 X108.005 Y108.006 E13.22768
G1 X108.922 Y107.392 E13.27172
G0 F9000 X109.079 Y107.768
G1 F2400 X110 Y107.585 E13.3092
G1 X110.923 Y107.769 E13.34676
G1 X111.708 Y108.294 E13.38446
G1 X112.231 Y109.076 E13.422
G1 X112.415 Y109.999 E13.45957
G1 X112.235 Y110.912 E13.49671
G1 X111.703 Y111.71 E13.53499
G1 X110.921 Y112.232 E13.57251
G1 X110 Y112.415 E13.60999
G1 X109.079 Y112.232 E13.64747
G1 X108.295 Y111.707 E13.68513
G1 X107.768 Y110.92 E13.72293
G1 X107.585 Y109.999 E13.76041
G1 X107.767 Y109.08 E13.7978
G1 X108.292 Y108.295 E13.83549
G1 X109.079 Y107.768 E13.8733
G0 F9000 X109.233 Y108.134
;TYPE:SKIN
G1 F2400 X110 Y107.982 E13.9045
G1 X110.769 Y108.135 E13.9358
G1 X111.427 Y108.575 E13.96739
G1 X111.865 Y109.23 E13.99884
G1 X112.018 Y109.999 E14.03013
G1 X111.868 Y110.761 E14.06113
G1 X111.422 Y111.429 E14.09319
G1 X110.769 Y111.865 E14.12453
G1 X110 Y112.018 E14.15582
G1 X109.233 Y111.866 E14.18703
G1 X108.576 Y111.426 E14.21859
G1 X108.134 Y110.766 E14.25029
G1 X107.982 Y109.999 E14.2815
G1 X108.133 Y109.234 E14.31262
G1 X108.573 Y108.576 E14.34421
G1 X109.233 Y108.134 E14.37592
G0 F9000 X109.18 Y107.86
G0 X110 Y107.759
G0 X110.855 Y107.931
G0 X111.584 Y108.418
G0 X112.185 Y109.406
G0 X111.753 Y109.491
G1 F2400 X110.508 Y108.246 E14.44619
G0 F9000 X109.868 Y108.171
G1 F2400 X111.828 Y110.131 E14.55682
G0 F9000 X111.736 Y110.604
G1 F2400 X109.395 Y108.264 E14.68893
G0 F9000 X109.028 Y108.463
G1 F2400 X111.536 Y110.971 E14.83049
G0 F9000 X111.309 Y111.309
G1 F2400 X108.69 Y108.69 E14.97832
G0 F9000 X108.461 Y109.027
G1 F2400 X110.971 Y111.536 E15.11997
G0 F9000 X110.603 Y111.734
G1 F2400 X108.262 Y109.394 E15.25207
G0 F9000 X108.17 Y109.867
G1 F2400 X110.131 Y111.828 E15.36276
G0 F9000 X109.49 Y111.753
G1 F2400 X108.245 Y110.508 E15.43303
G0 F9000 X107.521 Y110.651
;MESH:NONMESH
G0 F300 X107.521 Y110.651 Z0.4
G0 F9000 X108.418 Y111.584
G0 X109.006 Y111.977
G0 X109.896 Y112.394
;TIME_ELAPSED:19.954959
;LAYER:1
M140 S90
M106 S4.2
;TYPE:WALL-INNER
;MESH:GuyWithSecretThread.stl
G1 F699.8 X109 Y112.216 E15.45734
G1 X108.888 Y112.211 E15.46032
G1 X108.241 Y111.914 E15.47927
G1 X108.127 Y111.458 E15.49177
G1 X107.771 Y110.926 E15.50881
G1 X107.586 Y109.999 E15.53396
G1 X107.769 Y109.076 E15.559
G1 X108.292 Y108.294 E15.58403
G1 X109.077 Y107.769 E15.60916
G1 X110 Y107.585 E15.6342
G1 X110.923 Y107.769 E15.65924
G1 X111.708 Y108.294 E15.68437
G1 X112.231 Y109.076 E15.7094
G1 X112.415 Y109.999 E15.73444
G1 X112.232 Y110.923 E15.75951
G1 X111.709 Y111.705 E15.78454
G1 X110.922 Y112.232 E15.80974
G1 X110.004 Y112.413 E15.83464
G1 X109.896 Y112.394 E15.83756
