;FLAVOR:Marlin
;TIME:358
;Filament used: 0.143862m
;Layer height: 0.2
;MINX:94.253
;MINY:91.126
;MINZ:0.28
;MAXX:126.028
;MAXY:120.373
;MAXZ:8.04
;Generated with Cura_SteamEngine 4.7.1
M140 S110
M105
M190 S110
M104 S240
M105
M109 S240
M82 ;absolute extrusion mode
M201 X500.00 Y500.00 Z100.00 E5000.00 ;Setup machine max acceleration
M203 X500.00 Y500.00 Z10.00 E50.00 ;Setup machine max feedrate
M204 P500.00 R1000.00 T500.00 ;Setup Print/Retract/Travel acceleration
M205 X8.00 Y8.00 Z0.40 E5.00 ;Setup Jerk
M220 S100 ;Reset Feedrate
M221 S100 ;Reset Flowrate

G28 ;Home

G92 E0 ;Reset Extruder
G1 Z2.0 F3000 ;Move Z Axis up
G1 X10.1 Y20 Z0.28 F5000.0 ;Move to start position
G1 X10.1 Y200.0 Z0.28 F1500.0 E15 ;Draw the first line
G1 X10.4 Y200.0 Z0.28 F5000.0 ;Move to side a little
G1 X10.4 Y20 Z0.28 F1500.0 E30 ;Draw the second line
G92 E0 ;Reset Extruder
G1 Z2.0 F3000 ;Move Z Axis up

G92 E0
G92 E0
G1 F1800 E-3
;LAYER_COUNT:46
;LAYER:0
M107
M205 X6 Y6
G0 F9000 X95.277 Y93.092 Z0.28
;TYPE:SKIRT
G1 F1800 E0
G1 F2400 X95.681 Y92.718 E0.02564
G1 X96.136 Y92.407 E0.0513
G1 X96.63 Y92.164 E0.07693
G1 X97.068 Y92.018 E0.09843
G1 X99.919 Y91.253 E0.23588
G1 X99.991 Y91.235 E0.23934
G1 X100.534 Y91.141 E0.265
G1 X101.085 Y91.126 E0.29066
G1 X101.632 Y91.191 E0.31631
G1 X102.164 Y91.334 E0.34197
G1 X102.67 Y91.553 E0.36764
G1 X103.139 Y91.842 E0.39329
G1 X103.561 Y92.196 E0.41894
G1 X103.927 Y92.608 E0.4446
G1 X104.23 Y93.068 E0.47025
G1 X104.463 Y93.567 E0.49589
G1 X104.583 Y93.937 E0.51401
G1 X105.982 Y99.151 E0.76538
G1 X106.086 Y99.692 E0.79103
G1 X106.11 Y100.243 E0.81671
G1 X106.055 Y100.791 E0.84236
G1 X105.921 Y101.325 E0.86799
G1 X105.904 Y101.366 E0.87006
G1 X106.282 Y101.189 E0.8895
G1 X106.911 Y100.96 E0.92067
G1 X107.948 Y100.683 E0.97065
G1 X108.606 Y100.568 E1.00175
G1 X109.66 Y100.475 E1.05102
G1 X110.331 Y100.474 E1.08226
G1 X111.404 Y100.568 E1.13242
G1 X112.072 Y100.688 E1.16402
G1 X112.453 Y100.792 E1.18241
G1 X113.079 Y100.958 E1.21257
G1 X113.726 Y101.194 E1.24464
G1 X114.291 Y101.46 E1.27372
G1 X114.212 Y101.106 E1.2906
G1 X114.17 Y100.556 E1.31629
G1 X114.208 Y100.007 E1.34191
G1 X114.299 Y99.562 E1.36306
G1 X115.696 Y94.343 E1.61464
G1 X115.877 Y93.823 E1.64028
G1 X116.131 Y93.334 E1.66593
G1 X116.453 Y92.887 E1.69159
G1 X116.836 Y92.491 E1.71724
G1 X117.273 Y92.155 E1.74291
G1 X117.754 Y91.886 E1.76857
G1 X118.268 Y91.688 E1.79422
G1 X118.806 Y91.568 E1.81989
G1 X119.355 Y91.526 E1.84552
G1 X119.905 Y91.564 E1.8712
G1 X120.356 Y91.657 E1.89264
G1 X121.752 Y92.033 E1.95996
G1 X123.207 Y92.421 E2.03008
G1 X123.728 Y92.602 E2.05576
G1 X124.217 Y92.855 E2.0814
G1 X124.664 Y93.177 E2.10705
G1 X125.06 Y93.56 E2.1327
G1 X125.397 Y93.996 E2.15836
G1 X125.667 Y94.476 E2.184
G1 X125.865 Y94.991 E2.2097
G1 X125.986 Y95.528 E2.23533
G1 X126.028 Y96.078 E2.26101
G1 X125.99 Y96.627 E2.28664
G1 X125.898 Y97.077 E2.30802
G1 X124.828 Y101.068 E2.50043
G1 X124.689 Y101.593 E2.52571
G1 X124.499 Y102.299 E2.55976
G1 X124.318 Y102.819 E2.5854
G1 X124.063 Y103.307 E2.61103
G1 X123.741 Y103.754 E2.63669
G1 X123.357 Y104.149 E2.66234
G1 X122.92 Y104.485 E2.68801
G1 X122.439 Y104.754 E2.71367
G1 X121.924 Y104.95 E2.73933
G1 X121.386 Y105.07 E2.76499
G1 X120.837 Y105.111 E2.79063
G1 X120.287 Y105.072 E2.8163
G1 X119.847 Y104.982 E2.83722
G1 X117.972 Y104.48 E2.9276
G1 X118.34 Y105.006 E2.95749
G1 X118.608 Y105.059 E2.97021
G1 X119.14 Y105.204 E2.99589
G1 X119.644 Y105.425 E3.02151
G1 X119.989 Y105.631 E3.04022
G1 X120.414 Y105.916 E3.06405
G1 X120.849 Y106.255 E3.08973
G1 X121.229 Y106.654 E3.11539
G1 X121.451 Y106.95 E3.13262
G1 X121.737 Y107.375 E3.15647
G1 X122.01 Y107.854 E3.18214
G1 X122.212 Y108.366 E3.20777
G1 X122.312 Y108.762 E3.22679
G1 X122.411 Y109.264 E3.25062
G1 X122.478 Y109.811 E3.27628
G1 X122.466 Y110.362 E3.30194
G1 X122.411 Y110.733 E3.3194
G1 X122.312 Y111.236 E3.34328
G1 X122.167 Y111.767 E3.36891
G1 X121.946 Y112.272 E3.39457
G1 X121.737 Y112.624 E3.41364
G1 X121.451 Y113.049 E3.43749
G1 X121.111 Y113.482 E3.46312
G1 X120.712 Y113.862 E3.48878
G1 X120.409 Y114.087 E3.50636
G1 X119.984 Y114.371 E3.53016
G1 X119.505 Y114.643 E3.55581
G1 X118.992 Y114.843 E3.58144
G1 X118.896 Y114.867 E3.58605
G1 X118.782 Y115.111 E3.59859
G1 X118.444 Y115.693 E3.62993
G1 X118.198 Y116.042 E3.64981
G1 X117.838 Y116.559 E3.67915
G1 X117.403 Y117.078 E3.71068
G1 X116.643 Y117.836 E3.76066
G1 X116.144 Y118.255 E3.791
G1 X115.267 Y118.871 E3.84091
G1 X114.678 Y119.21 E3.87255
G1 X114.313 Y119.379 E3.89128
G1 X113.724 Y119.656 E3.92159
G1 X113.069 Y119.893 E3.95402
G1 X112.687 Y119.993 E3.97241
G1 X112.06 Y120.162 E4.00265
G1 X111.393 Y120.279 E4.03418
G1 X110.97 Y120.315 E4.05395
G1 X110.343 Y120.372 E4.08327
G1 X109.663 Y120.373 E4.11493
G1 X108.592 Y120.278 E4.165
G1 X107.93 Y120.16 E4.19631
G1 X107.551 Y120.057 E4.21459
G1 X106.925 Y119.892 E4.24474
G1 X106.27 Y119.652 E4.27722
G1 X105.915 Y119.485 E4.29549
G1 X105.322 Y119.211 E4.32591
G1 X104.733 Y118.871 E4.35758
G1 X103.854 Y118.254 E4.40758
G1 X103.353 Y117.834 E4.43802
G1 X102.883 Y117.365 E4.46894
G1 X102.582 Y117.062 E4.48883
G1 X102.168 Y116.567 E4.51888
G1 X101.553 Y115.691 E4.56872
G1 X101.22 Y115.115 E4.5997
G1 X101.1 Y114.858 E4.6129
G1 X100.841 Y114.786 E4.62542
G1 X100.337 Y114.563 E4.65108
G1 X100.008 Y114.366 E4.66894
G1 X99.587 Y114.084 E4.69253
G1 X99.153 Y113.745 E4.71818
G1 X98.772 Y113.347 E4.74383
G1 X98.549 Y113.049 E4.76116
G1 X98.263 Y112.624 E4.78502
G1 X97.99 Y112.145 E4.81069
G1 X97.788 Y111.633 E4.83632
G1 X97.688 Y111.236 E4.85538
G1 X97.589 Y110.733 E4.87925
G1 X97.522 Y110.186 E4.90492
G1 X97.534 Y109.635 E4.93058
G1 X97.589 Y109.264 E4.94804
G1 X97.688 Y108.762 E4.97187
G1 X97.833 Y108.23 E4.99754
G1 X98.054 Y107.726 E5.02317
G1 X98.263 Y107.375 E5.04219
G1 X98.549 Y106.95 E5.06604
G1 X98.889 Y106.517 E5.09168
G1 X99.288 Y106.137 E5.11734
G1 X99.586 Y105.916 E5.13461
G1 X100.011 Y105.631 E5.15844
G1 X100.489 Y105.358 E5.18407
G1 X101.002 Y105.157 E5.20973
G1 X101.658 Y105.007 E5.24106
G1 X102.164 Y104.284 E5.28215
G1 X102.352 Y104.061 E5.29574
G1 X101.281 Y104.346 E5.34734
G1 X100.439 Y104.572 E5.38794
G1 X99.898 Y104.677 E5.4136
G1 X99.347 Y104.702 E5.43928
G1 X98.799 Y104.647 E5.46493
G1 X98.265 Y104.513 E5.49056
G1 X97.755 Y104.304 E5.51623
G1 X97.281 Y104.023 E5.54188
G1 X96.853 Y103.676 E5.56754
G1 X96.479 Y103.271 E5.59321
G1 X96.168 Y102.816 E5.61887
G1 X95.926 Y102.321 E5.64453
G1 X95.782 Y101.891 E5.66565
G1 X95.45 Y100.658 E5.7251
G1 X94.712 Y97.893 E5.85836
G1 X94.384 Y96.679 E5.91692
G1 X94.279 Y96.138 E5.94258
G1 X94.253 Y95.588 E5.96822
G1 X94.308 Y95.04 E5.99386
G1 X94.441 Y94.505 E6.01953
G1 X94.65 Y93.995 E6.0452
G1 X94.931 Y93.521 E6.07086
G1 X95.277 Y93.092 E6.09652
G0 F9000 X95.708 Y93.225
G1 F2400 X96.112 Y92.896 E6.12078
G1 X96.561 Y92.632 E6.14503
G1 X97.171 Y92.404 E6.17536
G1 X99.96 Y91.656 E6.30981
G1 X100.088 Y91.624 E6.31596
G1 X100.602 Y91.536 E6.34024
G1 X101.123 Y91.529 E6.3645
G1 X101.639 Y91.601 E6.38876
G1 X102.139 Y91.751 E6.41307
G1 X102.609 Y91.975 E6.43731
G1 X103.039 Y92.269 E6.46157
G1 X103.42 Y92.625 E6.48585
G1 X103.741 Y93.035 E6.51009
G1 X103.997 Y93.49 E6.5344
G1 X104.197 Y94.041 E6.5617
G1 X105.596 Y99.255 E6.81307
G1 X105.692 Y99.767 E6.83733
G1 X105.709 Y100.288 E6.8616
G1 X105.645 Y100.805 E6.88586
G1 X105.504 Y101.307 E6.91014
G1 X105.288 Y101.781 E6.93439
G1 X105.001 Y102.216 E6.95866
G1 X104.849 Y102.384 E6.96921
G1 X104.953 Y102.311 E6.97513
G1 X105.474 Y102.008 E7.00319
G1 X106.451 Y101.551 E7.05342
G1 X107.015 Y101.346 E7.08136
G1 X108.052 Y101.069 E7.13134
G1 X108.64 Y100.966 E7.15914
G1 X109.062 Y100.931 E7.17885
G1 X109.696 Y100.874 E7.20849
G1 X110.296 Y100.873 E7.23643
G1 X111.369 Y100.967 E7.28659
G1 X111.967 Y101.074 E7.31487
G1 X112.374 Y101.185 E7.33452
G1 X112.976 Y101.345 E7.36352
G1 X113.555 Y101.556 E7.39222
G1 X113.925 Y101.73 E7.41126
G1 X114.516 Y102.005 E7.44161
G1 X115.029 Y102.301 E7.46919
G1 X115.088 Y102.342 E7.47253
G1 X115.057 Y102.299 E7.475
G1 X114.823 Y101.833 E7.49928
G1 X114.664 Y101.337 E7.52354
G1 X114.581 Y100.822 E7.54783
G1 X114.579 Y100.301 E7.57209
G1 X114.686 Y99.666 E7.60207
G1 X116.083 Y94.447 E7.85365
G1 X116.256 Y93.955 E7.87793
G1 X116.502 Y93.496 E7.90218
G1 X116.815 Y93.079 E7.92646
G1 X117.188 Y92.716 E7.95069
G1 X117.613 Y92.413 E7.975
G1 X118.079 Y92.18 E7.99926
G1 X118.575 Y92.02 E8.02353
G1 X119.089 Y91.937 E8.04777
G1 X119.61 Y91.935 E8.07203
G1 X120.252 Y92.043 E8.10234
G1 X121.658 Y92.422 E8.17015
G1 X123.104 Y92.808 E8.23984
G1 X123.596 Y92.98 E8.26411
G1 X124.055 Y93.226 E8.28836
G1 X124.472 Y93.539 E8.31264
G1 X124.836 Y93.912 E8.3369
G1 X125.139 Y94.336 E8.36117
G1 X125.373 Y94.802 E8.38545
G1 X125.534 Y95.297 E8.40969
G1 X125.616 Y95.812 E8.43397
G1 X125.62 Y96.333 E8.45823
G1 X125.512 Y96.973 E8.48846
G1 X124.445 Y100.955 E8.68042
G1 X124.113 Y102.195 E8.74019
G1 X123.94 Y102.686 E8.76443
G1 X123.693 Y103.145 E8.7887
G1 X123.379 Y103.561 E8.81297
G1 X123.005 Y103.924 E8.83724
G1 X122.58 Y104.226 E8.86152
G1 X122.114 Y104.459 E8.88578
G1 X121.618 Y104.618 E8.91003
G1 X121.103 Y104.7 E8.93431
G1 X120.582 Y104.702 E8.95857
G1 X119.95 Y104.595 E8.98842
G1 X117.09 Y103.829 E9.12629
G1 X116.788 Y103.723 E9.14119
G1 X117.121 Y104.054 E9.16305
G1 X117.513 Y104.522 E9.19148
G1 X117.745 Y104.855 E9.21038
G1 X118.105 Y105.367 E9.23952
G1 X118.531 Y105.451 E9.25974
G1 X119.033 Y105.591 E9.28401
G1 X119.508 Y105.806 E9.30829
G1 X119.767 Y105.963 E9.32239
G1 X120.192 Y106.248 E9.34622
G1 X120.601 Y106.571 E9.37048
G1 X120.956 Y106.952 E9.39473
G1 X121.119 Y107.174 E9.40756
G1 X121.405 Y107.599 E9.43141
G1 X121.662 Y108.052 E9.45566
G1 X121.846 Y108.54 E9.47995
G1 X121.92 Y108.839 E9.49429
G1 X122.019 Y109.341 E9.51812
G1 X122.08 Y109.859 E9.5424
G1 X122.062 Y110.38 E9.56668
G1 X122.019 Y110.656 E9.57968
G1 X121.92 Y111.159 E9.60355
G1 X121.78 Y111.661 E9.62782
G1 X121.566 Y112.136 E9.65208
G1 X121.405 Y112.4 E9.66648
G1 X121.119 Y112.825 E9.69033
G1 X120.796 Y113.234 E9.7146
G1 X120.414 Y113.589 E9.73888
G1 X120.187 Y113.754 E9.75195
G1 X119.762 Y114.038 E9.77575
G1 X119.308 Y114.293 E9.8
G1 X118.82 Y114.476 E9.82427
G1 X118.613 Y114.527 E9.83419
G1 X118.419 Y114.942 E9.85553
G1 X118.117 Y115.463 E9.88357
G1 X117.871 Y115.812 E9.90345
G1 X117.51 Y116.33 E9.93285
G1 X117.121 Y116.794 E9.96104
G1 X116.361 Y117.552 E10.01102
G1 X115.914 Y117.927 E10.03819
G1 X115.037 Y118.543 E10.0881
G1 X114.51 Y118.847 E10.11643
G1 X114.143 Y119.017 E10.13526
G1 X113.554 Y119.294 E10.16557
G1 X112.968 Y119.506 E10.19458
G1 X112.583 Y119.607 E10.21312
G1 X111.956 Y119.776 E10.24336
G1 X111.359 Y119.881 E10.27158
G1 X110.936 Y119.917 E10.29135
G1 X110.307 Y119.974 E10.32076
G1 X109.699 Y119.975 E10.34907
G1 X108.628 Y119.88 E10.39914
G1 X108.035 Y119.774 E10.42719
G1 X107.653 Y119.67 E10.44562
G1 X107.027 Y119.505 E10.47577
G1 X106.441 Y119.291 E10.50481
G1 X106.056 Y119.109 E10.52464
G1 X105.49 Y118.847 E10.55369
G1 X104.963 Y118.544 E10.58199
G1 X104.084 Y117.927 E10.632
G1 X103.635 Y117.551 E10.65927
G1 X102.866 Y116.78 E10.70998
G1 X102.495 Y116.338 E10.73685
G1 X101.88 Y115.462 E10.78668
G1 X101.582 Y114.946 E10.81443
G1 X101.385 Y114.523 E10.83616
G1 X100.95 Y114.4 E10.85721
G1 X100.476 Y114.183 E10.88148
G1 X100.231 Y114.034 E10.89484
G1 X99.81 Y113.752 E10.91843
G1 X99.4 Y113.429 E10.94273
G1 X99.045 Y113.048 E10.96698
G1 X98.881 Y112.825 E10.97987
G1 X98.595 Y112.4 E11.00373
G1 X98.338 Y111.947 E11.02798
G1 X98.154 Y111.459 E11.05226
G1 X98.08 Y111.159 E11.06665
G1 X97.981 Y110.656 E11.09052
G1 X97.92 Y110.138 E11.11481
G1 X97.939 Y109.617 E11.13908
G1 X97.981 Y109.341 E11.15208
G1 X98.08 Y108.839 E11.17591
G1 X98.22 Y108.337 E11.20018
G1 X98.435 Y107.862 E11.22446
G1 X98.595 Y107.599 E11.23879
G1 X98.881 Y107.174 E11.26264
G1 X99.204 Y106.765 E11.28691
G1 X99.586 Y106.41 E11.31119
G1 X99.808 Y106.248 E11.32399
G1 X100.233 Y105.963 E11.34782
G1 X100.687 Y105.707 E11.37209
G1 X101.175 Y105.523 E11.39637
G1 X101.894 Y105.368 E11.43062
G1 X102.492 Y104.513 E11.4792
G1 X102.878 Y104.054 E11.50713
G1 X103.641 Y103.294 E11.55728
G1 X103.731 Y103.219 E11.56273
G1 X103.195 Y103.419 E11.58937
G1 X101.776 Y103.801 E11.6578
G1 X101.179 Y103.959 E11.68655
G1 X100.335 Y104.186 E11.72725
G1 X99.823 Y104.283 E11.75152
G1 X99.302 Y104.3 E11.77579
G1 X98.785 Y104.237 E11.80004
G1 X98.283 Y104.096 E11.82432
G1 X97.809 Y103.88 E11.84858
G1 X97.373 Y103.594 E11.87286
G1 X96.986 Y103.245 E11.89712
G1 X96.657 Y102.841 E11.92138
G1 X96.394 Y102.391 E11.94565
G1 X96.168 Y101.787 E11.97568
G1 X95.836 Y100.555 E12.03509
G1 X95.098 Y97.79 E12.16835
G1 X94.77 Y96.575 E12.22695
G1 X94.673 Y96.063 E12.25122
G1 X94.655 Y95.542 E12.27549
G1 X94.717 Y95.025 E12.29974
G1 X94.858 Y94.523 E12.32402
G1 X95.074 Y94.048 E12.34832
G1 X95.359 Y93.612 E12.37257
G1 X95.708 Y93.225 E12.39684
G0 F9000 X95.789 Y93.719
G1 F2400 X96.139 Y93.377 E12.41962
G1 X96.541 Y93.096 E12.44246
G1 X96.982 Y92.885 E12.46522
G1 X97.275 Y92.79 E12.47957
G1 X100.064 Y92.042 E12.61402
G1 X100.668 Y91.932 E12.64261
G1 X101.158 Y91.932 E12.66543
G1 X101.641 Y92.012 E12.68822
G1 X102.104 Y92.169 E12.71099
G1 X102.536 Y92.399 E12.73378
G1 X102.925 Y92.697 E12.7566
G1 X103.26 Y93.053 E12.77936
G1 X103.533 Y93.46 E12.80218
G1 X103.811 Y94.145 E12.8366
G1 X105.21 Y99.359 E13.08798
G1 X105.297 Y99.84 E13.11074
G1 X105.306 Y100.33 E13.13356
G1 X105.234 Y100.814 E13.15634
G1 X105.085 Y101.28 E13.17912
G1 X104.862 Y101.716 E13.20193
G1 X104.572 Y102.109 E13.22467
G1 X104.221 Y102.451 E13.24749
G1 X103.819 Y102.73 E13.27027
G1 X103.091 Y103.033 E13.30699
G1 X101.674 Y103.414 E13.37532
G1 X101.089 Y103.569 E13.4035
G1 X100.231 Y103.8 E13.44487
G1 X99.749 Y103.888 E13.46769
G1 X99.26 Y103.897 E13.49046
G1 X98.776 Y103.826 E13.51324
G1 X98.309 Y103.677 E13.53606
G1 X97.873 Y103.455 E13.55885
G1 X97.479 Y103.164 E13.58165
G1 X97.138 Y102.813 E13.60444
G1 X96.858 Y102.412 E13.62721
G1 X96.554 Y101.683 E13.66399
G1 X96.222 Y100.452 E13.72336
G1 X95.485 Y97.687 E13.85661
G1 X95.156 Y96.471 E13.91526
G1 X95.067 Y95.989 E13.93809
G1 X95.058 Y95.5 E13.96086
G1 X95.128 Y95.015 E13.98368
G1 X95.277 Y94.549 E14.00646
G1 X95.499 Y94.113 E14.02924
G1 X95.789 Y93.719 E14.05202
G0 F9000 X96.22 Y93.843
G1 F2400 X96.57 Y93.552 E14.07322
G1 X96.966 Y93.326 E14.09445
G1 X97.378 Y93.177 E14.11485
G1 X100.21 Y92.418 E14.25137
G1 X100.732 Y92.328 E14.27604
G1 X101.188 Y92.337 E14.29727
G1 X101.635 Y92.424 E14.31848
G1 X102.06 Y92.589 E14.33971
G1 X102.45 Y92.825 E14.36093
G1 X102.792 Y93.125 E14.38212
G1 X103.077 Y93.481 E14.40335
G1 X103.295 Y93.881 E14.42456
G1 X103.424 Y94.248 E14.44268
G1 X104.823 Y99.462 E14.69405
G1 X104.902 Y99.911 E14.71528
G1 X104.902 Y100.367 E14.73651
G1 X104.822 Y100.815 E14.7577
G1 X104.665 Y101.243 E14.77893
G1 X104.435 Y101.637 E14.80018
G1 X104.141 Y101.984 E14.82135
G1 X103.79 Y102.275 E14.84258
G1 X103.394 Y102.5 E14.86379
G1 X102.987 Y102.647 E14.88394
G1 X101.571 Y103.027 E14.95221
G1 X100.985 Y103.183 E14.98045
G1 X100.127 Y103.414 E15.02182
G1 X99.678 Y103.493 E15.04305
G1 X99.223 Y103.493 E15.06424
G1 X98.774 Y103.413 E15.08547
G1 X98.346 Y103.257 E15.10669
G1 X97.952 Y103.028 E15.12791
G1 X97.604 Y102.733 E15.14915
G1 X97.313 Y102.383 E15.17034
G1 X97.088 Y101.987 E15.19155
G1 X96.94 Y101.579 E15.21176
G1 X96.609 Y100.348 E15.27112
G1 X95.871 Y97.583 E15.40437
G1 X95.542 Y96.366 E15.46308
G1 X95.462 Y95.918 E15.48427
G1 X95.462 Y95.462 E15.5055
G1 X95.541 Y95.013 E15.52673
G1 X95.697 Y94.585 E15.54794
G1 X95.926 Y94.191 E15.56916
G1 X96.22 Y93.843 E15.59037
G0 F9000 X96.355 Y94.288
G1 F2400 X96.651 Y93.991 E15.6099
G1 X96.999 Y93.757 E15.62943
G1 X97.482 Y93.563 E15.65366
G1 X100.271 Y92.815 E15.78812
G1 X100.794 Y92.725 E15.81283
G1 X101.212 Y92.742 E15.83231
G1 X101.62 Y92.839 E15.85184
G1 X102.002 Y93.011 E15.87135
G1 X102.345 Y93.252 E15.89087
G1 X102.636 Y93.554 E15.91039
G1 X102.864 Y93.905 E15.92988
G1 X103.038 Y94.352 E15.95222
G1 X104.437 Y99.566 E16.20359
G1 X104.506 Y99.979 E16.22309
G1 X104.496 Y100.398 E16.24261
G1 X104.407 Y100.807 E16.2621
G1 X104.242 Y101.193 E16.28164
