;FLAVOR:Marlin
;TIME:1494
;Filament used: 0.800382m
;Layer height: 0.2
;MINX:99.692
;MINY:99.46
;MINZ:0.28
;MAXX:120.308
;MAXY:120.591
;MAXZ:24.8
;Generated with Cura_SteamEngine 4.7.1
M140 S110
M105
M190 S110
M104 S240
M105
M109 S240
M82 ;absolute extrusion mode
M201 X500.00 Y500.00 Z100.00 E5000.00 ;Setup machine max acceleration
M203 X500.00 Y500.00 Z10.00 E50.00 ;Setup machine max feedrate
M204 P500.00 R1000.00 T500.00 ;Setup Print/Retract/Travel acceleration
M205 X8.00 Y8.00 Z0.40 E5.00 ;Setup Jerk
M220 S100 ;Reset Feedrate
M221 S100 ;Reset Flowrate

G28 ;Home

G92 E0 ;Reset Extruder
G1 Z2.0 F3000 ;Move Z Axis up
G1 X10.1 Y20 Z0.28 F5000.0 ;Move to start position
G1 X10.1 Y200.0 Z0.28 F1500.0 E15 ;Draw the first line
G1 X10.4 Y200.0 Z0.28 F5000.0 ;Move to side a little
G1 X10.4 Y20 Z0.28 F1500.0 E30 ;Draw the second line
G92 E0 ;Reset Extruder
G1 Z2.0 F3000 ;Move Z Axis up

G92 E0
G92 E0
G1 F1800 E-3
;LAYER_COUNT:137
;LAYER:0
M107
M205 X6 Y6
G0 F9000 X104.662 Y104.65 Z0.28
;TYPE:SKIRT
G1 F1800 E0
G1 F2400 X105.045 Y104.315 E0.02369
G1 X105.537 Y103.94 E0.0525
G1 X106.061 Y103.605 E0.08146
G1 X106.674 Y103.28 E0.11377
G1 X107.268 Y103.027 E0.14383
G1 X107.895 Y102.821 E0.17456
G1 X108.337 Y102.697 E0.19594
G1 X108.984 Y102.585 E0.22651
G1 X109.592 Y102.533 E0.25493
G1 X110.144 Y102.526 E0.28063
G1 X110.709 Y102.56 E0.30699
G1 X111.315 Y102.633 E0.33541
G1 X111.769 Y102.725 E0.35698
G1 X112.338 Y102.877 E0.3844
G1 X112.973 Y103.109 E0.41588
G1 X113.603 Y103.405 E0.4483
G1 X114.164 Y103.73 E0.47849
G1 X114.729 Y104.125 E0.51059
G1 X115.239 Y104.552 E0.54156
G1 X115.632 Y104.945 E0.56744
G1 X115.972 Y105.335 E0.59153
G1 X116.346 Y105.828 E0.62034
G1 X116.671 Y106.336 E0.64843
G1 X116.996 Y106.945 E0.68057
G1 X117.3 Y107.648 E0.71623
G1 X117.433 Y108.053 E0.73608
G1 X117.581 Y108.605 E0.76269
G1 X117.696 Y109.255 E0.79343
G1 X117.757 Y109.947 E0.82578
G1 X117.757 Y110.618 E0.85702
G1 X117.703 Y111.225 E0.8854
G1 X117.612 Y111.78 E0.91159
G1 X117.471 Y112.363 E0.93952
G1 X117.414 Y112.585 E0.95019
G1 X117.177 Y113.245 E0.98284
G1 X116.883 Y113.876 E1.01526
G1 X116.552 Y114.451 E1.04615
G1 X116.157 Y115.015 E1.07821
G1 X115.723 Y115.53 E1.10957
G1 X115.232 Y116.018 E1.14181
G1 X114.741 Y116.43 E1.17165
G1 X114.234 Y116.787 E1.20053
G1 X113.729 Y117.087 E1.22788
G1 X113.231 Y117.333 E1.25374
G1 X112.639 Y117.58 E1.28361
G1 X112.231 Y117.715 E1.30362
G1 X111.743 Y117.846 E1.32715
G1 X111.169 Y117.954 E1.35435
G1 X110.617 Y118.014 E1.3802
G1 X110.123 Y118.035 E1.40323
G1 X109.574 Y118.023 E1.4288
G1 X108.983 Y117.98 E1.45639
G1 X108.336 Y117.867 E1.48697
G1 X107.668 Y117.69 E1.51915
G1 X107.025 Y117.456 E1.55101
G1 X106.395 Y117.16 E1.58342
G1 X105.835 Y116.836 E1.61355
G1 X105.271 Y116.442 E1.64558
G1 X104.752 Y116.006 E1.67715
G1 X104.263 Y115.514 E1.70945
G1 X103.848 Y115.019 E1.73953
G1 X103.492 Y114.512 E1.76837
G1 X103.195 Y114.011 E1.79549
G1 X102.948 Y113.511 E1.82146
G1 X102.704 Y112.929 E1.85085
G1 X102.565 Y112.508 E1.87149
G1 X102.435 Y112.021 E1.89496
G1 X102.328 Y111.452 E1.92192
G1 X102.262 Y110.841 E1.95054
G1 X102.243 Y110.636 E1.96012
G1 X102.242 Y109.946 E1.99225
G1 X102.298 Y109.321 E2.02147
G1 X102.388 Y108.772 E2.04738
G1 X102.532 Y108.176 E2.07593
G1 X102.591 Y107.953 E2.08667
G1 X102.825 Y107.31 E2.11853
G1 X103.119 Y106.684 E2.15073
G1 X103.451 Y106.113 E2.18149
G1 X103.796 Y105.62 E2.20951
G1 X104.271 Y105.041 E2.24438
G1 X104.662 Y104.65 E2.27013
G0 F9000 X104.945 Y104.933
G1 F2400 X105.288 Y104.633 E2.29135
G1 X105.78 Y104.258 E2.32015
G1 X106.248 Y103.958 E2.34604
G1 X106.861 Y103.633 E2.37835
G1 X107.393 Y103.407 E2.40526
G1 X108.02 Y103.201 E2.43599
G1 X108.439 Y103.084 E2.45625
G1 X109.018 Y102.983 E2.48362
G1 X109.626 Y102.931 E2.51203
G1 X110.12 Y102.925 E2.53504
G1 X110.685 Y102.959 E2.56139
G1 X111.26 Y103.029 E2.58836
G1 X111.665 Y103.111 E2.6076
G1 X112.234 Y103.263 E2.63503
G1 X112.803 Y103.471 E2.66324
G1 X113.433 Y103.767 E2.69565
G1 X113.935 Y104.057 E2.72265
G1 X114.5 Y104.452 E2.75475
G1 X114.956 Y104.835 E2.78248
G1 X115.349 Y105.228 E2.80836
G1 X115.654 Y105.577 E2.82994
G1 X116.028 Y106.07 E2.85875
G1 X116.319 Y106.524 E2.88386
G1 X116.644 Y107.133 E2.916
G1 X116.928 Y107.794 E2.9495
G1 X117.047 Y108.157 E2.96729
G1 X117.195 Y108.709 E2.9939
G1 X117.298 Y109.29 E3.02138
G1 X117.359 Y109.982 E3.05373
G1 X117.359 Y110.582 E3.08167
G1 X117.305 Y111.189 E3.11004
G1 X117.223 Y111.686 E3.1335
G1 X117.083 Y112.264 E3.16119
G1 X117.026 Y112.486 E3.17186
G1 X116.815 Y113.076 E3.20104
G1 X116.521 Y113.707 E3.23345
G1 X116.224 Y114.221 E3.2611
G1 X115.829 Y114.785 E3.29316
G1 X115.441 Y115.247 E3.32125
G1 X114.95 Y115.735 E3.35349
G1 X114.51 Y116.103 E3.38019
G1 X114.003 Y116.46 E3.40907
G1 X113.552 Y116.728 E3.4335
G1 X113.054 Y116.974 E3.45936
G1 X112.492 Y117.208 E3.48771
G1 X112.127 Y117.329 E3.50561
G1 X111.639 Y117.46 E3.52914
G1 X111.125 Y117.556 E3.55349
G1 X110.573 Y117.616 E3.57934
G1 X110.132 Y117.635 E3.5999
G1 X109.583 Y117.623 E3.62547
G1 X109.017 Y117.581 E3.65189
G1 X108.438 Y117.481 E3.67925
G1 X107.77 Y117.304 E3.71143
G1 X107.195 Y117.094 E3.73994
G1 X106.565 Y116.798 E3.77235
G1 X106.064 Y116.508 E3.7993
G1 X105.5 Y116.114 E3.83134
G1 X105.035 Y115.724 E3.8596
G1 X104.546 Y115.232 E3.8919
G1 X104.175 Y114.789 E3.91881
G1 X103.819 Y114.282 E3.94765
G1 X103.554 Y113.834 E3.97189
G1 X103.307 Y113.334 E3.99786
G1 X103.076 Y112.782 E4.02572
G1 X102.951 Y112.405 E4.04422
G1 X102.821 Y111.918 E4.06769
G1 X102.726 Y111.409 E4.0918
G1 X102.661 Y110.804 E4.12013
G1 X102.642 Y110.599 E4.12972
G1 X102.641 Y109.982 E4.15845
G1 X102.697 Y109.357 E4.18767
G1 X102.777 Y108.866 E4.21083
G1 X102.919 Y108.278 E4.239
G1 X102.978 Y108.055 E4.24974
G1 X103.188 Y107.48 E4.27824
G1 X103.482 Y106.854 E4.31045
G1 X103.778 Y106.343 E4.33794
G1 X104.105 Y105.878 E4.36442
G1 X104.129 Y105.842 E4.36643
G1 X104.554 Y105.324 E4.39763
G1 X104.945 Y104.933 E4.42338
G0 F9000 X105.228 Y105.216
G1 F2400 X105.53 Y104.951 E4.44209
G1 X106.022 Y104.576 E4.47089
G1 X106.436 Y104.311 E4.49378
G1 X107.049 Y103.986 E4.52609
G1 X107.518 Y103.787 E4.54981
G1 X108.145 Y103.581 E4.58054
G1 X108.541 Y103.471 E4.59968
G1 X109.052 Y103.382 E4.62383
G1 X109.66 Y103.33 E4.65225
G1 X110.096 Y103.324 E4.67255
G1 X110.661 Y103.358 E4.69891
G1 X111.204 Y103.425 E4.72438
G1 X111.562 Y103.498 E4.7414
G1 X112.131 Y103.65 E4.76882
G1 X112.633 Y103.833 E4.7937
G1 X113.263 Y104.129 E4.82611
G1 X113.706 Y104.385 E4.84994
G1 X114.271 Y104.78 E4.88204
G1 X114.673 Y105.118 E4.90649
G1 X115.066 Y105.511 E4.93237
G1 X115.335 Y105.819 E4.95141
G1 X115.709 Y106.312 E4.98023
G1 X115.966 Y106.713 E5.00241
G1 X116.291 Y107.322 E5.03455
G1 X116.555 Y107.94 E5.06584
G1 X116.661 Y108.26 E5.08154
G1 X116.809 Y108.812 E5.10815
G1 X116.899 Y109.326 E5.13245
G1 X116.96 Y110.018 E5.1648
G1 X116.96 Y110.547 E5.18943
G1 X116.906 Y111.154 E5.2178
G1 X116.834 Y111.592 E5.23847
G1 X116.696 Y112.164 E5.26587
G1 X116.639 Y112.386 E5.27654
G1 X116.452 Y112.907 E5.30232
G1 X116.158 Y113.538 E5.33473
G1 X115.896 Y113.992 E5.35914
G1 X115.501 Y114.556 E5.3912
G1 X115.159 Y114.963 E5.41596
G1 X114.668 Y115.451 E5.44819
G1 X114.28 Y115.776 E5.47176
G1 X113.773 Y116.133 E5.50063
G1 X113.375 Y116.37 E5.5222
G1 X112.877 Y116.616 E5.54807
G1 X112.346 Y116.836 E5.57483
G1 X112.024 Y116.942 E5.59062
G1 X111.536 Y117.073 E5.61414
G1 X111.082 Y117.158 E5.63565
G1 X110.53 Y117.218 E5.66151
G1 X110.14 Y117.235 E5.67968
G1 X109.591 Y117.223 E5.70525
G1 X109.051 Y117.183 E5.73047
G1 X108.541 Y117.094 E5.75457
G1 X107.873 Y116.917 E5.78675
G1 X107.365 Y116.732 E5.81193
G1 X106.735 Y116.436 E5.84434
G1 X106.293 Y116.18 E5.86812
G1 X105.729 Y115.786 E5.90016
G1 X105.319 Y115.442 E5.92508
G1 X104.83 Y114.95 E5.95738
G1 X104.503 Y114.559 E5.98111
G1 X104.147 Y114.052 E6.00996
G1 X103.912 Y113.657 E6.03136
G1 X103.665 Y113.157 E6.05733
G1 X103.447 Y112.634 E6.08372
G1 X103.337 Y112.302 E6.1
G1 X103.207 Y111.815 E6.12347
G1 X103.124 Y111.366 E6.14473
G1 X103.059 Y110.767 E6.17279
G1 X103.04 Y110.562 E6.18238
G1 X103.039 Y110.017 E6.20775
G1 X103.095 Y109.392 E6.23697
G1 X103.166 Y108.959 E6.2574
G1 X103.306 Y108.381 E6.2851
G1 X103.365 Y108.158 E6.29584
G1 X103.55 Y107.65 E6.32101
G1 X103.844 Y107.024 E6.35322
G1 X104.105 Y106.573 E6.37748
G1 X104.462 Y106.064 E6.40643
G1 X104.837 Y105.607 E6.43396
G1 X105.228 Y105.216 E6.4597
G0 F9000 X105.511 Y105.499
G1 F2400 X105.773 Y105.269 E6.47594
G1 X106.265 Y104.894 E6.50474
G1 X106.623 Y104.665 E6.52453
G1 X107.236 Y104.34 E6.55684
G1 X107.642 Y104.167 E6.57739
G1 X108.269 Y103.961 E6.60812
G1 X109.086 Y103.78 E6.64709
G1 X109.694 Y103.728 E6.6755
G1 X110.072 Y103.724 E6.6931
G1 X110.637 Y103.758 E6.71946
G1 X111.149 Y103.821 E6.74348
G1 X111.459 Y103.884 E6.75821
G1 X112.028 Y104.036 E6.78563
G1 X112.463 Y104.195 E6.8072
G1 X113.093 Y104.491 E6.83961
G1 X113.477 Y104.713 E6.86026
G1 X114.042 Y105.108 E6.89237
G1 X114.39 Y105.401 E6.91355
G1 X114.783 Y105.794 E6.93943
G1 X115.016 Y106.061 E6.95593
G1 X115.39 Y106.554 E6.98474
G1 X115.613 Y106.901 E7.00395
G1 X115.938 Y107.51 E7.03609
G1 X116.183 Y108.087 E7.06528
G1 X116.274 Y108.364 E7.07886
G1 X116.422 Y108.916 E7.10547
G1 X116.501 Y109.361 E7.12652
G1 X116.562 Y110.053 E7.15886
G1 X116.562 Y110.511 E7.18019
G1 X116.508 Y111.118 E7.20857
G1 X116.445 Y111.498 E7.2265
G1 X116.308 Y112.065 E7.25366
G1 X116.09 Y112.738 E7.2866
G1 X115.796 Y113.369 E7.31902
G1 X115.569 Y113.763 E7.34019
G1 X115.174 Y114.327 E7.37225
G1 X114.877 Y114.679 E7.3937
G1 X114.386 Y115.167 E7.42593
G1 X114.05 Y115.449 E7.44636
G1 X113.543 Y115.806 E7.47523
G1 X113.198 Y116.011 E7.49392
G1 X112.7 Y116.257 E7.51978
G1 X112.199 Y116.464 E7.54503
G1 X111.92 Y116.556 E7.5587
G1 X111.432 Y116.687 E7.58223
G1 X111.039 Y116.761 E7.60085
G1 X110.487 Y116.821 E7.62671
G1 X110.149 Y116.835 E7.64246
G1 X109.6 Y116.823 E7.66803
G1 X109.086 Y116.784 E7.69203
G1 X108.643 Y116.707 E7.71297
G1 X107.975 Y116.53 E7.74515
G1 X107.535 Y116.37 E7.76695
G1 X106.905 Y116.074 E7.79936
G1 X106.522 Y115.852 E7.81998
G1 X105.958 Y115.458 E7.85201
G1 X105.603 Y115.16 E7.87359
G1 X105.114 Y114.668 E7.90589
G1 X104.83 Y114.329 E7.92649
G1 X104.474 Y113.822 E7.95533
G1 X104.271 Y113.48 E7.97385
G1 X104.024 Y112.98 E7.99982
G1 X103.819 Y112.487 E8.02468
G1 X103.724 Y112.199 E8.0388
G1 X103.594 Y111.712 E8.06227
G1 X103.521 Y111.322 E8.08075
G1 X103.457 Y110.73 E8.10848
G1 X103.437 Y110.053 E8.14001
G1 X103.493 Y109.428 E8.16923
G1 X103.555 Y109.053 E8.18693
G1 X103.692 Y108.483 E8.21423
G1 X103.912 Y107.82 E8.24676
G1 X104.206 Y107.194 E8.27896
G1 X104.432 Y106.803 E8.29999
G1 X104.795 Y106.286 E8.3294
G1 X105.12 Y105.89 E8.35326
G1 X105.511 Y105.499 E8.37901
G0 F9000 X105.793 Y105.781
G1 F2400 X106.015 Y105.587 E8.39273
G1 X106.507 Y105.212 E8.42154
G1 X106.81 Y105.018 E8.43829
G1 X107.423 Y104.693 E8.4706
G1 X107.767 Y104.547 E8.488
G1 X108.394 Y104.341 E8.51873
G1 X109.121 Y104.179 E8.55342
G1 X109.729 Y104.127 E8.58183
G1 X110.048 Y104.123 E8.59669
G1 X110.613 Y104.157 E8.62304
G1 X111.356 Y104.271 E8.65804
G1 X111.925 Y104.423 E8.68547
G1 X112.293 Y104.557 E8.7037
G1 X112.923 Y104.853 E8.73612
G1 X113.248 Y105.041 E8.7536
G1 X113.813 Y105.436 E8.7857
G1 X114.108 Y105.683 E8.80361
G1 X114.501 Y106.076 E8.82949
G1 X114.698 Y106.302 E8.84346
G1 X115.072 Y106.795 E8.87227
G1 X115.26 Y107.089 E8.88852
G1 X115.585 Y107.698 E8.92066
G1 X115.811 Y108.233 E8.94771
G1 X115.888 Y108.467 E8.95918
G1 X116.036 Y109.019 E8.98579
G1 X116.103 Y109.396 E9.00362
G1 X116.164 Y110.088 E9.03596
G1 X116.163 Y110.476 E9.05403
G1 X116.109 Y111.083 E9.08241
G1 X116.057 Y111.404 E9.09755
G1 X115.921 Y111.965 E9.12443
G1 X115.727 Y112.569 E9.15397
G1 X115.433 Y113.2 E9.18638
G1 X115.241 Y113.533 E9.20428
G1 X114.846 Y114.097 E9.23634
G1 X114.595 Y114.395 E9.25449
G1 X114.104 Y114.883 E9.28672
G1 X113.82 Y115.122 E9.30401
G1 X113.313 Y115.479 E9.33288
G1 X113.02 Y115.652 E9.34872
G1 X112.522 Y115.898 E9.37459
G1 X112.053 Y116.092 E9.39822
G1 X111.816 Y116.17 E9.40984
G1 X111.328 Y116.301 E9.43337
G1 X110.996 Y116.363 E9.44909
G1 X110.444 Y116.423 E9.47495
G1 X110.158 Y116.435 E9.48828
G1 X109.609 Y116.423 E9.51385
G1 X108.746 Y116.321 E9.55431
G1 X108.078 Y116.144 E9.58649
G1 X107.705 Y116.008 E9.60498
G1 X107.075 Y115.712 E9.63739
G1 X106.751 Y115.525 E9.65481
G1 X106.187 Y115.131 E9.68684
G1 X105.887 Y114.878 E9.70512
G1 X105.398 Y114.386 E9.73742
G1 X105.158 Y114.099 E9.75484
G1 X104.802 Y113.592 E9.78368
G1 X104.63 Y113.302 E9.79938
G1 X104.383 Y112.802 E9.82535
G1 X104.191 Y112.339 E9.84869
G1 X104.11 Y112.095 E9.86066
G1 X103.98 Y111.608 E9.88413
G1 X103.919 Y111.279 E9.89971
G1 X103.855 Y110.693 E9.92716
G1 X103.836 Y110.089 E9.9553
G1 X103.892 Y109.464 E9.98452
G1 X103.944 Y109.146 E9.99953
G1 X104.079 Y108.585 E10.02639
G1 X104.274 Y107.99 E10.05555
G1 X104.568 Y107.364 E10.08775
G1 X104.759 Y107.034 E10.10551
G1 X105.093 Y106.559 E10.13255
G1 X105.402 Y106.172 E10.15561
G1 X105.793 Y105.781 E10.18135
G0 F9000 X106.076 Y106.064
G1 F2400 X106.258 Y105.905 E10.19261
G1 X106.75 Y105.53 E10.22141
G1 X106.998 Y105.372 E10.23511
G1 X107.611 Y105.047 E10.26741
G1 X107.892 Y104.927 E10.28164
G1 X108.519 Y104.721 E10.31237
G1 X109.155 Y104.578 E10.34273
G1 X109.763 Y104.526 E10.37114
G1 X110.024 Y104.522 E10.38329
G1 X110.589 Y104.556 E10.40965
G1 X111.253 Y104.657 E10.44093
G1 X111.822 Y104.809 E10.46835
G1 X112.122 Y104.919 E10.48323
G1 X112.752 Y105.215 E10.51564
G1 X113.018 Y105.369 E10.52995
G1 X113.583 Y105.764 E10.56205
G1 X113.825 Y105.966 E10.57673
G1 X114.218 Y106.359 E10.60261
G1 X114.379 Y106.544 E10.61403
G1 X114.753 Y107.037 E10.64284
G1 X114.907 Y107.278 E10.65616
G1 X115.232 Y107.887 E10.68831
G1 X115.438 Y108.379 E10.71314
G1 X115.502 Y108.571 E10.72257
G1 X115.65 Y109.123 E10.74918
G1 X115.704 Y109.431 E10.76374
G1 X115.765 Y110.123 E10.79609
G1 X115.765 Y110.441 E10.81089
G1 X115.711 Y111.048 E10.83927
G1 X115.668 Y111.311 E10.85168
G1 X115.533 Y111.866 E10.87827
G1 X115.365 Y112.4 E10.90434
G1 X115.071 Y113.031 E10.93676
G1 X114.913 Y113.304 E10.95144
G1 X114.518 Y113.868 E10.98351
G1 X114.313 Y114.112 E10.99835
G1 X113.822 Y114.6 E11.03058
G1 X113.589 Y114.795 E11.04473
G1 X113.082 Y115.152 E11.0736
G1 X112.843 Y115.294 E11.08655
G1 X112.345 Y115.54 E11.11241
G1 X111.713 Y115.783 E11.14394
G1 X111.225 Y115.914 E11.16747
G1 X110.953 Y115.965 E11.18035
G1 X110.401 Y116.025 E11.20621
G1 X110.167 Y116.036 E11.21712
G1 X109.618 Y116.024 E11.24269
G1 X108.848 Y115.934 E11.27878
G1 X108.18 Y115.757 E11.31096
G1 X107.876 Y115.646 E11.32603
G1 X107.246 Y115.35 E11.35844
G1 X106.98 Y115.197 E11.37273
G1 X106.416 Y114.803 E11.40477
G1 X106.17 Y114.596 E11.41974
G1 X105.681 Y114.104 E11.45204
G1 X105.485 Y113.869 E11.46629
G1 X105.129 Y113.362 E11.49513
G1 X104.988 Y113.125 E11.50798
G1 X104.741 Y112.625 E11.53394
G1 X104.497 Y111.992 E11.56553
G1 X104.367 Y111.505 E11.589
G1 X104.317 Y111.236 E11.60174
G1 X104.254 Y110.656 E11.62891
G1 X104.234 Y110.124 E11.6537
G1 X104.29 Y109.499 E11.68292
G1 X104.333 Y109.24 E11.69514
G1 X104.466 Y108.688 E11.72158
G1 X104.636 Y108.16 E11.74741
G1 X104.93 Y107.534 E11.77962
G1 X105.087 Y107.264 E11.79416
G1 X105.414 Y106.799 E11.82063
G1 X105.685 Y106.455 E11.84102
G1 X106.076 Y106.064 E11.86677
G0 F9000 X106.359 Y106.347
G1 F2400 X106.5 Y106.224 E11.87548
G1 X106.992 Y105.849 E11.90429
G1 X107.185 Y105.725 E11.91497
G1 X107.798 Y105.4 E11.94728
G1 X108.017 Y105.307 E11.95836
G1 X108.644 Y105.101 E11.98909
G1 X109.189 Y104.976 E12.01512
G1 X109.797 Y104.924 E12.04354
G1 X110 Y104.922 E12.05299
G1 X110.565 Y104.956 E12.07935
G1 X111.149 Y105.043 E12.10684
G1 X111.718 Y105.195 E12.13426
G1 X111.952 Y105.281 E12.14587
G1 X112.582 Y105.577 E12.17829
G1 X112.789 Y105.697 E12.18943
G1 X113.354 Y106.092 E12.22153
G1 X113.542 Y106.249 E12.23293
G1 X113.935 Y106.642 E12.25881
G1 X114.06 Y106.786 E12.26769
G1 X114.434 Y107.279 E12.29651
G1 X114.554 Y107.466 E12.30685
G1 X114.879 Y108.075 E12.33899
G1 X115.115 Y108.674 E12.36897
G1 X115.263 Y109.226 E12.39558
G1 X115.306 Y109.466 E12.40694
