;FLAVOR:Marlin
;TIME:576
;Filament used: 0.154198m
;Layer height: 0.2
;MINX:103.645
;MINY:103.645
;MINZ:0.24
;MAXX:116.355
;MAXY:116.352
;MAXZ:14.32
;Generated with Cura_SteamEngine 4.7.1
M140 S110
M105
M190 S110
M104 S240
M105
M109 S240
M82 ;absolute extrusion mode
M201 X500.00 Y500.00 Z100.00 E5000.00 ;Setup machine max acceleration
M203 X500.00 Y500.00 Z10.00 E50.00 ;Setup machine max feedrate
M204 P500.00 R1000.00 T500.00 ;Setup Print/Retract/Travel acceleration
M205 X8.00 Y8.00 Z0.40 E5.00 ;Setup Jerk
M220 S100 ;Reset Feedrate
M221 S100 ;Reset Flowrate

G28 ;Home

G92 E0 ;Reset Extruder
G1 Z2.0 F3000 ;Move Z Axis up
G1 X10.1 Y20 Z0.28 F5000.0 ;Move to start position
G1 X10.1 Y200.0 Z0.28 F1500.0 E15 ;Draw the first line
G1 X10.4 Y200.0 Z0.28 F5000.0 ;Move to side a little
G1 X10.4 Y20 Z0.28 F1500.0 E30 ;Draw the second line
G92 E0 ;Reset Extruder
G1 Z2.0 F3000 ;Move Z Axis up

G92 E0
G92 E0
G1 F1800 E-3
;LAYER_COUNT:90
;LAYER:0
M107
M205 X6 Y6
G0 F9000 X105.368 Y105.645 Z0.24
;TYPE:SKIRT
G1 F1800 E0
G1 F2298.3 X105.766 Y105.263 E0.02202
G1 X106.076 Y105.032 E0.03745
G1 X106.902 Y104.479 E0.07712
G1 X107.381 Y104.207 E0.09911
G1 X107.894 Y104.006 E0.1211
G1 X108.477 Y103.868 E0.14501
G1 X109.264 Y103.712 E0.17703
G1 X109.811 Y103.645 E0.19903
G1 X110.362 Y103.657 E0.22102
G1 X110.738 Y103.712 E0.23619
G1 X111.718 Y103.906 E0.27606
G1 X112.249 Y104.052 E0.29804
G1 X112.754 Y104.273 E0.32004
G1 X113.095 Y104.477 E0.3359
G1 X113.925 Y105.033 E0.37578
G1 X114.359 Y105.372 E0.39776
G1 X114.74 Y105.77 E0.41975
G1 X114.969 Y106.078 E0.43506
G1 X115.524 Y106.908 E0.47492
G1 X115.796 Y107.387 E0.4969
G1 X115.996 Y107.9 E0.51888
G1 X116.092 Y108.278 E0.53444
G1 X116.287 Y109.258 E0.57432
G1 X116.355 Y109.805 E0.59632
G1 X116.343 Y110.356 E0.61832
G1 X116.288 Y110.736 E0.63364
G1 X116.096 Y111.709 E0.67323
G1 X115.951 Y112.24 E0.6952
G1 X115.73 Y112.745 E0.7172
G1 X115.53 Y113.081 E0.73281
G1 X114.972 Y113.918 E0.77295
G1 X114.634 Y114.353 E0.79494
G1 X114.236 Y114.735 E0.81696
G1 X113.925 Y114.967 E0.83245
G1 X113.095 Y115.523 E0.87232
G1 X112.616 Y115.796 E0.89432
G1 X112.103 Y115.996 E0.9163
G1 X111.711 Y116.095 E0.93244
G1 X110.742 Y116.285 E0.97185
G1 X110.195 Y116.352 E0.99384
G1 X109.644 Y116.338 E1.01584
G1 X109.035 Y116.243 E1.04044
G1 X108.277 Y116.093 E1.07128
G1 X107.746 Y115.946 E1.09327
G1 X107.241 Y115.724 E1.11529
G1 X107.095 Y115.637 E1.12207
G1 X106.508 Y115.366 E1.14788
G1 X106.026 Y115.099 E1.16987
G1 X105.588 Y114.765 E1.19185
G1 X105.202 Y114.372 E1.21384
G1 X104.877 Y113.926 E1.23587
G1 X104.621 Y113.439 E1.25782
G1 X104.475 Y113.091 E1.27289
G1 X104.203 Y112.612 E1.29487
G1 X104.003 Y112.098 E1.31689
G1 X103.908 Y111.722 E1.33236
G1 X103.713 Y110.742 E1.37224
G1 X103.645 Y110.195 E1.39424
G1 X103.657 Y109.644 E1.41624
G1 X103.712 Y109.263 E1.43161
G1 X103.905 Y108.287 E1.47131
G1 X104.051 Y107.755 E1.49333
G1 X104.272 Y107.251 E1.5153
G1 X104.473 Y106.914 E1.53096
G1 X105.03 Y106.08 E1.57099
G1 X105.368 Y105.645 E1.59297
G0 F9000 X105.684 Y105.892
G1 F2298.3 X106.065 Y105.536 E1.61378
G1 X106.298 Y105.365 E1.62532
G1 X107.124 Y104.812 E1.66499
G1 X107.579 Y104.556 E1.68583
G1 X108.066 Y104.372 E1.70661
G1 X108.559 Y104.259 E1.7268
G1 X109.342 Y104.104 E1.75865
G1 X109.859 Y104.043 E1.77943
G1 X110.38 Y104.061 E1.80024
G1 X110.66 Y104.105 E1.81155
G1 X111.64 Y104.299 E1.85142
G1 X112.142 Y104.439 E1.87222
G1 X112.617 Y104.654 E1.89303
G1 X112.872 Y104.809 E1.90494
G1 X113.702 Y105.365 E1.94482
G1 X114.112 Y105.688 E1.96565
G1 X114.467 Y106.069 E1.98643
G1 X114.636 Y106.3 E1.99786
G1 X115.191 Y107.13 E2.03771
G1 X115.447 Y107.584 E2.05851
G1 X115.63 Y108.072 E2.07931
G1 X115.7 Y108.356 E2.09099
G1 X115.895 Y109.336 E2.13087
G1 X115.957 Y109.854 E2.15169
G1 X115.939 Y110.375 E2.1725
G1 X115.896 Y110.658 E2.18392
G1 X115.704 Y111.631 E2.2235
G1 X115.564 Y112.133 E2.2443
G1 X115.349 Y112.608 E2.26511
G1 X115.197 Y112.859 E2.27683
G1 X114.639 Y113.696 E2.31698
G1 X114.318 Y114.106 E2.33776
G1 X113.937 Y114.462 E2.35857
G1 X113.702 Y114.635 E2.37022
G1 X112.872 Y115.191 E2.41009
G1 X112.418 Y115.447 E2.43089
G1 X111.931 Y115.63 E2.45166
G1 X111.634 Y115.702 E2.46385
G1 X110.665 Y115.892 E2.50326
G1 X110.148 Y115.953 E2.52404
G1 X109.423 Y115.905 E2.55304
G1 X109.027 Y115.834 E2.5691
G1 X108.355 Y115.7 E2.59645
G1 X107.853 Y115.56 E2.61725
G1 X107.379 Y115.344 E2.63804
G1 X107.261 Y115.272 E2.64356
G1 X106.676 Y115.002 E2.66927
G1 X106.221 Y114.748 E2.69007
G1 X105.81 Y114.428 E2.71086
G1 X105.453 Y114.048 E2.73167
G1 X105.159 Y113.618 E2.75246
G1 X104.88 Y112.977 E2.78036
G1 X104.808 Y112.869 E2.78554
G1 X104.552 Y112.414 E2.80638
G1 X104.369 Y111.926 E2.82718
G1 X104.3 Y111.644 E2.83877
G1 X104.105 Y110.664 E2.87865
G1 X104.043 Y110.146 E2.89947
G1 X104.061 Y109.625 E2.92028
G1 X104.105 Y109.34 E2.93179
G1 X104.298 Y108.364 E2.9715
G1 X104.438 Y107.862 E2.9923
G1 X104.653 Y107.388 E3.01307
G1 X104.806 Y107.136 E3.02484
G1 X105.363 Y106.302 E3.06486
G1 X105.684 Y105.892 E3.08565
G0 F9000 X105.999 Y106.14
G1 F2298.3 X106.521 Y105.697 E3.11297
G1 X107.347 Y105.144 E3.15265
G1 X107.775 Y104.906 E3.17219
G1 X108.402 Y104.701 E3.19852
G1 X108.674 Y104.644 E3.20961
G1 X109.419 Y104.497 E3.23992
G1 X109.906 Y104.441 E3.25949
G1 X110.583 Y104.497 E3.2866
G1 X111.563 Y104.691 E3.32647
G1 X112.033 Y104.825 E3.34598
G1 X112.65 Y105.142 E3.37366
G1 X113.48 Y105.698 E3.41354
G1 X113.863 Y106.002 E3.43305
G1 X114.304 Y106.522 E3.46027
G1 X114.859 Y107.352 E3.50012
G1 X115.097 Y107.78 E3.51966
G1 X115.307 Y108.435 E3.54712
G1 X115.502 Y109.415 E3.587
G1 X115.558 Y109.901 E3.60652
G1 X115.503 Y110.581 E3.63375
G1 X115.311 Y111.554 E3.67333
G1 X115.178 Y112.025 E3.69287
G1 X114.864 Y112.637 E3.72032
G1 X114.306 Y113.474 E3.76047
G1 X114.002 Y113.858 E3.78002
G1 X113.48 Y114.302 E3.80737
G1 X112.65 Y114.858 E3.84724
G1 X112.222 Y115.097 E3.86681
G1 X111.557 Y115.31 E3.89468
G1 X110.588 Y115.5 E3.93409
G1 X110.102 Y115.555 E3.95361
G1 X109.492 Y115.511 E3.97802
G1 X109.105 Y115.442 E3.99371
G1 X108.433 Y115.308 E4.02106
G1 X107.963 Y115.174 E4.04057
G1 X107.606 Y114.991 E4.05658
G1 X106.844 Y114.639 E4.09008
G1 X106.418 Y114.399 E4.10959
G1 X106.036 Y114.092 E4.12915
G1 X105.71 Y113.727 E4.14869
G1 X105.447 Y113.314 E4.16823
G1 X105.233 Y112.791 E4.19078
G1 X104.903 Y112.219 E4.21714
G1 X104.693 Y111.565 E4.24455
G1 X104.498 Y110.585 E4.28443
G1 X104.442 Y110.099 E4.30396
G1 X104.497 Y109.418 E4.33123
G1 X104.69 Y108.442 E4.37094
G1 X104.824 Y107.971 E4.39048
G1 X105.138 Y107.358 E4.41797
G1 X105.695 Y106.524 E4.458
G1 X105.999 Y106.14 E4.47755
G0 F9000 X106.313 Y106.391
G1 F2298.3 X106.744 Y106.029 E4.50001
G1 X107.57 Y105.476 E4.53968
G1 X107.969 Y105.257 E4.55785
G1 X108.484 Y105.092 E4.57943
G1 X108.752 Y105.036 E4.59036
G1 X109.497 Y104.889 E4.62067
G1 X109.95 Y104.84 E4.63886
G1 X110.505 Y104.889 E4.66109
G1 X111.485 Y105.083 E4.70097
G1 X111.922 Y105.211 E4.71914
G1 X112.427 Y105.474 E4.74187
G1 X113.257 Y106.03 E4.78174
G1 X113.612 Y106.316 E4.79993
G1 X113.971 Y106.745 E4.82226
G1 X114.526 Y107.575 E4.86211
G1 X114.745 Y107.974 E4.88028
G1 X114.915 Y108.513 E4.90283
G1 X115.11 Y109.493 E4.94272
G1 X115.159 Y109.946 E4.9609
G1 X115.111 Y110.503 E4.98321
G1 X114.919 Y111.476 E5.0228
G1 X114.792 Y111.914 E5.041
G1 X114.531 Y112.415 E5.06355
G1 X113.973 Y113.252 E5.1037
G1 X113.688 Y113.608 E5.1219
G1 X113.257 Y113.97 E5.14436
G1 X112.427 Y114.526 E5.18423
G1 X112.028 Y114.746 E5.20242
G1 X111.48 Y114.917 E5.22533
G1 X110.511 Y115.107 E5.26474
G1 X110.058 Y115.156 E5.28293
G1 X109.242 Y115.061 E5.31572
G1 X108.512 Y114.916 E5.34542
G1 X108.074 Y114.788 E5.36363
G1 X107.708 Y114.598 E5.38009
G1 X107.012 Y114.276 E5.4107
G1 X106.616 Y114.05 E5.4289
G1 X106.267 Y113.758 E5.44706
G1 X105.973 Y113.409 E5.46527
G1 X105.745 Y113.014 E5.48348
G1 X105.593 Y112.604 E5.50093
G1 X105.254 Y112.025 E5.52771
G1 X105.085 Y111.487 E5.55022
G1 X104.89 Y110.507 E5.5901
G1 X104.841 Y110.054 E5.60828
G1 X104.889 Y109.496 E5.63064
G1 X105.082 Y108.52 E5.67034
G1 X105.21 Y108.082 E5.68856
G1 X105.471 Y107.58 E5.71114
G1 X106.028 Y106.746 E5.75117
G1 X106.313 Y106.391 E5.76934
G0 F9000 X106.625 Y106.643
G1 F2298.3 X106.966 Y106.362 E5.78697
G1 X107.792 Y105.809 E5.82665
G1 X108.161 Y105.61 E5.84338
G1 X108.805 Y105.434 E5.87002
G1 X109.574 Y105.282 E5.90131
G1 X109.991 Y105.24 E5.91804
G1 X110.427 Y105.282 E5.93552
G1 X111.407 Y105.476 E5.97539
G1 X111.809 Y105.596 E5.99214
G1 X112.204 Y105.806 E6.00999
G1 X113.034 Y106.362 E6.04987
G1 X113.359 Y106.628 E6.06663
G1 X113.639 Y106.967 E6.08418
G1 X114.194 Y107.797 E6.12403
G1 X114.393 Y108.166 E6.14076
G1 X114.523 Y108.591 E6.1585
G1 X114.718 Y109.571 E6.19838
G1 X114.76 Y109.988 E6.21511
G1 X114.718 Y110.426 E6.23267
G1 X114.526 Y111.399 E6.27225
G1 X114.406 Y111.8 E6.28896
G1 X114.199 Y112.193 E6.30669
G1 X113.641 Y113.03 E6.34684
G1 X113.376 Y113.355 E6.36357
G1 X113.034 Y113.638 E6.38129
G1 X112.204 Y114.194 E6.42116
G1 X111.836 Y114.393 E6.43786
G1 X111.403 Y114.525 E6.45593
G1 X110.434 Y114.715 E6.49534
G1 X110.017 Y114.756 E6.51206
G1 X109.312 Y114.667 E6.54042
G1 X108.59 Y114.524 E6.5698
G1 X108.188 Y114.403 E6.58656
G1 X107.837 Y114.217 E6.60241
G1 X107.179 Y113.913 E6.63134
G1 X106.817 Y113.702 E6.64806
G1 X106.502 Y113.426 E6.66478
G1 X106.245 Y113.095 E6.68151
G1 X105.998 Y112.558 E6.7051
G1 X105.96 Y112.432 E6.71035
G1 X105.607 Y111.833 E6.7381
G1 X105.477 Y111.409 E6.7558
G1 X105.282 Y110.429 E6.79568
G1 X105.24 Y110.012 E6.81241
G1 X105.282 Y109.573 E6.83001
G1 X105.475 Y108.597 E6.86972
G1 X105.595 Y108.196 E6.88642
G1 X105.804 Y107.802 E6.90422
G1 X106.361 Y106.968 E6.94425
G1 X106.625 Y106.643 E6.96096
G0 F9000 X106.936 Y106.899
G1 F2298.3 X107.189 Y106.694 E6.97396
G1 X108.015 Y106.141 E7.01363
G1 X108.35 Y105.965 E7.02874
G1 X108.886 Y105.825 E7.05085
G1 X109.652 Y105.674 E7.08201
G1 X110.029 Y105.64 E7.09712
G1 X110.35 Y105.674 E7.11
G1 X111.33 Y105.868 E7.14987
G1 X111.691 Y105.981 E7.16497
G1 X111.982 Y106.139 E7.17819
G1 X112.812 Y106.695 E7.21806
G1 X113.103 Y106.937 E7.23317
G1 X113.306 Y107.189 E7.24608
G1 X113.861 Y108.019 E7.28593
G1 X114.038 Y108.355 E7.30109
G1 X114.13 Y108.669 E7.31415
G1 X114.325 Y109.649 E7.35403
G1 X114.36 Y110.026 E7.36914
G1 X114.326 Y110.348 E7.38206
G1 X114.134 Y111.321 E7.42165
G1 X114.022 Y111.683 E7.43677
G1 X113.866 Y111.971 E7.44984
G1 X113.308 Y112.808 E7.48999
G1 X113.065 Y113.1 E7.50516
G1 X112.812 Y113.305 E7.51815
G1 X111.982 Y113.861 E7.55803
G1 X111.646 Y114.038 E7.57318
G1 X111.326 Y114.132 E7.58649
G1 X110.357 Y114.322 E7.62591
G1 X109.98 Y114.356 E7.64101
G1 X109.381 Y114.273 E7.66515
G1 X108.668 Y114.131 E7.69417
G1 X108.306 Y114.018 E7.7093
G1 X108.013 Y113.858 E7.72263
G1 X107.347 Y113.55 E7.75191
G1 X107.022 Y113.356 E7.76702
G1 X106.744 Y113.098 E7.78216
G1 X106.527 Y112.787 E7.79729
G1 X106.325 Y112.259 E7.81986
G1 X105.962 Y111.644 E7.84836
G1 X105.87 Y111.331 E7.86138
G1 X105.675 Y110.351 E7.90126
G1 X105.64 Y109.974 E7.91637
G1 X105.674 Y109.651 E7.92933
G1 X105.867 Y108.675 E7.96904
G1 X105.979 Y108.313 E7.98417
G1 X106.136 Y108.024 E7.99729
G1 X106.693 Y107.19 E8.03732
G1 X106.936 Y106.899 E8.05245
G0 F9000 X107.243 Y107.159
G1 F2298.3 X107.411 Y107.027 E8.06098
G1 X108.237 Y106.474 E8.10065
G1 X108.729 Y106.267 E8.12196
G1 X108.984 Y106.213 E8.13236
G1 X109.729 Y106.066 E8.16267
G1 X110.062 Y106.041 E8.176
G1 X110.272 Y106.067 E8.18444
G1 X111.252 Y106.261 E8.22432
G1 X111.569 Y106.364 E8.23762
G1 X111.759 Y106.471 E8.24632
G1 X112.589 Y107.027 E8.2862
G1 X112.843 Y107.245 E8.29955
G1 X112.974 Y107.412 E8.30803
G1 X113.529 Y108.242 E8.34788
G1 X113.68 Y108.54 E8.36121
G1 X113.738 Y108.747 E8.36979
G1 X113.933 Y109.727 E8.40967
G1 X113.959 Y110.06 E8.423
G1 X113.934 Y110.271 E8.43148
G1 X113.742 Y111.244 E8.47107
G1 X113.638 Y111.562 E8.48442
G1 X113.533 Y111.75 E8.49301
G1 X112.975 Y112.587 E8.53316
G1 X112.758 Y112.84 E8.54647
G1 X112.589 Y112.973 E8.55505
G1 X111.759 Y113.529 E8.59492
G1 X111.461 Y113.681 E8.60828
G1 X111.249 Y113.74 E8.61706
G1 X110.28 Y113.93 E8.65647
G1 X109.769 Y113.935 E8.67687
G1 X109.418 Y113.873 E8.69109
G1 X108.746 Y113.739 E8.71844
G1 X108.429 Y113.635 E8.73176
G1 X108.21 Y113.508 E8.74186
G1 X107.515 Y113.187 E8.77242
G1 X107.23 Y113.012 E8.78576
G1 X106.996 Y112.774 E8.79908
G1 X106.763 Y112.324 E8.81931
G1 X106.691 Y112.087 E8.8292
G1 X106.32 Y111.46 E8.85827
G1 X106.262 Y111.253 E8.86685
G1 X106.067 Y110.273 E8.90673
G1 X106.041 Y109.94 E8.92007
G1 X106.067 Y109.728 E8.92859
G1 X106.26 Y108.752 E8.9683
G1 X106.363 Y108.435 E8.9816
G1 X106.469 Y108.246 E8.99025
G1 X107.026 Y107.412 E9.03028
G1 X107.243 Y107.159 E9.04358
G0 F9000 X107.358 Y107.635
G1 F2298.3 X107.634 Y107.359 E9.05916
G1 X108.46 Y106.806 E9.09883
G1 X108.811 Y106.658 E9.11404
G1 X109.061 Y106.606 E9.12423
G1 X109.806 Y106.459 E9.15454
G1 X110.194 Y106.459 E9.17002
G1 X111.174 Y106.653 E9.2099
G1 X111.537 Y106.803 E9.22557
G1 X112.367 Y107.359 E9.26545
G1 X112.641 Y107.634 E9.28094
G1 X113.196 Y108.464 E9.32079
G1 X113.346 Y108.825 E9.33639
G1 X113.541 Y109.805 E9.37627
G1 X113.541 Y110.194 E9.3918
G1 X113.349 Y111.167 E9.43138
G1 X113.2 Y111.528 E9.44697
G1 X112.642 Y112.365 E9.48712
G1 X112.367 Y112.641 E9.50267
G1 X111.537 Y113.197 E9.54254
G1 X111.172 Y113.347 E9.55829
G1 X110.203 Y113.537 E9.5977
G1 X109.838 Y113.541 E9.61227
G1 X109.496 Y113.481 E9.62613
G1 X108.824 Y113.347 E9.65348
G1 X108.404 Y113.157 E9.67188
G1 X107.683 Y112.824 E9.70358
G1 X107.446 Y112.671 E9.71484
G1 X107.261 Y112.457 E9.72613
G1 X107.056 Y111.914 E9.74929
G1 X106.803 Y111.535 E9.76748
G1 X106.654 Y111.175 E9.78303
G1 X106.459 Y110.195 E9.82291
G1 X106.459 Y109.806 E9.83844
G1 X106.652 Y108.83 E9.87814
G1 X106.801 Y108.469 E9.89373
G1 X107.358 Y107.635 E9.93376
G0 F9000 X107.691 Y107.857
G1 F2298.3 X107.856 Y107.691 E9.9431
G1 X108.682 Y107.138 E9.98278
G1 X109.139 Y106.998 E10.00185
G1 X109.884 Y106.851 E10.03216
G1 X110.117 Y106.851 E10.04146
G1 X111.097 Y107.045 E10.08133
G1 X111.314 Y107.136 E10.09072
G1 X112.144 Y107.692 E10.1306
G1 X112.309 Y107.856 E10.13988
G1 X112.864 Y108.686 E10.17973
G1 X112.953 Y108.903 E10.18909
G1 X113.148 Y109.883 E10.22897
G1 X113.149 Y110.116 E10.23827
G1 X112.957 Y111.089 E10.27786
G1 X112.867 Y111.306 E10.28723
G1 X112.309 Y112.143 E10.32738
G1 X112.144 Y112.308 E10.3367
G1 X111.314 Y112.864 E10.37657
G1 X111.095 Y112.955 E10.38604
G1 X110.126 Y113.145 E10.42545
G1 X109.588 Y113.091 E10.44703
G1 X108.903 Y112.954 E10.47491
G1 X108.6 Y112.807 E10.48835
G1 X107.85 Y112.461 E10.52132
G1 X107.672 Y112.335 E10.53002
G1 X107.528 Y112.091 E10.54133
G1 X107.421 Y111.739 E10.55601
G1 X107.136 Y111.313 E10.57647
G1 X107.047 Y111.097 E10.58579
G1 X106.852 Y110.117 E10.62567
G1 X106.851 Y109.884 E10.63497
G1 X107.044 Y108.908 E10.67468
G1 X107.134 Y108.691 E10.68406
G1 X107.691 Y107.857 E10.72409
G0 F9000 X108.024 Y108.079
G1 F2298.3 X108.079 Y108.024 E10.72719
G1 X108.905 Y107.471 E10.76686
G1 X109.216 Y107.391 E10.77968
G1 X109.961 Y107.244 E10.80999
G1 X110.039 Y107.244 E10.8131
G1 X111.019 Y107.438 E10.85297
G1 X111.091 Y107.468 E10.85609
G1 X111.921 Y108.024 E10.89596
G1 X111.976 Y108.079 E10.89907
G1 X112.531 Y108.909 E10.93892
G1 X112.561 Y108.981 E10.94203
G1 X112.756 Y109.961 E10.98191
G1 X112.756 Y110.039 E10.98502
G1 X112.564 Y111.012 E11.02461
G1 X112.534 Y111.084 E11.02772
G1 X111.976 Y111.921 E11.06787
G1 X111.921 Y111.976 E11.07097
G1 X111.091 Y112.532 E11.11085
G1 X111.018 Y112.562 E11.114
G1 X110.049 Y112.752 E11.15341
G1 X109.653 Y112.696 E11.16937
G1 X108.981 Y112.562 E11.19672
G1 X108.793 Y112.456 E11.20533
G1 X108.018 Y112.098 E11.23941
G1 X107.911 Y111.974 E11.24594
G1 X107.787 Y111.567 E11.26292
G1 X107.469 Y111.091 E11.28577
G1 X107.439 Y111.019 E11.28889
G1 X107.244 Y110.039 E11.32877
G1 X107.244 Y109.961 E11.33188
G1 X107.437 Y108.985 E11.37159
G1 X107.467 Y108.913 E11.3747
G1 X108.024 Y108.079 E11.41473
G1 F1800 E8.41473
;MESH:GuyWithSecretThread.stl
G0 F9000 X108.491 Y108.491
G0 X109.05 Y110.177
G0 X110.011 Y112.049
G0 X110.011 Y112.354
;TYPE:WALL-OUTER
