;FLAVOR:Marlin
;TIME:2981
;Filament used: 2.10567m
;Layer height: 0.2
;MINX:94.432
;MINY:93.012
;MINZ:0.28
;MAXX:125.568
;MAXY:125.993
;MAXZ:37.08
;Generated with Cura_SteamEngine 4.7.1
M140 S110
M105
M190 S110
M104 S240
M105
M109 S240
M82 ;absolute extrusion mode
M201 X500.00 Y500.00 Z100.00 E5000.00 ;Setup machine max acceleration
M203 X500.00 Y500.00 Z10.00 E50.00 ;Setup machine max feedrate
M204 P500.00 R1000.00 T500.00 ;Setup Print/Retract/Travel acceleration
M205 X8.00 Y8.00 Z0.40 E5.00 ;Setup Jerk
M220 S100 ;Reset Feedrate
M221 S100 ;Reset Flowrate

G28 ;Home

G92 E0 ;Reset Extruder
G1 Z2.0 F3000 ;Move Z Axis up
G1 X10.1 Y20 Z0.28 F5000.0 ;Move to start position
G1 X10.1 Y200.0 Z0.28 F1500.0 E15 ;Draw the first line
G1 X10.4 Y200.0 Z0.28 F5000.0 ;Move to side a little
G1 X10.4 Y20 Z0.28 F1500.0 E30 ;Draw the second line
G92 E0 ;Reset Extruder
G1 Z2.0 F3000 ;Move Z Axis up

G92 E0
G92 E0
G1 F1800 E-3
;LAYER_COUNT:204
;LAYER:0
M107
M205 X6 Y6
G0 F9000 X103.66 Y103.418 Z0.28
;TYPE:SKIRT
G1 F1800 E0
G1 F2400 X104.157 Y102.999 E0.03027
G1 X104.966 Y102.427 E0.0764
G1 X105.574 Y102.074 E0.10914
G1 X106.418 Y101.684 E0.15243
G1 X106.719 Y101.552 E0.16774
G1 X107.428 Y101.321 E0.20246
G1 X107.917 Y101.213 E0.22578
G1 X107.986 Y101.194 E0.22911
G1 X108.684 Y101.066 E0.26216
G1 X109.377 Y101.006 E0.29455
G1 X109.406 Y101.001 E0.29592
G1 X109.955 Y100.954 E0.32157
G1 X110.578 Y100.998 E0.35065
G1 X110.661 Y101.011 E0.35457
G1 X111.308 Y101.066 E0.3848
G1 X111.98 Y101.185 E0.41658
G1 X112.902 Y101.431 E0.46101
G1 X113.537 Y101.661 E0.49246
G1 X114.298 Y102.015 E0.53154
G1 X114.629 Y102.189 E0.54896
G1 X115.265 Y102.565 E0.58336
G1 X115.763 Y102.916 E0.61173
G1 X116.319 Y103.399 E0.64602
G1 X117.001 Y104.079 E0.69087
G1 X117.496 Y104.645 E0.72588
G1 X117.817 Y105.088 E0.75136
G1 X118.13 Y105.593 E0.77902
G1 X118.348 Y105.998 E0.80044
G1 X118.731 Y106.827 E0.84296
G1 X118.865 Y107.129 E0.85834
G1 X119.102 Y107.848 E0.8936
G1 X119.211 Y108.342 E0.91715
G1 X119.24 Y108.447 E0.92222
G1 X119.359 Y109.12 E0.95405
G1 X119.414 Y109.765 E0.98419
G1 X119.426 Y109.843 E0.98787
G1 X119.471 Y110.393 E1.01356
G1 X119.426 Y111.007 E1.04223
G1 X119.413 Y111.089 E1.04609
G1 X119.359 Y111.73 E1.07605
G1 X119.237 Y112.417 E1.10854
G1 X119.098 Y112.923 E1.13297
G1 X118.984 Y113.347 E1.15342
G1 X118.761 Y113.959 E1.18375
G1 X118.395 Y114.746 E1.22416
G1 X118.224 Y115.071 E1.24126
G1 X117.864 Y115.683 E1.27432
G1 X117.504 Y116.193 E1.30339
G1 X117.025 Y116.744 E1.33739
G1 X116.352 Y117.419 E1.38177
G1 X115.769 Y117.926 E1.41775
G1 X115.344 Y118.234 E1.44219
G1 X114.839 Y118.549 E1.4699
G1 X114.434 Y118.769 E1.49137
G1 X113.673 Y119.124 E1.53047
G1 X113.264 Y119.303 E1.55126
G1 X112.589 Y119.522 E1.5843
G1 X112.082 Y119.636 E1.6085
G1 X111.987 Y119.662 E1.61308
G1 X111.313 Y119.782 E1.64496
G1 X110.627 Y119.841 E1.67702
G1 X110.585 Y119.848 E1.679
G1 X110.036 Y119.894 E1.70466
G1 X109.585 Y119.871 E1.72569
G1 X109.04 Y119.811 E1.75122
G1 X108.694 Y119.782 E1.76738
G1 X108.012 Y119.661 E1.79964
G1 X107.1 Y119.417 E1.8436
G1 X106.454 Y119.183 E1.87559
G1 X105.845 Y118.898 E1.9069
G1 X105.159 Y118.549 E1.94274
G1 X104.654 Y118.234 E1.97045
G1 X104.235 Y117.932 E1.9945
G1 X103.673 Y117.443 E2.02919
G1 X102.993 Y116.762 E2.074
G1 X102.58 Y116.273 E2.10381
G1 X101.996 Y115.448 E2.15087
G1 X101.653 Y114.856 E2.18273
G1 X101.239 Y113.967 E2.2284
G1 X101.014 Y113.349 E2.25902
G1 X100.758 Y112.396 E2.30497
G1 X100.642 Y111.735 E2.33622
G1 X100.587 Y111.093 E2.36622
G1 X100.574 Y111.01 E2.37014
G1 X100.529 Y110.461 E2.39578
G1 X100.574 Y109.841 E2.42473
G1 X100.588 Y109.753 E2.42888
G1 X100.634 Y109.225 E2.45356
G1 X100.72 Y108.689 E2.47884
G1 X100.89 Y107.969 E2.51328
G1 X101.007 Y107.524 E2.53471
G1 X101.241 Y106.877 E2.56675
G1 X101.541 Y106.237 E2.59966
G1 X101.867 Y105.596 E2.63315
G1 X102.186 Y105.083 E2.66127
G1 X102.491 Y104.66 E2.68556
G1 X102.978 Y104.1 E2.72011
G1 X103.66 Y103.418 E2.76503
G0 F9000 X103.943 Y103.701
G1 F2400 X104.388 Y103.326 E2.79212
G1 X104.927 Y102.946 E2.82283
G1 X105.198 Y102.753 E2.83832
G1 X105.742 Y102.437 E2.86762
G1 X106.579 Y102.05 E2.91056
G1 X106.88 Y101.918 E2.92586
G1 X107.514 Y101.711 E2.95692
G1 X108.022 Y101.599 E2.98114
G1 X108.094 Y101.579 E2.98462
G1 X108.719 Y101.465 E3.0142
G1 X109.418 Y101.404 E3.04687
G1 X109.469 Y101.396 E3.04928
G1 X109.988 Y101.354 E3.07352
G1 X110.517 Y101.394 E3.09823
G1 X110.595 Y101.406 E3.1019
G1 X111.274 Y101.464 E3.13363
G1 X111.875 Y101.571 E3.16206
G1 X112.8 Y101.818 E3.20664
G1 X113.368 Y102.023 E3.23476
G1 X114.129 Y102.377 E3.27384
G1 X114.425 Y102.533 E3.28942
G1 X115.061 Y102.909 E3.32382
G1 X115.507 Y103.223 E3.34922
G1 X116.037 Y103.682 E3.38187
G1 X116.719 Y104.362 E3.42671
G1 X117.19 Y104.902 E3.46008
G1 X117.477 Y105.299 E3.48289
G1 X117.79 Y105.804 E3.51055
G1 X117.985 Y106.166 E3.5297
G1 X118.366 Y106.989 E3.57193
G1 X118.5 Y107.291 E3.58731
G1 X118.711 Y107.934 E3.61883
G1 X118.821 Y108.431 E3.64253
G1 X118.854 Y108.552 E3.64837
G1 X118.961 Y109.153 E3.67679
G1 X119.018 Y109.819 E3.70792
G1 X119.031 Y109.905 E3.71197
G1 X119.071 Y110.424 E3.73621
G1 X119.031 Y110.946 E3.76058
G1 X119.017 Y111.037 E3.76487
G1 X118.961 Y111.697 E3.79571
G1 X118.852 Y112.311 E3.82475
G1 X118.713 Y112.817 E3.84919
G1 X118.598 Y113.243 E3.86973
G1 X118.398 Y113.791 E3.8969
G1 X118.032 Y114.578 E3.93731
G1 X117.88 Y114.868 E3.95256
G1 X117.52 Y115.48 E3.98562
G1 X117.197 Y115.937 E4.01168
G1 X116.742 Y116.462 E4.04403
G1 X116.069 Y117.137 E4.08841
G1 X115.513 Y117.619 E4.12268
G1 X115.132 Y117.895 E4.14458
G1 X114.627 Y118.21 E4.1723
G1 X114.265 Y118.406 E4.19147
G1 X113.504 Y118.761 E4.23057
G1 X113.105 Y118.935 E4.25084
G1 X112.501 Y119.132 E4.28042
G1 X111.975 Y119.25 E4.30552
G1 X111.881 Y119.276 E4.31006
G1 X111.278 Y119.383 E4.33858
G1 X110.589 Y119.443 E4.37078
G1 X110.523 Y119.453 E4.37389
G1 X110.004 Y119.494 E4.39813
G1 X109.628 Y119.474 E4.41567
G1 X109.073 Y119.413 E4.44166
G1 X108.728 Y119.384 E4.45779
G1 X108.118 Y119.275 E4.48664
G1 X107.202 Y119.03 E4.53079
G1 X106.624 Y118.82 E4.55943
G1 X106.012 Y118.534 E4.59088
G1 X105.371 Y118.21 E4.62433
G1 X104.866 Y117.895 E4.65204
G1 X104.188 Y117.372 E4.69191
G1 X103.956 Y117.16 E4.70655
G1 X103.276 Y116.479 E4.75136
G1 X102.907 Y116.041 E4.77803
G1 X102.323 Y115.216 E4.82509
G1 X102.016 Y114.687 E4.85357
G1 X101.602 Y113.798 E4.89924
G1 X101.4 Y113.245 E4.92665
G1 X101.144 Y112.292 E4.9726
G1 X101.04 Y111.701 E5.00054
G1 X100.982 Y111.025 E5.03214
G1 X100.97 Y110.948 E5.03576
G1 X100.929 Y110.429 E5.06001
G1 X100.969 Y109.902 E5.08462
G1 X100.984 Y109.803 E5.08928
G1 X101.032 Y109.26 E5.11466
G1 X101.109 Y108.78 E5.1373
G1 X101.255 Y108.158 E5.16705
G1 X101.394 Y107.625 E5.1927
G1 X101.603 Y107.047 E5.22132
G1 X101.903 Y106.407 E5.25423
G1 X102.207 Y105.808 E5.28551
G1 X102.526 Y105.295 E5.31364
G1 X103.051 Y104.613 E5.35371
G1 X103.261 Y104.383 E5.36822
G1 X103.943 Y103.701 E5.41313
G0 F9000 X104.226 Y103.984
G1 F2400 X104.618 Y103.653 E5.43702
G1 X105.431 Y103.078 E5.48338
G1 X105.91 Y102.8 E5.50917
G1 X106.739 Y102.417 E5.5517
G1 X107.04 Y102.285 E5.567
G1 X107.6 Y102.102 E5.59443
G1 X108.116 Y101.989 E5.61903
G1 X108.203 Y101.964 E5.62324
G1 X108.753 Y101.863 E5.64928
G1 X109.472 Y101.8 E5.68289
G1 X110.019 Y101.754 E5.70845
G1 X110.559 Y101.805 E5.73371
G1 X111.24 Y101.863 E5.76553
G1 X111.77 Y101.957 E5.7906
G1 X112.254 Y102.088 E5.81395
G1 X112.698 Y102.205 E5.83533
G1 X113.199 Y102.386 E5.86013
G1 X113.96 Y102.74 E5.89921
G1 X114.222 Y102.878 E5.913
G1 X114.858 Y103.254 E5.9474
G1 X115.556 Y103.785 E5.98824
G1 X115.754 Y103.966 E6.00073
G1 X116.436 Y104.646 E6.04558
G1 X116.883 Y105.16 E6.0773
G1 X117.137 Y105.51 E6.09743
G1 X117.45 Y106.015 E6.1251
G1 X117.622 Y106.334 E6.14197
G1 X118 Y107.151 E6.18389
G1 X118.134 Y107.453 E6.19928
G1 X118.321 Y108.021 E6.22712
G1 X118.434 Y108.53 E6.2514
G1 X118.468 Y108.656 E6.25748
G1 X118.562 Y109.187 E6.28259
G1 X118.619 Y109.856 E6.31385
G1 X118.671 Y110.454 E6.3418
G1 X118.619 Y110.984 E6.3666
G1 X118.562 Y111.663 E6.39833
G1 X118.466 Y112.205 E6.42396
G1 X118.211 Y113.139 E6.46904
G1 X118.035 Y113.622 E6.49298
G1 X117.669 Y114.409 E6.53339
G1 X117.535 Y114.665 E6.54685
G1 X117.175 Y115.277 E6.57991
G1 X116.636 Y115.985 E6.62134
G1 X116.458 Y116.179 E6.6336
G1 X115.785 Y116.854 E6.67799
G1 X115.256 Y117.312 E6.71057
G1 X114.921 Y117.555 E6.72984
G1 X114.416 Y117.87 E6.75755
G1 X114.096 Y118.044 E6.77451
G1 X113.335 Y118.399 E6.81362
G1 X112.946 Y118.568 E6.83336
G1 X112.413 Y118.742 E6.85947
G1 X111.873 Y118.863 E6.88524
G1 X111.776 Y118.89 E6.88993
G1 X111.244 Y118.985 E6.91509
G1 X110.537 Y119.046 E6.94814
G1 X109.973 Y119.094 E6.97449
G1 X109.672 Y119.076 E6.98853
G1 X109.114 Y119.015 E7.01467
G1 X108.761 Y118.985 E7.03117
G1 X108.223 Y118.89 E7.05661
G1 X107.715 Y118.751 E7.08113
G1 X107.303 Y118.643 E7.10096
G1 X106.793 Y118.458 E7.12623
G1 X106.152 Y118.158 E7.15918
G1 X105.582 Y117.87 E7.18892
G1 X105.077 Y117.555 E7.21663
G1 X104.444 Y117.065 E7.25391
G1 X104.239 Y116.878 E7.26683
G1 X103.559 Y116.197 E7.31164
G1 X103.233 Y115.81 E7.3352
G1 X102.649 Y114.985 E7.38227
G1 X102.378 Y114.518 E7.40741
G1 X101.964 Y113.629 E7.45307
G1 X101.787 Y113.141 E7.47725
G1 X101.531 Y112.188 E7.52319
G1 X101.439 Y111.666 E7.54788
G1 X101.381 Y110.989 E7.57951
G1 X101.329 Y110.399 E7.60709
G1 X101.379 Y109.871 E7.63179
G1 X101.43 Y109.295 E7.65872
G1 X101.498 Y108.871 E7.67871
G1 X101.644 Y108.249 E7.70846
G1 X101.781 Y107.727 E7.73359
G1 X101.966 Y107.217 E7.75885
G1 X102.25 Y106.611 E7.79002
G1 X102.546 Y106.019 E7.82084
G1 X102.865 Y105.506 E7.84896
G1 X103.358 Y104.869 E7.88647
G1 X103.544 Y104.666 E7.89929
G1 X104.226 Y103.984 E7.9442
G0 F9000 X104.509 Y104.267
G1 F2400 X104.849 Y103.98 E7.96492
G1 X105.388 Y103.6 E7.99563
G1 X106.078 Y103.163 E8.03366
G1 X106.9 Y102.783 E8.07583
G1 X107.201 Y102.651 E8.09113
G1 X107.686 Y102.493 E8.11488
G1 X108.205 Y102.379 E8.13963
G1 X108.788 Y102.262 E8.16732
G1 X109.511 Y102.199 E8.20111
G1 X110.048 Y102.154 E8.2262
G1 X110.508 Y102.201 E8.24773
G1 X111.206 Y102.261 E8.28035
G1 X111.666 Y102.343 E8.30211
G1 X112.153 Y102.475 E8.32561
G1 X113.031 Y102.749 E8.36843
G1 X113.792 Y103.103 E8.40752
G1 X114.018 Y103.222 E8.41941
G1 X114.654 Y103.598 E8.45381
G1 X115.3 Y104.092 E8.49168
G1 X115.472 Y104.249 E8.50252
G1 X116.154 Y104.929 E8.54737
G1 X116.577 Y105.417 E8.57744
G1 X116.797 Y105.72 E8.59488
G1 X117.11 Y106.225 E8.62254
G1 X117.259 Y106.502 E8.63719
G1 X117.635 Y107.314 E8.67885
G1 X117.769 Y107.616 E8.69424
G1 X117.93 Y108.107 E8.7183
G1 X118.044 Y108.619 E8.74272
G1 X118.164 Y109.221 E8.77131
G1 X118.224 Y109.921 E8.80402
G1 X118.27 Y110.481 E8.83019
G1 X118.223 Y110.933 E8.85135
G1 X118.164 Y111.629 E8.88387
G1 X118.08 Y112.099 E8.9061
G1 X117.825 Y113.034 E8.95123
G1 X117.673 Y113.453 E8.97199
G1 X117.307 Y114.24 E9.0124
G1 X117.19 Y114.462 E9.02409
G1 X116.83 Y115.074 E9.05715
G1 X116.329 Y115.729 E9.09555
G1 X116.175 Y115.897 E9.10616
G1 X115.502 Y116.572 E9.15054
G1 X115 Y117.005 E9.18141
G1 X114.709 Y117.216 E9.19815
G1 X114.204 Y117.531 E9.22586
G1 X113.927 Y117.681 E9.24053
G1 X113.166 Y118.036 E9.27963
G1 X112.326 Y118.352 E9.32142
G1 X111.762 Y118.479 E9.34834
G1 X111.209 Y118.586 E9.37457
G1 X110.499 Y118.648 E9.40776
G1 X109.945 Y118.693 E9.43364
G1 X109.715 Y118.679 E9.44437
G1 X109.148 Y118.617 E9.47093
G1 X108.329 Y118.504 E9.50942
G1 X107.405 Y118.256 E9.55397
G1 X106.963 Y118.096 E9.57586
G1 X106.322 Y117.796 E9.60882
G1 X105.794 Y117.531 E9.63632
G1 X105.289 Y117.216 E9.66404
G1 X104.699 Y116.757 E9.69885
G1 X104.522 Y116.595 E9.71002
G1 X103.842 Y115.914 E9.75483
G1 X103.56 Y115.579 E9.77522
G1 X102.976 Y114.754 E9.82229
G1 X102.741 Y114.35 E9.84405
G1 X102.327 Y113.461 E9.88972
G1 X102.173 Y113.038 E9.91068
G1 X101.917 Y112.085 E9.95663
G1 X101.838 Y111.632 E9.97804
G1 X101.779 Y110.95 E10.00991
G1 X101.73 Y110.37 E10.03702
G1 X101.778 Y109.906 E10.05874
G1 X101.829 Y109.33 E10.08566
G1 X101.888 Y108.963 E10.10297
G1 X102.05 Y108.274 E10.13593
G1 X102.328 Y107.386 E10.17926
G1 X102.628 Y106.746 E10.21217
G1 X102.886 Y106.23 E10.23903
G1 X103.205 Y105.717 E10.26716
G1 X103.666 Y105.124 E10.30214
G1 X103.827 Y104.949 E10.31321
G1 X104.509 Y104.267 E10.35812
G0 F9000 X104.791 Y104.549
G1 F2400 X105.079 Y104.307 E10.37564
G1 X105.895 Y103.73 E10.42217
G1 X106.246 Y103.526 E10.44108
G1 X107.06 Y103.149 E10.48285
G1 X107.772 Y102.883 E10.51824
G1 X108.31 Y102.765 E10.54389
G1 X108.823 Y102.66 E10.56827
G1 X109.566 Y102.595 E10.603
G1 X110.074 Y102.555 E10.62673
G1 X110.457 Y102.599 E10.64468
G1 X111.172 Y102.66 E10.67809
G1 X111.561 Y102.729 E10.69649
G1 X112.051 Y102.862 E10.72013
G1 X112.862 Y103.111 E10.75963
G1 X113.623 Y103.465 E10.79872
G1 X113.815 Y103.566 E10.80882
G1 X114.451 Y103.942 E10.84322
G1 X115.044 Y104.399 E10.87808
G1 X115.189 Y104.532 E10.88724
G1 X115.871 Y105.212 E10.93209
G1 X116.271 Y105.674 E10.96054
G1 X116.457 Y105.931 E10.97532
G1 X116.77 Y106.436 E11.00298
G1 X116.896 Y106.67 E11.01536
G1 X117.269 Y107.476 E11.05671
G1 X117.54 Y108.194 E11.09245
G1 X117.657 Y108.724 E11.11772
G1 X117.765 Y109.255 E11.14295
G1 X117.825 Y109.957 E11.17576
G1 X117.869 Y110.506 E11.2014
G1 X117.824 Y110.897 E11.21973
G1 X117.765 Y111.595 E11.25235
G1 X117.694 Y111.993 E11.27117
G1 X117.555 Y112.499 E11.29561
G1 X117.31 Y113.285 E11.33394
G1 X116.944 Y114.072 E11.37436
G1 X116.845 Y114.259 E11.38421
G1 X116.485 Y114.871 E11.41727
G1 X116.022 Y115.472 E11.4526
G1 X115.892 Y115.614 E11.46157
G1 X115.219 Y116.289 E11.50595
G1 X114.743 Y116.698 E11.53517
G1 X114.497 Y116.877 E11.54934
G1 X113.992 Y117.192 E11.57705
G1 X113.758 Y117.319 E11.58945
G1 X112.941 Y117.699 E11.63141
G1 X112.238 Y117.961 E11.66634
G1 X111.681 Y118.086 E11.69292
G1 X111.175 Y118.188 E11.71696
G1 X110.445 Y118.251 E11.75108
G1 X110.338 Y118.268 E11.75612
G1 X109.759 Y118.281 E11.78309
G1 X109.185 Y118.218 E11.80998
G1 X108.434 Y118.118 E11.84526
G1 X107.926 Y117.979 E11.86978
G1 X107.132 Y117.734 E11.90847
G1 X106.491 Y117.433 E11.94145
G1 X106.006 Y117.192 E11.96666
G1 X105.501 Y116.877 E11.99438
G1 X104.955 Y116.449 E12.02668
G1 X104.805 Y116.312 E12.03614
G1 X104.125 Y115.631 E12.08095
G1 X103.886 Y115.348 E12.0982
G1 X103.302 Y114.523 E12.14527
G1 X103.104 Y114.181 E12.16367
G1 X102.69 Y113.292 E12.20933
G1 X102.559 Y112.934 E12.22709
G1 X102.303 Y111.981 E12.27303
G1 X102.236 Y111.598 E12.29114
G1 X102.176 Y110.896 E12.32395
G1 X102.13 Y110.345 E12.34969
G1 X102.175 Y109.957 E12.36788
G1 X102.227 Y109.365 E12.39555
G1 X102.277 Y109.054 E12.41022
G1 X102.437 Y108.376 E12.44266
G1 X102.69 Y107.556 E12.48262
G1 X102.978 Y106.941 E12.51424
G1 X103.226 Y106.441 E12.54023
G1 X103.545 Y105.928 E12.56836
G1 X103.974 Y105.38 E12.60076
G1 X104.109 Y105.231 E12.61012
G1 X104.791 Y104.549 E12.65504
G0 F9000 X105.074 Y104.832
G1 F2400 X105.31 Y104.634 E12.66938
G1 X105.849 Y104.254 E12.70009
G1 X106.415 Y103.889 E12.73145
G1 X107.221 Y103.516 E12.7728
G1 X107.858 Y103.274 E12.80453
G1 X108.399 Y103.155 E12.83033
G1 X108.858 Y103.059 E12.85216
G1 X109.605 Y102.994 E12.88708
G1 X109.718 Y102.976 E12.8924
G1 X110.273 Y102.975 E12.91825
G1 X110.421 Y102.998 E12.92522
G1 X111.138 Y103.059 E12.95873
G1 X111.456 Y103.115 E12.97376
G1 X111.949 Y103.248 E12.99754
G1 X112.693 Y103.474 E13.03375
G1 X113.454 Y103.828 E13.07283
G1 X113.611 Y103.911 E13.0811
G1 X114.247 Y104.287 E13.1155
G1 X114.788 Y104.707 E13.14739
G1 X114.907 Y104.815 E13.15488
G1 X115.589 Y105.495 E13.19972
G1 X115.965 Y105.932 E13.22657
G1 X116.117 Y106.142 E13.23864
G1 X116.43 Y106.647 E13.2663
G1 X116.533 Y106.839 E13.27645
G1 X116.903 Y107.638 E13.31745
G1 X117.149 Y108.28 E13.34946
G1 X117.267 Y108.813 E13.37488
G1 X117.367 Y109.289 E13.39753
G1 X117.428 Y110.008 E13.43113
G1 X117.45 Y110.149 E13.43777
G1 X117.45 Y110.7 E13.46343
G1 X117.428 Y110.842 E13.47012
G1 X117.367 Y111.562 E13.50377
G1 X117.309 Y111.887 E13.51914
G1 X117.17 Y112.393 E13.54358
G1 X116.947 Y113.116 E13.57881
G1 X116.581 Y113.903 E13.61922
G1 X116.5 Y114.057 E13.62732
