;FLAVOR:Marlin
;TIME:7608
;Filament used: 7.52098m
;Layer height: 0.2
;MINX:61.2
;MINY:49.2
;MINZ:0.28
;MAXX:158.8
;MAXY:170.8
;MAXZ:7.96
;Generated with Cura_SteamEngine 4.5.0
M140 S110
M105
M190 S110
M104 S230
M105
M109 S230
M82 ;absolute extrusion mode
M201 X500.00 Y500.00 Z100.00 E5000.00 ;Setup machine max acceleration
M203 X500.00 Y500.00 Z10.00 E50.00 ;Setup machine max feedrate
M204 P500.00 R1000.00 T500.00 ;Setup Print/Retract/Travel acceleration
M205 X8.00 Y8.00 Z0.40 E5.00 ;Setup Jerk
M220 S100 ;Reset Feedrate
M221 S100 ;Reset Flowrate

G28 ;Home

G92 E0 ;Reset Extruder
G1 Z2.0 F3000 ;Move Z Axis up
G1 X10.1 Y20 Z0.28 F5000.0 ;Move to start position
G1 X10.1 Y200.0 Z0.28 F1500.0 E15 ;Draw the first line
G1 X10.4 Y200.0 Z0.28 F5000.0 ;Move to side a little
G1 X10.4 Y20 Z0.28 F1500.0 E30 ;Draw the second line
G92 E0 ;Reset Extruder
G1 Z2.0 F3000 ;Move Z Axis up

G92 E0
G92 E0
G1 F1800 E-3
;LAYER_COUNT:34
;LAYER:0
M107
G0 F9000 X62.157 Y50.478 Z0.28
;TYPE:SKIRT
G1 F1800 E0
G1 F3000 X62.552 Y50.094 E0.02565
G1 X62.998 Y49.77 E0.05132
G1 X63.486 Y49.515 E0.07696
G1 X64.006 Y49.332 E0.10263
G1 X64.547 Y49.227 E0.12829
G1 X65 Y49.2 E0.14942
G1 X155 Y49.2 E4.3402
G1 X155.55 Y49.24 E4.36588
G1 X156.088 Y49.359 E4.39153
G1 X156.603 Y49.555 E4.41719
G1 X157.084 Y49.823 E4.44283
G1 X157.522 Y50.157 E4.46848
G1 X157.906 Y50.552 E4.49413
G1 X158.23 Y50.998 E4.5198
G1 X158.485 Y51.486 E4.54544
G1 X158.668 Y52.006 E4.57111
G1 X158.773 Y52.547 E4.59677
G1 X158.8 Y53 E4.6179
G1 X158.8 Y167 E9.92622
G1 X158.76 Y167.55 E9.9519
G1 X158.641 Y168.088 E9.97755
G1 X158.445 Y168.603 E10.00321
G1 X158.177 Y169.084 E10.02885
G1 X157.843 Y169.522 E10.0545
G1 X157.448 Y169.906 E10.08015
G1 X157.002 Y170.23 E10.10582
G1 X156.514 Y170.485 E10.13146
G1 X155.994 Y170.668 E10.15713
G1 X155.453 Y170.773 E10.18279
G1 X155 Y170.8 E10.20392
G1 X65 Y170.8 E14.3947
G1 X64.45 Y170.76 E14.42037
G1 X63.912 Y170.641 E14.44603
G1 X63.397 Y170.445 E14.47169
G1 X62.916 Y170.177 E14.49733
G1 X62.478 Y169.843 E14.52298
G1 X62.094 Y169.448 E14.54863
G1 X61.77 Y169.002 E14.5743
G1 X61.515 Y168.514 E14.59994
G1 X61.332 Y167.994 E14.62561
G1 X61.227 Y167.453 E14.65127
G1 X61.2 Y167 E14.6724
G1 X61.2 Y53 E19.98072
G1 X61.24 Y52.45 E20.00639
G1 X61.359 Y51.912 E20.03205
G1 X61.555 Y51.397 E20.05771
G1 X61.823 Y50.916 E20.08335
G1 X62.157 Y50.478 E20.109
G0 F9000 X62.552 Y50.64
G1 F3000 X62.942 Y50.294 E20.13327
G1 X63.38 Y50.011 E20.15756
G1 X63.855 Y49.798 E20.1818
G1 X64.358 Y49.661 E20.20607
G1 X65 Y49.6 E20.2361
G1 X155 Y49.6 E24.42688
G1 X155.52 Y49.64 E24.45116
G1 X156.027 Y49.759 E24.47541
G1 X156.51 Y49.954 E24.49967
G1 X156.958 Y50.22 E24.52393
G1 X157.36 Y50.552 E24.5482
G1 X157.706 Y50.942 E24.57248
G1 X157.989 Y51.38 E24.59676
G1 X158.202 Y51.855 E24.621
G1 X158.339 Y52.358 E24.64528
G1 X158.4 Y53 E24.67531
G1 X158.4 Y167 E29.98362
G1 X158.36 Y167.52 E30.00791
G1 X158.241 Y168.027 E30.03216
G1 X158.046 Y168.51 E30.05641
G1 X157.78 Y168.958 E30.08067
G1 X157.448 Y169.36 E30.10495
G1 X157.058 Y169.706 E30.12923
G1 X156.62 Y169.989 E30.15351
G1 X156.145 Y170.202 E30.17775
G1 X155.642 Y170.339 E30.20202
G1 X155 Y170.4 E30.23205
G1 X65 Y170.4 E34.42283
G1 X64.48 Y170.36 E34.44711
G1 X63.973 Y170.241 E34.47136
G1 X63.49 Y170.046 E34.49562
G1 X63.042 Y169.78 E34.51988
G1 X62.64 Y169.448 E34.54416
G1 X62.294 Y169.058 E34.56843
G1 X62.011 Y168.62 E34.59272
G1 X61.798 Y168.145 E34.61696
G1 X61.661 Y167.642 E34.64123
G1 X61.6 Y167 E34.67126
G1 X61.6 Y53 E39.97958
G1 X61.64 Y52.48 E40.00386
G1 X61.759 Y51.973 E40.02811
G1 X61.954 Y51.49 E40.05237
G1 X62.22 Y51.042 E40.07663
G1 X62.552 Y50.64 E40.1009
G0 F9000 X62.618 Y51.176
G1 F3000 X62.946 Y50.813 E40.12368
G1 X63.329 Y50.508 E40.14648
G1 X63.757 Y50.27 E40.16929
G1 X64.217 Y50.104 E40.19206
G1 X65 Y50 E40.22884
G1 X155 Y50 E44.41961
G1 X155.963 Y50.159 E44.46506
G1 X156.412 Y50.353 E44.48784
G1 X156.824 Y50.618 E44.51065
G1 X157.187 Y50.946 E44.53343
G1 X157.492 Y51.329 E44.55623
G1 X157.73 Y51.757 E44.57903
G1 X157.896 Y52.217 E44.6018
G1 X158 Y53 E44.63858
G1 X158 Y167 E49.9469
G1 X157.96 Y167.488 E49.9697
G1 X157.841 Y167.963 E49.9925
G1 X157.647 Y168.412 E50.01528
G1 X157.382 Y168.824 E50.03809
G1 X157.054 Y169.187 E50.06087
G1 X156.671 Y169.492 E50.08367
G1 X156.243 Y169.73 E50.10647
G1 X155.783 Y169.896 E50.12924
G1 X155 Y170 E50.16602
G1 X65 Y170 E54.3568
G1 X64.512 Y169.96 E54.3796
G1 X64.037 Y169.841 E54.4024
G1 X63.588 Y169.647 E54.42517
G1 X63.176 Y169.382 E54.44798
G1 X62.813 Y169.054 E54.47077
G1 X62.508 Y168.671 E54.49356
G1 X62.27 Y168.243 E54.51637
G1 X62.104 Y167.783 E54.53914
G1 X62 Y167 E54.57592
G1 X62 Y53 E59.88424
G1 X62.04 Y52.512 E59.90704
G1 X62.159 Y52.037 E59.92984
G1 X62.353 Y51.588 E59.95261
G1 X62.618 Y51.176 E59.97542
G0 F9000 X63.015 Y51.321
G1 F3000 X63.338 Y51 E59.99663
G1 X63.713 Y50.741 E60.01785
G1 X64.127 Y50.551 E60.03906
G1 X64.568 Y50.436 E60.06028
G1 X65 Y50.4 E60.08047
G1 X155 Y50.4 E64.27124
G1 X155.894 Y50.558 E64.31352
G1 X156.306 Y50.752 E64.33472
G1 X156.679 Y51.015 E64.35597
G1 X157 Y51.338 E64.37718
G1 X157.259 Y51.713 E64.3984
G1 X157.449 Y52.127 E64.41961
G1 X157.564 Y52.568 E64.44083
G1 X157.6 Y53 E64.46102
G1 X157.6 Y167 E69.76934
G1 X157.56 Y167.454 E69.79056
G1 X157.442 Y167.894 E69.81177
G1 X157.248 Y168.306 E69.83297
G1 X156.985 Y168.679 E69.85423
G1 X156.662 Y169 E69.87543
G1 X156.287 Y169.259 E69.89665
G1 X155.873 Y169.449 E69.91786
G1 X155.432 Y169.564 E69.93908
G1 X155 Y169.6 E69.95927
G1 X65 Y169.6 E74.15005
G1 X64.546 Y169.56 E74.17127
G1 X64.106 Y169.442 E74.19248
G1 X63.694 Y169.248 E74.21369
G1 X63.321 Y168.985 E74.23494
G1 X63 Y168.662 E74.25614
G1 X62.741 Y168.287 E74.27736
G1 X62.551 Y167.873 E74.29857
G1 X62.436 Y167.432 E74.3198
G1 X62.4 Y167 E74.33998
G1 X62.4 Y53 E79.6483
G1 X62.44 Y52.546 E79.66952
G1 X62.558 Y52.106 E79.69073
G1 X62.752 Y51.694 E79.71194
G1 X63.015 Y51.321 E79.73319
G0 F9000 X63.41 Y51.48
G1 F3000 X63.727 Y51.206 E79.7527
G1 X64.09 Y50.997 E79.7722
G1 X64.487 Y50.861 E79.79175
G1 X65 Y50.8 E79.8158
G1 X155 Y50.8 E84.00658
G1 X155.819 Y50.958 E84.04542
G1 X156.191 Y51.151 E84.06493
G1 X156.52 Y51.41 E84.08443
G1 X156.794 Y51.727 E84.10394
G1 X157.003 Y52.09 E84.12344
G1 X157.139 Y52.487 E84.14298
G1 X157.2 Y53 E84.16704
G1 X157.2 Y167 E89.47536
G1 X157.16 Y167.417 E89.49486
G1 X157.042 Y167.819 E89.51437
G1 X156.849 Y168.191 E89.53389
G1 X156.59 Y168.52 E89.55338
G1 X156.273 Y168.794 E89.57289
G1 X155.91 Y169.003 E89.5924
G1 X155.513 Y169.139 E89.61194
G1 X155 Y169.2 E89.63599
G1 X65 Y169.2 E93.82677
G1 X64.583 Y169.16 E93.84628
G1 X64.181 Y169.042 E93.86579
G1 X63.809 Y168.849 E93.8853
G1 X63.48 Y168.59 E93.9048
G1 X63.206 Y168.273 E93.92431
G1 X62.997 Y167.91 E93.94381
G1 X62.861 Y167.513 E93.96335
G1 X62.8 Y167 E93.98741
G1 X62.8 Y53 E99.29573
G1 X62.84 Y52.583 E99.31523
G1 X62.958 Y52.181 E99.33474
G1 X63.151 Y51.809 E99.35426
G1 X63.41 Y51.48 E99.37375
G0 F9000 X63.548 Y51.936
G1 F3000 X63.803 Y51.655 E99.39142
G1 X64.112 Y51.435 E99.40909
G1 X64.459 Y51.283 E99.42673
G1 X65 Y51.2 E99.45221
G1 X155 Y51.2 E103.64299
G1 X155.737 Y51.358 E103.67809
G1 X156.064 Y51.548 E103.6957
G1 X156.345 Y51.803 E103.71336
G1 X156.565 Y52.112 E103.73103
G1 X156.717 Y52.459 E103.74867
G1 X156.8 Y53 E103.77415
G1 X156.8 Y167 E109.08247
G1 X156.76 Y167.377 E109.10012
G1 X156.642 Y167.737 E109.11776
G1 X156.452 Y168.064 E109.13538
G1 X156.197 Y168.345 E109.15304
G1 X155.888 Y168.565 E109.17071
G1 X155.541 Y168.717 E109.18835
G1 X155 Y168.8 E109.21383
G1 X65 Y168.8 E113.40461
G1 X64.623 Y168.76 E113.42226
G1 X64.263 Y168.642 E113.4399
G1 X63.936 Y168.452 E113.45751
G1 X63.655 Y168.197 E113.47518
G1 X63.435 Y167.888 E113.49285
G1 X63.283 Y167.541 E113.51049
G1 X63.2 Y167 E113.53597
G1 X63.2 Y53 E118.84429
G1 X63.24 Y52.623 E118.86194
G1 X63.358 Y52.263 E118.87958
G1 X63.548 Y51.936 E118.89719
G0 F9000 X63.945 Y52.079
G1 F3000 X64.193 Y51.856 E118.91272
G1 X64.487 Y51.697 E118.92829
G1 X65 Y51.6 E118.9526
G1 X155 Y51.6 E123.14337
G1 X155.644 Y51.757 E123.17424
G1 X155.921 Y51.945 E123.18983
G1 X156.144 Y52.193 E123.20536
G1 X156.303 Y52.487 E123.22092
G1 X156.4 Y53 E123.24523
G1 X156.4 Y167 E128.55355
G1 X156.36 Y167.332 E128.56912
G1 X156.243 Y167.644 E128.58464
G1 X156.055 Y167.921 E128.60023
G1 X155.807 Y168.144 E128.61576
G1 X155.513 Y168.303 E128.63132
G1 X155 Y168.4 E128.65563
G1 X65 Y168.4 E132.84641
G1 X64.668 Y168.36 E132.86198
G1 X64.356 Y168.243 E132.87749
G1 X64.079 Y168.055 E132.89308
G1 X63.856 Y167.807 E132.90861
G1 X63.697 Y167.513 E132.92418
G1 X63.6 Y167 E132.94849
G1 X63.6 Y53 E138.2568
G1 X63.64 Y52.668 E138.27238
G1 X63.757 Y52.356 E138.28789
G1 X63.945 Y52.079 E138.30348
G0 F9000 X64.339 Y52.249
G1 F3000 X64.575 Y52.095 E138.3166
G1 X65 Y52 E138.33688
G1 X155 Y52 E142.52766
G1 X155.536 Y52.156 E142.55365
G1 X155.751 Y52.339 E142.5668
G1 X155.905 Y52.575 E142.57992
G1 X156 Y53 E142.6002
G1 X156 Y167 E147.90851
G1 X155.96 Y167.279 E147.92164
G1 X155.844 Y167.536 E147.93477
G1 X155.661 Y167.751 E147.94792
G1 X155.425 Y167.905 E147.96104
G1 X155 Y168 E147.98132
G1 X65 Y168 E152.17209
G1 X64.721 Y167.96 E152.18522
G1 X64.464 Y167.844 E152.19835
G1 X64.249 Y167.661 E152.21149
G1 X64.095 Y167.425 E152.22461
G1 X64 Y167 E152.24489
G1 X64 Y53 E157.55321
G1 X64.04 Y52.721 E157.56633
G1 X64.156 Y52.464 E157.57946
G1 X64.339 Y52.249 E157.59261
G0 F9000 X64.553 Y52.599
G1 F3000 X64.726 Y52.466 E157.60277
G1 X65 Y52.4 E157.6159
G1 X155 Y52.4 E161.80667
G1 X155.401 Y52.553 E161.82666
G1 X155.534 Y52.726 E161.83682
G1 X155.6 Y53 E161.84994
G1 X155.6 Y167 E167.15826
G1 X155.56 Y167.215 E167.16844
G1 X155.447 Y167.401 E167.17858
G1 X155.274 Y167.534 E167.18874
G1 X155 Y167.6 E167.20186
G1 X65 Y167.6 E171.39264
G1 X64.785 Y167.56 E171.40282
G1 X64.599 Y167.447 E171.41296
G1 X64.466 Y167.274 E171.42312
G1 X64.4 Y167 E171.43624
G1 X64.4 Y53 E176.74456
G1 X64.44 Y52.785 E176.75474
G1 X64.553 Y52.599 E176.76487
G0 F9000 X64.839 Y52.881
G1 F3000 X65 Y52.8 E176.77327
G1 X155 Y52.8 E180.96404
G1 X155.119 Y52.839 E180.96988
G1 X155.2 Y53 E180.97827
G1 X155.2 Y167 E186.28658
G1 X155.161 Y167.119 E186.29242
G1 X155 Y167.2 E186.30081
G1 X65 Y167.2 E190.49159
G1 X64.881 Y167.161 E190.49742
G1 X64.8 Y167 E190.50581
G1 X64.8 Y53 E195.81413
G1 X64.839 Y52.881 E195.81996
G1 F1800 E192.81996
;MESH:lid_with_holes.stl
G0 F9000 X65.42 Y53.42
G0 X65.5 Y166.53
G0 X65.2 Y166.8
;TYPE:WALL-OUTER
G1 F1800 E195.81996
G1 F3000 X65.2 Y53.2 E201.10965
G1 X154.8 Y53.2 E205.2818
G1 X154.8 Y166.8 E210.57149
G1 X65.2 Y166.8 E214.74364
G1 F1800 E211.74364
G0 F9000 X65.5 Y166.53
G0 X135.626 Y165.79
G0 X135.626 Y167.665
G0 X136.38 Y156.035
G0 X135.626 Y157.884
G0 X135.626 Y157.044
G0 X135.885 Y156.894
G1 F1800 E214.74364
G1 F3000 X142.115 Y156.894 E215.03374
G1 X145.231 Y151.497 E215.32392
G1 X142.115 Y146.101 E215.61407
G1 X135.885 Y146.101 E215.90416
G1 X132.769 Y151.497 E216.19431
G1 X135.616 Y156.429 E216.45948
G1 X135.885 Y156.894 E216.48449
G0 F9000 X135.654 Y157.294
;TYPE:WALL-INNER
G1 F3000 X142.346 Y157.294 E216.7961
G1 X145.693 Y151.497 E217.10779
G1 X142.346 Y145.701 E217.41945
G1 X135.654 Y145.701 E217.73106
G1 X132.307 Y151.497 E218.04271
G1 X135.27 Y156.629 E218.31865
G1 X135.654 Y157.294 E218.3544
G0 F9000 X135.423 Y157.694
G1 F3000 X142.577 Y157.694 E218.68752
G1 X146.155 Y151.497 E219.02072
G1 X142.577 Y145.301 E219.35389
G1 X135.423 Y145.301 E219.68701
G1 X131.845 Y151.497 E220.02017
G1 X134.924 Y156.829 E220.30687
G1 X135.423 Y157.694 E220.35337
G1 F1800 E217.35337
G0 F9000 X135.029 Y157.39
G0 X134.106 Y157.922
G0 X133.438 Y158.306
G0 X133.502 Y158.426
G0 X130.249 Y164.056
G0 X123.751 Y164.056
G0 X123.626 Y163.972
G0 X123.885 Y163.822
;TYPE:WALL-OUTER
G1 F1800 E220.35337
G1 F3000 X130.115 Y163.822 E220.64347
G1 X133.231 Y158.426 E220.93361
G1 X130.115 Y153.029 E221.2238
G1 X123.885 Y153.029 E221.51389
G1 X120.769 Y158.426 E221.80408
G1 X123.616 Y163.357 E222.06921
G1 X123.885 Y163.822 E222.09422
G0 F9000 X123.654 Y164.222
;TYPE:WALL-INNER
G1 F3000 X130.346 Y164.222 E222.40583
G1 X133.693 Y158.426 E222.71748
G1 X130.346 Y152.629 E223.02918
G1 X123.654 Y152.629 E223.34078
G1 X120.307 Y158.426 E223.65248
G1 X123.27 Y163.557 E223.92837
G1 X123.654 Y164.222 E223.96413
G0 F9000 X123.423 Y164.622
G1 F3000 X130.577 Y164.622 E224.29725
G1 X134.155 Y158.426 E224.63041
G1 X130.577 Y152.229 E224.96361
G1 X123.423 Y152.229 E225.29673
G1 X119.845 Y158.426 E225.62994
G1 X122.924 Y163.757 E225.9166
G1 X123.423 Y164.622 E225.9631
G1 F1800 E222.9631
G0 F9000 X121.708 Y161.992
G0 X123.296 Y161.075
G0 X118.032 Y155.464
G0 X117.62 Y156.035
G0 X109.761 Y151.498
G0 X111.441 Y148.439
G0 X108.127 Y144.906
G0 X108.214 Y144.603
G0 X105.619 Y140.032
G0 X103.494 Y139.968
G0 X92.561 Y128.316
G0 X92.561 Y130.151
G0 X94.373 Y129.332
G0 X94.115 Y129.181
;TYPE:WALL-OUTER
G1 F1800 E225.9631
G1 F3000 X97.231 Y123.785 E226.25324
G1 X94.115 Y118.388 E226.54343
G1 X87.885 Y118.388 E226.83352
G1 X84.769 Y123.785 E227.12371
G1 X87.616 Y128.716 E227.38884
G1 X87.885 Y129.181 E227.41385
G1 X94.115 Y129.181 E227.70395
G0 F9000 X94.346 Y129.581
;TYPE:WALL-INNER
G1 F3000 X97.693 Y123.785 E228.0156
G1 X94.346 Y117.988 E228.3273
G1 X87.654 Y117.988 E228.6389
G1 X84.307 Y123.785 E228.9506
G1 X87.27 Y128.916 E229.22649
G1 X87.654 Y129.581 E229.26225
G1 X94.346 Y129.581 E229.57386
G0 F9000 X94.577 Y129.981
G1 F3000 X98.155 Y123.785 E229.90702
G1 X94.577 Y117.588 E230.24022
G1 X87.423 Y117.588 E230.57334
G1 X83.845 Y123.785 E230.90654
G1 X86.924 Y129.116 E231.19321
G1 X87.423 Y129.981 E231.23971
G1 X94.577 Y129.981 E231.57283
G1 F1800 E228.57283
G0 F9000 X94.373 Y130.171
G0 X94.373 Y131.255
G0 X97.502 Y137.641
G0 X94.373 Y143.188
G0 X94.115 Y143.037
;TYPE:WALL-OUTER
G1 F1800 E231.57283
G1 F3000 X97.231 Y137.641 E231.86297
G1 X94.115 Y132.245 E232.15312
G1 X87.885 Y132.245 E232.44321
G1 X84.769 Y137.641 E232.73335
G1 X87.616 Y142.572 E232.99849
G1 X87.885 Y143.037 E233.0235
G1 X94.115 Y143.037 E233.31359
G0 F9000 X94.346 Y143.437
;TYPE:WALL-INNER
G1 F3000 X97.693 Y137.641 E233.62525
G1 X94.346 Y131.845 E233.9369
G1 X87.654 Y131.845 E234.24851
G1 X84.307 Y137.641 E234.56016
G1 X87.27 Y142.772 E234.83606
G1 X87.654 Y143.437 E234.87182
G1 X94.346 Y143.437 E235.18342
G0 F9000 X94.577 Y143.837
G1 F3000 X98.155 Y137.641 E235.51659
G1 X94.577 Y131.445 E235.84975
G1 X87.423 Y131.445 E236.18287
G1 X83.845 Y137.641 E236.51603
G1 X86.924 Y142.972 E236.80269
G1 X87.423 Y143.837 E236.84919
G1 X94.577 Y143.837 E237.18231
G1 F1800 E234.18231
G0 F9000 X92.561 Y144.007
G0 X92.561 Y142.172
G0 X90.127 Y146.889
G0 X88.381 Y146.96
G0 X85.761 Y151.498
G0 X86.774 Y153.389
G0 X83.706 Y159.339
G0 X85.295 Y160.256
G0 X82.373 Y163.973
G0 X82.115 Y163.822
;TYPE:WALL-OUTER
G1 F1800 E237.18231
G1 F3000 X85.231 Y158.426 E237.47246
G1 X82.115 Y153.029 E237.76264
G1 X75.885 Y153.029 E238.05274
G1 X72.769 Y158.426 E238.34292
G1 X75.616 Y163.357 E238.60805
G1 X75.885 Y163.822 E238.63307
G1 X82.115 Y163.822 E238.92316
G0 F9000 X82.346 Y164.222
;TYPE:WALL-INNER
G1 F3000 X85.693 Y158.426 E239.23481
G1 X82.346 Y152.629 E239.54651
G1 X75.654 Y152.629 E239.85812
G1 X72.307 Y158.426 E240.16981
G1 X75.27 Y163.557 E240.44571
G1 X75.654 Y164.222 E240.48146
G1 X82.346 Y164.222 E240.79307
G0 F9000 X82.577 Y164.622
G1 F3000 X86.155 Y158.426 E241.12623
G1 X82.577 Y152.229 E241.45943
G1 X75.423 Y152.229 E241.79255
G1 X71.845 Y158.426 E242.12576
G1 X74.924 Y163.757 E242.41242
G1 X75.423 Y164.622 E242.45892
G1 X82.577 Y164.622 E242.79204
G1 F1800 E239.79204
G0 F9000 X86.377 Y158.426
G0 X87.312 Y157.887
G0 X94.25 Y157.128
G0 X94.373 Y157.045
G0 X94.115 Y156.894
;TYPE:WALL-OUTER
G1 F1800 E242.79204
G1 F3000 X97.231 Y151.497 E243.08222
G1 X94.115 Y146.101 E243.37237
G1 X87.885 Y146.101 E243.66246
G1 X84.769 Y151.497 E243.95261
G1 X87.616 Y156.429 E244.21778
G1 X87.885 Y156.894 E244.24279
G1 X94.115 Y156.894 E244.53289
G0 F9000 X94.346 Y157.294
;TYPE:WALL-INNER
G1 F3000 X97.693 Y151.497 E244.84458
G1 X94.346 Y145.701 E245.15624
G1 X87.654 Y145.701 E245.46784
G1 X84.307 Y151.497 E245.7795
G1 X87.27 Y156.629 E246.05543
