;FLAVOR:Marlin
;TIME:1215
;Filament used: 0.832289m
;Layer height: 0.24
;MINX:88.193
;MINY:89.183
;MINZ:0.24
;MAXX:131.805
;MAXY:130.834
;MAXZ:21.52
;Generated with Cura_SteamEngine 4.10.0
M82 ;absolute extrusion mode
M201 X500.00 Y500.00 Z100.00 E5000.00 ;Setup machine max acceleration
M203 X500.00 Y500.00 Z10.00 E50.00 ;Setup machine max feedrate
M204 P500.00 R1000.00 T500.00 ;Setup Print/Retract/Travel acceleration
M205 X8.00 Y8.00 Z0.40 E5.00 ;Setup Jerk
M220 S100 ;Reset Feedrate
M221 S100 ;Reset Flowrate

;*** Start Dual Nozzle/Bed Preheating ***
M140 S50 ; start preheating the bed
M104 S200 ?T0 ; start preheating hotend
M190 S50 ; heat to Cura Bed setting and WAIT
M109 S200 ?T0 ; heat to Cura Hotend and WAIT
;*** End Preheating ***

G28 ;Home

G92 E0 ;Reset Extruder
G1 Z2.0 F3000 ;Move Z Axis up

;*** Single Print Start Tone
M300 S1000 P500 ; chirp to indicate starting to print
;*** End Single Start Tone

G1 X10.1 Y20 Z0.28 F5000.0 ;Move to start position
G1 X10.1 Y200.0 Z0.28 F1500.0 E15 ;Draw the first line
G1 X10.4 Y200.0 Z0.28 F5000.0 ;Move to side a little
G1 X10.4 Y20 Z0.28 F1500.0 E30 ;Draw the second line
G92 E0 ;Reset Extruder
G1 Z2.0 F3000 ;Move Z Axis up
G92 E0
G92 E0
G1 F2400 E-3.2
;LAYER_COUNT:86
;LAYER:0
M106 S63.8
M204 S500
M205 X6 Y6
G0 F9000 X95.068 Y98.906 Z0.24
;TYPE:SKIRT
G1 F1440 E0
G1 F1800 X95.535 Y98.469 E0.02553
G1 X96.248 Y97.817 E0.06409
G1 X96.413 Y97.669 E0.07294
G1 X97.426 Y96.78 E0.12673
G1 X99.319 Y95.14 E0.22669
G1 X100.076 Y94.474 E0.26693
G1 X100.95 Y93.693 E0.31372
G1 X101.241 Y93.429 E0.3294
G1 X101.966 Y92.758 E0.36882
G1 X102.838 Y91.959 E0.41603
G1 X103.543 Y91.367 E0.45277
G1 X104.297 Y90.838 E0.48953
G1 X105.094 Y90.377 E0.52628
G1 X105.928 Y89.987 E0.56303
G1 X106.792 Y89.671 E0.59975
G1 X107.681 Y89.431 E0.6365
G1 X108.587 Y89.268 E0.67324
G1 X109.504 Y89.186 E0.70998
G1 X110.425 Y89.183 E0.74674
G1 X111.342 Y89.259 E0.78347
G1 X112.25 Y89.416 E0.82025
G1 X113.14 Y89.65 E0.85698
G1 X114.007 Y89.961 E0.89374
G1 X114.843 Y90.346 E0.93047
G1 X115.643 Y90.801 E0.96721
G1 X116.4 Y91.325 E1.00395
G1 X117.092 Y91.897 E1.03979
G1 X118.009 Y92.723 E1.08904
G1 X118.782 Y93.429 E1.13083
G1 X119.49 Y94.066 E1.16884
G1 X121.01 Y95.405 E1.24969
G1 X122.883 Y97.033 E1.34873
G1 X123.524 Y97.597 E1.38281
G1 X124.086 Y98.103 E1.41299
G1 X124.576 Y98.555 E1.4396
G1 X125.129 Y99.081 E1.47006
G1 X125.548 Y99.492 E1.49349
G1 X125.769 Y99.715 E1.50602
G1 X126.16 Y100.122 E1.52854
G1 X126.639 Y100.643 E1.55679
G1 X127.041 Y101.103 E1.58117
G1 X127.512 Y101.676 E1.61078
G1 X127.863 Y102.129 E1.63365
G1 X128.162 Y102.544 E1.65407
G1 X128.499 Y103.036 E1.67787
G1 X128.718 Y103.369 E1.69377
G1 X129.079 Y103.941 E1.72077
G1 X129.473 Y104.619 E1.75207
G1 X129.556 Y104.775 E1.75912
G1 X129.822 Y105.312 E1.78304
G1 X130.056 Y105.819 E1.80533
G1 X130.36 Y106.529 E1.83615
G1 X130.535 Y106.979 E1.85542
G1 X130.724 Y107.499 E1.87751
G1 X130.987 Y108.324 E1.91207
G1 X131.192 Y109.107 E1.94437
G1 X131.317 Y109.648 E1.96653
G1 X131.486 Y110.496 E2.00104
G1 X131.613 Y111.341 E2.03515
G1 X131.68 Y111.939 E2.05916
G1 X131.73 Y112.476 E2.08069
G1 X131.771 Y113.092 E2.10533
G1 X131.804 Y113.942 E2.13928
G1 X131.805 Y114.707 E2.16981
G1 X131.768 Y115.541 E2.20313
G1 X131.724 Y116.075 E2.22452
G1 X131.694 Y116.356 E2.2358
G1 X131.612 Y116.958 E2.26005
G1 X131.54 Y117.394 E2.27768
G1 X131.42 Y118.011 E2.30277
G1 X131.279 Y118.609 E2.32729
G1 X131.117 Y119.19 E2.35137
G1 X130.886 Y119.906 E2.38139
G1 X130.779 Y120.206 E2.39411
G1 X130.579 Y120.724 E2.41627
G1 X130.466 Y120.995 E2.42799
G1 X130.23 Y121.52 E2.45096
G1 X130.108 Y121.773 E2.46217
G1 X129.88 Y122.219 E2.48216
G1 X129.744 Y122.47 E2.49356
G1 X129.453 Y122.974 E2.51679
G1 X129.019 Y123.656 E2.54905
G1 X128.708 Y124.1 E2.57069
G1 X128.393 Y124.522 E2.5917
G1 X128.281 Y124.666 E2.59898
G1 X127.846 Y125.189 E2.62614
G1 X127.612 Y125.453 E2.64022
G1 X127.259 Y125.833 E2.66092
G1 X127.082 Y126.014 E2.67102
G1 X126.705 Y126.381 E2.69202
G1 X126.177 Y126.854 E2.72031
G1 X125.666 Y127.272 E2.74666
G1 X125.432 Y127.453 E2.75847
G1 X124.896 Y127.842 E2.7849
G1 X124.489 Y128.118 E2.80453
G1 X123.866 Y128.51 E2.83391
G1 X123.515 Y128.714 E2.85011
G1 X122.87 Y129.059 E2.87931
G1 X122.356 Y129.312 E2.90217
G1 X121.809 Y129.563 E2.92619
G1 X121.724 Y129.599 E2.92988
G1 X121.259 Y129.783 E2.94984
G1 X120.775 Y129.957 E2.97036
G1 X120.672 Y129.992 E2.9747
G1 X119.819 Y130.243 E3.01019
G1 X119.123 Y130.416 E3.03882
G1 X118.261 Y130.593 E3.07394
G1 X118.082 Y130.622 E3.08118
G1 X117.513 Y130.698 E3.10409
G1 X117.045 Y130.748 E3.12287
G1 X116.388 Y130.798 E3.14917
G1 X116.072 Y130.812 E3.1618
G1 X115.344 Y130.819 E3.19085
G1 X114.077 Y130.788 E3.24144
G1 X113.871 Y130.781 E3.24966
G1 X112.725 Y130.731 E3.29545
G1 X110.168 Y130.689 E3.39752
G1 X107.683 Y130.72 E3.49671
G1 X105.211 Y130.823 E3.59545
G1 X104.614 Y130.834 E3.61929
G1 X103.968 Y130.822 E3.64507
G1 X103.508 Y130.799 E3.66346
G1 X102.859 Y130.746 E3.68945
G1 X102.085 Y130.65 E3.72057
G1 X101.873 Y130.617 E3.72914
G1 X101.352 Y130.523 E3.75027
G1 X100.635 Y130.361 E3.77961
G1 X100.061 Y130.211 E3.80328
G1 X99.127 Y129.919 E3.84234
G1 X98.843 Y129.818 E3.85437
G1 X98.367 Y129.636 E3.87471
G1 X98.109 Y129.53 E3.88584
G1 X97.611 Y129.31 E3.90757
G1 X97.079 Y129.052 E3.93117
G1 X96.569 Y128.781 E3.95422
G1 X96.115 Y128.52 E3.97512
G1 X95.875 Y128.374 E3.98634
G1 X95.365 Y128.044 E4.01058
G1 X94.698 Y127.57 E4.04324
G1 X94.515 Y127.431 E4.05241
G1 X94.092 Y127.092 E4.07405
G1 X93.663 Y126.724 E4.09661
G1 X93.244 Y126.337 E4.11937
G1 X92.828 Y125.924 E4.14277
G1 X92.633 Y125.72 E4.15403
G1 X92.284 Y125.337 E4.17471
G1 X92.07 Y125.09 E4.18776
G1 X91.697 Y124.634 E4.21127
G1 X91.516 Y124.4 E4.22308
G1 X91.183 Y123.946 E4.24555
G1 X90.828 Y123.421 E4.27084
G1 X90.428 Y122.772 E4.30127
G1 X90.285 Y122.523 E4.31273
G1 X90.026 Y122.043 E4.3345
G1 X89.895 Y121.785 E4.34605
G1 X89.602 Y121.158 E4.37367
G1 X89.444 Y120.789 E4.38969
G1 X89.223 Y120.232 E4.41361
G1 X89.043 Y119.719 E4.43531
G1 X88.978 Y119.521 E4.44362
G1 X88.816 Y118.981 E4.46613
G1 X88.649 Y118.324 E4.49318
G1 X88.564 Y117.947 E4.50861
G1 X88.431 Y117.251 E4.53689
G1 X88.379 Y116.918 E4.55034
G1 X88.306 Y116.351 E4.57316
G1 X88.282 Y116.114 E4.58267
G1 X88.241 Y115.566 E4.6046
G1 X88.204 Y114.812 E4.63473
G1 X88.193 Y114.088 E4.66363
G1 X88.204 Y113.516 E4.68646
G1 X88.226 Y112.997 E4.70719
G1 X88.27 Y112.372 E4.7322
G1 X88.327 Y111.781 E4.7559
G1 X88.401 Y111.197 E4.77939
G1 X88.541 Y110.333 E4.81433
G1 X88.671 Y109.695 E4.84032
G1 X88.864 Y108.892 E4.87328
G1 X89 Y108.392 E4.89396
G1 X89.263 Y107.549 E4.9292
G1 X89.572 Y106.699 E4.9653
G1 X89.934 Y105.851 E5.0021
G1 X90.227 Y105.23 E5.02951
G1 X90.585 Y104.545 E5.06036
G1 X90.903 Y103.988 E5.08596
G1 X91.244 Y103.436 E5.11185
G1 X91.459 Y103.109 E5.12747
G1 X91.798 Y102.613 E5.15145
G1 X92.099 Y102.192 E5.17211
G1 X92.632 Y101.511 E5.20662
G1 X93.03 Y101.035 E5.23138
G1 X93.374 Y100.645 E5.25214
G1 X93.762 Y100.222 E5.27505
G1 X94.148 Y99.816 E5.29741
G1 X94.582 Y99.379 E5.32199
G1 X95.068 Y98.906 E5.34906
G0 F9000 X95.196 Y99.338
G1 F1800 X95.698 Y98.863 E5.37664
G1 X96.518 Y98.112 E5.42102
G1 X96.676 Y97.97 E5.4295
G1 X97.688 Y97.083 E5.48321
G1 X99.539 Y95.479 E5.58097
G1 X100.342 Y94.772 E5.62367
G1 X101.254 Y93.957 E5.67248
G1 X101.51 Y93.725 E5.68627
G1 X102.236 Y93.053 E5.72576
G1 X103.108 Y92.254 E5.77296
G1 X103.8 Y91.674 E5.809
G1 X104.541 Y91.157 E5.84506
G1 X105.325 Y90.708 E5.88112
G1 X106.145 Y90.33 E5.91716
G1 X106.995 Y90.026 E5.95319
G1 X107.869 Y89.799 E5.98923
G1 X108.76 Y89.65 E6.02528
G1 X109.661 Y89.58 E6.06135
G1 X110.564 Y89.59 E6.0974
G1 X111.462 Y89.679 E6.13341
G1 X112.349 Y89.848 E6.16945
G1 X113.218 Y90.095 E6.20551
G1 X114.062 Y90.418 E6.24158
G1 X114.873 Y90.814 E6.2776
G1 X115.647 Y91.28 E6.31366
G1 X116.376 Y91.813 E6.3497
G1 X116.824 Y92.194 E6.37317
G1 X117.739 Y93.019 E6.42235
G1 X118.512 Y93.725 E6.46413
G1 X119.225 Y94.367 E6.50242
G1 X120.778 Y95.734 E6.585
G1 X122.619 Y97.334 E6.68235
G1 X123.257 Y97.895 E6.71626
G1 X123.815 Y98.397 E6.74621
G1 X124.301 Y98.845 E6.7726
G1 X124.849 Y99.366 E6.80278
G1 X125.268 Y99.777 E6.8262
G1 X125.481 Y99.993 E6.83831
G1 X125.872 Y100.4 E6.86083
G1 X126.343 Y100.913 E6.88863
G1 X126.738 Y101.364 E6.91256
G1 X127.201 Y101.928 E6.94168
G1 X127.544 Y102.37 E6.96401
G1 X127.832 Y102.77 E6.98368
G1 X128.169 Y103.262 E7.00749
G1 X128.38 Y103.582 E7.02278
G1 X128.741 Y104.154 E7.04978
G1 X129.12 Y104.807 E7.07992
G1 X129.203 Y104.963 E7.08697
G1 X129.459 Y105.48 E7.10999
G1 X129.693 Y105.987 E7.13228
G1 X129.991 Y106.683 E7.1625
G1 X130.159 Y107.116 E7.18104
G1 X130.348 Y107.636 E7.20312
G1 X130.601 Y108.43 E7.23638
G1 X130.802 Y109.197 E7.26802
G1 X130.927 Y109.738 E7.29019
G1 X131.093 Y110.571 E7.32409
G1 X131.216 Y111.385 E7.35694
G1 X131.283 Y111.983 E7.38096
G1 X131.331 Y112.51 E7.40208
G1 X131.371 Y113.111 E7.42612
G1 X131.404 Y113.947 E7.45951
G1 X131.405 Y114.696 E7.48941
G1 X131.368 Y115.519 E7.52229
G1 X131.326 Y116.033 E7.54287
G1 X131.296 Y116.314 E7.55415
G1 X131.218 Y116.893 E7.57747
G1 X131.146 Y117.329 E7.59511
G1 X131.029 Y117.923 E7.61927
G1 X130.891 Y118.508 E7.64326
G1 X130.735 Y119.073 E7.66665
G1 X130.509 Y119.772 E7.69597
G1 X130.402 Y120.072 E7.70869
G1 X130.209 Y120.571 E7.73004
G1 X130.096 Y120.842 E7.74176
G1 X129.87 Y121.346 E7.76381
G1 X129.528 Y122.028 E7.79426
G1 X129.392 Y122.279 E7.80565
G1 X129.112 Y122.764 E7.828
G1 X128.689 Y123.431 E7.85953
G1 X128.386 Y123.863 E7.88059
G1 X128.077 Y124.276 E7.90117
G1 X127.965 Y124.42 E7.90845
G1 X127.547 Y124.924 E7.93459
G1 X126.973 Y125.553 E7.96857
G1 X126.796 Y125.734 E7.97868
G1 X126.433 Y126.087 E7.99889
G1 X125.919 Y126.549 E8.02647
G1 X125.422 Y126.956 E8.05211
G1 X125.188 Y127.137 E8.06392
G1 X124.672 Y127.511 E8.08935
G1 X124.265 Y127.787 E8.10898
G1 X123.665 Y128.164 E8.13726
G1 X123.314 Y128.368 E8.15347
G1 X122.694 Y128.7 E8.18154
G1 X122.18 Y128.953 E8.2044
G1 X121.653 Y129.194 E8.22753
G1 X121.12 Y129.408 E8.25045
G1 X120.647 Y129.579 E8.27053
G1 X120.544 Y129.614 E8.27487
G1 X119.722 Y129.855 E8.30906
G1 X119.026 Y130.028 E8.33768
G1 X118.197 Y130.198 E8.37146
G1 X118.018 Y130.227 E8.3787
G1 X117.471 Y130.3 E8.40072
G1 X117.003 Y130.35 E8.41951
G1 X116.37 Y130.398 E8.44484
G1 X116.054 Y130.412 E8.45747
G1 X115.354 Y130.419 E8.48541
G1 X114.087 Y130.388 E8.53599
G1 X113.889 Y130.381 E8.5439
G1 X112.75 Y130.331 E8.5894
G1 X110.169 Y130.289 E8.69243
G1 X107.66 Y130.32 E8.79258
G1 X105.194 Y130.423 E8.89109
G1 X104.609 Y130.434 E8.91444
G1 X103.988 Y130.422 E8.93923
G1 X103.528 Y130.399 E8.95761
G1 X102.904 Y130.349 E8.9826
G1 X102.146 Y130.255 E9.01308
G1 X101.934 Y130.222 E9.02165
G1 X101.433 Y130.131 E9.04197
G1 X100.727 Y129.971 E9.07086
G1 X100.166 Y129.825 E9.094
G1 X99.261 Y129.542 E9.13184
G1 X98.519 Y129.266 E9.16344
G1 X98.261 Y129.16 E9.17457
G1 X97.782 Y128.948 E9.19548
G1 X97.262 Y128.697 E9.21852
G1 X96.759 Y128.429 E9.24127
G1 X96.323 Y128.178 E9.26135
G1 X96.083 Y128.032 E9.27256
G1 X95.592 Y127.714 E9.29591
G1 X94.94 Y127.252 E9.32781
G1 X94.757 Y127.113 E9.33698
G1 X94.35 Y126.786 E9.35781
G1 X93.931 Y126.426 E9.37986
G1 X93.518 Y126.045 E9.40229
G1 X93.117 Y125.648 E9.42481
G1 X92.586 Y125.075 E9.45599
G1 X92.372 Y124.828 E9.46903
G1 X92.013 Y124.39 E9.49164
G1 X91.832 Y124.156 E9.50345
G1 X91.512 Y123.719 E9.52506
G1 X91.166 Y123.206 E9.54976
G1 X90.775 Y122.573 E9.57946
G1 X90.632 Y122.324 E9.59092
G1 X90.382 Y121.862 E9.61188
G1 X90.251 Y121.604 E9.62343
G1 X89.969 Y121.001 E9.65
G1 X89.811 Y120.632 E9.66602
G1 X89.599 Y120.095 E9.68906
G1 X89.423 Y119.594 E9.71026
G1 X89.358 Y119.396 E9.71857
G1 X89.202 Y118.876 E9.74024
G1 X89.039 Y118.236 E9.7666
G1 X88.954 Y117.859 E9.78203
G1 X88.826 Y117.19 E9.80921
G1 X88.774 Y116.857 E9.82266
G1 X88.704 Y116.311 E9.84463
G1 X88.68 Y116.074 E9.85414
G1 X88.64 Y115.546 E9.87528
G1 X88.603 Y114.792 E9.90541
G1 X88.593 Y114.096 E9.93319
G1 X88.604 Y113.524 E9.95602
G1 X88.625 Y113.019 E9.97619
G1 X88.669 Y112.401 E10.00092
G1 X88.725 Y111.823 E10.0241
G1 X88.797 Y111.25 E10.04715
G1 X88.934 Y110.41 E10.08112
G1 X89.061 Y109.784 E10.10661
G1 X89.25 Y108.997 E10.13892
G1 X89.386 Y108.497 E10.1596
G1 X89.64 Y107.682 E10.19367
G1 X89.944 Y106.846 E10.22917
G1 X90.3 Y106.013 E10.26533
G1 X90.587 Y105.405 E10.29216
G1 X90.937 Y104.734 E10.32237
G1 X91.248 Y104.19 E10.34738
G1 X91.582 Y103.65 E10.37272
G1 X91.789 Y103.334 E10.3878
G1 X92.128 Y102.838 E10.41178
G1 X92.421 Y102.429 E10.43186
G1 X92.945 Y101.76 E10.46577
G1 X93.335 Y101.294 E10.49003
G1 X93.669 Y100.915 E10.51019
G1 X94.185 Y100.355 E10.54058
G1 X94.739 Y99.787 E10.57225
G1 X95.196 Y99.338 E10.59782
G1 F2400 E7.39782
;MESH:Key_Chain_Boy_connector.stl
G0 F9000 X101.807 Y106.207
G0 X102.556 Y106.994
G0 X100.514 Y110.998
G0 X100.202 Y112.003
G0 X100.013 Y113.293
G0 X99.983 Y114.923
G0 X100.181 Y115.941
G0 X100.583 Y116.843
G0 X101.207 Y117.669
G0 X101.522 Y117.971
G0 X102.264 Y118.489
G0 X103.099 Y118.845
G0 X104.07 Y119.046
G0 X105.052 Y119.046
G0 X105.508 Y118.979
G0 X106.367 Y118.716
G0 X106.801 Y118.509
G0 X107.557 Y118.01
G0 X109.318 Y116.243
G0 X110.35 Y116.587
G0 X110.103 Y116.757
;TYPE:WALL-OUTER
G1 F1440 E10.59782
G1 F1800 X109.863 Y116.795 E10.60752
G1 X109.837 Y116.835 E10.60942
G1 X109.513 Y117.335 E10.6332
G1 X109.101 Y117.864 E10.65996
G1 X108.65 Y118.343 E10.68622
G1 X108.149 Y118.781 E10.71278
G1 X107.735 Y119.081 E10.73319
G1 X107.25 Y119.371 E10.75574
G1 X106.749 Y119.611 E10.77791
G1 X106.234 Y119.797 E10.79977
G1 X105.7 Y119.932 E10.82175
G1 X105.145 Y120.014 E10.84414
G1 X104.565 Y120.043 E10.86732
G1 X103.974 Y120.014 E10.89094
G1 X103.388 Y119.926 E10.91459
G1 X102.813 Y119.775 E10.93832
G1 X102.285 Y119.58 E10.96078
G1 X101.795 Y119.341 E10.98254
G1 X101.325 Y119.049 E11.00462
G1 X100.888 Y118.708 E11.02675
G1 X100.489 Y118.324 E11.04885
G1 X100.098 Y117.86 E11.07307
G1 X99.748 Y117.339 E11.09812
G1 X99.468 Y116.798 E11.12243
G1 X99.254 Y116.231 E11.14662
G1 X99.103 Y115.639 E11.171
G1 X99.016 Y115.023 E11.19583
G1 X98.988 Y114.49 E11.21714
G1 X98.994 Y113.833 E11.24336
G1 X99.036 Y113.175 E11.26968
G1 X99.116 Y112.52 E11.29601
G1 X99.256 Y111.78 E11.32607
G1 X99.412 Y111.204 E11.34989
G1 X99.611 Y110.639 E11.3738
G1 X99.852 Y110.092 E11.39765
G1 X100.139 Y109.557 E11.42189
G1 X100.459 Y109.05 E11.44581
G1 X100.768 Y108.625 E11.46679
G1 X101.183 Y108.113 E11.49309
G1 X101.775 Y107.462 E11.52821
G1 X102.242 Y106.991 E11.55468
G1 X102.637 Y106.611 E11.57656
G1 X103.118 Y106.165 E11.60274
G1 X103.851 Y105.507 E11.64206
G1 X104.596 Y104.857 E11.68152
G1 X106.086 Y103.568 E11.76015
G1 X106.823 Y102.924 E11.79921
G1 X107.557 Y102.275 E11.83832
G1 X108.286 Y101.621 E11.87741
G1 X109.009 Y100.961 E11.91648
G1 X109.369 Y100.628 E11.93605
G1 X110.004 Y100.031 E11.97084
G1 X110.383 Y100.384 E11.99151
G1 X110.643 Y100.62 E12.00552
G1 X111.027 Y100.975 E12.0264
G1 X111.801 Y101.68 E12.06818
G1 X112.581 Y102.377 E12.10993
G1 X113.751 Y103.406 E12.17212
G1 X115.957 Y105.323 E12.28877
G1 X116.577 Y105.872 E12.32182
G1 X116.988 Y106.244 E12.34394
G1 X117.389 Y106.619 E12.36586
G1 X117.784 Y107 E12.38776
G1 X118.255 Y107.477 E12.41452
G1 X118.706 Y107.971 E12.44121
G1 X119.129 Y108.479 E12.4676
G1 X119.525 Y109.011 E12.49407
G1 X119.894 Y109.595 E12.52164
G1 X120.208 Y110.205 E12.54902
G1 X120.463 Y110.82 E12.57559
G1 X120.667 Y111.463 E12.60252
G1 X120.82 Y112.126 E12.62967
G1 X120.921 Y112.804 E12.65703
G1 X120.976 Y113.456 E12.68315
G1 X121.01 Y114.097 E12.70877
G1 X121.011 Y114.603 E12.72896
G1 X120.957 Y115.267 E12.75555
G1 X120.867 Y115.763 E12.77567
G1 X120.65 Y116.484 E12.80572
G1 X120.424 Y117.014 E12.82872
G1 X120.144 Y117.514 E12.85159
G1 X119.818 Y117.972 E12.87403
G1 X119.435 Y118.4 E12.89695
G1 X118.995 Y118.795 E12.92055
G1 X118.333 Y119.258 E12.9528
G1 X117.654 Y119.605 E12.98323
G1 X116.937 Y119.852 E13.0135
G1 X116.183 Y119.995 E13.04413
G1 X115.417 Y120.038 E13.07475
G1 X114.623 Y119.982 E13.10652
G1 X113.923 Y119.844 E13.13499
G1 X113.25 Y119.612 E13.16341
G1 X112.625 Y119.301 E13.19127
