;FLAVOR:Marlin
;TIME:1412
;Filament used: 0.921768m
;Layer height: 0.24
;MINX:88.193
;MINY:89.183
;MINZ:0.24
;MAXX:131.805
;MAXY:130.834
;MAXZ:21.24
;Generated with Cura_SteamEngine 4.10.0
M82 ;absolute extrusion mode
M201 X500.00 Y500.00 Z100.00 E5000.00 ;Setup machine max acceleration
M203 X500.00 Y500.00 Z10.00 E50.00 ;Setup machine max feedrate
M204 P500.00 R1000.00 T500.00 ;Setup Print/Retract/Travel acceleration
M205 X8.00 Y8.00 Z0.40 E5.00 ;Setup Jerk
M220 S100 ;Reset Feedrate
M221 S100 ;Reset Flowrate

;*** Start Dual Nozzle/Bed Preheating ***
M140 S50 ; start preheating the bed
M104 S200 ?T0 ; start preheating hotend
M190 S50 ; heat to Cura Bed setting and WAIT
M109 S200 ?T0 ; heat to Cura Hotend and WAIT
;*** End Preheating ***

G28 ;Home

G92 E0 ;Reset Extruder
G1 Z2.0 F3000 ;Move Z Axis up

;*** Single Print Start Tone
M300 S1000 P500 ; chirp to indicate starting to print
;*** End Single Start Tone

G1 X10.1 Y20 Z0.28 F5000.0 ;Move to start position
G1 X10.1 Y200.0 Z0.28 F1500.0 E15 ;Draw the first line
G1 X10.4 Y200.0 Z0.28 F5000.0 ;Move to side a little
G1 X10.4 Y20 Z0.28 F1500.0 E30 ;Draw the second line
G92 E0 ;Reset Extruder
G1 Z2.0 F3000 ;Move Z Axis up
G92 E0
G92 E0
G1 F2400 E-3.2
;LAYER_COUNT:85
;LAYER:0
M106 S63.8
M204 S500
M205 X6 Y6
G0 F9000 X95.048 Y98.925 Z0.24
;TYPE:SKIRT
G1 F1440 E0
G1 F1800 X95.573 Y98.432 E0.02874
G1 X96.239 Y97.825 E0.06471
G1 X96.582 Y97.519 E0.08306
G1 X97.527 Y96.692 E0.13318
G1 X99.016 Y95.403 E0.21178
G1 X99.828 Y94.692 E0.25486
G1 X100.918 Y93.721 E0.31312
G1 X101.194 Y93.471 E0.32798
G1 X101.974 Y92.75 E0.37038
G1 X102.848 Y91.951 E0.41764
G1 X103.554 Y91.359 E0.45441
G1 X104.308 Y90.832 E0.49113
G1 X105.106 Y90.372 E0.52789
G1 X105.94 Y89.982 E0.56464
G1 X106.805 Y89.667 E0.60138
G1 X107.694 Y89.428 E0.63812
G1 X108.6 Y89.267 E0.67485
G1 X109.517 Y89.185 E0.71159
G1 X110.438 Y89.183 E0.74835
G1 X111.355 Y89.261 E0.78509
G1 X112.262 Y89.418 E0.82182
G1 X113.153 Y89.654 E0.85861
G1 X114.019 Y89.965 E0.89534
G1 X114.855 Y90.351 E0.93209
G1 X115.654 Y90.808 E0.96883
G1 X116.411 Y91.332 E1.00557
G1 X117.092 Y91.896 E1.04086
G1 X117.96 Y92.678 E1.08749
G1 X118.753 Y93.404 E1.1304
G1 X119.716 Y94.269 E1.18207
G1 X120.727 Y95.158 E1.2358
G1 X123.282 Y97.384 E1.37105
G1 X124.086 Y98.103 E1.4141
G1 X124.576 Y98.555 E1.44071
G1 X125.138 Y99.09 E1.47168
G1 X125.696 Y99.641 E1.50297
G1 X126.227 Y100.193 E1.53354
G1 X126.755 Y100.772 E1.56482
G1 X127.126 Y101.203 E1.58752
G1 X127.468 Y101.619 E1.60901
G1 X127.846 Y102.106 E1.63362
G1 X128.129 Y102.501 E1.65301
G1 X128.594 Y103.181 E1.68589
G1 X129.016 Y103.834 E1.71692
G1 X129.339 Y104.379 E1.74221
G1 X129.475 Y104.625 E1.75343
G1 X129.822 Y105.312 E1.78414
G1 X130.056 Y105.819 E1.80643
G1 X130.351 Y106.506 E1.83627
G1 X130.529 Y106.962 E1.85581
G1 X130.723 Y107.495 E1.87845
G1 X130.987 Y108.326 E1.91325
G1 X131.187 Y109.089 E1.94473
G1 X131.324 Y109.682 E1.96902
G1 X131.426 Y110.179 E1.98927
G1 X131.493 Y110.576 E2.00534
G1 X131.604 Y111.324 E2.03552
G1 X131.676 Y111.897 E2.05857
G1 X131.729 Y112.465 E2.08134
G1 X131.771 Y113.092 E2.10642
G1 X131.804 Y113.942 E2.14037
G1 X131.805 Y114.707 E2.1709
G1 X131.768 Y115.539 E2.20414
G1 X131.723 Y116.09 E2.22621
G1 X131.693 Y116.368 E2.23737
G1 X131.616 Y116.933 E2.26013
G1 X131.541 Y117.394 E2.27877
G1 X131.397 Y118.12 E2.30831
G1 X131.252 Y118.711 E2.3326
G1 X131.042 Y119.433 E2.36261
G1 X130.779 Y120.206 E2.3952
G1 X130.579 Y120.724 E2.41736
G1 X130.466 Y120.995 E2.42908
G1 X130.23 Y121.52 E2.45205
G1 X130.108 Y121.773 E2.46326
G1 X129.875 Y122.228 E2.48366
G1 X129.73 Y122.495 E2.49579
G1 X129.46 Y122.963 E2.51736
G1 X129.081 Y123.561 E2.54561
G1 X128.738 Y124.06 E2.56978
G1 X128.389 Y124.529 E2.59311
G1 X128.25 Y124.706 E2.6021
G1 X127.845 Y125.19 E2.62728
G1 X127.611 Y125.454 E2.64136
G1 X127.237 Y125.855 E2.66325
G1 X126.707 Y126.378 E2.69297
G1 X126.205 Y126.83 E2.71993
G1 X125.656 Y127.28 E2.74826
G1 X125.415 Y127.466 E2.76041
G1 X124.898 Y127.841 E2.7859
G1 X124.517 Y128.1 E2.80429
G1 X123.88 Y128.501 E2.83433
G1 X123.458 Y128.746 E2.85381
G1 X122.822 Y129.087 E2.88261
G1 X122.402 Y129.294 E2.9013
G1 X121.866 Y129.54 E2.92484
G1 X121.772 Y129.58 E2.92891
G1 X121.283 Y129.774 E2.94991
G1 X120.616 Y130.01 E2.97815
G1 X120.514 Y130.043 E2.98243
G1 X119.818 Y130.242 E3.01132
G1 X119.133 Y130.413 E3.0395
G1 X118.342 Y130.579 E3.07176
G1 X118.189 Y130.605 E3.07795
G1 X117.541 Y130.695 E3.10406
G1 X117.046 Y130.748 E3.12393
G1 X116.384 Y130.798 E3.15043
G1 X116.066 Y130.812 E3.16313
G1 X115.347 Y130.819 E3.19183
G1 X114.089 Y130.789 E3.24206
G1 X113.871 Y130.782 E3.25076
G1 X112.692 Y130.73 E3.29786
G1 X110.15 Y130.689 E3.39933
G1 X107.666 Y130.72 E3.49848
G1 X105.234 Y130.822 E3.59564
G1 X104.642 Y130.834 E3.61927
G1 X103.968 Y130.822 E3.64617
G1 X103.508 Y130.799 E3.66456
G1 X102.859 Y130.746 E3.69055
G1 X102.085 Y130.65 E3.72167
G1 X101.873 Y130.617 E3.73024
G1 X101.352 Y130.523 E3.75137
G1 X100.635 Y130.361 E3.78071
G1 X100.061 Y130.211 E3.80438
G1 X99.127 Y129.919 E3.84344
G1 X98.843 Y129.818 E3.85547
G1 X98.367 Y129.636 E3.87581
G1 X98.109 Y129.53 E3.88694
G1 X97.487 Y129.251 E3.91415
G1 X96.767 Y128.889 E3.94632
G1 X96.602 Y128.8 E3.9538
G1 X96.124 Y128.526 E3.97579
G1 X95.866 Y128.369 E3.98784
G1 X95.33 Y128.021 E4.01335
G1 X94.699 Y127.571 E4.04428
G1 X94.516 Y127.432 E4.05345
G1 X94.057 Y127.062 E4.07699
G1 X93.476 Y126.554 E4.10779
G1 X93.283 Y126.374 E4.11832
G1 X92.884 Y125.982 E4.14065
G1 X92.665 Y125.755 E4.15324
G1 X92.262 Y125.312 E4.17714
G1 X92.045 Y125.06 E4.19041
G1 X91.704 Y124.643 E4.21191
G1 X91.527 Y124.415 E4.22343
G1 X91.183 Y123.946 E4.24665
G1 X90.828 Y123.421 E4.27194
G1 X90.685 Y123.197 E4.28255
G1 X90.423 Y122.763 E4.30278
G1 X90.044 Y122.079 E4.33399
G1 X89.934 Y121.865 E4.34359
G1 X89.615 Y121.187 E4.3735
G1 X89.426 Y120.745 E4.39269
G1 X89.195 Y120.157 E4.4179
G1 X88.98 Y119.528 E4.44443
G1 X88.816 Y118.981 E4.46722
G1 X88.649 Y118.324 E4.49428
G1 X88.564 Y117.947 E4.5097
G1 X88.436 Y117.281 E4.53677
G1 X88.384 Y116.954 E4.54999
G1 X88.303 Y116.331 E4.57506
G1 X88.279 Y116.088 E4.58481
G1 X88.241 Y115.566 E4.6057
G1 X88.204 Y114.812 E4.63583
G1 X88.193 Y114.088 E4.66473
G1 X88.204 Y113.516 E4.68756
G1 X88.238 Y112.8 E4.71617
G1 X88.299 Y112.048 E4.74628
G1 X88.363 Y111.481 E4.76906
G1 X88.435 Y110.961 E4.79001
G1 X88.543 Y110.32 E4.81595
G1 X88.669 Y109.705 E4.84101
G1 X88.862 Y108.904 E4.87389
G1 X89.03 Y108.29 E4.8993
G1 X89.266 Y107.538 E4.93076
G1 X89.572 Y106.699 E4.9664
G1 X89.934 Y105.851 E5.0032
G1 X90.227 Y105.23 E5.03061
G1 X90.585 Y104.545 E5.06146
G1 X90.903 Y103.988 E5.08706
G1 X91.244 Y103.436 E5.11295
G1 X91.459 Y103.109 E5.12857
G1 X91.798 Y102.613 E5.15255
G1 X92.126 Y102.159 E5.1749
G1 X92.448 Y101.741 E5.19596
G1 X92.847 Y101.25 E5.22122
G1 X93.248 Y100.785 E5.24572
G1 X93.744 Y100.242 E5.27508
G1 X94.147 Y99.816 E5.29848
G1 X94.586 Y99.374 E5.32334
G1 X95.048 Y98.925 E5.34906
G0 F9000 X95.322 Y99.216
G1 F1800 X95.843 Y98.728 E5.37755
G1 X96.506 Y98.123 E5.41337
G1 X96.846 Y97.82 E5.43155
G1 X97.789 Y96.994 E5.48158
G1 X99.234 Y95.743 E5.55787
G1 X100.143 Y94.947 E5.60609
G1 X101.139 Y94.06 E5.65932
G1 X101.512 Y93.722 E5.67941
G1 X102.244 Y93.045 E5.71921
G1 X103.118 Y92.246 E5.76647
G1 X103.811 Y91.666 E5.80254
G1 X104.552 Y91.151 E5.83856
G1 X105.336 Y90.703 E5.87459
G1 X106.157 Y90.326 E5.91065
G1 X107.008 Y90.023 E5.94671
G1 X107.882 Y89.796 E5.98275
G1 X108.773 Y89.648 E6.0188
G1 X109.673 Y89.579 E6.05482
G1 X110.576 Y89.59 E6.09087
G1 X111.475 Y89.681 E6.12693
G1 X112.362 Y89.851 E6.16298
G1 X113.23 Y90.099 E6.19901
G1 X114.073 Y90.423 E6.23505
G1 X114.884 Y90.82 E6.27109
G1 X115.657 Y91.287 E6.30714
G1 X116.386 Y91.82 E6.34318
G1 X116.824 Y92.193 E6.36614
G1 X117.69 Y92.973 E6.41266
G1 X118.5 Y93.715 E6.4565
G1 X119.407 Y94.529 E6.50514
G1 X120.464 Y95.459 E6.56133
G1 X123.016 Y97.682 E6.69641
G1 X123.815 Y98.397 E6.73921
G1 X124.301 Y98.845 E6.76559
G1 X124.723 Y99.245 E6.7888
G1 X125.276 Y99.787 E6.8197
G1 X125.657 Y100.174 E6.84138
G1 X126.129 Y100.676 E6.86888
G1 X126.667 Y101.279 E6.90113
G1 X127.159 Y101.873 E6.93192
G1 X127.526 Y102.347 E6.95584
G1 X127.799 Y102.726 E6.97448
G1 X128.264 Y103.406 E7.00736
G1 X128.678 Y104.048 E7.03785
G1 X128.989 Y104.573 E7.06221
G1 X129.125 Y104.819 E7.07343
G1 X129.459 Y105.48 E7.10298
G1 X129.693 Y105.987 E7.12527
G1 X129.982 Y106.66 E7.1545
G1 X130.153 Y107.098 E7.17327
G1 X130.347 Y107.631 E7.19591
G1 X130.601 Y108.432 E7.22945
G1 X130.797 Y109.179 E7.26027
G1 X130.934 Y109.772 E7.28456
G1 X131.098 Y110.635 E7.31962
G1 X131.209 Y111.383 E7.3498
G1 X131.278 Y111.942 E7.37229
G1 X131.33 Y112.5 E7.39465
G1 X131.371 Y113.111 E7.41909
G1 X131.404 Y113.947 E7.45249
G1 X131.405 Y114.696 E7.48238
G1 X131.368 Y115.517 E7.51518
G1 X131.325 Y116.047 E7.5364
G1 X131.295 Y116.325 E7.54756
G1 X131.222 Y116.869 E7.56947
G1 X131.147 Y117.33 E7.58811
G1 X131.008 Y118.028 E7.61652
G1 X130.865 Y118.611 E7.64048
G1 X130.66 Y119.316 E7.66978
G1 X130.402 Y120.072 E7.70166
G1 X130.209 Y120.571 E7.72302
G1 X130.096 Y120.842 E7.73474
G1 X129.87 Y121.346 E7.75678
G1 X129.524 Y122.037 E7.78762
G1 X129.379 Y122.304 E7.79975
G1 X129.118 Y122.755 E7.82055
G1 X128.75 Y123.337 E7.84803
G1 X128.413 Y123.826 E7.87173
G1 X128.074 Y124.282 E7.89441
G1 X127.935 Y124.459 E7.9034
G1 X127.546 Y124.925 E7.92762
G1 X127.312 Y125.189 E7.9417
G1 X126.952 Y125.574 E7.96274
G1 X126.435 Y126.085 E7.99175
G1 X125.946 Y126.525 E8.01801
G1 X125.412 Y126.964 E8.0456
G1 X125.171 Y127.15 E8.05775
G1 X124.673 Y127.51 E8.08227
G1 X124.292 Y127.769 E8.10066
G1 X123.679 Y128.155 E8.12958
G1 X123.257 Y128.4 E8.14905
G1 X122.645 Y128.728 E8.17676
G1 X122.225 Y128.935 E8.19545
G1 X121.71 Y129.172 E8.21808
G1 X121.616 Y129.212 E8.22216
G1 X121.145 Y129.398 E8.24237
G1 X120.493 Y129.63 E8.26999
G1 X120.391 Y129.663 E8.27427
G1 X119.721 Y129.854 E8.30207
G1 X119.036 Y130.025 E8.33025
G1 X118.275 Y130.185 E8.36129
G1 X118.122 Y130.211 E8.36748
G1 X117.499 Y130.297 E8.39259
G1 X117.004 Y130.35 E8.41245
G1 X116.367 Y130.398 E8.43795
G1 X116.049 Y130.412 E8.45066
G1 X115.357 Y130.419 E8.47828
G1 X114.099 Y130.389 E8.5285
G1 X113.889 Y130.382 E8.53689
G1 X112.716 Y130.33 E8.58375
G1 X110.152 Y130.289 E8.6861
G1 X107.644 Y130.32 E8.7862
G1 X105.217 Y130.422 E8.88316
G1 X104.637 Y130.434 E8.90631
G1 X103.988 Y130.422 E8.93222
G1 X103.528 Y130.399 E8.9506
G1 X102.904 Y130.349 E8.97559
G1 X102.146 Y130.255 E9.00607
G1 X101.934 Y130.222 E9.01463
G1 X101.433 Y130.131 E9.03496
G1 X100.727 Y129.971 E9.06385
G1 X100.166 Y129.825 E9.08699
G1 X99.261 Y129.542 E9.12483
G1 X98.519 Y129.266 E9.15643
G1 X98.261 Y129.16 E9.16756
G1 X97.662 Y128.891 E9.19377
G1 X96.957 Y128.537 E9.22526
G1 X96.792 Y128.448 E9.23274
G1 X96.332 Y128.184 E9.25391
G1 X96.074 Y128.027 E9.26596
G1 X95.559 Y127.692 E9.29048
G1 X94.941 Y127.253 E9.32074
G1 X94.758 Y127.114 E9.32991
G1 X94.316 Y126.758 E9.35256
G1 X93.749 Y126.261 E9.38265
G1 X93.556 Y126.081 E9.39319
G1 X93.172 Y125.704 E9.41466
G1 X92.953 Y125.477 E9.42725
G1 X92.565 Y125.051 E9.45025
G1 X92.348 Y124.799 E9.46352
G1 X92.02 Y124.398 E9.4842
G1 X91.843 Y124.17 E9.49572
G1 X91.512 Y123.719 E9.51805
G1 X91.166 Y123.206 E9.54275
G1 X90.77 Y122.565 E9.57282
G1 X90.399 Y121.896 E9.60335
G1 X90.289 Y121.682 E9.61295
G1 X89.982 Y121.029 E9.64175
G1 X89.793 Y120.587 E9.66094
G1 X89.571 Y120.022 E9.68517
G1 X89.36 Y119.403 E9.71127
G1 X89.202 Y118.876 E9.73323
G1 X89.039 Y118.236 E9.75959
G1 X88.954 Y117.859 E9.77501
G1 X88.831 Y117.218 E9.80106
G1 X88.779 Y116.891 E9.81428
G1 X88.701 Y116.292 E9.83839
G1 X88.677 Y116.049 E9.84813
G1 X88.64 Y115.546 E9.86826
G1 X88.603 Y114.792 E9.89839
G1 X88.593 Y114.096 E9.92617
G1 X88.604 Y113.524 E9.94901
G1 X88.637 Y112.83 E9.97674
G1 X88.697 Y112.09 E10.00637
G1 X88.759 Y111.534 E10.0287
G1 X88.83 Y111.023 E10.04929
G1 X88.936 Y110.398 E10.07459
G1 X89.059 Y109.794 E10.09919
G1 X89.248 Y109.009 E10.13142
G1 X89.416 Y108.395 E10.15683
G1 X89.643 Y107.672 E10.18707
G1 X89.944 Y106.846 E10.22216
G1 X90.3 Y106.013 E10.25832
G1 X90.587 Y105.405 E10.28515
G1 X90.937 Y104.734 E10.31536
G1 X91.248 Y104.19 E10.34037
G1 X91.582 Y103.65 E10.36571
G1 X91.789 Y103.334 E10.38079
G1 X92.128 Y102.838 E10.40476
G1 X92.444 Y102.402 E10.42626
G1 X92.761 Y101.99 E10.447
G1 X93.151 Y101.509 E10.47172
G1 X93.548 Y101.05 E10.49594
G1 X93.671 Y100.913 E10.50329
G1 X94.116 Y100.429 E10.52953
G1 X94.738 Y99.787 E10.56521
G1 X95.182 Y99.351 E10.59004
G1 X95.322 Y99.216 E10.59781
G1 F2400 E7.39781
;MESH:Key_Chain_Girl_connector.stl
G0 F9000 X101.935 Y106.086
G0 X102.683 Y106.872
G0 X100.514 Y110.998
G0 X100.201 Y112.006
G0 X100.013 Y113.293
G0 X99.983 Y114.923
G0 X100.181 Y115.94
G0 X100.583 Y116.843
G0 X101.197 Y117.657
G0 X101.528 Y117.975
G0 X102.269 Y118.492
G0 X103.099 Y118.845
G0 X104.07 Y119.046
G0 X104.581 Y119.07
G0 X105.51 Y118.978
G0 X105.956 Y118.864
G0 X106.8 Y118.509
G0 X107.545 Y118.02
G0 X109.328 Y116.242
G0 X110.349 Y116.586
G0 X110.103 Y116.757
;TYPE:WALL-OUTER
G1 F1440 E10.59781
G1 F1800 X109.863 Y116.795 E10.6075
G1 X109.837 Y116.835 E10.60941
G1 X109.513 Y117.335 E10.63319
G1 X109.101 Y117.864 E10.65995
G1 X108.65 Y118.343 E10.68621
G1 X108.149 Y118.781 E10.71277
G1 X107.735 Y119.08 E10.73315
G1 X107.254 Y119.369 E10.75555
G1 X106.756 Y119.608 E10.77759
G1 X106.24 Y119.795 E10.7995
G1 X105.7 Y119.932 E10.82173
G1 X105.144 Y120.014 E10.84417
G1 X104.565 Y120.043 E10.8673
G1 X103.974 Y120.014 E10.89092
G1 X103.388 Y119.926 E10.91457
G1 X102.813 Y119.775 E10.9383
G1 X102.285 Y119.58 E10.96076
G1 X101.789 Y119.338 E10.98279
G1 X101.331 Y119.053 E11.00432
G1 X100.896 Y118.714 E11.02633
G1 X100.489 Y118.324 E11.04883
G1 X100.098 Y117.86 E11.07305
G1 X99.748 Y117.339 E11.0981
G1 X99.468 Y116.798 E11.12241
G1 X99.254 Y116.23 E11.14664
G1 X99.103 Y115.639 E11.17098
G1 X99.016 Y115.023 E11.19581
G1 X98.988 Y114.49 E11.21712
G1 X98.994 Y113.833 E11.24334
G1 X99.036 Y113.175 E11.26965
G1 X99.116 Y112.52 E11.29599
G1 X99.256 Y111.779 E11.32609
G1 X99.412 Y111.204 E11.34987
G1 X99.611 Y110.639 E11.37378
G1 X99.852 Y110.092 E11.39763
G1 X100.139 Y109.557 E11.42187
G1 X100.459 Y109.05 E11.44579
G1 X100.77 Y108.622 E11.46691
G1 X101.183 Y108.113 E11.49307
G1 X101.775 Y107.462 E11.52819
G1 X102.242 Y106.991 E11.55466
G1 X102.637 Y106.611 E11.57654
G1 X103.114 Y106.169 E11.6025
G1 X103.855 Y105.505 E11.64221
G1 X104.597 Y104.857 E11.68153
G1 X106.086 Y103.568 E11.76013
G1 X106.823 Y102.924 E11.79919
G1 X107.557 Y102.275 E11.8383
G1 X108.286 Y101.621 E11.87739
G1 X109.009 Y100.961 E11.91646
G1 X109.369 Y100.628 E11.93603
G1 X110.004 Y100.031 E11.97082
G1 X110.383 Y100.384 E11.99149
G1 X110.643 Y100.621 E12.00553
G1 X111.027 Y100.976 E12.0264
G1 X111.801 Y101.681 E12.06819
G1 X112.581 Y102.378 E12.10994
G1 X113.758 Y103.412 E12.17247
G1 X115.957 Y105.323 E12.28875
G1 X116.577 Y105.872 E12.3218
G1 X116.988 Y106.244 E12.34392
G1 X117.389 Y106.619 E12.36584
G1 X117.784 Y107 E12.38774
G1 X118.255 Y107.477 E12.41449
G1 X118.706 Y107.971 E12.44119
G1 X119.129 Y108.479 E12.46758
G1 X119.526 Y109.012 E12.4941
G1 X119.894 Y109.595 E12.52162
G1 X120.208 Y110.205 E12.549
G1 X120.463 Y110.82 E12.57557
G1 X120.667 Y111.463 E12.6025
G1 X120.82 Y112.127 E12.62969
G1 X120.921 Y112.804 E12.65701
G1 X120.976 Y113.456 E12.68313
G1 X121.01 Y114.097 E12.70875
G1 X121.011 Y114.603 E12.72894
G1 X120.957 Y115.267 E12.75553
G1 X120.867 Y115.763 E12.77565
G1 X120.65 Y116.484 E12.8057
G1 X120.424 Y117.014 E12.8287
G1 X120.147 Y117.51 E12.85138
G1 X119.818 Y117.972 E12.87401
G1 X119.435 Y118.4 E12.89694
G1 X118.995 Y118.795 E12.92054
G1 X118.332 Y119.259 E12.95283
G1 X117.648 Y119.609 E12.9835
G1 X116.937 Y119.852 E13.01349
G1 X116.182 Y119.995 E13.04416
G1 X115.417 Y120.038 E13.07474
G1 X114.623 Y119.982 E13.10651
G1 X113.923 Y119.844 E13.13499
G1 X113.25 Y119.612 E13.1634
G1 X112.625 Y119.301 E13.19126
G1 X112.018 Y118.904 E13.22021
G1 X111.497 Y118.478 E13.24707
G1 X111.022 Y118 E13.27396
G1 X110.592 Y117.474 E13.30108
G1 X110.215 Y116.918 E13.32789
G1 X110.189 Y116.879 E13.32976
G1 X110.103 Y116.757 E13.33572
