;FLAVOR:Marlin
;TIME:11328
;Filament used: 11.082m
;Layer height: 0.24
;MINX:39.411
;MINY:44.147
;MINZ:0.24
;MAXX:180.6
;MAXY:175.854
;MAXZ:9.76
;Generated with Cura_SteamEngine 4.10.0
M82 ;absolute extrusion mode
M201 X500.00 Y500.00 Z100.00 E5000.00 ;Setup machine max acceleration
M203 X500.00 Y500.00 Z10.00 E50.00 ;Setup machine max feedrate
M204 P500.00 R1000.00 T500.00 ;Setup Print/Retract/Travel acceleration
M205 X8.00 Y8.00 Z0.40 E5.00 ;Setup Jerk
M220 S100 ;Reset Feedrate
M221 S100 ;Reset Flowrate

;*** Start Dual Nozzle/Bed Preheating ***
M140 S50 ; start preheating the bed
M104 S200 ?T0 ; start preheating hotend
M190 S50 ; heat to Cura Bed setting and WAIT
M109 S200 ?T0 ; heat to Cura Hotend and WAIT
;*** End Preheating ***

G28 ;Home

G92 E0 ;Reset Extruder
G1 Z2.0 F3000 ;Move Z Axis up

;*** Single Print Start Tone
M300 S1000 P500 ; chirp to indicate starting to print
;*** End Single Start Tone

G1 X10.1 Y20 Z0.28 F5000.0 ;Move to start position
G1 X10.1 Y200.0 Z0.28 F1500.0 E15 ;Draw the first line
G1 X10.4 Y200.0 Z0.28 F5000.0 ;Move to side a little
G1 X10.4 Y20 Z0.28 F1500.0 E30 ;Draw the second line
G92 E0 ;Reset Extruder
G1 Z2.0 F3000 ;Move Z Axis up
G92 E0
G92 E0
G1 F2400 E-3.2
;LAYER_COUNT:36
;LAYER:0
M106 S63.8
M204 S500
M205 X6 Y6
G0 F9000 X59.744 Y49.786 Z0.24
;TYPE:SKIRT
G1 F1440 E0
G1 F1800 X59.989 Y49.505 E0.01488
G1 X60.766 Y48.703 E0.05945
G1 X61.24 Y48.272 E0.08502
G1 X61.422 Y48.114 E0.09464
G1 X62.402 Y47.358 E0.14404
G1 X63 Y46.956 E0.1728
G1 X63.126 Y46.875 E0.17877
G1 X64.203 Y46.268 E0.22812
G1 X64.835 Y45.964 E0.25611
G1 X64.965 Y45.905 E0.26181
G1 X65.579 Y45.649 E0.28836
G1 X66.234 Y45.4 E0.31632
G1 X66.997 Y45.138 E0.34852
G1 X67.468 Y44.994 E0.36818
G1 X68.087 Y44.825 E0.39379
G1 X68.831 Y44.646 E0.42433
G1 X69.549 Y44.5 E0.45358
G1 X70.403 Y44.356 E0.48814
G1 X70.956 Y44.277 E0.51044
G1 X71.226 Y44.246 E0.52128
G1 X71.853 Y44.193 E0.5464
G1 X72.362 Y44.165 E0.56674
G1 X73.088 Y44.147 E0.59573
G1 X73.876 Y44.159 E0.62718
G1 X74.471 Y44.191 E0.65097
G1 X75.309 Y44.259 E0.68452
G1 X77.937 Y44.436 E0.78965
G1 X80.482 Y44.535 E0.8913
G1 X82.996 Y44.561 E0.99165
G1 X85.503 Y44.518 E1.09172
G1 X88.04 Y44.401 E1.19309
G1 X89.02 Y44.327 E1.23231
G1 X90.421 Y44.235 E1.28835
G1 X91.109 Y44.208 E1.31583
G1 X91.778 Y44.203 E1.34253
G1 X92.341 Y44.211 E1.365
G1 X92.945 Y44.237 E1.38913
G1 X93.463 Y44.274 E1.40986
G1 X94.248 Y44.348 E1.44133
G1 X94.837 Y44.425 E1.46504
G1 X95.58 Y44.542 E1.49506
G1 X98.218 Y44.922 E1.60143
G1 X100.72 Y45.21 E1.70195
G1 X103.221 Y45.427 E1.80215
G1 X105.759 Y45.575 E1.90362
G1 X108.276 Y45.65 E2.00412
G1 X110.815 Y45.654 E2.10546
G1 X113.335 Y45.586 E2.20607
G1 X115.876 Y45.447 E2.30764
G1 X118.37 Y45.239 E2.40753
G1 X120.914 Y44.954 E2.5097
G1 X121.607 Y44.857 E2.53763
G1 X122.656 Y44.722 E2.57984
G1 X123.322 Y44.657 E2.60655
G1 X124.23 Y44.598 E2.64287
G1 X124.953 Y44.57 E2.67175
G1 X126.141 Y44.603 E2.71918
G1 X127.168 Y44.689 E2.76031
G1 X127.249 Y44.697 E2.76356
G1 X129.75 Y44.881 E2.86365
G1 X132.295 Y44.997 E2.96533
G1 X134.803 Y45.039 E3.06545
G1 X137.304 Y45.01 E3.16527
G1 X140.381 Y44.881 E3.28819
G1 X141.176 Y44.834 E3.31998
G1 X141.67 Y44.817 E3.33971
G1 X142.324 Y44.809 E3.36581
G1 X142.919 Y44.818 E3.38956
G1 X143.722 Y44.859 E3.42165
G1 X144.043 Y44.883 E3.4345
G1 X144.637 Y44.944 E3.45833
G1 X145.138 Y45.01 E3.4785
G1 X145.795 Y45.113 E3.50504
G1 X146.465 Y45.245 E3.5323
G1 X147.184 Y45.424 E3.56187
G1 X147.503 Y45.514 E3.5751
G1 X148.374 Y45.801 E3.6117
G1 X149.088 Y46.071 E3.64217
G1 X149.934 Y46.434 E3.67891
G1 X150.529 Y46.744 E3.70569
G1 X151.247 Y47.154 E3.73869
G1 X151.434 Y47.268 E3.74743
G1 X152.403 Y47.935 E3.79438
G1 X152.54 Y48.041 E3.8013
G1 X152.931 Y48.36 E3.82144
G1 X153.264 Y48.644 E3.8389
G1 X154.131 Y49.472 E3.88675
G1 X154.245 Y49.594 E3.89342
G1 X154.601 Y49.995 E3.91482
G1 X154.882 Y50.328 E3.93221
G1 X155.625 Y51.32 E3.98168
G1 X155.738 Y51.491 E3.98986
G1 X156.004 Y51.915 E4.00983
G1 X156.192 Y52.231 E4.02451
G1 X156.749 Y53.304 E4.07276
G1 X156.968 Y53.791 E4.09407
G1 X157.178 Y54.286 E4.11554
G1 X157.473 Y55.101 E4.15013
G1 X157.541 Y55.316 E4.15913
G1 X157.684 Y55.812 E4.17973
G1 X157.802 Y56.26 E4.19822
G1 X157.997 Y57.154 E4.23474
G1 X158.122 Y57.884 E4.2643
G1 X158.497 Y60.249 E4.35987
G1 X158.965 Y62.741 E4.46107
G1 X159.502 Y65.216 E4.56216
G1 X160.109 Y67.668 E4.66297
G1 X160.779 Y70.087 E4.76316
G1 X161.537 Y72.548 E4.86593
G1 X162.343 Y74.924 E4.96607
G1 X163.211 Y77.264 E5.06569
G1 X164.161 Y79.618 E5.167
G1 X165.539 Y82.733 E5.30295
G1 X165.667 Y83.009 E5.31509
G1 X166.123 Y84.161 E5.36454
G1 X166.216 Y84.443 E5.37639
G1 X166.466 Y85.329 E5.41314
G1 X166.687 Y86.62 E5.46541
G1 X166.71 Y86.832 E5.47392
G1 X166.77 Y87.75 E5.51064
G1 X166.763 Y88.42 E5.53738
G1 X166.752 Y88.682 E5.54785
G1 X166.694 Y89.427 E5.57767
G1 X166.616 Y90.037 E5.60222
G1 X166.241 Y92.457 E5.69996
G1 X165.921 Y94.997 E5.80214
G1 X165.678 Y97.485 E5.90191
G1 X165.502 Y100.039 E6.00409
G1 X165.401 Y102.537 E6.10387
G1 X165.37 Y105.053 E6.2043
G1 X165.412 Y107.603 E6.30609
G1 X165.524 Y110.144 E6.4076
G1 X165.706 Y112.649 E6.50785
G1 X165.96 Y115.158 E6.6085
G1 X166.285 Y117.661 E6.70924
G1 X166.686 Y120.182 E6.81112
G1 X167.149 Y122.648 E6.91126
G1 X167.682 Y125.099 E7.01137
G1 X168.296 Y127.588 E7.11369
G1 X168.972 Y130.024 E7.21459
G1 X169.708 Y132.414 E7.3144
G1 X170.533 Y134.845 E7.41687
G1 X171.409 Y137.204 E7.5173
G1 X172.342 Y139.517 E7.61685
G1 X173.379 Y141.888 E7.72013
G1 X174.437 Y144.135 E7.81926
G1 X175.582 Y146.396 E7.92041
G1 X176.785 Y148.616 E8.02119
G1 X177.44 Y149.737 E8.07301
G1 X177.499 Y149.849 E8.07806
G1 X178.317 Y151.275 E8.14368
G1 X178.505 Y151.617 E8.15925
G1 X178.813 Y152.206 E8.18578
G1 X179.076 Y152.725 E8.209
G1 X179.484 Y153.547 E8.24563
G1 X179.857 Y154.389 E8.28239
G1 X180.156 Y155.26 E8.31914
G1 X180.378 Y156.153 E8.35587
G1 X180.521 Y157.063 E8.39263
G1 X180.581 Y157.842 E8.42382
G1 X180.591 Y158.188 E8.43763
G1 X180.6 Y158.91 E8.46645
G1 X180.599 Y159.748 E8.4999
G1 X180.589 Y160.478 E8.52904
G1 X180.536 Y161.397 E8.56578
G1 X180.404 Y162.308 E8.60252
G1 X180.194 Y163.205 E8.63928
G1 X179.906 Y164.079 E8.67601
G1 X179.543 Y164.926 E8.71279
G1 X179.024 Y165.878 E8.75607
G1 X178.757 Y166.313 E8.77644
G1 X178.646 Y166.49 E8.78478
G1 X178.312 Y167.011 E8.80948
G1 X177.873 Y167.698 E8.84202
G1 X177.372 Y168.427 E8.87732
G1 X176.897 Y169.072 E8.90929
G1 X176.285 Y169.828 E8.94812
G1 X176.045 Y170.098 E8.96253
G1 X175.596 Y170.572 E8.98859
G1 X175.418 Y170.749 E8.99861
G1 X174.964 Y171.175 E9.02346
G1 X174.809 Y171.312 E9.03172
G1 X174.365 Y171.683 E9.05481
G1 X173.813 Y172.109 E9.08264
G1 X173.456 Y172.368 E9.10024
G1 X172.626 Y172.912 E9.13985
G1 X171.963 Y173.304 E9.17059
G1 X171.225 Y173.702 E9.20406
G1 X170.951 Y173.836 E9.21623
G1 X170.364 Y174.101 E9.24194
G1 X169.552 Y174.42 E9.27676
G1 X168.399 Y174.788 E9.32506
G1 X167.717 Y174.959 E9.35312
G1 X167.445 Y175.021 E9.36426
G1 X166.2 Y175.228 E9.41463
G1 X165.678 Y175.283 E9.43558
G1 X165.215 Y175.322 E9.45413
G1 X163.949 Y175.34 E9.50466
G1 X163.27 Y175.309 E9.53179
G1 X162.724 Y175.27 E9.55364
G1 X162.601 Y175.258 E9.55857
G1 X162.052 Y175.19 E9.58065
G1 X159.407 Y174.792 E9.6874
G1 X156.875 Y174.483 E9.78921
G1 X154.386 Y174.25 E9.88899
G1 X151.843 Y174.085 E9.9907
G1 X149.336 Y173.994 E10.09082
G1 X146.789 Y173.973 E10.19248
G1 X144.271 Y174.024 E10.293
G1 X141.74 Y174.146 E10.39414
G1 X139.229 Y174.339 E10.49465
G1 X136.94 Y174.591 E10.58656
G1 X136.753 Y174.603 E10.59404
G1 X135.956 Y174.691 E10.62604
G1 X135.269 Y174.758 E10.65359
G1 X134.656 Y174.8 E10.67812
G1 X133.815 Y174.833 E10.71171
G1 X133.508 Y174.84 E10.72397
G1 X132.826 Y174.847 E10.75119
G1 X132.145 Y174.833 E10.77837
G1 X131.128 Y174.778 E10.81902
G1 X130.766 Y174.752 E10.83351
G1 X129.036 Y174.598 E10.90283
G1 X128.469 Y174.539 E10.92558
G1 X126.011 Y174.355 E11.02396
G1 X123.434 Y174.236 E11.12692
G1 X120.922 Y174.191 E11.2272
G1 X118.405 Y174.216 E11.32766
G1 X115.87 Y174.313 E11.42891
G1 X113.35 Y174.482 E11.52972
G1 X110.828 Y174.722 E11.63083
G1 X108.327 Y175.032 E11.73142
G1 X105.822 Y175.415 E11.83256
G1 X104.464 Y175.658 E11.88762
G1 X103.873 Y175.747 E11.91147
G1 X103.634 Y175.776 E11.92108
G1 X102.392 Y175.853 E11.97075
G1 X102.092 Y175.854 E11.98272
G1 X101.56 Y175.842 E12.00396
G1 X101.091 Y175.82 E12.0227
G1 X100.435 Y175.769 E12.04896
G1 X99.862 Y175.702 E12.07199
G1 X99.662 Y175.674 E12.08005
G1 X99.082 Y175.576 E12.10353
G1 X98.434 Y175.447 E12.1299
G1 X96.931 Y175.127 E12.19123
G1 X94.43 Y174.668 E12.29272
G1 X91.938 Y174.283 E12.39336
G1 X89.425 Y173.967 E12.49445
G1 X86.889 Y173.722 E12.59613
G1 X84.415 Y173.551 E12.69511
G1 X80.91 Y173.421 E12.8351
G1 X79.974 Y173.372 E12.87251
G1 X79.657 Y173.35 E12.88519
G1 X78.917 Y173.289 E12.91483
G1 X78.325 Y173.224 E12.9386
G1 X77.735 Y173.137 E12.9624
G1 X77.121 Y173.032 E12.98726
G1 X76.416 Y172.901 E13.01588
G1 X75.536 Y172.698 E13.05193
G1 X74.763 Y172.485 E13.08393
G1 X74.455 Y172.395 E13.09674
G1 X73.8 Y172.193 E13.12409
G1 X73.022 Y171.92 E13.157
G1 X72.484 Y171.707 E13.1801
G1 X72.212 Y171.595 E13.19184
G1 X71.423 Y171.257 E13.22609
G1 X70.857 Y170.994 E13.251
G1 X70.204 Y170.657 E13.28033
G1 X69.795 Y170.434 E13.29893
G1 X69.123 Y170.056 E13.3297
G1 X68.613 Y169.75 E13.35344
G1 X68.193 Y169.477 E13.37343
G1 X67.771 Y169.191 E13.39378
G1 X67.004 Y168.65 E13.43124
G1 X66.545 Y168.306 E13.45413
G1 X66.079 Y167.93 E13.47803
G1 X65.632 Y167.552 E13.5014
G1 X65.067 Y167.06 E13.5313
G1 X64.631 Y166.658 E13.55497
G1 X64.17 Y166.202 E13.58085
G1 X63.83 Y165.849 E13.60041
G1 X63.311 Y165.299 E13.63059
G1 X62.877 Y164.81 E13.65669
G1 X62.509 Y164.364 E13.67976
G1 X62.161 Y163.923 E13.70219
G1 X61.735 Y163.368 E13.73011
G1 X61.387 Y162.887 E13.7538
G1 X61.06 Y162.4 E13.77722
G1 X60.693 Y161.824 E13.80448
G1 X60.318 Y161.214 E13.83306
G1 X60.034 Y160.723 E13.85569
G1 X59.803 Y160.289 E13.87532
G1 X59.564 Y159.817 E13.89643
G1 X59.464 Y159.615 E13.90543
G1 X59.154 Y158.969 E13.93403
G1 X58.921 Y158.447 E13.95684
G1 X58.627 Y157.702 E13.98881
G1 X58.469 Y157.277 E14.00691
G1 X58.223 Y156.586 E14.03618
G1 X57.961 Y155.74 E14.07153
G1 X57.781 Y155.059 E14.09964
G1 X57.716 Y154.799 E14.11034
G1 X57.555 Y154.121 E14.13815
G1 X57.421 Y153.469 E14.16472
G1 X57.302 Y152.719 E14.19503
G1 X57.215 Y152.107 E14.2197
G1 X57.112 Y151.283 E14.25284
G1 X57.04 Y150.585 E14.28085
G1 X57.025 Y150.426 E14.28722
G1 X56.873 Y148.591 E14.36071
G1 X56.592 Y146.07 E14.46195
G1 X56.245 Y143.594 E14.56174
G1 X55.82 Y141.078 E14.66358
G1 X55.328 Y138.599 E14.76446
G1 X54.771 Y136.156 E14.86446
G1 X54.132 Y133.683 E14.96641
G1 X53.432 Y131.251 E15.06742
G1 X52.675 Y128.878 E15.16683
G1 X51.828 Y126.463 E15.26897
G1 X50.933 Y124.126 E15.36885
G1 X49.966 Y121.799 E15.46943
G1 X48.578 Y118.741 E15.60347
G1 X46.258 Y113.863 E15.81906
G1 X44.107 Y109.315 E16.01985
G1 X42.907 Y106.752 E16.13281
G1 X42.604 Y106.081 E16.16219
G1 X42.308 Y105.407 E16.19157
G1 X41.984 Y104.644 E16.22466
G1 X41.774 Y104.129 E16.24685
G1 X41.481 Y103.383 E16.27884
G1 X41.198 Y102.626 E16.3111
G1 X40.976 Y102.005 E16.33742
G1 X40.771 Y101.407 E16.36265
G1 X40.704 Y101.205 E16.37115
G1 X40.472 Y100.477 E16.40164
G1 X40.237 Y99.689 E16.43446
G1 X40.075 Y99.098 E16.45892
G1 X39.953 Y98.614 E16.47884
G1 X39.83 Y98.069 E16.50114
G1 X39.721 Y97.515 E16.52368
G1 X39.592 Y96.763 E16.55413
G1 X39.459 Y95.508 E16.6045
G1 X39.425 Y94.764 E16.63422
G1 X39.411 Y94.104 E16.66057
G1 X39.45 Y93.05 E16.70267
G1 X39.555 Y92.151 E16.73879
G1 X39.655 Y91.488 E16.76555
G1 X39.836 Y90.585 E16.80231
G1 X40.011 Y89.958 E16.82829
G1 X40.229 Y89.261 E16.85744
G1 X40.422 Y88.694 E16.88135
G1 X40.766 Y87.84 E16.91809
G1 X41.039 Y87.284 E16.94281
G1 X41.387 Y86.645 E16.97185
G1 X41.673 Y86.155 E16.9945
G1 X42.115 Y85.461 E17.02734
G1 X42.35 Y85.127 E17.04364
G1 X43.6 Y83.401 E17.1287
G1 X45.037 Y81.293 E17.23052
G1 X46.412 Y79.151 E17.33211
G1 X47.694 Y77.02 E17.43137
G1 X48.953 Y74.787 E17.53368
G1 X50.128 Y72.56 E17.63418
G1 X51.238 Y70.304 E17.73453
G1 X52.296 Y67.99 E17.83608
G1 X53.276 Y65.672 E17.93653
G1 X54.195 Y63.319 E18.03735
G1 X55.062 Y60.9 E18.13991
G1 X55.839 Y58.521 E18.2398
G1 X56.473 Y56.387 E18.32865
G1 X56.758 Y55.386 E18.37019
G1 X56.935 Y54.824 E18.39371
G1 X57.106 Y54.34 E18.41419
G1 X57.224 Y54.028 E18.42751
G1 X57.453 Y53.473 E18.45147
G1 X57.691 Y52.957 E18.47415
G1 X57.829 Y52.677 E18.48661
G1 X58.298 Y51.827 E18.52535
G1 X58.524 Y51.458 E18.54263
G1 X58.906 Y50.877 E18.57038
G1 X59.077 Y50.635 E18.5822
G1 X59.744 Y49.786 E18.6253
G0 F9000 X60.046 Y50.049
G1 F1800 X60.291 Y49.768 E18.64018
G1 X61.038 Y48.997 E18.68302
G1 X61.502 Y48.574 E18.70808
G1 X61.684 Y48.416 E18.7177
G1 X62.627 Y47.689 E18.76523
G1 X63.216 Y47.292 E18.79357
G1 X63.342 Y47.211 E18.79955
G1 X64.379 Y46.627 E18.84705
G1 X65.001 Y46.328 E18.8746
G1 X65.131 Y46.269 E18.8803
G1 X65.722 Y46.023 E18.90585
G1 X66.377 Y45.774 E18.93381
G1 X67.114 Y45.521 E18.96491
G1 X67.585 Y45.377 E18.98457
G1 X68.181 Y45.214 E19.00923
G1 X68.925 Y45.035 E19.03978
G1 X69.615 Y44.894 E19.06788
G1 X70.469 Y44.75 E19.10245
G1 X71.002 Y44.675 E19.12393
G1 X71.272 Y44.644 E19.13478
G1 X71.875 Y44.592 E19.15894
G1 X72.384 Y44.564 E19.17928
G1 X73.092 Y44.547 E19.20755
G1 X73.866 Y44.559 E19.23844
G1 X74.439 Y44.589 E19.26135
G1 X75.326 Y44.661 E19.29686
G1 X77.93 Y44.836 E19.40103
G1 X80.462 Y44.935 E19.50216
G1 X82.999 Y44.962 E19.60343
G1 X85.527 Y44.918 E19.70434
G1 X88.058 Y44.801 E19.80547
G1 X89.047 Y44.726 E19.84505
G1 X90.448 Y44.634 E19.90109
G1 X91.115 Y44.608 E19.92773
G1 X91.772 Y44.603 E19.95395
G1 X92.335 Y44.611 E19.97643
G1 X92.917 Y44.636 E19.99968
G1 X93.435 Y44.673 E20.0204
G1 X94.207 Y44.746 E20.05135
G1 X94.775 Y44.82 E20.07422
G1 X95.535 Y44.94 E20.10492
G1 X98.151 Y45.317 E20.21041
G1 X100.675 Y45.608 E20.31182
G1 X103.198 Y45.826 E20.41289
G1 X105.757 Y45.975 E20.5152
G1 X108.263 Y46.05 E20.61527
G1 X110.826 Y46.054 E20.71756
G1 X113.332 Y45.986 E20.81762
G1 X115.895 Y45.846 E20.92006
G1 X118.415 Y45.636 E21.02099
G1 X120.974 Y45.349 E21.12377
G1 X121.658 Y45.253 E21.15134
G1 X122.707 Y45.118 E21.19355
G1 X123.348 Y45.056 E21.21925
G1 X124.256 Y44.997 E21.25557
G1 X124.965 Y44.97 E21.28389
G1 X126.108 Y45.001 E21.32952
G1 X126.972 Y45.073 E21.36413
G1 X127.181 Y45.093 E21.37251
G1 X129.704 Y45.279 E21.47348
G1 X132.27 Y45.395 E21.576
G1 X134.836 Y45.439 E21.67843
G1 X137.326 Y45.41 E21.77781
G1 X140.423 Y45.28 E21.90153
G1 X141.2 Y45.234 E21.9326
G1 X141.675 Y45.217 E21.95157
G1 X142.329 Y45.209 E21.97767
G1 X142.902 Y45.218 E22.00054
G1 X143.692 Y45.257 E22.03211
G1 X144.013 Y45.281 E22.04496
G1 X144.585 Y45.34 E22.06791
G1 X145.086 Y45.406 E22.08808
G1 X145.73 Y45.507 E22.1141
G1 X146.375 Y45.635 E22.14034
G1 X147.076 Y45.809 E22.16917
G1 X147.395 Y45.899 E22.1824
G1 X148.233 Y46.175 E22.21761
G1 X148.947 Y46.445 E22.24808
G1 X149.777 Y46.802 E22.28414
G1 X150.333 Y47.092 E22.30917
G1 X151.038 Y47.496 E22.3416
G1 X151.225 Y47.61 E22.35034
G1 X152.158 Y48.252 E22.39554
G1 X152.672 Y48.664 E22.42184
G1 X153.005 Y48.948 E22.4393
G1 X153.839 Y49.745 E22.48535
G1 X153.953 Y49.867 E22.49201
G1 X154.295 Y50.253 E22.51259
G1 X154.576 Y50.586 E22.52998
G1 X155.291 Y51.541 E22.5776
G1 X155.66 Y52.12 E22.605
G1 X155.848 Y52.436 E22.61968
G1 X156.385 Y53.468 E22.66611
G1 X156.604 Y53.955 E22.68742
G1 X156.808 Y54.437 E22.70831
G1 X157.091 Y55.221 E22.74158
G1 X157.298 Y55.914 E22.77045
G1 X157.416 Y56.362 E22.78894
G1 X157.603 Y57.222 E22.82406
G1 X157.727 Y57.946 E22.85338
G1 X158.103 Y60.32 E22.94931
G1 X158.574 Y62.828 E23.05116
G1 X159.109 Y65.292 E23.1518
G1 X159.729 Y67.799 E23.25487
G1 X160.396 Y70.206 E23.35456
G1 X161.151 Y72.657 E23.45692
G1 X161.961 Y75.044 E23.55753
G1 X162.841 Y77.416 E23.6585
G1 X163.793 Y79.776 E23.76007
G1 X165.178 Y82.906 E23.89668
G1 X165.304 Y83.178 E23.90865
G1 X165.743 Y84.286 E23.95621
G1 X165.836 Y84.568 E23.96806
G1 X166.08 Y85.438 E24.00413
G1 X166.289 Y86.663 E24.05373
G1 X166.312 Y86.875 E24.06224
G1 X166.37 Y87.776 E24.09827
G1 X166.363 Y88.403 E24.1233
