;FLAVOR:Marlin
;TIME:1351
;Filament used: 0.798441m
;Layer height: 0.2
;MINX:88.048
;MINY:89.566
;MINZ:0.24
;MAXX:131.951
;MAXY:130.432
;MAXZ:20.04
;Generated with Cura_SteamEngine 4.10.0
M82 ;absolute extrusion mode
M201 X500.00 Y500.00 Z100.00 E5000.00 ;Setup machine max acceleration
M203 X500.00 Y500.00 Z10.00 E50.00 ;Setup machine max feedrate
M204 P500.00 R1000.00 T500.00 ;Setup Print/Retract/Travel acceleration
M205 X8.00 Y8.00 Z0.40 E5.00 ;Setup Jerk
M220 S100 ;Reset Feedrate
M221 S100 ;Reset Flowrate

;*** Start Dual Nozzle/Bed Preheating ***
M140 S50 ; start preheating the bed
M104 S200 ?T0 ; start preheating hotend
M190 S50 ; heat to Cura Bed setting and WAIT
M109 S200 ?T0 ; heat to Cura Hotend and WAIT
;*** End Preheating ***

;*** Single Print Start Tone
M300 S1000 P500 ; chirp to indicate starting to print
;*** End Single Start Tone

G28 ;Home

G92 E0 ;Reset Extruder
G1 Z2.0 F3000 ;Move Z Axis up

G1 X10.1 Y20 Z0.28 F5000.0 ;Move to start position
G1 X10.1 Y200.0 Z0.28 F1500.0 E15 ;Draw the first line
G1 X10.4 Y200.0 Z0.28 F5000.0 ;Move to side a little
G1 X10.4 Y20 Z0.28 F1500.0 E30 ;Draw the second line
G92 E0 ;Reset Extruder
G1 Z2.0 F3000 ;Move Z Axis up
G92 E0
G92 E0
G1 F2400 E-3.2
;LAYER_COUNT:98
;LAYER:0
M106 S63.8
M204 S500
M205 X6 Y6
G0 F9000 X96.443 Y93.233 Z0.24
;TYPE:SKIRT
G1 F1440 E0
G1 F1800 X97.084 Y92.571 E0.03678
G1 X97.779 Y91.967 E0.07353
G1 X98.523 Y91.426 E0.11024
G1 X99.312 Y90.952 E0.14698
G1 X100.139 Y90.547 E0.18373
G1 X100.999 Y90.216 E0.22051
G1 X101.883 Y89.961 E0.25723
G1 X102.787 Y89.784 E0.294
G1 X104.071 Y89.668 E0.34545
G1 X104.835 Y89.646 E0.37596
G1 X108.642 Y89.596 E0.52792
G1 X115.125 Y89.566 E0.78667
G1 X115.784 Y89.572 E0.81298
G1 X116.703 Y89.621 E0.84971
G1 X117.615 Y89.749 E0.88646
G1 X118.512 Y89.955 E0.9232
G1 X119.388 Y90.239 E0.95995
G1 X120.236 Y90.598 E0.9967
G1 X121.049 Y91.028 E1.03341
G1 X121.822 Y91.528 E1.07016
G1 X122.549 Y92.093 E1.1069
G1 X123.224 Y92.719 E1.14365
G1 X123.843 Y93.401 E1.18041
G1 X124.4 Y94.134 E1.21715
G1 X124.783 Y94.73 E1.24543
G1 X125.29 Y95.58 E1.28493
G1 X130.285 Y104.235 E1.68377
G1 X130.611 Y104.82 E1.7105
G1 X131.024 Y105.643 E1.74725
G1 X131.364 Y106.499 E1.78401
G1 X131.628 Y107.381 E1.82076
G1 X131.815 Y108.282 E1.85748
G1 X131.923 Y109.196 E1.89422
G1 X131.951 Y110.117 E1.93099
G1 X131.899 Y111.036 E1.96773
G1 X131.768 Y111.947 E2.00447
G1 X131.558 Y112.843 E2.0412
G1 X131.271 Y113.718 E2.07795
G1 X130.909 Y114.565 E2.11471
G1 X130.596 Y115.167 E2.14179
G1 X130.09 Y116.067 E2.183
G1 X126.975 Y121.404 E2.42964
G1 X125.041 Y124.654 E2.58059
G1 X124.661 Y125.274 E2.60961
G1 X124.146 Y126.037 E2.64635
G1 X123.567 Y126.753 E2.6831
G1 X122.928 Y127.416 E2.71985
G1 X122.234 Y128.021 E2.7566
G1 X121.49 Y128.563 E2.79334
G1 X120.702 Y129.039 E2.83008
G1 X119.875 Y129.445 E2.86685
G1 X119.017 Y129.777 E2.90357
G1 X118.132 Y130.034 E2.94035
G1 X117.229 Y130.213 E2.9771
G1 X115.928 Y130.331 E3.02923
G1 X115.164 Y130.353 E3.05974
G1 X111.208 Y130.404 E3.21765
G1 X104.874 Y130.432 E3.47045
G1 X104.216 Y130.426 E3.49672
G1 X103.297 Y130.377 E3.53345
G1 X102.385 Y130.249 E3.5702
G1 X101.488 Y130.043 E3.60694
G1 X100.612 Y129.759 E3.64369
G1 X99.764 Y129.4 E3.68044
G1 X98.951 Y128.97 E3.71715
G1 X98.177 Y128.47 E3.75393
G1 X97.451 Y127.905 E3.79065
G1 X96.775 Y127.279 E3.82742
G1 X96.157 Y126.597 E3.86415
G1 X95.6 Y125.863 E3.90093
G1 X95.226 Y125.283 E3.92847
G1 X94.705 Y124.413 E3.96895
G1 X89.726 Y115.784 E4.36657
G1 X89.394 Y115.19 E4.39373
G1 X88.98 Y114.367 E4.4305
G1 X88.639 Y113.512 E4.46724
G1 X88.374 Y112.63 E4.50399
G1 X88.186 Y111.729 E4.54073
G1 X88.077 Y110.815 E4.57747
G1 X88.048 Y109.895 E4.6142
G1 X88.098 Y108.976 E4.65094
G1 X88.229 Y108.064 E4.68771
G1 X88.437 Y107.168 E4.72442
G1 X88.723 Y106.292 E4.7612
G1 X89.084 Y105.445 E4.79795
G1 X89.405 Y104.827 E4.82575
G1 X89.885 Y103.975 E4.86478
G1 X92.796 Y98.981 E5.09549
G1 X93.042 Y98.564 E5.11481
G1 X94.989 Y95.292 E5.26678
G1 X95.347 Y94.71 E5.29405
G1 X95.863 Y93.948 E5.33078
G1 X96.443 Y93.233 E5.36752
G0 F9000 X96.766 Y93.473
G1 F1800 X97.396 Y92.826 E5.40357
G1 X98.082 Y92.238 E5.43963
G1 X98.816 Y91.713 E5.47565
G1 X99.594 Y91.254 E5.5117
G1 X100.41 Y90.867 E5.54774
G1 X101.257 Y90.553 E5.5838
G1 X102.128 Y90.315 E5.61984
G1 X103.017 Y90.155 E5.65589
G1 X104.082 Y90.068 E5.69854
G1 X105.008 Y90.043 E5.73551
G1 X108.644 Y89.996 E5.88064
G1 X115.121 Y89.966 E6.13915
G1 X115.78 Y89.972 E6.16546
G1 X116.682 Y90.021 E6.20151
G1 X117.576 Y90.148 E6.23755
G1 X118.455 Y90.355 E6.27359
G1 X119.312 Y90.638 E6.30961
G1 X120.142 Y90.996 E6.34569
G1 X120.936 Y91.426 E6.38173
G1 X121.689 Y91.925 E6.41778
G1 X122.395 Y92.488 E6.45383
G1 X123.048 Y93.111 E6.48985
G1 X123.644 Y93.79 E6.52591
G1 X124.177 Y94.519 E6.56195
G1 X124.44 Y94.935 E6.58159
G1 X124.944 Y95.78 E6.62086
G1 X129.936 Y104.43 E7.01947
G1 X130.262 Y105.015 E7.0462
G1 X130.666 Y105.822 E7.08222
G1 X130.997 Y106.663 E7.11829
G1 X131.253 Y107.529 E7.15433
G1 X131.431 Y108.414 E7.19036
G1 X131.53 Y109.312 E7.22642
G1 X131.549 Y110.215 E7.26247
G1 X131.489 Y111.116 E7.29851
G1 X131.348 Y112.008 E7.33455
G1 X131.13 Y112.884 E7.37058
G1 X130.835 Y113.738 E7.40665
G1 X130.465 Y114.562 E7.4427
G1 X130.247 Y114.971 E7.46119
G1 X129.744 Y115.865 E7.50214
G1 X126.631 Y121.2 E7.74867
G1 X124.7 Y124.445 E7.89938
G1 X124.32 Y125.065 E7.9284
G1 X123.814 Y125.813 E7.96444
G1 X123.244 Y126.514 E8.0005
G1 X122.615 Y127.162 E8.03655
G1 X121.93 Y127.751 E8.07261
G1 X121.197 Y128.278 E8.10864
G1 X120.419 Y128.737 E8.14469
G1 X119.604 Y129.126 E8.18073
G1 X118.758 Y129.441 E8.21676
G1 X117.887 Y129.681 E8.25282
G1 X116.998 Y129.842 E8.28888
G1 X115.917 Y129.931 E8.33217
G1 X115.153 Y129.953 E8.36268
G1 X111.206 Y130.004 E8.52023
G1 X104.878 Y130.032 E8.77279
G1 X104.22 Y130.026 E8.79906
G1 X103.318 Y129.977 E8.83511
G1 X102.424 Y129.85 E8.87115
G1 X101.545 Y129.643 E8.90719
G1 X100.687 Y129.36 E8.94325
G1 X99.858 Y129.002 E8.97929
G1 X99.064 Y128.572 E9.01533
G1 X98.311 Y128.073 E9.05138
G1 X97.605 Y127.51 E9.08743
G1 X96.952 Y126.887 E9.12345
G1 X96.356 Y126.208 E9.15951
G1 X95.823 Y125.479 E9.19555
G1 X95.569 Y125.077 E9.21453
G1 X95.052 Y124.213 E9.25471
G1 X90.075 Y115.588 E9.65216
G1 X89.743 Y114.994 E9.67932
G1 X89.338 Y114.187 E9.71536
G1 X89.006 Y113.348 E9.75137
G1 X88.749 Y112.482 E9.78742
G1 X88.57 Y111.597 E9.82346
G1 X88.47 Y110.699 E9.85952
G1 X88.449 Y109.796 E9.89557
G1 X88.509 Y108.895 E9.93161
G1 X88.648 Y108.003 E9.96765
G1 X88.866 Y107.126 E10.00371
G1 X89.16 Y106.272 E10.03976
G1 X89.528 Y105.448 E10.07578
G1 X89.754 Y105.023 E10.09499
G1 X90.231 Y104.177 E10.13375
G1 X93.141 Y99.184 E10.36441
G1 X93.386 Y98.768 E10.38368
G1 X95.33 Y95.502 E10.53538
G1 X95.688 Y94.92 E10.56265
G1 X96.195 Y94.172 E10.59872
G1 X96.766 Y93.473 E10.63474
G1 F2400 E7.43474
;MESH:KeyHolderMultipleKeys_keychain.stl
G0 F9000 X108.446 Y108.87
G0 X106.926 Y107.766
G0 X106.962 Y109.999
G0 X107.109 Y110.939
G0 X107.542 Y111.785
G0 X108.085 Y112.328
G0 X108.998 Y112.926
G0 X109.135 Y112.659
;TYPE:WALL-OUTER
G1 F1440 E10.63474
G1 F1800 X110 Y112.795 E10.66969
G1 X110.864 Y112.659 E10.7046
G1 X111.643 Y112.261 E10.73951
G1 X112.261 Y111.643 E10.77439
G1 X112.66 Y110.864 E10.80933
G1 X112.795 Y109.999 E10.84427
G1 X112.66 Y109.135 E10.87917
G1 X112.261 Y108.356 E10.9141
G1 X111.643 Y107.737 E10.94901
G1 X110.864 Y107.34 E10.98391
G1 X110 Y107.204 E11.01882
G1 X109.135 Y107.34 E11.05377
G1 X108.356 Y107.737 E11.08866
G1 X107.738 Y108.356 E11.12357
G1 X107.34 Y109.135 E11.15849
G1 X107.204 Y109.999 E11.1934
G1 X107.34 Y110.864 E11.22835
G1 X107.738 Y111.643 E11.26326
G1 X108.356 Y112.261 E11.29814
G1 X109.135 Y112.659 E11.33306
G1 F2400 E8.13306
G0 F9000 X108.998 Y112.926
G0 X109.565 Y112.988
G0 X112.208 Y113.105
G0 X111.129 Y111.553
G0 X118.222 Y116.685
G0 X116.627 Y115.737
G0 X115.349 Y119.249
G0 X115.512 Y119.548
G1 F1440 E11.33306
G1 F1800 X111.055 Y119.605 E11.51096
G1 X104.417 Y119.634 E11.7759
G1 X98.865 Y110.015 E12.21918
G1 X102.207 Y104.282 E12.48403
G1 X104.486 Y100.451 E12.66195
G1 X108.944 Y100.393 E12.83989
G1 X115.582 Y100.364 E13.10483
G1 X121.135 Y109.983 E13.54812
G1 X117.792 Y115.716 E13.813
G1 X115.512 Y119.548 E13.99097
G0 F9000 X115.282 Y119.151
;TYPE:WALL-INNER
G1 F1800 X111.05 Y119.205 E14.15989
G1 X104.647 Y119.233 E14.41545
G1 X99.327 Y110.016 E14.8402
G1 X102.551 Y104.487 E15.09565
G1 X104.716 Y100.848 E15.26465
G1 X108.949 Y100.793 E15.43362
G1 X115.352 Y100.765 E15.68918
G1 X120.673 Y109.981 E16.11391
G1 X117.448 Y115.511 E16.36942
G1 X115.282 Y119.151 E16.53847
G1 F2400 E13.33847
G0 F9000 X111.042 Y118.595
G0 X111.066 Y120.469
G0 X110 Y111.92
G0 X110 Y113.798
G0 X109.01 Y113.044
G1 F1440 E16.53847
G1 F1800 X110 Y113.2 E16.57848
G1 X110.989 Y113.044 E16.61844
G1 X111.881 Y112.588 E16.65842
G1 X112.588 Y111.881 E16.69833
G1 X113.045 Y110.989 E16.73833
G1 X113.2 Y109.999 E16.77832
G1 X113.045 Y109.01 E16.81828
G1 X112.588 Y108.118 E16.85828
G1 X111.881 Y107.409 E16.89824
G1 X110.989 Y106.955 E16.93819
G1 X110 Y106.799 E16.97815
G1 X109.01 Y106.955 E17.01815
G1 X108.118 Y107.409 E17.0581
G1 X107.41 Y108.118 E17.09809
G1 X106.955 Y109.01 E17.13806
G1 X106.799 Y109.999 E17.17802
G1 X106.955 Y110.989 E17.21802
G1 X107.411 Y111.881 E17.258
G1 X108.118 Y112.588 E17.29791
G1 X109.01 Y113.044 E17.33789
G0 F9000 X108.885 Y113.429
G1 F1800 X110 Y113.605 E17.38295
G1 X111.114 Y113.429 E17.42796
G1 X112.119 Y112.915 E17.47301
G1 X112.915 Y112.119 E17.51794
G1 X113.43 Y111.114 E17.56301
G1 X113.605 Y109.999 E17.60806
G1 X113.43 Y108.885 E17.65307
G1 X112.915 Y107.88 E17.69814
G1 X112.119 Y107.081 E17.74315
G1 X111.114 Y106.57 E17.78815
G1 X110 Y106.394 E17.83317
G1 X108.885 Y106.57 E17.87822
G1 X107.88 Y107.081 E17.92322
G1 X107.082 Y107.88 E17.96829
G1 X106.57 Y108.885 E18.01331
G1 X106.394 Y109.999 E18.05832
G1 X106.57 Y111.114 E18.10337
G1 X107.084 Y112.119 E18.14843
G1 X107.88 Y112.915 E18.19336
G1 X108.885 Y113.429 E18.23841
G1 F2400 E15.03841
G0 F9000 X111.174 Y113.612
G0 X110.592 Y111.827
G0 X111.262 Y120.467
G0 X111.238 Y118.593
G0 X115.052 Y118.754
G1 F1440 E18.23841
G1 F1800 X111.045 Y118.805 E18.39835
G1 X104.877 Y118.832 E18.64453
G1 X99.789 Y110.018 E19.05072
G1 X102.895 Y104.692 E19.2968
G1 X104.946 Y101.245 E19.45689
G1 X108.954 Y101.193 E19.61687
G1 X115.122 Y101.166 E19.86305
G1 X120.21 Y109.979 E20.26921
G1 X117.104 Y115.306 E20.51532
G1 X115.052 Y118.754 E20.67547
G0 F9000 X114.829 Y118.366
;TYPE:SKIN
G1 F1800 X111.04 Y118.415 E20.82671
G1 X105.102 Y118.441 E21.06371
G1 X100.24 Y110.019 E21.45184
G1 X103.23 Y104.891 E21.68876
G1 X105.169 Y101.633 E21.84008
G1 X108.959 Y101.583 E21.99136
G1 X114.897 Y101.557 E22.22836
G1 X119.759 Y109.978 E22.61646
G1 X116.769 Y115.107 E22.85341
G1 X114.829 Y118.366 E23.00479
G1 F2400 E19.80479
G0 F9000 X115.067 Y118.511
G0 X116.665 Y115.672
G0 X118.261 Y116.62
G0 X111.554 Y111.128
G0 X113.071 Y112.233
G0 X112.186 Y113.004
G0 X112.351 Y113.235
G1 F1440 E23.00479
G1 F1800 X113.234 Y112.351 E23.05466
G1 X113.806 Y111.237 E23.10464
G1 X113.999 Y109.999 E23.15465
G1 X113.806 Y108.762 E23.20462
G1 X113.235 Y107.648 E23.25458
G1 X112.351 Y106.761 E23.30456
G1 X111.235 Y106.194 E23.35452
G1 X110 Y106 E23.40442
G1 X108.764 Y106.194 E23.45435
G1 X107.648 Y106.761 E23.50431
G1 X106.762 Y107.648 E23.55435
G1 X106.194 Y108.763 E23.6043
G1 X106 Y109.999 E23.65423
G1 X106.194 Y111.237 E23.70424
G1 X106.764 Y112.351 E23.75419
G1 X107.648 Y113.235 E23.80409
G1 X108.762 Y113.805 E23.85403
G1 X110 Y113.999 E23.90404
G1 X111.237 Y113.805 E23.95402
G1 X112.351 Y113.235 E24.00396
G1 F2400 E20.80396
G0 F9000 X112.186 Y113.004
G0 X110 Y113.798
G0 X110 Y111.92
G0 X110.029 Y120.474
G0 X110.02 Y118.6
G0 X105.248 Y118.72
G0 X105.247 Y118.258
G1 F1440 E24.00396
G1 F1800 X105.148 Y118.158 E24.00958
G0 F9000 X105.811 Y118.256
G1 F1800 X104.374 Y116.819 E24.09069
G0 F9000 X103.975 Y117.048
G0 X103.203 Y115.709
G0 X103.601 Y115.481
G1 F1800 X106.374 Y118.253 E24.24718
G0 F9000 X106.937 Y118.251
G1 F1800 X102.828 Y114.142 E24.47911
G0 F9000 X102.43 Y114.37
G0 X101.657 Y113.031
G0 X102.055 Y112.803
G1 F1800 X107.5 Y118.248 E24.78645
G0 F9000 X108.064 Y118.246
G1 F1800 X101.282 Y111.464 E25.16926
G0 F9000 X100.884 Y111.692
G0 X100.111 Y110.354
G0 X100.509 Y110.126
G1 F1800 X108.627 Y118.243 E25.62744
G0 F9000 X109.19 Y118.241
G1 F1800 X100.639 Y109.69 E26.1101
G0 F9000 X100.847 Y109.332
G1 F1800 X109.753 Y118.238 E26.61279
G0 F9000 X110.317 Y118.236
G1 F1800 X101.056 Y108.975 E27.13552
G0 F9000 X101.264 Y108.618
G1 F1800 X110.88 Y118.233 E27.67826
G0 F9000 X111.44 Y118.228
G1 F1800 X101.472 Y108.26 E28.2409
G0 F9000 X101.681 Y107.903
G1 F1800 X111.998 Y118.221 E28.82326
G0 F9000 X112.557 Y118.214
G1 F1800 X107.917 Y113.574 E29.08517
G0 F9000 X108.126 Y113.165
G0 X108.991 Y113.558
G0 X108.919 Y114.011
G1 F1800 X113.115 Y118.207 E29.32201
G0 F9000 X113.674 Y118.199
G1 F1800 X109.59 Y114.116 E29.5525
G0 F9000 X110.19 Y114.15
G1 F1800 X114.232 Y118.192 E29.78065
G0 F9000 X114.751 Y118.145
G1 F1800 X110.679 Y114.074 E30.01046
G0 F9000 X111.168 Y113.996
G1 F1800 X114.962 Y117.79 E30.22461
G0 F9000 X115.172 Y117.435
G1 F1800 X111.572 Y113.834 E30.42784
G0 F9000 X111.947 Y113.644
G1 F1800 X115.384 Y117.081 E30.62183
G0 F9000 X115.594 Y116.726
G1 F1800 X112.321 Y113.452 E30.80661
G0 F9000 X112.636 Y113.202
G1 F1800 X115.806 Y116.372 E30.98553
G0 F9000 X116.017 Y116.017
G1 F1800 X112.919 Y112.919 E31.1604
G0 F9000 X113.202 Y112.636
G1 F1800 X116.228 Y115.662 E31.3312
G0 F9000 X116.439 Y115.307
G1 F1800 X113.451 Y112.319 E31.49985
G0 F9000 X113.642 Y111.945
G1 F1800 X116.649 Y114.952 E31.66958
G0 F9000 X116.858 Y114.595
G1 F1800 X113.834 Y111.572 E31.84024
G0 F9000 X113.997 Y111.169
G1 F1800 X117.066 Y114.238 E32.01347
G0 F9000 X117.275 Y113.88
G1 F1800 X114.074 Y110.679 E32.19415
G0 F9000 X114.15 Y110.19
G1 F1800 X117.482 Y113.523 E32.38225
G0 F9000 X117.691 Y113.166
G1 F1800 X114.116 Y109.59 E32.58407
G0 F9000 X114.011 Y108.919
G1 F1800 X117.9 Y112.808 E32.80358
G0 F9000 X118.108 Y112.451
G1 F1800 X113.574 Y107.917 E33.0595
G0 F9000 X113.164 Y108.125
G0 X111.867 Y106.829
G0 X112.076 Y106.419
G1 F1800 X107.44 Y101.783 E33.32117
G0 F9000 X106.882 Y101.79
G1 F1800 X111.077 Y105.986 E33.55798
G0 F9000 X110.406 Y105.881
G1 F1800 X106.324 Y101.798 E33.78842
G0 F9000 X105.765 Y101.805
G1 F1800 X109.807 Y105.847 E34.01657
G0 F9000 X109.318 Y105.924
G1 F1800 X105.246 Y101.852 E34.24641
G0 F9000 X105.035 Y102.207
G1 F1800 X108.83 Y106.001 E34.46058
G0 F9000 X108.426 Y106.163
G1 F1800 X104.824 Y102.561 E34.6639
G0 F9000 X104.613 Y102.916
G1 F1800 X108.05 Y106.353 E34.8579
G0 F9000 X107.675 Y106.544
G1 F1800 X104.402 Y103.271 E35.04264
G0 F9000 X104.191 Y103.625
G1 F1800 X107.36 Y106.794 E35.22151
G0 F9000 X107.077 Y107.077
G1 F1800 X103.98 Y103.98 E35.39632
G0 F9000 X103.769 Y104.335
G1 F1800 X106.794 Y107.36 E35.56706
G0 F9000 X106.545 Y107.676
G1 F1800 X103.558 Y104.689 E35.73566
G0 F9000 X103.347 Y105.044
G1 F1800 X106.354 Y108.051 E35.90539
G0 F9000 X106.163 Y108.426
G1 F1800 X103.14 Y105.402 E36.07605
G0 F9000 X102.931 Y105.759
G1 F1800 X106.001 Y108.83 E36.24936
G0 F9000 X105.924 Y109.318
G1 F1800 X102.722 Y106.116 E36.4301
G0 F9000 X102.514 Y106.474
G1 F1800 X105.848 Y109.808 E36.61828
G0 F9000 X105.882 Y110.407
G1 F1800 X102.306 Y106.831 E36.82013
G0 F9000 X102.097 Y107.188
G1 F1800 X105.987 Y111.078 E37.0397
G0 F9000 X106.441 Y111.007
G0 X106.835 Y111.874
G0 X106.425 Y112.082
G1 F1800 X101.889 Y107.546 E37.29573
G0 F9000 X101.493 Y107.315
G0 X105.047 Y101.419
G0 X107.994 Y101.315
G0 X107.999 Y101.776
G1 F1800 X118.316 Y112.094 E37.87809
G0 F9000 X118.524 Y111.736
G1 F1800 X108.557 Y101.768 E38.4407
G0 F9000 X109.117 Y101.763
G1 F1800 X118.733 Y111.379 E38.98347
G0 F9000 X118.941 Y111.022
G1 F1800 X109.68 Y101.76 E39.50623
G0 F9000 X110.243 Y101.758
G1 F1800 X119.149 Y110.664 E40.00892
G0 F9000 X119.358 Y110.307
G1 F1800 X110.806 Y101.755 E40.49163
G0 F9000 X111.37 Y101.753
G1 F1800 X119.49 Y109.873 E40.94996
G0 F9000 X119.888 Y109.643
G0 X119.116 Y108.305
G0 X118.717 Y108.535
