;FLAVOR:Marlin
;TIME:1388
;Filament used: 0.807686m
;Layer height: 0.2
;MINX:88.048
;MINY:89.567
;MINZ:0.24
;MAXX:131.951
;MAXY:130.433
;MAXZ:24.56
;Generated with Cura_SteamEngine 4.10.0
M82 ;absolute extrusion mode
M201 X500.00 Y500.00 Z100.00 E5000.00 ;Setup machine max acceleration
M203 X500.00 Y500.00 Z10.00 E50.00 ;Setup machine max feedrate
M204 P500.00 R1000.00 T500.00 ;Setup Print/Retract/Travel acceleration
M205 X8.00 Y8.00 Z0.40 E5.00 ;Setup Jerk
M220 S100 ;Reset Feedrate
M221 S100 ;Reset Flowrate

;*** Start Dual Nozzle/Bed Preheating ***
M140 S50 ; start preheating the bed
M104 S200 ?T0 ; start preheating hotend
M190 S50 ; heat to Cura Bed setting and WAIT
M109 S200 ?T0 ; heat to Cura Hotend and WAIT
;*** End Preheating ***

;*** Single Print Start Tone
M300 S1000 P500 ; chirp to indicate starting to print
;*** End Single Start Tone

G28 ;Home

G92 E0 ;Reset Extruder
G1 Z2.0 F3000 ;Move Z Axis up

G1 X10.1 Y20 Z0.28 F5000.0 ;Move to start position
G1 X10.1 Y200.0 Z0.28 F1500.0 E15 ;Draw the first line
G1 X10.4 Y200.0 Z0.28 F5000.0 ;Move to side a little
G1 X10.4 Y20 Z0.28 F1500.0 E30 ;Draw the second line
G92 E0 ;Reset Extruder
G1 Z2.0 F3000 ;Move Z Axis up
G92 E0
G92 E0
G1 F2400 E-3.2
;LAYER_COUNT:116
;LAYER:0
M106 S63.8
M204 S500
M205 X6 Y6
G0 F9000 X96.443 Y93.234 Z0.24
;TYPE:SKIRT
G1 F1440 E0
G1 F1800 X97.083 Y92.572 E0.03675
G1 X97.778 Y91.968 E0.0735
G1 X98.522 Y91.427 E0.11022
G1 X99.311 Y90.953 E0.14695
G1 X100.138 Y90.548 E0.18371
G1 X100.998 Y90.217 E0.22048
G1 X101.882 Y89.962 E0.25721
G1 X102.786 Y89.785 E0.29397
G1 X104.07 Y89.669 E0.34543
G1 X104.869 Y89.646 E0.37733
G1 X108.79 Y89.595 E0.53384
G1 X115.125 Y89.567 E0.78668
G1 X115.784 Y89.573 E0.81299
G1 X116.703 Y89.622 E0.84972
G1 X117.615 Y89.75 E0.88648
G1 X118.512 Y89.956 E0.92321
G1 X119.388 Y90.24 E0.95996
G1 X120.236 Y90.599 E0.99672
G1 X121.049 Y91.029 E1.03343
G1 X121.822 Y91.529 E1.07017
G1 X122.549 Y92.094 E1.10692
G1 X123.224 Y92.72 E1.14366
G1 X123.843 Y93.402 E1.18042
G1 X124.4 Y94.135 E1.21716
G1 X124.783 Y94.731 E1.24544
G1 X125.29 Y95.581 E1.28494
G1 X130.285 Y104.236 E1.68378
G1 X130.611 Y104.821 E1.71051
G1 X131.024 Y105.644 E1.74726
G1 X131.364 Y106.5 E1.78402
G1 X131.628 Y107.382 E1.82077
G1 X131.815 Y108.283 E1.8575
G1 X131.923 Y109.197 E1.89423
G1 X131.951 Y110.118 E1.93101
G1 X131.899 Y111.037 E1.96774
G1 X131.768 Y111.948 E2.00448
G1 X131.558 Y112.844 E2.04121
G1 X131.271 Y113.719 E2.07796
G1 X130.909 Y114.566 E2.11473
G1 X130.596 Y115.168 E2.14181
G1 X130.09 Y116.068 E2.18302
G1 X126.98 Y121.396 E2.42924
G1 X125.018 Y124.692 E2.58234
G1 X124.655 Y125.283 E2.61002
G1 X124.14 Y126.046 E2.64676
G1 X123.56 Y126.761 E2.68351
G1 X122.921 Y127.423 E2.72023
G1 X122.226 Y128.027 E2.75698
G1 X121.481 Y128.569 E2.79375
G1 X120.693 Y129.044 E2.83047
G1 X119.866 Y129.449 E2.86723
G1 X119.007 Y129.78 E2.90397
G1 X118.123 Y130.036 E2.9407
G1 X117.219 Y130.214 E2.97747
G1 X115.922 Y130.331 E3.02945
G1 X114.977 Y130.356 E3.06718
G1 X110.983 Y130.406 E3.2266
G1 X105.022 Y130.433 E3.46452
G1 X104.201 Y130.425 E3.49729
G1 X103.281 Y130.376 E3.53406
G1 X102.37 Y130.246 E3.57079
G1 X101.473 Y130.038 E3.60754
G1 X100.598 Y129.754 E3.64426
G1 X99.75 Y129.394 E3.68103
G1 X98.937 Y128.962 E3.71777
G1 X98.165 Y128.461 E3.7545
G1 X97.439 Y127.895 E3.79125
G1 X96.764 Y127.268 E3.82802
G1 X96.147 Y126.585 E3.86475
G1 X95.592 Y125.851 E3.90148
G1 X95.223 Y125.278 E3.92868
G1 X94.684 Y124.377 E3.97058
G1 X89.807 Y115.925 E4.36005
G1 X89.395 Y115.189 E4.39372
G1 X88.981 Y114.367 E4.43045
G1 X88.64 Y113.512 E4.46719
G1 X88.374 Y112.63 E4.50396
G1 X88.186 Y111.729 E4.54069
G1 X88.077 Y110.815 E4.57743
G1 X88.048 Y109.895 E4.61417
G1 X88.098 Y108.975 E4.65094
G1 X88.228 Y108.064 E4.68767
G1 X88.437 Y107.167 E4.72443
G1 X88.723 Y106.292 E4.76117
G1 X89.084 Y105.445 E4.79792
G1 X89.408 Y104.821 E4.82598
G1 X89.881 Y103.982 E4.86443
G1 X92.867 Y98.861 E5.10102
G1 X94.98 Y95.306 E5.26608
G1 X95.346 Y94.711 E5.29396
G1 X95.862 Y93.949 E5.33069
G1 X96.443 Y93.234 E5.36746
G0 F9000 X96.765 Y93.474
G1 F1800 X97.395 Y92.827 E5.40351
G1 X98.081 Y92.239 E5.43957
G1 X98.815 Y91.713 E5.47561
G1 X99.593 Y91.255 E5.51164
G1 X100.409 Y90.868 E5.54769
G1 X101.256 Y90.554 E5.58374
G1 X102.127 Y90.316 E5.61978
G1 X103.016 Y90.156 E5.65583
G1 X104.082 Y90.069 E5.69852
G1 X105.043 Y90.043 E5.73689
G1 X108.792 Y89.995 E5.88653
G1 X115.121 Y89.967 E6.13914
G1 X115.78 Y89.973 E6.16544
G1 X116.682 Y90.022 E6.2015
G1 X117.576 Y90.149 E6.23754
G1 X118.455 Y90.356 E6.27358
G1 X119.312 Y90.639 E6.3096
G1 X120.142 Y90.997 E6.34568
G1 X120.936 Y91.427 E6.38172
G1 X121.689 Y91.926 E6.41777
G1 X122.395 Y92.489 E6.45381
G1 X123.048 Y93.112 E6.48983
G1 X123.644 Y93.791 E6.52589
G1 X124.177 Y94.52 E6.56193
G1 X124.44 Y94.936 E6.58158
G1 X124.944 Y95.781 E6.62085
G1 X129.936 Y104.431 E7.01945
G1 X130.262 Y105.016 E7.04618
G1 X130.666 Y105.823 E7.0822
G1 X130.997 Y106.664 E7.11828
G1 X131.253 Y107.53 E7.15432
G1 X131.431 Y108.415 E7.19035
G1 X131.53 Y109.313 E7.22641
G1 X131.549 Y110.216 E7.26245
G1 X131.489 Y111.117 E7.2985
G1 X131.348 Y112.009 E7.33454
G1 X131.13 Y112.885 E7.37057
G1 X130.835 Y113.739 E7.40663
G1 X130.465 Y114.563 E7.44268
G1 X130.247 Y114.972 E7.46118
G1 X129.744 Y115.866 E7.50212
G1 X126.637 Y121.192 E7.74822
G1 X124.752 Y124.36 E7.89535
G1 X124.314 Y125.073 E7.92875
G1 X123.808 Y125.821 E7.96479
G1 X123.238 Y126.521 E8.00082
G1 X122.608 Y127.168 E8.03686
G1 X121.923 Y127.757 E8.07292
G1 X121.188 Y128.283 E8.109
G1 X120.411 Y128.742 E8.14501
G1 X119.595 Y129.13 E8.18108
G1 X118.749 Y129.444 E8.21709
G1 X117.878 Y129.683 E8.25314
G1 X116.989 Y129.843 E8.28919
G1 X115.911 Y129.931 E8.33236
G1 X114.972 Y129.956 E8.36985
G1 X110.981 Y130.006 E8.52915
G1 X105.02 Y130.033 E8.76707
G1 X104.205 Y130.025 E8.7996
G1 X103.303 Y129.976 E8.83566
G1 X102.409 Y129.847 E8.87171
G1 X101.531 Y129.639 E8.90772
G1 X100.673 Y129.355 E8.94379
G1 X99.845 Y128.995 E8.97983
G1 X99.051 Y128.564 E9.01589
G1 X98.299 Y128.064 E9.05193
G1 X97.594 Y127.5 E9.08796
G1 X96.941 Y126.876 E9.12401
G1 X96.347 Y126.196 E9.16005
G1 X95.814 Y125.467 E9.19609
G1 X95.566 Y125.072 E9.21471
G1 X95.03 Y124.177 E9.25635
G1 X90.153 Y115.725 E9.64581
G1 X89.744 Y114.994 E9.67925
G1 X89.338 Y114.187 E9.7153
G1 X89.006 Y113.347 E9.75135
G1 X88.749 Y112.482 E9.78737
G1 X88.57 Y111.596 E9.82344
G1 X88.47 Y110.699 E9.85947
G1 X88.449 Y109.796 E9.89552
G1 X88.509 Y108.895 E9.93156
G1 X88.648 Y108.002 E9.96763
G1 X88.865 Y107.126 E10.00365
G1 X89.159 Y106.272 E10.0397
G1 X89.528 Y105.447 E10.07577
G1 X89.757 Y105.017 E10.09521
G1 X90.227 Y104.184 E10.13339
G1 X93.21 Y99.065 E10.36985
G1 X95.24 Y95.649 E10.52845
G1 X95.687 Y94.921 E10.56255
G1 X96.194 Y94.173 E10.59861
G1 X96.765 Y93.474 E10.63464
G1 F2400 E7.43464
;MESH:KeyHolderMultipleKeys_keychain_hook.stl
G0 F9000 X108.932 Y99.53
G0 X108.946 Y100.614
G0 X115.405 Y100.659
G0 X115.582 Y100.365
;TYPE:WALL-OUTER
G1 F1440 E10.63464
G1 F1800 X121.135 Y109.984 E11.07793
G1 X117.792 Y115.717 E11.34281
G1 X115.512 Y119.548 E11.52074
G1 X111.055 Y119.605 E11.69865
G1 X104.417 Y119.635 E11.96359
G1 X98.865 Y110.015 E12.4069
G1 X102.207 Y104.283 E12.67172
G1 X104.486 Y100.451 E12.84967
G1 X108.943 Y100.394 E13.02757
G1 X115.582 Y100.365 E13.29255
G1 F2400 E10.09255
G0 F9000 X115.405 Y100.659
G0 X118.65 Y107.698
G0 X120.272 Y106.762
G0 X111.827 Y109.408
G0 X113.612 Y108.826
G0 X112.926 Y111.001
G0 X112.659 Y110.864
G1 F1440 E13.29255
G1 F1800 X112.795 Y110 E13.32746
G1 X112.659 Y109.136 E13.36237
G1 X112.261 Y108.357 E13.39728
G1 X111.643 Y107.738 E13.43219
G1 X110.864 Y107.341 E13.46709
G1 X110 Y107.205 E13.502
G1 X109.135 Y107.341 E13.53695
G1 X108.356 Y107.738 E13.57184
G1 X107.738 Y108.357 E13.60675
G1 X107.34 Y109.136 E13.64167
G1 X107.204 Y110 E13.67658
G1 X107.34 Y110.864 E13.71149
G1 X107.738 Y111.643 E13.7464
G1 X108.356 Y112.262 E13.78131
G1 X109.135 Y112.659 E13.81621
G1 X110 Y112.795 E13.85115
G1 X110.864 Y112.659 E13.88606
G1 X111.643 Y112.262 E13.92096
G1 X112.261 Y111.643 E13.95587
G1 X112.659 Y110.864 E13.99079
G0 F9000 X112.926 Y111.001
G0 X112.457 Y111.785
G0 X111.914 Y112.329
G0 X110.989 Y113.044
;TYPE:WALL-INNER
G1 F1800 X111.881 Y112.59 E14.03073
G1 X112.589 Y111.881 E14.07072
G1 X113.044 Y110.989 E14.11069
G1 X113.2 Y110 E14.15065
G1 X113.044 Y109.011 E14.19061
G1 X112.589 Y108.119 E14.23058
G1 X111.881 Y107.41 E14.27057
G1 X110.989 Y106.956 E14.31052
G1 X110 Y106.8 E14.35048
G1 X109.01 Y106.956 E14.39048
G1 X108.118 Y107.41 E14.43043
G1 X107.41 Y108.119 E14.47042
G1 X106.955 Y109.011 E14.51038
G1 X106.799 Y110 E14.55034
G1 X106.955 Y110.989 E14.5903
G1 X107.41 Y111.881 E14.63027
G1 X108.118 Y112.59 E14.67026
G1 X109.01 Y113.044 E14.71021
G1 X110 Y113.2 E14.75021
G1 X110.989 Y113.044 E14.79017
G1 F2400 E11.59017
G0 F9000 X111.785 Y112.458
G0 X112.457 Y111.785
G0 X112.89 Y110.939
G0 X113.037 Y110
G0 X112.89 Y109.061
G0 X112.457 Y108.215
G0 X111.785 Y107.542
G0 X111.023 Y107.154
G0 X109.806 Y106.213
G0 X110 Y108.08
G0 X109.777 Y99.526
G0 X109.786 Y101.4
G0 X108.948 Y100.794
G1 F1440 E14.79017
G1 F1800 X115.352 Y100.766 E15.04577
G1 X120.673 Y109.982 E15.47051
G1 X117.448 Y115.512 E15.72601
G1 X115.282 Y119.151 E15.89503
G1 X111.05 Y119.205 E16.06396
G1 X104.647 Y119.234 E16.31952
G1 X99.327 Y110.017 E16.74427
G1 X102.551 Y104.487 E16.99975
G1 X104.715 Y100.848 E17.16873
G1 X108.948 Y100.794 E17.3377
G1 F2400 E14.1377
G0 F9000 X106.284 Y101.438
G0 X106.26 Y99.563
G0 X108.446 Y108.871
G0 X106.926 Y107.767
G0 X106.394 Y110
G1 F1440 E17.3377
G1 F1800 X106.57 Y111.114 E17.38271
G1 X107.082 Y112.119 E17.42773
G1 X107.88 Y112.918 E17.4728
G1 X108.885 Y113.429 E17.5178
G1 X110 Y113.605 E17.56285
G1 X111.114 Y113.429 E17.60786
G1 X112.119 Y112.918 E17.65286
G1 X112.917 Y112.119 E17.69793
G1 X113.429 Y111.114 E17.74295
G1 X113.605 Y110 E17.78796
G1 X113.429 Y108.886 E17.83298
G1 X112.917 Y107.881 E17.87799
G1 X112.119 Y107.082 E17.92306
G1 X111.114 Y106.571 E17.96806
G1 X110 Y106.395 E18.01308
G1 X108.885 Y106.571 E18.05813
G1 X107.88 Y107.082 E18.10313
G1 X107.082 Y107.881 E18.1482
G1 X106.57 Y108.886 E18.19322
G1 X106.394 Y110 E18.23823
G1 F2400 E15.03823
G0 F9000 X107.542 Y111.785
G0 X108.214 Y112.458
G0 X109.061 Y112.89
G0 X109.821 Y113.008
G0 X112.178 Y113.101
G0 X111.129 Y111.554
G0 X118.216 Y116.696
G0 X116.621 Y115.748
G0 X115.052 Y118.754
G1 F1440 E18.23823
G1 F1800 X111.045 Y118.805 E18.39817
G1 X104.877 Y118.833 E18.64435
G1 X99.789 Y110.019 E19.05054
G1 X102.895 Y104.691 E19.29669
G1 X104.944 Y101.245 E19.45671
G1 X108.953 Y101.194 E19.61673
G1 X115.122 Y101.167 E19.86295
G1 X120.21 Y109.98 E20.2691
G1 X117.104 Y115.307 E20.51522
G1 X115.052 Y118.754 E20.67533
G0 F9000 X114.829 Y118.366
;TYPE:SKIN
G1 F1800 X111.04 Y118.415 E20.82657
G1 X105.102 Y118.442 E21.06357
G1 X100.24 Y110.02 E21.4517
G1 X103.23 Y104.89 E21.68869
G1 X105.167 Y101.633 E21.83994
G1 X108.958 Y101.584 E21.99125
G1 X114.897 Y101.558 E22.2283
G1 X119.759 Y109.979 E22.61639
G1 X116.769 Y115.108 E22.85335
G1 X114.829 Y118.366 E23.00469
G1 F2400 E19.80469
G0 F9000 X115.067 Y118.511
G0 X116.664 Y115.676
G0 X118.259 Y116.624
G0 X111.553 Y111.129
G0 X113.073 Y112.233
G0 X112.186 Y113.007
G0 X112.351 Y113.238
G1 F1440 E23.00469
G1 F1800 X113.237 Y112.351 E23.05473
G1 X113.805 Y111.236 E23.10467
G1 X113.999 Y110 E23.15461
G1 X113.805 Y108.764 E23.20454
G1 X113.237 Y107.649 E23.25448
G1 X112.351 Y106.762 E23.30452
G1 X111.235 Y106.195 E23.35448
G1 X110 Y106.001 E23.40438
G1 X108.764 Y106.195 E23.45432
G1 X107.648 Y106.762 E23.50428
G1 X106.762 Y107.649 E23.55431
G1 X106.194 Y108.764 E23.60426
G1 X106 Y110 E23.65419
G1 X106.194 Y111.236 E23.70413
G1 X106.762 Y112.351 E23.75407
G1 X107.648 Y113.238 E23.80411
G1 X108.764 Y113.805 E23.85407
G1 X110 Y113.999 E23.90401
G1 X111.235 Y113.805 E23.9539
G1 X112.351 Y113.238 E24.00386
G1 F2400 E20.80386
G0 F9000 X112.186 Y113.007
G0 X110 Y113.798
G0 X110 Y111.92
G0 X110.03 Y120.474
G0 X110.021 Y118.6
G0 X105.25 Y118.721
G0 X105.249 Y118.26
G1 F1440 E24.00386
G1 F1800 X105.146 Y118.156 E24.00971
G0 F9000 X105.812 Y118.257
G1 F1800 X104.373 Y116.818 E24.09093
G0 F9000 X103.974 Y117.047
G0 X103.201 Y115.707
G0 X103.599 Y115.479
G1 F1800 X106.375 Y118.255 E24.24762
G0 F9000 X106.938 Y118.252
G1 F1800 X102.826 Y114.14 E24.47972
G0 F9000 X102.428 Y114.368
G0 X101.655 Y113.029
G0 X102.053 Y112.801
G1 F1800 X107.502 Y118.25 E24.78728
G0 F9000 X108.065 Y118.247
G1 F1800 X101.28 Y111.462 E25.17026
G0 F9000 X100.882 Y111.69
G0 X100.11 Y110.352
G0 X100.507 Y110.124
G1 F1800 X108.627 Y118.244 E25.62859
G0 F9000 X109.191 Y118.242
G1 F1800 X100.639 Y109.69 E26.1113
G0 F9000 X100.848 Y109.333
G1 F1800 X109.754 Y118.239 E26.61399
G0 F9000 X110.317 Y118.236
G1 F1800 X101.056 Y108.975 E27.13672
G0 F9000 X101.264 Y108.618
G1 F1800 X110.88 Y118.234 E27.67949
G0 F9000 X111.44 Y118.228
G1 F1800 X101.472 Y108.26 E28.24213
G0 F9000 X101.681 Y107.903
G1 F1800 X111.998 Y118.221 E28.82449
G0 F9000 X112.557 Y118.214
G1 F1800 X107.921 Y113.578 E29.08617
G0 F9000 X108.13 Y113.169
G0 X108.991 Y113.558
G0 X108.919 Y114.01
G1 F1800 X113.115 Y118.207 E29.32304
G0 F9000 X113.674 Y118.199
G1 F1800 X109.59 Y114.116 E29.55353
G0 F9000 X110.19 Y114.15
G1 F1800 X114.232 Y118.192 E29.78167
G0 F9000 X114.751 Y118.145
G1 F1800 X110.679 Y114.074 E30.01149
G0 F9000 X111.168 Y113.996
G1 F1800 X114.962 Y117.79 E30.22564
G0 F9000 X115.173 Y117.436
G1 F1800 X111.572 Y113.834 E30.42892
G0 F9000 X111.947 Y113.644
G1 F1800 X115.384 Y117.081 E30.62292
G0 F9000 X115.595 Y116.727
G1 F1800 X112.322 Y113.453 E30.80769
G0 F9000 X112.638 Y113.204
G1 F1800 X115.806 Y116.372 E30.98651
G0 F9000 X116.017 Y116.017
G1 F1800 X112.921 Y112.921 E31.16126
G0 F9000 X113.204 Y112.638
G1 F1800 X116.228 Y115.662 E31.33195
G0 F9000 X116.439 Y115.308
G1 F1800 X113.453 Y112.321 E31.50052
G0 F9000 X113.643 Y111.946
G1 F1800 X116.65 Y114.953 E31.67024
G0 F9000 X116.858 Y114.595
G1 F1800 X113.834 Y111.571 E31.84093
G0 F9000 X113.996 Y111.167
G1 F1800 X117.067 Y114.238 E32.01427
G0 F9000 X117.275 Y113.881
G1 F1800 X114.073 Y110.679 E32.19501
G0 F9000 X114.149 Y110.189
G1 F1800 X117.483 Y113.523 E32.38319
G0 F9000 X117.692 Y113.166
G1 F1800 X114.115 Y109.59 E32.58507
G0 F9000 X114.009 Y108.918
G1 F1800 X117.9 Y112.808 E32.80466
G0 F9000 X118.108 Y112.451
G1 F1800 X113.574 Y107.917 E33.06058
G0 F9000 X113.165 Y108.124
G0 X111.87 Y106.832
G0 X112.079 Y106.422
G1 F1800 X107.441 Y101.784 E33.32237
G0 F9000 X107.999 Y101.776
G1 F1800 X118.317 Y112.094 E33.90476
G0 F9000 X118.525 Y111.737
G1 F1800 X108.557 Y101.769 E34.4674
G0 F9000 X109.117 Y101.763
G1 F1800 X118.733 Y111.379 E35.01017
G0 F9000 X118.942 Y111.022
G1 F1800 X109.68 Y101.761 E35.53293
G0 F9000 X110.244 Y101.759
G1 F1800 X119.15 Y110.665 E36.03562
G0 F9000 X119.358 Y110.307
G1 F1800 X110.807 Y101.756 E36.51828
G0 F9000 X111.37 Y101.754
G1 F1800 X119.491 Y109.874 E36.97663
G0 F9000 X119.889 Y109.645
G0 X119.115 Y108.305
G0 X118.717 Y108.535
G1 F1800 X111.934 Y101.751 E37.35952
G0 F9000 X112.497 Y101.749
G1 F1800 X117.943 Y107.195 E37.66692
G0 F9000 X118.342 Y106.965
G0 X117.569 Y105.627
G0 X117.171 Y105.857
G1 F1800 X113.06 Y101.747 E37.89893
G0 F9000 X113.624 Y101.744
G1 F1800 X116.397 Y104.518 E38.05548
G0 F9000 X116.796 Y104.288
G0 X116.022 Y102.948
G0 X115.623 Y103.178
G1 F1800 X114.187 Y101.742 E38.13653
G0 F9000 X114.75 Y101.739
G1 F1800 X114.851 Y101.84 E38.14223
G1 F2400 E34.94223
G0 F9000 X115.25 Y101.61
G0 X116.214 Y103.438
G0 X117.819 Y102.512
G0 X111.129 Y108.446
G0 X112.233 Y106.926
G0 X111.008 Y106.442
G0 X111.08 Y105.988
G1 F1440 E38.14223
G1 F1800 X106.882 Y101.791 E38.37916
G0 F9000 X106.324 Y101.798
G1 F1800 X110.409 Y105.883 E38.60974
G0 F9000 X109.808 Y105.848
G1 F1800 X105.765 Y101.805 E38.83794
G0 F9000 X105.245 Y101.851
G1 F1800 X109.319 Y105.925 E39.06789
G0 F9000 X108.83 Y106.002
G1 F1800 X105.035 Y102.206 E39.28213
G0 F9000 X104.823 Y102.56
G1 F1800 X108.427 Y106.164 E39.48555
G0 F9000 X108.051 Y106.354
G1 F1800 X104.612 Y102.915 E39.67967
G0 F9000 X104.401 Y103.27
G1 F1800 X107.676 Y106.544 E39.86449
G0 F9000 X107.36 Y106.795
