;FLAVOR:Marlin
;TIME:1241
;Filament used: 0.742369m
;Layer height: 0.2
;MINX:88.179
;MINY:89.678
;MINZ:0.24
;MAXX:131.818
;MAXY:130.32
;MAXZ:19.72
;Generated with Cura_SteamEngine 4.10.0
M82 ;absolute extrusion mode
M201 X500.00 Y500.00 Z100.00 E5000.00 ;Setup machine max acceleration
M203 X500.00 Y500.00 Z10.00 E50.00 ;Setup machine max feedrate
M204 P500.00 R1000.00 T500.00 ;Setup Print/Retract/Travel acceleration
M205 X8.00 Y8.00 Z0.40 E5.00 ;Setup Jerk
M220 S100 ;Reset Feedrate
M221 S100 ;Reset Flowrate

;*** Start Dual Nozzle/Bed Preheating ***
M140 S50 ; start preheating the bed
M104 S200 ?T0 ; start preheating hotend
M190 S50 ; heat to Cura Bed setting and WAIT
M109 S200 ?T0 ; heat to Cura Hotend and WAIT
;*** End Preheating ***

;*** Single Print Start Tone
M300 S1000 P500 ; chirp to indicate starting to print
;*** End Single Start Tone

G28 ;Home

G92 E0 ;Reset Extruder
G1 Z2.0 F3000 ;Move Z Axis up

G1 X10.1 Y20 Z0.28 F5000.0 ;Move to start position
G1 X10.1 Y200.0 Z0.28 F1500.0 E15 ;Draw the first line
G1 X10.4 Y200.0 Z0.28 F5000.0 ;Move to side a little
G1 X10.4 Y20 Z0.28 F1500.0 E30 ;Draw the second line
G92 E0 ;Reset Extruder
G1 Z2.0 F3000 ;Move Z Axis up
G92 E0
G92 E0
G1 F2400 E-3.2
;LAYER_COUNT:96
;LAYER:0
M106 S63.8
M204 S500
M205 X6 Y6
G0 F9000 X97.001 Y92.711 Z0.24
;TYPE:SKIRT
G1 F1440 E0
G1 F1800 X97.688 Y92.098 E0.03675
G1 X98.425 Y91.547 E0.07348
G1 X99.207 Y91.061 E0.11022
G1 X100.029 Y90.645 E0.14699
G1 X100.883 Y90.302 E0.18372
G1 X101.764 Y90.035 E0.22047
G1 X102.665 Y89.845 E0.25722
G1 X103.579 Y89.734 E0.29397
G1 X104.221 Y89.704 E0.31962
G1 X105.037 Y89.691 E0.35219
G1 X114.914 Y89.678 E0.7464
G1 X115.761 Y89.688 E0.78021
G1 X116.68 Y89.74 E0.81695
G1 X117.591 Y89.871 E0.85368
G1 X118.488 Y90.081 E0.89045
G1 X119.363 Y90.368 E0.92721
G1 X120.209 Y90.73 E0.96393
G1 X121.021 Y91.164 E1.00068
G1 X121.792 Y91.667 E1.03742
G1 X122.517 Y92.234 E1.07416
G1 X123.19 Y92.863 E1.11092
G1 X123.806 Y93.547 E1.14766
G1 X124.36 Y94.283 E1.18443
G1 X124.724 Y94.851 E1.21135
G1 X125.175 Y95.608 E1.24652
G1 X130.144 Y104.218 E1.64329
G1 X130.453 Y104.769 E1.6685
G1 X130.704 Y105.244 E1.68995
G1 X131.08 Y106.084 E1.72668
G1 X131.381 Y106.954 E1.76342
G1 X131.605 Y107.847 E1.80017
G1 X131.752 Y108.756 E1.83692
G1 X131.818 Y109.674 E1.87365
G1 X131.805 Y110.595 E1.91041
G1 X131.712 Y111.511 E1.94716
G1 X131.54 Y112.415 E1.98389
G1 X131.291 Y113.301 E2.02062
G1 X130.965 Y114.162 E2.05737
G1 X130.47 Y115.166 E2.10204
G1 X130.009 Y115.986 E2.13959
G1 X125.048 Y124.552 E2.53468
G1 X124.699 Y125.136 E2.56183
G1 X124.193 Y125.905 E2.59857
G1 X123.622 Y126.627 E2.63531
G1 X122.99 Y127.297 E2.67207
G1 X122.303 Y127.909 E2.70879
G1 X121.565 Y128.46 E2.74555
G1 X120.783 Y128.945 E2.78228
G1 X119.961 Y129.359 E2.81901
G1 X119.106 Y129.701 E2.85577
G1 X118.225 Y129.968 E2.89251
G1 X117.324 Y130.157 E2.92925
G1 X116.3 Y130.275 E2.97039
G1 X115.729 Y130.299 E2.9932
G1 X114.981 Y130.309 E3.02306
G1 X104.907 Y130.32 E3.42513
G1 X104.234 Y130.311 E3.452
G1 X103.315 Y130.259 E3.48874
G1 X102.404 Y130.127 E3.52547
G1 X101.508 Y129.917 E3.56221
G1 X100.633 Y129.629 E3.59897
G1 X99.787 Y129.267 E3.6357
G1 X98.975 Y128.833 E3.67245
G1 X98.204 Y128.33 E3.70919
G1 X97.479 Y127.762 E3.74595
G1 X96.807 Y127.133 E3.78268
G1 X96.191 Y126.448 E3.81945
G1 X95.638 Y125.712 E3.8562
G1 X95.274 Y125.144 E3.88312
G1 X94.791 Y124.333 E3.9208
G1 X89.835 Y115.743 E4.31661
G1 X89.52 Y115.178 E4.34243
G1 X89.107 Y114.355 E4.37918
G1 X88.767 Y113.499 E4.41594
G1 X88.502 Y112.617 E4.4527
G1 X88.315 Y111.716 E4.48943
G1 X88.207 Y110.802 E4.52616
G1 X88.179 Y109.882 E4.5629
G1 X88.231 Y108.962 E4.59967
G1 X88.362 Y108.051 E4.63641
G1 X88.572 Y107.155 E4.67314
G1 X88.858 Y106.28 E4.70988
G1 X89.22 Y105.433 E4.74664
G1 X89.531 Y104.834 E4.77358
G1 X89.99 Y104.018 E4.81095
G1 X94.929 Y95.489 E5.20432
G1 X95.295 Y94.875 E5.23285
G1 X95.8 Y94.105 E5.2696
G1 X96.37 Y93.382 E5.30634
G1 X97.001 Y92.711 E5.34311
G0 F9000 X97.317 Y92.962
G1 F1800 X97.994 Y92.364 E5.37916
G1 X98.722 Y91.829 E5.41522
G1 X99.493 Y91.36 E5.45124
G1 X100.304 Y90.961 E5.48731
G1 X101.146 Y90.635 E5.52335
G1 X102.014 Y90.385 E5.5594
G1 X102.9 Y90.213 E5.59542
G1 X104.228 Y90.103 E5.64861
G1 X105.038 Y90.091 E5.68094
G1 X114.915 Y90.078 E6.07515
G1 X115.756 Y90.088 E6.10872
G1 X116.658 Y90.139 E6.14478
G1 X117.551 Y90.271 E6.18081
G1 X118.429 Y90.48 E6.21683
G1 X119.286 Y90.767 E6.2529
G1 X120.114 Y91.128 E6.28895
G1 X120.906 Y91.561 E6.32498
G1 X121.657 Y92.063 E6.36103
G1 X122.361 Y92.629 E6.39709
G1 X123.012 Y93.254 E6.4331
G1 X123.605 Y93.936 E6.46918
G1 X124.136 Y94.666 E6.5052
G1 X124.38 Y95.056 E6.52356
G1 X124.829 Y95.808 E6.55852
G1 X129.796 Y104.414 E6.95511
G1 X130.105 Y104.965 E6.98032
G1 X130.346 Y105.422 E7.00094
G1 X130.714 Y106.247 E7.037
G1 X131.007 Y107.101 E7.07303
G1 X131.224 Y107.978 E7.10909
G1 X131.362 Y108.871 E7.14516
G1 X131.421 Y109.772 E7.1812
G1 X131.4 Y110.675 E7.21725
G1 X131.299 Y111.572 E7.25327
G1 X131.119 Y112.457 E7.28932
G1 X130.861 Y113.323 E7.32538
G1 X130.528 Y114.162 E7.36141
G1 X130.121 Y114.971 E7.39756
G1 X129.663 Y115.785 E7.43483
G1 X127.357 Y119.766 E7.61846
G1 X124.778 Y124.223 E7.82398
G1 X124.356 Y124.93 E7.85684
G1 X123.859 Y125.684 E7.89288
G1 X123.297 Y126.391 E7.92893
G1 X122.674 Y127.046 E7.96501
G1 X121.997 Y127.643 E8.00104
G1 X121.269 Y128.178 E8.03709
G1 X120.497 Y128.646 E8.07313
G1 X119.686 Y129.044 E8.10918
G1 X118.843 Y129.369 E8.14524
G1 X117.975 Y129.618 E8.18128
G1 X117.088 Y129.789 E8.21734
G1 X116.273 Y129.876 E8.25005
G1 X115.723 Y129.899 E8.27202
G1 X114.98 Y129.909 E8.30168
G1 X104.913 Y129.92 E8.70348
G1 X104.24 Y129.911 E8.73034
G1 X103.338 Y129.859 E8.7664
G1 X102.445 Y129.727 E8.80243
G1 X101.566 Y129.517 E8.8385
G1 X100.71 Y129.23 E8.87453
G1 X99.882 Y128.869 E8.91058
G1 X99.09 Y128.435 E8.94663
G1 X98.339 Y127.934 E8.98266
G1 X97.636 Y127.367 E9.01871
G1 X96.985 Y126.741 E9.05475
G1 X96.392 Y126.06 E9.0908
G1 X95.862 Y125.329 E9.12683
G1 X95.617 Y124.939 E9.14522
G1 X95.213 Y124.262 E9.17668
G1 X90.184 Y115.548 E9.57824
G1 X89.869 Y114.983 E9.60406
G1 X89.465 Y114.175 E9.64011
G1 X89.133 Y113.335 E9.67616
G1 X88.877 Y112.469 E9.71221
G1 X88.699 Y111.584 E9.74823
G1 X88.6 Y110.686 E9.78429
G1 X88.581 Y109.783 E9.82034
G1 X88.641 Y108.882 E9.85638
G1 X88.781 Y107.99 E9.89242
G1 X89 Y107.114 E9.92846
G1 X89.295 Y106.26 E9.96452
G1 X89.664 Y105.436 E10.00055
G1 X89.88 Y105.029 E10.01894
G1 X90.336 Y104.218 E10.05608
G1 X95.272 Y95.693 E10.44925
G1 X95.638 Y95.079 E10.47778
G1 X96.135 Y94.325 E10.51382
G1 X96.696 Y93.617 E10.54988
G1 X97.317 Y92.962 E10.5859
G1 F2400 E7.3859
;MESH:KeyHolderMultipleKeys_keychain.3mf
G0 F9000 X103.699 Y100.167
G0 X104.635 Y100.709
G0 X114.954 Y101.453
G0 X119.877 Y109.984
G0 X115.326 Y119.208
G0 X115.49 Y119.508
;TYPE:WALL-OUTER
G1 F1440 E10.5859
G1 F1800 X104.484 Y119.522 E11.02517
G1 X98.997 Y110.015 E11.46328
G1 X104.51 Y100.492 E11.90246
G1 X115.516 Y100.477 E12.34174
G1 X121.004 Y109.985 E12.7799
G1 X118.326 Y114.607 E12.9931
G1 X115.49 Y119.508 E13.2191
G0 F9000 X115.259 Y119.108
;TYPE:WALL-INNER
G1 F1800 X104.714 Y119.122 E13.63997
G1 X99.459 Y110.015 E14.05962
G1 X104.74 Y100.892 E14.48035
G1 X115.286 Y100.877 E14.90126
G1 X120.542 Y109.984 E15.32093
G1 X115.259 Y119.108 E15.74173
G0 F9000 X115.029 Y118.708
G1 F1800 X104.944 Y118.722 E16.14425
G1 X99.921 Y110.015 E16.54544
G1 X104.97 Y101.292 E16.94771
G1 X115.056 Y101.277 E17.35027
G1 X120.08 Y109.984 E17.75148
G1 X115.029 Y118.708 E18.15383
G0 F9000 X114.805 Y118.318
;TYPE:SKIN
G1 F1800 X105.169 Y118.332 E18.53842
G1 X100.371 Y110.014 E18.92168
G1 X105.194 Y101.682 E19.30592
G1 X114.831 Y101.667 E19.69056
G1 X119.63 Y109.985 E20.07384
G1 X114.805 Y118.318 E20.45816
G0 F9000 X115.046 Y118.458
G0 X114.98 Y118.499
G0 X105.705 Y118.612
G0 X105.705 Y118.15
G1 F1800 X104.68 Y117.125 E20.51601
G0 F9000 X104.282 Y117.353
G0 X103.511 Y116.016
G0 X103.909 Y115.788
G1 F1800 X106.269 Y118.149 E20.64925
G0 F9000 X106.834 Y118.148
G1 F1800 X103.138 Y114.452 E20.85787
G0 F9000 X102.74 Y114.68
G0 X101.97 Y113.344
G0 X102.368 Y113.116
G1 F1800 X107.399 Y118.147 E21.14184
G0 F9000 X107.964 Y118.146
G1 F1800 X101.597 Y111.78 E21.50119
G0 F9000 X101.199 Y112.008
G0 X100.428 Y110.672
G0 X100.827 Y110.443
G1 F1800 X108.529 Y118.146 E21.93595
G0 F9000 X109.093 Y118.144
G1 F1800 X100.718 Y109.769 E22.40868
G0 F9000 X100.926 Y109.411
G1 F1800 X109.658 Y118.144 E22.90158
G0 F9000 X110.223 Y118.143
G1 F1800 X101.133 Y109.053 E23.41465
G0 F9000 X101.341 Y108.695
G1 F1800 X110.788 Y118.142 E23.94788
G0 F9000 X111.353 Y118.141
G1 F1800 X101.548 Y108.336 E24.50132
G0 F9000 X101.756 Y107.978
G1 F1800 X111.918 Y118.14 E25.07491
G0 F9000 X112.483 Y118.139
G1 F1800 X101.963 Y107.62 E25.66867
G0 F9000 X102.17 Y107.261
G1 F1800 X113.047 Y118.139 E26.28265
G0 F9000 X113.612 Y118.138
G1 F1800 X102.377 Y106.903 E26.9168
G0 F9000 X102.585 Y106.545
G1 F1800 X114.177 Y118.137 E27.5711
G0 F9000 X114.717 Y118.111
G1 F1800 X102.792 Y106.186 E28.2442
G0 F9000 X103 Y105.828
G1 F1800 X114.924 Y117.753 E28.91727
G0 F9000 X115.131 Y117.394
G1 F1800 X103.207 Y105.469 E29.59034
G0 F9000 X103.415 Y105.112
G1 F1800 X115.339 Y117.036 E30.26338
G0 F9000 X115.546 Y116.678
G1 F1800 X103.622 Y104.753 E30.93645
G0 F9000 X103.829 Y104.395
G1 F1800 X115.754 Y116.319 E31.60952
G0 F9000 X115.961 Y115.961
G1 F1800 X104.036 Y104.036 E32.28262
G0 F9000 X104.244 Y103.678
G1 F1800 X116.169 Y115.603 E32.95572
G0 F9000 X116.376 Y115.244
G1 F1800 X104.451 Y103.32 E33.62879
G0 F9000 X104.658 Y102.961
G1 F1800 X116.584 Y114.887 E34.30195
G0 F9000 X116.791 Y114.528
G1 F1800 X104.866 Y102.603 E34.97504
G0 F9000 X105.073 Y102.245
G1 F1800 X116.998 Y114.17 E35.64814
G0 F9000 X117.206 Y113.812
G1 F1800 X105.281 Y101.887 E36.32124
G0 F9000 X105.821 Y101.861
G1 F1800 X117.413 Y113.453 E36.97554
G0 F9000 X117.62 Y113.095
G1 F1800 X106.386 Y101.86 E37.60967
G0 F9000 X106.951 Y101.86
G1 F1800 X117.828 Y112.737 E38.22361
G0 F9000 X118.035 Y112.379
G1 F1800 X107.515 Y101.858 E38.81743
G0 F9000 X108.08 Y101.858
G1 F1800 X118.243 Y112.02 E39.39105
G0 F9000 X118.45 Y111.662
G1 F1800 X108.645 Y101.857 E39.94449
G0 F9000 X109.209 Y101.855
G1 F1800 X118.658 Y111.304 E40.47783
G0 F9000 X118.865 Y110.945
G1 F1800 X109.774 Y101.855 E40.99094
G0 F9000 X110.339 Y101.854
G1 F1800 X119.073 Y110.587 E41.48389
G0 F9000 X119.28 Y110.229
G1 F1800 X110.904 Y101.853 E41.95667
G0 F9000 X111.469 Y101.852
G1 F1800 X119.175 Y109.558 E42.39163
G0 F9000 X119.574 Y109.329
G0 X118.803 Y107.992
G0 X118.404 Y108.221
G1 F1800 X112.033 Y101.851 E42.75121
G0 F9000 X112.598 Y101.85
G1 F1800 X117.633 Y106.885 E43.03541
G0 F9000 X118.032 Y106.656
G0 X117.261 Y105.32
G0 X116.862 Y105.549
G1 F1800 X113.163 Y101.849 E43.24422
G0 F9000 X113.728 Y101.848
G1 F1800 X116.092 Y104.212 E43.37766
G0 F9000 X116.49 Y103.984
G0 X115.719 Y102.648
G0 X115.321 Y102.876
G1 F1800 X114.293 Y101.848 E43.43568
M104 S200
G0 F9000 X114.293 Y101.087
;MESH:NONMESH
G0 F300 X114.293 Y101.087 Z0.4
G0 F9000 X114.954 Y101.453
G0 X119.877 Y109.984
G0 X115.325 Y119.222
G0 X115.646 Y119.779
;TIME_ELAPSED:49.486756
;LAYER:1
M140 S40
M106 S127.5
;TYPE:WALL-OUTER
;MESH:KeyHolderMultipleKeys_keychain.3mf
G1 F2025 X105.357 Y119.791 E43.70945
G1 X104.326 Y119.794 E43.73689
G1 X98.681 Y110.015 E44.03733
G1 X104.353 Y100.22 E44.3385
G1 X114.642 Y100.208 E44.61227
G1 X115.673 Y100.205 E44.6397
G1 X121.317 Y109.984 E44.94013
G1 X115.646 Y119.779 E45.24129
G0 F10500 X115.416 Y119.379
;TYPE:WALL-INNER
G1 F2025 X104.556 Y119.393 E45.53025
G1 X99.143 Y110.015 E45.81837
G1 X104.583 Y100.62 E46.10723
G1 X115.443 Y100.606 E46.3962
G1 X120.855 Y109.984 E46.6843
G1 X115.416 Y119.379 E46.97315
G0 F10500 X115.186 Y118.979
G1 F2025 X104.786 Y118.993 E47.24987
G1 X99.605 Y110.015 E47.52569
G1 X104.813 Y101.02 E47.80225
G1 X115.213 Y101.006 E48.07897
G1 X120.393 Y109.984 E48.35477
G1 X115.186 Y118.979 E48.63132
G0 F10500 X114.962 Y118.589
;TYPE:SKIN
G1 F2025 X105.011 Y118.603 E48.8961
G1 X100.055 Y110.014 E49.15995
G1 X105.037 Y101.41 E49.4245
G1 X114.988 Y101.396 E49.68927
G1 X119.943 Y109.985 E49.95311
G1 X114.962 Y118.589 E50.21765
G0 F10500 X114.653 Y118.409
G1 F2025 X115.14 Y117.922 E50.23597
G0 F10500 X115.537 Y118.153
G0 X115.085 Y118.803
G0 X114.086 Y118.871
G0 X114.086 Y118.409
G1 F2025 X115.917 Y116.579 E50.30485
G0 F10500 X116.314 Y116.81
G0 X117.091 Y115.467
G0 X116.694 Y115.236
G1 F2025 X113.52 Y118.41 E50.42429
G0 F10500 X112.953 Y118.411
G1 F2025 X117.472 Y113.892 E50.59434
G0 F10500 X117.869 Y114.123
G0 X118.646 Y112.781
G0 X118.249 Y112.55
G1 F2025 X112.387 Y118.412 E50.81492
G0 F10500 X111.821 Y118.412
G1 F2025 X119.026 Y111.207 E51.08604
G0 F10500 X119.423 Y111.438
G0 X120.19 Y109.984
G0 X120.114 Y109.723
G0 X119.715 Y109.952
G1 F2025 X111.254 Y118.414 E51.40444
G0 F10500 X110.687 Y118.414
G1 F2025 X119.508 Y109.593 E51.73637
G0 F10500 X119.301 Y109.235
G1 F2025 X110.121 Y118.415 E52.08181
G0 F10500 X109.554 Y118.416
G1 F2025 X119.094 Y108.876 E52.4408
G0 F10500 X118.887 Y108.517
G1 F2025 X108.988 Y118.417 E52.81331
G0 F10500 X108.422 Y118.417
G1 F2025 X118.68 Y108.159 E53.19932
G0 F10500 X118.473 Y107.8
G1 F2025 X107.855 Y118.418 E53.59887
G0 F10500 X107.289 Y118.419
G1 F2025 X118.267 Y107.441 E54.01196
G0 F10500 X118.059 Y107.082
G1 F2025 X106.722 Y118.419 E54.43857
G0 F10500 X106.156 Y118.42
G1 F2025 X117.852 Y106.724 E54.87869
G0 F10500 X117.646 Y106.365
G1 F2025 X105.589 Y118.422 E55.33239
G0 F10500 X105.081 Y118.364
G1 F2025 X117.439 Y106.006 E55.79741
G0 F10500 X117.231 Y105.648
G1 F2025 X104.874 Y118.005 E56.2624
G0 F10500 X104.667 Y117.647
G1 F2025 X117.025 Y105.288 E56.72744
G0 F10500 X116.818 Y104.93
G1 F2025 X104.46 Y117.287 E57.19245
G0 F10500 X104.253 Y116.929
G1 F2025 X116.611 Y104.571 E57.65748
G0 F10500 X116.404 Y104.212
G1 F2025 X104.046 Y116.57 E58.1225
G0 F10500 X103.84 Y116.211
G1 F2025 X116.197 Y103.854 E58.58749
G0 F10500 X115.99 Y103.495
G1 F2025 X103.632 Y115.853 E59.05252
G0 F10500 X103.425 Y115.494
G1 F2025 X115.783 Y103.136 E59.51754
G0 F10500 X115.576 Y102.777
G1 F2025 X103.219 Y115.135 E59.98255
G0 F10500 X103.012 Y114.776
G1 F2025 X115.369 Y102.419 E60.44754
G0 F10500 X115.162 Y102.06
G1 F2025 X102.804 Y114.418 E60.91257
G0 F10500 X102.598 Y114.059
G1 F2025 X114.955 Y101.701 E61.37757
G0 F10500 X114.515 Y101.576
G1 F2025 X102.391 Y113.7 E61.83379
G0 F10500 X102.184 Y113.342
G1 F2025 X113.948 Y101.577 E62.27649
G0 F10500 X113.382 Y101.578
G1 F2025 X101.977 Y112.982 E62.70563
G0 F10500 X101.77 Y112.624
G1 F2025 X112.815 Y101.579 E63.12125
G0 F10500 X112.248 Y101.58
G1 F2025 X101.563 Y112.265 E63.52332
G0 F10500 X101.356 Y111.906
G1 F2025 X111.682 Y101.58 E63.91188
G0 F10500 X111.116 Y101.581
G1 F2025 X101.149 Y111.548 E64.28694
G0 F10500 X100.942 Y111.189
G1 F2025 X110.549 Y101.582 E64.64845
G0 F10500 X109.983 Y101.582
G1 F2025 X100.735 Y110.83 E64.99644
G0 F10500 X100.528 Y110.471
G1 F2025 X109.416 Y101.583 E65.3309
G0 F10500 X108.85 Y101.584
G1 F2025 X100.321 Y110.113 E65.65184
G0 F10500 X99.922 Y110.342
G0 X99.82 Y110.048
G0 X100.428 Y108.815
G0 X100.823 Y109.045
G1 F2025 X108.284 Y101.585 E65.93257
G0 F10500 X107.717 Y101.585
G1 F2025 X101.601 Y107.702 E66.16273
G0 F10500 X101.205 Y107.472
G0 X101.984 Y106.128
G0 X102.379 Y106.358
G1 F2025 X107.15 Y101.587 E66.34226
G0 F10500 X106.584 Y101.587
G1 F2025 X103.156 Y105.015 E66.47126
G0 F10500 X102.761 Y104.785
G0 X103.539 Y103.441
G0 X103.934 Y103.671
G1 F2025 X106.017 Y101.588 E66.54964
G0 F10500 X105.451 Y101.589
G1 F2025 X104.712 Y102.328 E66.57745
G0 F10500 X104.057 Y101.948
G1 F2400 E63.37745
;MESH:NONMESH
G0 F300 X104.057 Y101.948 Z0.56
G0 F10500 X99.808 Y110.015
G0 X104.888 Y118.817
G0 X115.482 Y119.493
G0 X115.747 Y119.952
;TIME_ELAPSED:83.563232
;LAYER:2
M106 S191.3
;TYPE:WALL-OUTER
;MESH:KeyHolderMultipleKeys_keychain.3mf
G1 F1440 E66.57745
G1 F2250 X104.226 Y119.967 E66.884
G1 X98.481 Y110.015 E67.18976
G1 X104.253 Y100.047 E67.49625
G1 X115.774 Y100.031 E67.8028
G1 X121.518 Y109.984 E68.10857
G1 X115.747 Y119.952 E68.41504
G0 F12000 X115.517 Y119.552
