;FLAVOR:Marlin
;TIME:25283
;Filament used: 21.4569m
;Layer height: 0.24
;MINX:37.005
;MINY:14.414
;MINZ:0.24
;MAXX:202.703
;MAXY:205.63
;MAXZ:11.8
;Generated with Cura_SteamEngine 4.10.0
M82 ;absolute extrusion mode
M201 X500.00 Y500.00 Z100.00 E5000.00 ;Setup machine max acceleration
M203 X500.00 Y500.00 Z10.00 E50.00 ;Setup machine max feedrate
M204 P500.00 R1000.00 T500.00 ;Setup Print/Retract/Travel acceleration
M205 X8.00 Y8.00 Z0.40 E5.00 ;Setup Jerk
M220 S100 ;Reset Feedrate
M221 S100 ;Reset Flowrate

;*** Start Dual Nozzle/Bed Preheating ***
M140 S50 ; start preheating the bed
M104 S195 ?T0 ; start preheating hotend
M190 S50 ; heat to Cura Bed setting and WAIT
M109 S195 ?T0 ; heat to Cura Hotend and WAIT
;*** End Preheating ***

;*** Single Print Start Tone
M300 S1000 P500 ; chirp to indicate starting to print
;*** End Single Start Tone

G28 ;Home

G92 E0 ;Reset Extruder
G1 Z2.0 F3000 ;Move Z Axis up

G1 X10.1 Y20 Z0.28 F5000.0 ;Move to start position
G1 X10.1 Y200.0 Z0.28 F1500.0 E15 ;Draw the first line
G1 X10.4 Y200.0 Z0.28 F5000.0 ;Move to side a little
G1 X10.4 Y20 Z0.28 F1500.0 E30 ;Draw the second line
G92 E0 ;Reset Extruder
G1 Z2.0 F3000 ;Move Z Axis up
G92 E0
G92 E0
G1 F2400 E-3.2
;LAYER_COUNT:45
;LAYER:0
M106 S63.8
M204 S500
M205 X6 Y6
;MESH:keyholderVersion1.stl
G0 F9000 X41.635 Y38.225 Z0.24
;TYPE:WALL-OUTER
G1 F1440 E0
G1 F1800 X52.666 Y44.597 E0.50845
G1 X63.693 Y38.23 E1.01665
G1 X63.69 Y25.493 E1.52502
G1 X52.66 Y19.121 E2.03343
G1 X41.633 Y25.488 E2.54163
G1 X41.635 Y37.56 E3.02345
G0 F1620 X41.635 Y38.225
G1 F2400 E-0.17655
G0 F9000 X41.484 Y38.483
G0 X43.434 Y40.385
G0 X44.351 Y38.796
G0 X49.727 Y48.55
G0 X52.011 Y49.932
G0 X52.063 Y52.79
G0 X57.499 Y62.651
G0 X55.665 Y62.652
G0 X56.484 Y64.464
G0 X56.635 Y64.206
G1 F1440 E3.02345
G1 F1800 X67.666 Y70.578 E3.5319
G1 X78.693 Y64.211 E4.04011
G1 X78.69 Y51.474 E4.54847
G1 X67.66 Y45.101 E5.0569
G1 X56.633 Y51.468 E5.56511
G1 X56.635 Y63.541 E6.04697
G0 F1620 X56.635 Y64.206
G1 F2400 E2.84697
G0 F9000 X56.484 Y64.464
G0 X56.401 Y64.34
G0 X56.399 Y51.334
G0 X68.163 Y44.248
G0 X67.66 Y46.094
G0 X72.511 Y37.72
G0 X71.155 Y39.072
G0 X71.501 Y38.474
G0 X71.652 Y38.216
G1 F1440 E6.04697
G1 F1800 X82.682 Y44.587 E6.55536
G1 X93.709 Y38.22 E7.06357
G1 X93.707 Y25.483 E7.57193
G1 X82.676 Y19.111 E8.08038
G1 X71.649 Y25.478 E8.58858
G1 X71.652 Y37.551 E9.07044
G0 F1620 X71.652 Y38.216
G1 F2400 E5.87044
G0 F9000 X71.501 Y38.474
G0 X73.45 Y40.376
G0 X74.367 Y38.786
G0 X87.672 Y62.91
G0 X85.838 Y62.911
G0 X86.657 Y64.723
G0 X86.808 Y64.465
G1 F1440 E9.07044
G1 F1800 X97.838 Y70.837 E9.57885
G1 X108.865 Y64.47 E10.08706
G1 X108.863 Y51.733 E10.59542
G1 X97.832 Y45.361 E11.10387
G1 X86.805 Y51.728 E11.61208
G1 X86.808 Y63.8 E12.0939
G0 F1620 X86.808 Y64.465
G1 F2400 E8.8939
G0 F9000 X86.657 Y64.723
G0 X88.606 Y66.625
G0 X89.524 Y65.035
G0 X102.672 Y88.891
G0 X100.838 Y88.892
G0 X101.657 Y90.704
G0 X101.808 Y90.446
G1 F1440 E12.0939
G1 F1800 X112.838 Y96.818 E12.60231
G1 X123.865 Y90.451 E13.11052
G1 X123.863 Y77.714 E13.61888
G1 X112.832 Y71.342 E14.12732
G1 X101.805 Y77.709 E14.63553
G1 X101.808 Y89.781 E15.11735
G0 F1620 X101.808 Y90.446
G1 F2400 E11.91735
G0 F9000 X101.657 Y90.704
G0 X103.606 Y92.606
G0 X104.524 Y91.016
G0 X117.671 Y114.872
G0 X115.837 Y114.873
G0 X116.656 Y116.685
G0 X116.807 Y116.427
G1 F1440 E15.11735
G1 F1800 X127.838 Y122.799 E15.6258
G1 X138.865 Y116.432 E16.13401
G1 X138.863 Y103.694 E16.64241
G1 X127.832 Y97.323 E17.15083
G1 X116.805 Y103.69 E17.65904
G1 X116.807 Y115.762 E18.14086
G0 F1620 X116.807 Y116.427
G1 F2400 E14.94086
G0 F9000 X116.656 Y116.685
G0 X118.606 Y118.587
G0 X119.523 Y116.998
G0 X132.671 Y140.853
G0 X130.837 Y140.854
G0 X131.656 Y142.666
G0 X131.807 Y142.408
G1 F1440 E18.14086
G1 F1800 X142.838 Y148.78 E18.64931
G1 X153.865 Y142.413 E19.15752
G1 X153.863 Y129.675 E19.66592
G1 X142.832 Y123.303 E20.17436
G1 X131.805 Y129.67 E20.68257
G1 X131.807 Y141.743 E21.16443
G0 F1620 X131.807 Y142.408
G1 F2400 E17.96443
G0 F9000 X131.656 Y142.666
G0 X131.494 Y143.371
G0 X132.666 Y141.913
G0 X128.028 Y150.344
G0 X128.53 Y148.497
G0 X116.767 Y155.584
G0 X116.769 Y168.589
G0 X116.852 Y168.713
G0 X117.003 Y168.455
G1 F1440 E21.16443
G1 F1800 X128.033 Y174.827 E21.67284
G1 X139.061 Y168.459 E22.1811
G1 X139.058 Y155.723 E22.68943
G1 X128.028 Y149.351 E23.19784
G1 X117.001 Y155.718 E23.70605
G1 X117.003 Y167.79 E24.18786
G0 F1620 X117.003 Y168.455
G1 F2400 E20.98786
G0 F9000 X116.852 Y168.713
G0 X128.033 Y175.974
G0 X129.155 Y177.919
G0 X127.984 Y179.415
G0 X128.133 Y179.675
G1 F1440 E24.18786
G1 F1800 X128.132 Y196.995 E24.87914
G1 X113.176 Y205.63 E25.56842
G1 X98.221 Y196.996 E26.25764
G1 X98.221 Y179.675 E26.94896
G1 X83.021 Y170.9 E27.64946
G1 X67.948 Y179.602 E28.34411
G1 X52.992 Y170.968 E29.03337
G1 X52.992 Y153.648 E29.72465
G1 X37.992 Y144.987 E30.41596
G1 X37.992 Y127.717 E31.10524
G1 X53.009 Y119.047 E31.79732
G1 X53.009 Y101.676 E32.49064
G1 X38.009 Y93.016 E33.18193
G1 X38.009 Y75.746 E33.87121
G1 X53.026 Y67.076 E34.5633
G1 X53.026 Y66.845 E34.57252
G1 X52.87 Y66.755 E34.5797
G1 X52.87 Y49.436 E35.27094
G1 X37.87 Y40.775 E35.96226
G1 X37.87 Y23.506 E36.6515
G1 X52.826 Y14.872 E37.34075
G1 X67.826 Y23.532 E38.03205
G1 X82.842 Y14.862 E38.72409
G1 X97.797 Y23.496 E39.41331
G1 X97.798 Y40.996 E40.11178
G1 X112.998 Y49.772 E40.8123
G1 X128.075 Y41.067 E41.50715
G1 X128.076 Y23.746 E42.19847
G1 X143.031 Y15.112 E42.88769
G1 X157.986 Y23.746 E43.57691
G1 X157.987 Y41.067 E44.26823
G1 X172.986 Y49.726 E44.95947
G1 X172.987 Y67.047 E45.65079
G1 X187.986 Y75.707 E46.34204
G1 X187.987 Y92.978 E47.03137
G1 X172.97 Y101.648 E47.72345
G1 X172.97 Y119.019 E48.41676
G1 X187.97 Y127.678 E49.10804
G1 X187.97 Y144.691 E49.78706
G1 X202.703 Y153.197 E50.46605
G1 X202.703 Y170.467 E51.15534
G1 X187.747 Y179.101 E51.84459
G1 X173.153 Y170.675 E52.51718
G1 X172.953 Y170.791 E52.52641
G1 X172.953 Y170.939 E52.53232
G1 X157.998 Y179.573 E53.22154
G1 X143.153 Y171.002 E53.9057
G1 X128.708 Y179.343 E54.57144
G0 F1620 X128.133 Y179.675
G1 F2400 E51.37144
G0 F9000 X127.984 Y179.415
G0 X127.916 Y179.515
G0 X127.142 Y194.707
G0 X125.053 Y194.707
G0 X113.016 Y201.088
G0 X101.836 Y194.704
G0 X101.987 Y194.446
G1 F1440 E54.57144
G1 F1800 X113.016 Y200.817 E55.0798
G1 X124.044 Y194.45 E55.58804
G1 X124.042 Y181.713 E56.0964
G1 X113.011 Y175.341 E56.60485
G1 X101.984 Y181.709 E57.11308
G1 X101.987 Y193.781 E57.5949
G0 F1620 X101.987 Y194.446
G1 F2400 E54.3949
G0 F9000 X101.836 Y194.704
G0 X101.79 Y194.635
G0 X101.017 Y190.755
G0 X102.851 Y190.754
G0 X97.417 Y181.778
G0 X97.362 Y180.17
G0 X95.891 Y179.258
G0 X89.701 Y169.035
G0 X88.784 Y170.624
G0 X86.836 Y168.723
G0 X86.987 Y168.465
G1 F1440 E57.5949
G1 F1800 X98.016 Y174.836 E58.10325
G1 X109.044 Y168.469 E58.6115
G1 X109.042 Y155.733 E59.11982
G1 X98.012 Y149.36 E59.62825
G1 X86.984 Y155.728 E60.13651
G1 X86.987 Y167.8 E60.61833
G0 F1620 X86.987 Y168.465
G1 F2400 E57.41833
G0 F9000 X86.836 Y168.723
G0 X86.753 Y168.6
G0 X86.75 Y155.594
G0 X98.33 Y148.4
G0 X98.012 Y150.353
G0 X102.649 Y141.923
G0 X101.293 Y143.274
G0 X101.639 Y142.676
G0 X101.79 Y142.418
G1 F1440 E60.61833
G1 F1800 X112.821 Y148.789 E61.12676
G1 X123.848 Y142.422 E61.63496
G1 X123.845 Y129.685 E62.14333
G1 X112.815 Y123.313 E62.65174
G1 X101.789 Y129.679 E63.15989
G1 X101.79 Y141.753 E63.64179
G0 F1620 X101.79 Y142.418
G1 F2400 E60.44179
G0 F9000 X101.639 Y142.676
G0 X101.593 Y142.607
G0 X100.82 Y138.727
G0 X102.654 Y138.726
G0 X89.506 Y117.008
G0 X88.589 Y118.597
G0 X86.639 Y116.695
G0 X86.79 Y116.437
G1 F1440 E63.64179
G1 F1800 X97.821 Y122.809 E64.15024
G1 X108.848 Y116.442 E64.65844
G1 X108.845 Y103.704 E65.16685
G1 X97.815 Y97.332 E65.67526
G1 X86.788 Y103.699 E66.18346
G1 X86.79 Y115.772 E66.66532
G0 F1620 X86.79 Y116.437
G1 F2400 E63.46532
G0 F9000 X86.639 Y116.695
G0 X85.78 Y113.223
G0 X87.654 Y113.222
G0 X69.676 Y111.2
G0 X71.149 Y112.335
G0 X69.299 Y113.078
G0 X68.11 Y113.395
G0 X66.849 Y113.225
G0 X66.896 Y112.93
G1 F1440 E66.66532
G1 F1800 X68.026 Y113.109 E66.71099
G1 X68.123 Y113.146 E66.71513
G1 X69.238 Y112.847 E66.76121
G1 X69.381 Y112.816 E66.76705
G1 X70.406 Y111.68 E66.82811
G1 X70.489 Y111.584 E66.83318
G1 X70.669 Y110.453 E66.87889
G1 X70.7 Y110.338 E66.88364
G1 X70.579 Y109.886 E66.90232
G1 X70.502 Y109.304 E66.92575
G1 X70.221 Y108.621 E66.95523
G1 X69.772 Y108.037 E66.98463
G1 X69.188 Y107.588 E67.01403
G1 X68.506 Y107.307 E67.04347
G1 X67.775 Y107.21 E67.0729
G1 X67.045 Y107.307 E67.10229
G1 X66.453 Y107.551 E67.12785
G1 X66.363 Y107.59 E67.13176
G1 X65.775 Y108.038 E67.16127
G1 X65.721 Y108.114 E67.16499
G1 X65.329 Y108.621 E67.19057
G1 X65.048 Y109.304 E67.22004
G1 X64.951 Y110.034 E67.24943
G1 X65.048 Y110.765 E67.27887
G1 X65.33 Y111.446 E67.30828
G1 X65.648 Y111.862 E67.32918
G1 X65.778 Y112.03 E67.33766
G1 X66.335 Y112.458 E67.3657
G1 X66.399 Y112.49 E67.36855
G0 F1620 X66.435 Y112.508
G0 X66.813 Y112.849
G0 X66.896 Y112.93
G1 F2400 E64.16855
G0 F9000 X66.849 Y113.225
G0 X65.608 Y112.201
G0 X65.121 Y111.566
G0 X64.815 Y110.827
G0 X64.709 Y110.034
G0 X64.815 Y109.242
G0 X65.12 Y108.5
G0 X65.602 Y107.87
G0 X66.215 Y107.434
G0 X68.764 Y106.341
G0 X68.282 Y108.149
G0 X76.834 Y92.371
G0 X75.897 Y93.995
G0 X71.639 Y90.714
G0 X71.79 Y90.456
G1 F1440 E67.36855
G1 F1800 X82.821 Y96.828 E67.877
G1 X93.848 Y90.461 E68.38521
G1 X93.845 Y77.724 E68.89357
G1 X82.815 Y71.351 E69.402
G1 X71.788 Y77.718 E69.91021
G1 X71.79 Y89.791 E70.39207
G0 F1620 X71.79 Y90.456
G1 F2400 E67.19207
G0 F9000 X71.639 Y90.714
G0 X70.82 Y88.902
G0 X72.654 Y88.901
G0 X62.973 Y89.975
G0 X64.841 Y90.72
G0 X52.805 Y97.108
G0 X41.623 Y90.724
G0 X41.774 Y90.466
G1 F1440 E70.39207
G1 F1800 X52.805 Y96.837 E70.90049
G1 X63.832 Y90.47 E71.4087
G1 X63.83 Y77.733 E71.91706
G1 X52.799 Y71.361 E72.42551
G1 X41.772 Y77.728 E72.93372
G1 X41.774 Y89.801 E73.41558
G0 F1620 X41.774 Y90.466
G1 F2400 E70.21558
G0 F9000 X41.623 Y90.724
G0 X43.573 Y92.626
G0 X44.49 Y91.036
G0 X44.196 Y97.5
G0 X52.15 Y102.171
G0 X52.15 Y118.552
G0 X43 Y123.911
G0 X42.62 Y132.334
G0 X40.786 Y132.335
G0 X41.523 Y142.571
G0 X41.606 Y142.695
G0 X41.757 Y142.437
G1 F1440 E73.41558
G1 F1800 X52.788 Y148.809 E73.92402
G1 X63.815 Y142.442 E74.43223
G1 X63.812 Y129.709 E74.94043
G1 X63.473 Y129.508 E74.95616
G1 X52.782 Y123.332 E75.44895
G1 X41.755 Y129.699 E75.95715
G1 X41.757 Y141.772 E76.43901
G0 F1620 X41.757 Y142.437
G1 F2400 E73.23901
G0 F9000 X41.606 Y142.695
G0 X43.556 Y144.597
G0 X44.473 Y143.008
G0 X49.848 Y152.761
G0 X52.133 Y154.144
G0 X52.186 Y157.002
G0 X57.621 Y166.863
G0 X55.787 Y166.864
G0 X56.606 Y168.676
G0 X56.757 Y168.418
G1 F1440 E76.43901
G1 F1800 X67.788 Y174.789 E76.94744
G1 X78.815 Y168.422 E77.45565
G1 X78.812 Y155.69 E77.96381
G1 X78.473 Y155.489 E77.97954
G1 X67.782 Y149.313 E78.47232
G1 X56.755 Y155.68 E78.98053
G1 X56.757 Y167.753 E79.46239
G0 F1620 X56.757 Y168.418
G1 F2400 E76.26239
G0 F9000 X56.606 Y168.676
G0 X56.523 Y168.552
G0 X56.521 Y155.546
G0 X68.285 Y148.459
G0 X67.782 Y150.306
G0 X72.633 Y141.932
G0 X71.266 Y143.3
G0 X71.623 Y142.685
G0 X71.774 Y142.427
G1 F1440 E79.46239
G1 F1800 X82.805 Y148.799 E79.97083
G1 X93.832 Y142.432 E80.47904
G1 X93.83 Y129.694 E80.98744
G1 X82.799 Y123.323 E81.49587
G1 X71.772 Y129.69 E82.00408
G1 X71.774 Y141.762 E82.4859
G0 F1620 X71.774 Y142.427
G1 F2400 E79.2859
G0 F9000 X71.623 Y142.685
G0 X82.805 Y149.07
G0 X94.066 Y142.566
G0 X94.8 Y135.522
G0 X92.966 Y135.523
G0 X102.576 Y131.893
G0 X102.648 Y130.174
G0 X112.814 Y124.305
G0 X116.791 Y126.526
G0 X147.689 Y114.862
G0 X145.855 Y114.863
G0 X146.674 Y116.675
G0 X146.825 Y116.417
G1 F1440 E82.4859
G1 F1800 X157.855 Y122.789 E82.99431
G1 X168.882 Y116.422 E83.50252
G1 X168.88 Y103.685 E84.01088
G1 X157.849 Y97.313 E84.51932
G1 X146.822 Y103.68 E85.02753
G1 X146.825 Y115.752 E85.50935
G0 F1620 X146.825 Y116.417
G1 F2400 E82.30935
G0 F9000 X146.674 Y116.675
G0 X148.623 Y118.577
G0 X149.541 Y116.987
G0 X162.688 Y140.843
G0 X160.854 Y140.844
G0 X161.673 Y142.656
G0 X161.824 Y142.398
G1 F1440 E85.50935
G1 F1800 X172.855 Y148.77 E86.0178
G1 X183.882 Y142.403 E86.52601
G1 X183.88 Y129.665 E87.03441
G1 X172.849 Y123.294 E87.54283
G1 X161.823 Y129.66 E88.05099
G1 X161.824 Y141.733 E88.53285
G0 F1620 X161.824 Y142.398
G1 F2400 E85.33285
G0 F9000 X161.673 Y142.656
G0 X166.2 Y146.07
G0 X167.128 Y144.463
G0 X158.811 Y160.777
G0 X159.72 Y159.099
G0 X158.471 Y159.446
G0 X158.329 Y159.71
G1 F1440 E88.53285
G1 F1800 X156.82 Y160.032 E88.59443
G1 X156.704 Y160.064 E88.59923
G1 X155.815 Y160.952 E88.64938
G1 X155.399 Y162.036 E88.69573
G1 X155.364 Y162.164 E88.70102
G1 X155.494 Y162.775 E88.72595
G1 X155.487 Y162.843 E88.72868
G1 X155.58 Y163.574 E88.75809
G1 X155.666 Y163.776 E88.76686
G1 X155.862 Y164.255 E88.78751
G1 X156.313 Y164.842 E88.81706
G1 X156.394 Y164.9 E88.82103
G1 X156.896 Y165.289 E88.84638
G1 X157.578 Y165.57 E88.87582
G1 X158.308 Y165.667 E88.90521
G1 X159.039 Y165.57 E88.93464
G1 X159.72 Y165.288 E88.96406
G1 X160.308 Y164.838 E88.99361
G1 X160.362 Y164.762 E88.99734
G1 X160.755 Y164.255 E89.02294
G1 X161.036 Y163.573 E89.05238
G1 X161.133 Y162.842 E89.08181
G1 X161.036 Y162.112 E89.1112
G1 X160.755 Y161.43 E89.14064
G1 X160.436 Y161.015 E89.16153
G1 X160.305 Y160.846 E89.17007
G1 X159.72 Y160.398 E89.19948
G1 X159.648 Y160.369 E89.20257
G1 X159.234 Y159.996 E89.22482
G1 X158.956 Y159.921 E89.23631
G0 F1620 X158.495 Y159.799
G0 X158.329 Y159.71
G1 F2400 E86.03631
G0 F9000 X158.471 Y159.446
G0 X159.263 Y159.746
G0 X162.002 Y161.854
G0 X160.194 Y162.336
G0 X177.421 Y161.852
G0 X175.547 Y161.853
G0 X176.323 Y168.051
G0 X176.406 Y168.175
G0 X176.557 Y167.917
G1 F1440 E89.23631
G1 F1800 X187.588 Y174.288 E89.74473
G1 X198.615 Y167.921 E90.25294
G1 X198.613 Y155.184 E90.7613
G1 X187.582 Y148.812 E91.26975
G1 X176.555 Y155.179 E91.77796
G1 X176.557 Y167.252 E92.25982
G0 F1620 X176.557 Y167.917
G1 F2400 E89.05982
G0 F9000 X176.406 Y168.175
G0 X176.36 Y168.106
G0 X175.586 Y157.815
G0 X177.42 Y157.814
G0 X175.238 Y146.485
G0 X183.023 Y141.908
G0 X172.848 Y124.286
G0 X171.138 Y125.188
G0 X168.063 Y109.214
G0 X168.021 Y104.18
G0 X166.962 Y103.495
G0 X164.557 Y90.997
G0 X163.639 Y92.587
G0 X161.69 Y90.685
G0 X161.841 Y90.427
G1 F1440 E92.25982
G1 F1800 X172.871 Y96.799 E92.76823
G1 X183.898 Y90.432 E93.27644
G1 X183.896 Y77.694 E93.78484
G1 X172.865 Y71.323 E94.29326
G1 X161.839 Y77.689 E94.80142
G1 X161.841 Y89.762 E95.28328
G0 F1620 X161.841 Y90.427
G1 F2400 E92.08328
G0 F9000 X161.69 Y90.685
G0 X161.644 Y90.616
G0 X160.871 Y84.599
G0 X162.705 Y84.598
G0 X158.708 Y59.485
G0 X158.708 Y61.358
G0 X157.937 Y60.558
G0 X157.977 Y60.261
G1 F1440 E95.28328
G1 F1800 X158.708 Y60.358 E95.31271
G1 X159.438 Y60.261 E95.3421
G1 X160.12 Y59.98 E95.37154
G1 X160.705 Y59.531 E95.40097
G1 X161.154 Y58.947 E95.43038
G1 X161.435 Y58.265 E95.45982
G1 X161.532 Y57.534 E95.48925
G1 X161.435 Y56.804 E95.51864
G1 X161.153 Y56.122 E95.54809
G1 X160.704 Y55.534 E95.57762
G1 X160.623 Y55.476 E95.5816
G1 X160.12 Y55.088 E95.60695
G1 X159.438 Y54.807 E95.63639
G1 X158.708 Y54.71 E95.66578
G1 X157.977 Y54.807 E95.69522
G1 X157.296 Y55.09 E95.72465
G1 X156.708 Y55.538 E95.75415
G1 X156.654 Y55.614 E95.75787
G1 X156.262 Y56.121 E95.78345
G1 X155.981 Y56.804 E95.81293
G1 X155.884 Y57.534 E95.84232
G1 X155.981 Y58.265 E95.87175
G1 X156.262 Y58.947 E95.90119
G1 X156.711 Y59.531 E95.9306
G1 X157.295 Y59.98 E95.96
G1 X157.362 Y60.008 E95.96289
G0 F1620 X157.977 Y60.261
G1 F2400 E92.76289
G0 F9000 X157.937 Y60.558
G0 X156.005 Y60.237
G0 X157.327 Y58.915
G0 X147.475 Y75.002
G0 X148.412 Y73.379
G0 X142.857 Y71.065
G0 X131.674 Y77.438
G0 X131.823 Y77.698
G1 F1440 E95.96289
G1 F1800 X131.824 Y90.313 E96.46639
G1 X131.833 Y90.441 E96.47151
G1 X142.855 Y96.809 E96.97956
G1 X153.882 Y90.442 E97.48777
G1 X153.88 Y77.704 E97.99617
G1 X142.855 Y71.335 E98.50435
G1 X142.495 Y71.536 E98.52081
G1 X132.398 Y77.366 E98.98615
G0 F1620 X131.823 Y77.698
G1 F2400 E95.78615
G0 F9000 X131.674 Y77.438
G0 X132.683 Y76.081
G0 X133.6 Y77.669
G0 X121.391 Y66.095
G0 X120.473 Y67.685
G0 X116.674 Y64.714
