;FLAVOR:Marlin
;TIME:27391
;Filament used: 24.6207m
;Layer height: 0.24
;MINX:37.87
;MINY:14.414
;MINZ:0.24
;MAXX:202.703
;MAXY:205.63
;MAXZ:11.8
;Generated with Cura_SteamEngine 4.10.0
M82 ;absolute extrusion mode
M201 X500.00 Y500.00 Z100.00 E5000.00 ;Setup machine max acceleration
M203 X500.00 Y500.00 Z10.00 E50.00 ;Setup machine max feedrate
M204 P500.00 R1000.00 T500.00 ;Setup Print/Retract/Travel acceleration
M205 X8.00 Y8.00 Z0.40 E5.00 ;Setup Jerk
M220 S100 ;Reset Feedrate
M221 S100 ;Reset Flowrate

;*** Start Dual Nozzle/Bed Preheating ***
M140 S50 ; start preheating the bed
M104 S200 ?T0 ; start preheating hotend
M190 S50 ; heat to Cura Bed setting and WAIT
M109 S200 ?T0 ; heat to Cura Hotend and WAIT
;*** End Preheating ***

G28 ;Home

G92 E0 ;Reset Extruder
G1 Z2.0 F3000 ;Move Z Axis up

;*** Single Print Start Tone
M300 S1000 P500 ; chirp to indicate starting to print
;*** End Single Start Tone

G1 X10.1 Y20 Z0.28 F5000.0 ;Move to start position
G1 X10.1 Y200.0 Z0.28 F1500.0 E15 ;Draw the first line
G1 X10.4 Y200.0 Z0.28 F5000.0 ;Move to side a little
G1 X10.4 Y20 Z0.28 F1500.0 E30 ;Draw the second line
G92 E0 ;Reset Extruder
G1 Z2.0 F3000 ;Move Z Axis up
G92 E0
G92 E0
G1 F2400 E-3.2
;LAYER_COUNT:45
;LAYER:0
M106 S63.8
M204 S500
M205 X6 Y6
;MESH:keyholderVersion1.stl
G0 F9000 X41.633 Y25.488 Z0.24
;TYPE:WALL-OUTER
G1 F1440 E0
G1 F1800 X41.635 Y38.225 E0.50836
G1 X52.666 Y44.597 E1.01681
G1 X63.693 Y38.23 E1.52502
G1 X63.69 Y25.493 E2.03338
G1 X52.66 Y19.121 E2.54179
G1 X41.633 Y25.488 E3.05
G1 F2400 E-0.15
G0 F9000 X41.484 Y25.228
G0 X41.399 Y25.354
G0 X41.401 Y38.359
G0 X52.666 Y44.868
G0 X60.982 Y40.916
G0 X60.064 Y39.327
G0 X70.422 Y47.696
G0 X71.34 Y46.106
G0 X78.841 Y51.216
G0 X78.69 Y51.474
G1 F1440 E3.05
G1 F1800 X67.66 Y45.101 E3.55843
G1 X56.633 Y51.468 E4.06664
G1 X56.635 Y64.206 E4.57504
G1 X67.666 Y70.578 E5.08348
G1 X78.693 Y64.211 E5.59169
G1 X78.69 Y51.474 E6.10005
G1 F2400 E2.90005
G0 F9000 X78.841 Y51.216
G0 X79.191 Y50.62
G0 X77.831 Y51.97
G0 X82.682 Y43.594
G0 X82.184 Y45.443
G0 X82.53 Y44.845
G0 X82.682 Y44.587
G1 F1440 E6.10005
G1 F1800 X93.709 Y38.22 E6.60826
G1 X93.707 Y25.483 E7.11662
G1 X82.677 Y19.111 E7.62503
G1 X71.649 Y25.478 E8.13328
G1 X71.652 Y38.216 E8.64168
G1 X82.682 Y44.587 E9.15007
G1 F2400 E5.95007
G0 F9000 X82.53 Y44.845
G0 X82.652 Y44.854
G0 X94.702 Y38.794
G0 X96.788 Y38.794
G0 X97.647 Y41.254
G0 X97.798 Y40.996
G1 F1440 E9.15007
G1 F1800 X112.998 Y49.772 E9.85059
G1 X128.075 Y41.067 E10.54544
G1 X128.076 Y23.746 E11.23676
G1 X143.031 Y15.112 E11.92598
G1 X157.986 Y23.746 E12.6152
G1 X157.987 Y41.067 E13.30652
G1 X172.986 Y49.726 E13.99776
G1 X172.987 Y67.047 E14.68908
G1 X187.986 Y75.707 E15.38034
G1 X187.987 Y92.978 E16.06966
G1 X172.97 Y101.648 E16.76174
G1 X172.97 Y119.019 E17.45505
G1 X187.97 Y127.678 E18.14633
G1 X187.97 Y144.691 E18.82535
G1 X202.703 Y153.197 E19.50435
G1 X202.703 Y170.467 E20.19363
G1 X187.747 Y179.101 E20.88288
G1 X173.153 Y170.675 E21.55547
G1 X172.953 Y170.791 E21.5647
G1 X172.953 Y170.939 E21.57061
G1 X157.998 Y179.573 E22.25983
G1 X143.153 Y171.002 E22.94399
G1 X128.133 Y179.675 E23.63623
G1 X128.132 Y196.995 E24.32751
G1 X113.176 Y205.63 E25.01679
G1 X98.221 Y196.996 E25.70601
G1 X98.221 Y179.675 E26.39732
G1 X83.021 Y170.9 E27.09783
G1 X67.948 Y179.602 E27.79248
G1 X52.992 Y170.968 E28.48174
G1 X52.992 Y153.648 E29.17301
G1 X37.992 Y144.987 E29.86433
G1 X37.992 Y127.717 E30.55361
G1 X53.009 Y119.047 E31.24569
G1 X53.009 Y101.676 E31.93901
G1 X38.009 Y93.016 E32.6303
G1 X38.009 Y75.746 E33.31958
G1 X53.026 Y67.076 E34.01166
G1 X53.026 Y66.845 E34.02088
G1 X52.87 Y66.755 E34.02807
G1 X52.87 Y49.436 E34.71931
G1 X37.87 Y40.775 E35.41062
G1 X37.87 Y23.506 E36.09987
G1 X52.826 Y14.872 E36.78912
G1 X67.826 Y23.532 E37.48042
G1 X82.842 Y14.862 E38.17246
G1 X97.797 Y23.496 E38.86168
G1 X97.798 Y40.996 E39.56014
G1 F2400 E36.36014
G0 F9000 X97.647 Y41.254
G0 X101.914 Y44.493
G0 X102.83 Y42.904
G0 X108 Y61.836
G0 X109.834 Y61.835
G0 X109.173 Y64.327
G0 X109.014 Y64.73
G0 X108.865 Y64.47
G1 F1440 E39.56014
G1 F1800 X108.863 Y51.733 E40.06851
G1 X97.832 Y45.361 E40.57695
G1 X86.805 Y51.728 E41.08516
G1 X86.808 Y64.465 E41.59352
G1 X97.838 Y70.837 E42.10193
G1 X108.865 Y64.47 E42.61014
G1 F2400 E39.41014
G0 F9000 X109.014 Y64.73
G0 X108.005 Y66.087
G0 X107.087 Y64.499
G0 X121.147 Y77.143
G0 X122.064 Y75.554
G0 X124.014 Y77.456
G0 X123.863 Y77.714
G1 F1440 E42.61014
G1 F1800 X112.832 Y71.342 E43.11859
G1 X101.805 Y77.709 E43.62679
G1 X101.808 Y90.446 E44.13516
G1 X112.838 Y96.818 E44.64357
G1 X123.865 Y90.451 E45.15178
G1 X123.863 Y77.714 E45.66014
G1 F2400 E42.46014
G0 F9000 X124.014 Y77.456
G0 X124.833 Y79.268
G0 X122.999 Y79.269
G0 X139.153 Y74.463
G0 X138.235 Y72.875
G0 X142.711 Y71.072
G0 X142.855 Y71.335
G1 F1440 E45.66014
G1 F1800 X142.495 Y71.536 E45.67659
G1 X131.823 Y77.698 E46.16844
G1 X131.824 Y90.313 E46.67193
G1 X131.833 Y90.441 E46.67705
G1 X142.855 Y96.809 E47.18511
G1 X153.882 Y90.442 E47.69332
G1 X153.88 Y77.704 E48.20172
G1 X142.855 Y71.335 E48.7099
G1 F2400 E45.5099
G0 F9000 X142.711 Y71.072
G0 X142.792 Y71.069
G0 X147.935 Y73.126
G0 X147.007 Y74.732
G0 X157.729 Y59.224
G0 X156.795 Y60.846
G0 X155.748 Y58.327
G0 X155.642 Y57.534
G0 X155.748 Y56.742
G0 X156.053 Y56
G0 X156.535 Y55.37
G0 X157.176 Y54.881
G0 X157.774 Y54.633
G0 X158.748 Y54.413
G0 X158.708 Y54.71
G1 F1440 E48.7099
G1 F1800 X157.977 Y54.807 E48.73933
G1 X157.296 Y55.09 E48.76876
G1 X156.708 Y55.538 E48.79827
G1 X156.654 Y55.614 E48.80199
G1 X156.262 Y56.121 E48.82756
G1 X155.981 Y56.804 E48.85704
G1 X155.884 Y57.534 E48.88643
G1 X155.981 Y58.265 E48.91586
G1 X156.262 Y58.947 E48.94531
G1 X156.711 Y59.531 E48.97471
G1 X157.295 Y59.98 E49.00411
G1 X157.977 Y60.261 E49.03355
G1 X158.708 Y60.358 E49.06298
G1 X159.438 Y60.261 E49.09237
G1 X160.12 Y59.98 E49.12181
G1 X160.705 Y59.531 E49.15124
G1 X161.154 Y58.947 E49.18065
G1 X161.435 Y58.265 E49.21009
G1 X161.532 Y57.534 E49.23952
G1 X161.435 Y56.804 E49.26891
G1 X161.153 Y56.122 E49.29836
G1 X160.704 Y55.534 E49.32789
G1 X160.623 Y55.476 E49.33187
G1 X160.12 Y55.088 E49.35722
G1 X159.438 Y54.807 E49.38666
G1 X158.708 Y54.71 E49.41606
G1 F2400 E46.21606
G0 F9000 X158.748 Y54.413
G0 X157.717 Y53.841
G0 X158.203 Y55.649
G0 X149.673 Y39.912
G0 X150.611 Y41.534
G0 X154.047 Y38.73
G0 X153.898 Y38.47
G1 F1440 E49.41606
G1 F1800 X153.896 Y25.733 E49.92442
G1 X142.865 Y19.361 E50.43286
G1 X131.838 Y25.728 E50.94107
G1 X131.841 Y38.465 E51.44943
G1 X142.871 Y44.837 E51.95784
G1 X153.898 Y38.47 E52.46605
G1 F2400 E49.26605
G0 F9000 X154.047 Y38.73
G0 X142.871 Y45.108
G0 X131.328 Y39.335
G0 X132.7 Y37.969
G0 X127.849 Y46.344
G0 X128.346 Y44.494
G0 X128.001 Y45.093
G0 X127.849 Y45.351
G1 F1440 E52.46605
G1 F1800 X116.822 Y51.718 E52.97426
G1 X116.825 Y64.456 E53.48266
G1 X127.855 Y70.828 E53.99107
G1 X138.882 Y64.461 E54.49928
G1 X138.88 Y51.723 E55.00768
G1 X127.849 Y45.351 E55.51613
G1 F2400 E52.31613
G0 F9000 X128.001 Y45.093
G0 X127.849 Y45.08
G0 X116.588 Y51.584
G0 X115.853 Y54.354
G0 X117.687 Y54.353
G0 X92.981 Y79.279
G0 X94.815 Y79.278
G0 X93.996 Y77.466
G0 X93.845 Y77.724
G1 F1440 E55.51613
G1 F1800 X82.815 Y71.351 E56.02456
G1 X71.788 Y77.718 E56.53277
G1 X71.79 Y90.456 E57.04117
G1 X82.821 Y96.828 E57.54961
G1 X93.848 Y90.461 E58.05782
G1 X93.845 Y77.724 E58.56618
G1 F2400 E55.36618
G0 F9000 X93.996 Y77.466
G0 X94.079 Y77.59
G0 X94.082 Y90.595
G0 X82.821 Y97.099
G0 X76.034 Y94.051
G0 X76.961 Y92.445
G0 X68.754 Y108.344
G0 X69.688 Y106.722
G0 X68.546 Y107.01
G0 X68.506 Y107.307
G1 F1440 E58.56618
G1 F1800 X67.775 Y107.21 E58.59562
G1 X67.045 Y107.307 E58.62501
G1 X66.453 Y107.551 E58.65056
G1 X66.363 Y107.59 E58.65448
G1 X65.775 Y108.038 E58.68398
G1 X65.721 Y108.114 E58.6877
G1 X65.329 Y108.621 E58.71328
G1 X65.048 Y109.304 E58.74276
G1 X64.951 Y110.034 E58.77215
G1 X65.048 Y110.765 E58.80158
G1 X65.33 Y111.446 E58.831
G1 X65.648 Y111.862 E58.8519
G1 X65.778 Y112.03 E58.86038
G1 X66.335 Y112.458 E58.88841
G1 X66.435 Y112.508 E58.89288
G1 X66.813 Y112.849 E58.91319
G1 X66.896 Y112.93 E58.91782
G1 X68.026 Y113.109 E58.96349
G1 X68.123 Y113.146 E58.96763
G1 X69.238 Y112.847 E59.0137
G1 X69.381 Y112.816 E59.01954
G1 X70.406 Y111.68 E59.08061
G1 X70.489 Y111.584 E59.08568
G1 X70.669 Y110.453 E59.13139
G1 X70.7 Y110.338 E59.13614
G1 X70.579 Y109.886 E59.15482
G1 X70.502 Y109.304 E59.17825
G1 X70.221 Y108.621 E59.20772
G1 X69.772 Y108.037 E59.23713
G1 X69.188 Y107.588 E59.26653
G1 X68.506 Y107.307 E59.29597
G1 F2400 E56.09597
G0 F9000 X68.546 Y107.01
G0 X66.067 Y106.638
G0 X66.799 Y108.343
G0 X58.074 Y92.797
G0 X59.012 Y94.419
G0 X52.805 Y97.108
G0 X41.623 Y90.724
G0 X41.774 Y90.466
G1 F1440 E59.29597
G1 F1800 X52.805 Y96.837 E59.80439
G1 X63.832 Y90.47 E60.3126
G1 X63.83 Y77.733 E60.82096
G1 X52.799 Y71.361 E61.32941
G1 X41.772 Y77.728 E61.83762
G1 X41.774 Y90.466 E62.34602
G1 F2400 E59.14602
G0 F9000 X41.623 Y90.724
G0 X43.573 Y92.626
G0 X44.49 Y91.036
G0 X44.196 Y97.5
G0 X52.15 Y102.171
G0 X52.15 Y118.552
G0 X43 Y123.911
G0 X42.62 Y132.334
G0 X40.786 Y132.335
G0 X41.523 Y142.571
G0 X41.606 Y142.695
G0 X41.757 Y142.437
G1 F1440 E62.34602
G1 F1800 X52.788 Y148.809 E62.85446
G1 X63.815 Y142.442 E63.36267
G1 X63.812 Y129.709 E63.87087
G1 X63.473 Y129.508 E63.8866
G1 X52.782 Y123.332 E64.37939
G1 X41.755 Y129.699 E64.88759
G1 X41.757 Y142.437 E65.396
G1 F2400 E62.196
G0 F9000 X41.606 Y142.695
G0 X43.556 Y144.597
G0 X44.473 Y143.008
G0 X67.782 Y150.306
G0 X67.513 Y148.325
G0 X67.934 Y149.055
G0 X67.782 Y149.313
G1 F1440 E65.396
G1 F1800 X56.755 Y155.68 E65.9042
G1 X56.757 Y168.418 E66.4126
G1 X67.788 Y174.789 E66.92103
G1 X78.815 Y168.422 E67.42924
G1 X78.812 Y155.69 E67.9374
G1 X78.473 Y155.489 E67.95313
G1 X67.782 Y149.313 E68.44591
G1 F2400 E65.24591
G0 F9000 X67.934 Y149.055
G0 X68.285 Y148.459
G0 X67.782 Y150.306
G0 X72.633 Y141.932
G0 X71.266 Y143.3
G0 X71.623 Y142.685
G0 X71.774 Y142.427
G1 F1440 E68.44591
G1 F1800 X82.805 Y148.799 E68.95436
G1 X93.832 Y142.432 E69.46257
G1 X93.83 Y129.694 E69.97097
G1 X82.799 Y123.323 E70.47939
G1 X71.772 Y129.69 E70.9876
G1 X71.774 Y142.427 E71.49596
G1 F2400 E68.29596
G0 F9000 X71.623 Y142.685
G0 X71.54 Y142.561
G0 X71.538 Y129.556
G0 X82.799 Y123.052
G0 X94.343 Y128.824
G0 X92.971 Y130.19
G0 X97.821 Y121.816
G0 X97.314 Y123.683
G0 X97.669 Y123.067
G0 X97.821 Y122.809
G1 F1440 E71.49596
G1 F1800 X108.848 Y116.442 E72.00417
G1 X108.845 Y103.704 E72.51257
G1 X97.815 Y97.332 E73.02098
G1 X86.788 Y103.699 E73.52919
G1 X86.79 Y116.437 E74.03759
G1 X97.821 Y122.809 E74.54604
G1 F2400 E71.34604
G0 F9000 X97.669 Y123.067
G0 X98.328 Y123.683
G0 X97.821 Y121.816
G0 X102.648 Y130.174
G0 X101.294 Y128.822
G0 X101.64 Y129.419
G0 X101.789 Y129.679
G1 F1440 E74.54604
G1 F1800 X101.79 Y142.418 E75.05448
G1 X112.821 Y148.789 E75.56291
G1 X123.848 Y142.422 E76.07111
G1 X123.845 Y129.685 E76.57948
G1 X112.815 Y123.313 E77.08789
G1 X101.789 Y129.679 E77.59604
G1 F2400 E74.39604
G0 F9000 X101.64 Y129.419
G0 X104.5 Y126.993
G0 X105.417 Y128.581
G0 X133.385 Y118.598
G0 X134.303 Y120.187
G0 X139.014 Y116.692
G0 X138.865 Y116.432
G1 F1440 E77.59604
G1 F1800 X138.863 Y103.694 E78.10444
G1 X127.832 Y97.323 E78.61287
G1 X116.805 Y103.69 E79.12108
G1 X116.807 Y116.427 E79.62944
G1 X127.838 Y122.799 E80.13788
G1 X138.865 Y116.432 E80.64609
G1 F2400 E77.44609
G0 F9000 X139.014 Y116.692
G0 X138.005 Y118.049
G0 X137.087 Y116.461
G0 X142.832 Y124.296
G0 X142.563 Y122.315
G0 X142.984 Y123.045
G0 X142.832 Y123.303
G1 F1440 E80.64609
G1 F1800 X131.805 Y129.67 E81.1543
G1 X131.807 Y142.408 E81.6627
G1 X142.838 Y148.78 E82.17115
G1 X153.865 Y142.413 E82.67935
G1 X153.863 Y129.675 E83.18776
G1 X142.832 Y123.303 E83.6962
G1 F2400 E80.4962
G0 F9000 X142.984 Y123.045
G0 X146.513 Y124.308
G0 X145.595 Y125.898
G0 X163.6 Y129.631
G0 X162.683 Y128.043
G0 X161.674 Y129.4
G0 X161.823 Y129.66
G1 F1440 E83.6962
G1 F1800 X161.824 Y142.398 E84.2046
G1 X172.855 Y148.77 E84.71305
G1 X183.882 Y142.403 E85.22126
G1 X183.88 Y129.665 E85.72966
G1 X172.849 Y123.294 E86.23808
G1 X161.823 Y129.66 E86.74624
G1 F2400 E83.54624
G0 F9000 X161.674 Y129.4
G0 X161.589 Y129.525
G0 X161.59 Y142.532
G0 X173.351 Y149.627
G0 X172.855 Y147.777
G0 X177.414 Y155.674
G0 X176.051 Y154.304
G0 X176.406 Y154.919
G0 X176.555 Y155.179
G1 F1440 E86.74624
G1 F1800 X176.557 Y167.917 E87.25464
G1 X187.588 Y174.288 E87.76306
G1 X198.615 Y167.921 E88.27127
G1 X198.613 Y155.184 E88.77963
G1 X187.582 Y148.812 E89.28808
G1 X176.555 Y155.179 E89.79629
G1 F2400 E86.59629
G0 F9000 X176.406 Y154.919
G0 X176.359 Y154.989
G0 X175.547 Y162.88
G0 X177.421 Y162.879
G0 X160.26 Y162.842
G0 X162.133 Y162.842
G0 X161.43 Y162.882
G0 X161.133 Y162.842
G1 F1440 E89.79629
G1 F1800 X161.036 Y162.112 E89.82568
G1 X160.755 Y161.43 E89.85512
G1 X160.436 Y161.015 E89.87601
G1 X160.305 Y160.846 E89.88455
G1 X159.72 Y160.398 E89.91395
G1 X159.648 Y160.369 E89.91705
G1 X159.234 Y159.996 E89.93929
G1 X158.495 Y159.799 E89.96982
G1 X158.329 Y159.71 E89.97734
G1 X156.82 Y160.032 E90.03892
G1 X156.704 Y160.064 E90.04372
G1 X155.815 Y160.952 E90.09387
G1 X155.399 Y162.036 E90.14021
G1 X155.364 Y162.164 E90.14551
G1 X155.494 Y162.775 E90.17044
G1 X155.487 Y162.843 E90.17317
G1 X155.58 Y163.574 E90.20258
G1 X155.666 Y163.776 E90.21134
G1 X155.862 Y164.255 E90.232
G1 X156.313 Y164.842 E90.26155
G1 X156.394 Y164.9 E90.26552
G1 X156.896 Y165.289 E90.29087
G1 X157.578 Y165.57 E90.32031
G1 X158.308 Y165.667 E90.3497
G1 X159.039 Y165.57 E90.37913
G1 X159.72 Y165.288 E90.40855
G1 X160.308 Y164.838 E90.4381
G1 X160.362 Y164.762 E90.44183
G1 X160.755 Y164.255 E90.46743
G1 X161.036 Y163.573 E90.49687
G1 X161.133 Y162.842 E90.5263
G1 F2400 E87.3263
G0 F9000 X161.43 Y162.882
G0 X161.269 Y162.05
G0 X160.964 Y161.31
G0 X160.476 Y160.675
G0 X159.351 Y159.78
G0 X158.364 Y159.46
G0 X156.58 Y159.851
G0 X154.591 Y161.375
G0 X156.256 Y162.21
G0 X138.195 Y161.379
G0 X140.069 Y161.378
G0 X139.292 Y155.588
G0 X139.209 Y155.465
G0 X139.058 Y155.723
G1 F1440 E90.5263
G1 F1800 X128.028 Y149.351 E91.03471
G1 X117.001 Y155.718 E91.54292
G1 X117.004 Y168.455 E92.05128
G1 X128.033 Y174.827 E92.55966
G1 X139.061 Y168.459 E93.06792
G1 X139.058 Y155.723 E93.57624
G1 F2400 E90.37624
G0 F9000 X139.209 Y155.465
G0 X139.292 Y155.588
G0 X139.295 Y168.593
G0 X128.033 Y175.098
G0 X116.491 Y169.325
G0 X117.863 Y167.959
G0 X113.011 Y176.334
G0 X113.519 Y174.468
G0 X113.163 Y175.083
G0 X113.011 Y175.341
G1 F1440 E93.57624
G1 F1800 X101.984 Y181.709 E94.08447
G1 X101.987 Y194.446 E94.59283
G1 X113.016 Y200.817 E95.10119
G1 X124.044 Y194.45 E95.60943
G1 X124.042 Y181.713 E96.11779
G1 X113.011 Y175.341 E96.62624
G1 F2400 E93.42624
G0 F9000 X113.163 Y175.083
G0 X113.041 Y175.074
G0 X101.254 Y180.965
G0 X102.843 Y182.204
G0 X97.103 Y173.31
G0 X96.186 Y174.9
G0 X97.864 Y175.094
G0 X98.016 Y174.836
G1 F1440 E96.62624
G1 F1800 X109.044 Y168.469 E97.13448
G1 X109.042 Y155.733 E97.6428
G1 X98.012 Y149.36 E98.15123
G1 X86.984 Y155.728 E98.6595
G1 X86.987 Y168.465 E99.16786
G1 X98.016 Y174.836 E99.67621
G1 F2400 E96.47621
G0 F9000 X97.864 Y175.094
G0 X100.781 Y174.361
G0 X99.863 Y172.773
G0 X132.605 Y130.197
G0 X132.664 Y130.165
G0 X132.683 Y130.095
G0 X147.688 Y110.588
G0 X145.854 Y110.589
G0 X146.588 Y103.546
G0 X157.849 Y97.042
G0 X158.001 Y97.055
G0 X157.849 Y97.313
G1 F1440 E99.67621
G1 F1800 X146.822 Y103.68 E100.18442
G1 X146.825 Y116.417 E100.69278
G1 X157.855 Y122.789 E101.20119
G1 X168.882 Y116.422 E101.7094
G1 X168.88 Y103.685 E102.21776
G1 X157.849 Y97.313 E102.72621
G1 F2400 E99.52621
G0 F9000 X158.001 Y97.055
G0 X158.363 Y96.443
G0 X157.849 Y98.306
G0 X162.7 Y89.932
G0 X161.345 Y91.284
G0 X161.69 Y90.685
G0 X161.841 Y90.427
G1 F1440 E102.72621
G1 F1800 X172.871 Y96.799 E103.23462
G1 X183.898 Y90.432 E103.74283
G1 X183.896 Y77.694 E104.25123
G1 X172.865 Y71.323 E104.75966
G1 X161.839 Y77.689 E105.26781
G1 X161.841 Y90.427 E105.77621
G0 F9000 X161.441 Y90.658
;TYPE:WALL-INNER
G1 F1800 X172.871 Y97.261 E106.30306
G1 X184.298 Y90.663 E106.8297
G1 X184.296 Y77.463 E107.35654
G1 X172.865 Y70.861 E107.88341
