;FLAVOR:Marlin
;TIME:1116
;Filament used: 0.616011m
;Layer height: 0.2
;MINX:87.776
;MINY:89.337
;MINZ:0.24
;MAXX:132.223
;MAXY:130.661
;MAXZ:20.32
;Generated with Cura_SteamEngine 4.10.0
M82 ;absolute extrusion mode
M201 X500.00 Y500.00 Z100.00 E5000.00 ;Setup machine max acceleration
M203 X500.00 Y500.00 Z10.00 E50.00 ;Setup machine max feedrate
M204 P500.00 R1000.00 T500.00 ;Setup Print/Retract/Travel acceleration
M205 X8.00 Y8.00 Z0.40 E5.00 ;Setup Jerk
M220 S100 ;Reset Feedrate
M221 S100 ;Reset Flowrate

;*** Start Dual Nozzle/Bed Preheating ***
M140 S50 ; start preheating the bed
M104 S195 ?T0 ; start preheating hotend
M190 S50 ; heat to Cura Bed setting and WAIT
M109 S195 ?T0 ; heat to Cura Hotend and WAIT
;*** End Preheating ***

;*** Single Print Start Tone
M300 S1000 P500 ; chirp to indicate starting to print
;*** End Single Start Tone

G28 ;Home

G92 E0 ;Reset Extruder
G1 Z2.0 F3000 ;Move Z Axis up

G1 X10.1 Y20 Z0.28 F5000.0 ;Move to start position
G1 X10.1 Y200.0 Z0.28 F1500.0 E15 ;Draw the first line
G1 X10.4 Y200.0 Z0.28 F5000.0 ;Move to side a little
G1 X10.4 Y20 Z0.28 F1500.0 E30 ;Draw the second line
G92 E0 ;Reset Extruder
G1 Z2.0 F3000 ;Move Z Axis up
G92 E0
G92 E0
G1 F2400 E-3.2
;LAYER_COUNT:97
;LAYER:0
M106 S63.8
M204 S500
M205 X6 Y6
G0 F9000 X96.34 Y93.056 Z0.24
;TYPE:SKIRT
G1 F1440 E0
G1 F1800 X96.98 Y92.394 E0.03675
G1 X97.675 Y91.79 E0.0735
G1 X98.42 Y91.249 E0.11025
G1 X99.208 Y90.774 E0.14697
G1 X100.036 Y90.37 E0.18374
G1 X100.895 Y90.039 E0.22048
G1 X101.779 Y89.784 E0.25721
G1 X102.683 Y89.606 E0.29398
G1 X103.97 Y89.49 E0.34555
G1 X104.74 Y89.468 E0.3763
G1 X114.99 Y89.337 E0.78543
G1 X115.842 Y89.337 E0.81944
G1 X116.762 Y89.378 E0.85619
G1 X117.674 Y89.499 E0.89291
G1 X118.573 Y89.699 E0.92967
G1 X119.451 Y89.976 E0.96642
G1 X120.302 Y90.328 E1.00317
G1 X121.119 Y90.752 E1.03991
G1 X121.896 Y91.246 E1.07666
G1 X122.627 Y91.806 E1.11341
G1 X123.307 Y92.426 E1.15014
G1 X123.931 Y93.104 E1.18692
G1 X124.493 Y93.833 E1.22365
G1 X124.85 Y94.374 E1.24952
G1 X125.301 Y95.128 E1.28459
G1 X130.566 Y104.25 E1.70496
G1 X130.854 Y104.764 E1.72848
G1 X131.157 Y105.345 E1.75463
G1 X131.523 Y106.189 E1.79135
G1 X131.815 Y107.063 E1.82812
G1 X132.03 Y107.958 E1.86486
G1 X132.166 Y108.868 E1.90159
G1 X132.223 Y109.787 E1.93834
G1 X132.2 Y110.708 E1.97511
G1 X132.097 Y111.623 E2.01186
G1 X131.915 Y112.525 E2.04858
G1 X131.656 Y113.408 E2.08531
G1 X131.321 Y114.266 E2.12207
G1 X130.861 Y115.184 E2.16305
G1 X130.558 Y115.722 E2.1877
G1 X130.433 Y115.937 E2.19762
G1 X125.119 Y124.873 E2.61258
G1 X124.757 Y125.462 E2.64017
G1 X124.241 Y126.225 E2.67693
G1 X123.661 Y126.94 E2.71368
G1 X123.021 Y127.602 E2.75043
G1 X122.327 Y128.206 E2.78715
G1 X121.582 Y128.748 E2.82392
G1 X120.793 Y129.222 E2.86066
G1 X119.966 Y129.627 E2.89741
G1 X119.107 Y129.958 E2.93415
G1 X118.223 Y130.214 E2.97088
G1 X117.319 Y130.392 E3.00766
G1 X116.033 Y130.508 E3.05919
G1 X115.239 Y130.531 E3.0909
G1 X105.011 Y130.661 E3.49915
G1 X104.171 Y130.661 E3.53268
G1 X103.251 Y130.62 E3.56943
G1 X102.338 Y130.499 E3.60619
G1 X101.44 Y130.299 E3.64291
G1 X100.562 Y130.022 E3.67966
G1 X99.711 Y129.67 E3.71641
G1 X98.894 Y129.245 E3.75317
G1 X98.117 Y128.752 E3.7899
G1 X97.386 Y128.192 E3.82665
G1 X96.706 Y127.571 E3.8634
G1 X96.082 Y126.894 E3.90015
G1 X95.52 Y126.165 E3.93689
G1 X95.118 Y125.55 E3.96622
G1 X94.569 Y124.643 E4.00853
G1 X94.456 Y124.453 E4.01735
G1 X89.448 Y115.774 E4.41728
G1 X89.141 Y115.227 E4.44232
G1 X88.805 Y114.575 E4.47159
G1 X88.445 Y113.728 E4.50833
G1 X88.161 Y112.852 E4.54508
G1 X87.953 Y111.955 E4.58183
G1 X87.825 Y111.043 E4.61859
G1 X87.776 Y110.124 E4.65532
G1 X87.806 Y109.204 E4.69206
G1 X87.917 Y108.29 E4.72881
G1 X88.106 Y107.389 E4.76555
G1 X88.373 Y106.508 E4.80229
G1 X88.715 Y105.653 E4.83904
G1 X89.136 Y104.822 E4.87623
G1 X89.438 Y104.285 E4.90082
G1 X89.565 Y104.065 E4.91095
G1 X94.875 Y95.133 E5.32569
G1 X95.244 Y94.533 E5.3538
G1 X95.76 Y93.771 E5.39053
G1 X95.921 Y93.572 E5.40075
G0 F1620 X96.34 Y93.056
G0 F9000 X96.662 Y93.295
G1 F1800 X97.293 Y92.649 E5.43679
G1 X97.978 Y92.06 E5.47285
G1 X98.712 Y91.535 E5.50887
G1 X99.491 Y91.077 E5.54493
G1 X100.306 Y90.689 E5.58096
G1 X101.153 Y90.375 E5.61701
G1 X102.024 Y90.137 E5.65305
G1 X102.913 Y89.977 E5.6891
G1 X103.982 Y89.89 E5.73191
G1 X104.914 Y89.865 E5.76912
G1 X115.14 Y89.736 E6.1773
G1 X115.842 Y89.737 E6.20531
G1 X116.744 Y89.778 E6.24135
G1 X117.639 Y89.899 E6.2774
G1 X118.519 Y90.099 E6.31342
G1 X119.379 Y90.375 E6.34947
G1 X120.211 Y90.727 E6.38552
G1 X121.008 Y91.151 E6.42155
G1 X121.765 Y91.644 E6.45761
G1 X122.476 Y92.202 E6.49368
G1 X123.134 Y92.82 E6.52971
G1 X123.735 Y93.494 E6.56575
G1 X124.509 Y94.584 E6.61911
G1 X124.955 Y95.33 E6.6538
G1 X130.217 Y104.445 E7.07387
G1 X130.505 Y104.959 E7.09738
G1 X130.797 Y105.52 E7.12263
G1 X131.156 Y106.349 E7.15868
G1 X131.44 Y107.206 E7.19472
G1 X131.647 Y108.085 E7.23076
G1 X131.776 Y108.979 E7.26681
G1 X131.824 Y109.881 E7.30286
G1 X131.793 Y110.783 E7.33888
G1 X131.683 Y111.68 E7.37495
G1 X131.493 Y112.563 E7.411
G1 X131.226 Y113.425 E7.44702
G1 X130.884 Y114.261 E7.48307
G1 X130.512 Y114.987 E7.51563
G1 X130.209 Y115.525 E7.54027
G1 X130.089 Y115.733 E7.54986
G1 X124.778 Y124.664 E7.96458
G1 X124.416 Y125.253 E7.99217
G1 X123.909 Y126.001 E8.02824
G1 X123.339 Y126.701 E8.06427
G1 X122.709 Y127.347 E8.10028
G1 X122.023 Y127.936 E8.13637
G1 X121.289 Y128.461 E8.17239
G1 X120.511 Y128.92 E8.20844
G1 X119.696 Y129.308 E8.24447
G1 X118.849 Y129.622 E8.28052
G1 X117.978 Y129.86 E8.31656
G1 X117.089 Y130.021 E8.35262
G1 X116.021 Y130.108 E8.39538
G1 X115.227 Y130.131 E8.42709
G1 X105.006 Y130.261 E8.83506
G1 X104.171 Y130.261 E8.86839
G1 X103.269 Y130.22 E8.90443
G1 X102.374 Y130.099 E8.94047
G1 X101.493 Y129.899 E8.97653
G1 X100.634 Y129.622 E9.01255
G1 X99.802 Y129.271 E9.0486
G1 X99.004 Y128.847 E9.08466
G1 X98.248 Y128.354 E9.12068
G1 X97.537 Y127.796 E9.15676
G1 X96.879 Y127.178 E9.19279
G1 X96.278 Y126.504 E9.22883
G1 X95.739 Y125.779 E9.26489
G1 X95.46 Y125.343 E9.28555
G1 X94.911 Y124.436 E9.32786
G1 X94.803 Y124.253 E9.33634
G1 X89.797 Y115.578 E9.73609
G1 X89.49 Y115.031 E9.76113
G1 X89.166 Y114.403 E9.78933
G1 X88.814 Y113.572 E9.82535
G1 X88.537 Y112.712 E9.86141
G1 X88.337 Y111.831 E9.89747
G1 X88.216 Y110.936 E9.93352
G1 X88.175 Y110.034 E9.96955
G1 X88.214 Y109.132 E10.00559
G1 X88.332 Y108.236 E10.04166
G1 X88.529 Y107.355 E10.07769
G1 X88.803 Y106.495 E10.11371
G1 X89.152 Y105.662 E10.14976
G1 X89.484 Y105.018 E10.17868
G1 X89.786 Y104.481 E10.20327
G1 X89.909 Y104.27 E10.21302
G1 X95.216 Y95.343 E10.62752
G1 X95.585 Y94.743 E10.65563
G1 X96.091 Y93.995 E10.69168
G1 X96.242 Y93.81 E10.70121
G0 F1620 X96.662 Y93.295
G1 F2400 E7.50121
;MESH:KeyHolderMultipleKeys_holecover_hook.stl
G0 F9000 X108.446 Y108.871
G0 X106.926 Y107.767
G0 X106.962 Y110
G0 X107.109 Y110.939
G0 X107.542 Y111.785
G0 X108.146 Y112.39
G0 X109.089 Y112.954
G0 X109.135 Y112.659
;TYPE:WALL-OUTER
G1 F1440 E10.70121
G1 F1800 X110 Y112.795 E10.73616
G1 X110.864 Y112.659 E10.77106
G1 X111.643 Y112.262 E10.80596
G1 X112.261 Y111.643 E10.84087
G1 X112.659 Y110.864 E10.87579
G1 X112.795 Y110 E10.91069
G1 X112.659 Y109.136 E10.9456
G1 X112.261 Y108.357 E10.98052
G1 X111.643 Y107.738 E11.01543
G1 X110.864 Y107.341 E11.05033
G1 X110 Y107.205 E11.08523
G1 X109.135 Y107.341 E11.12018
G1 X108.356 Y107.738 E11.15508
G1 X107.738 Y108.357 E11.18999
G1 X107.34 Y109.136 E11.2249
G1 X107.204 Y110 E11.25981
G1 X107.34 Y110.864 E11.29472
G1 X107.738 Y111.643 E11.32964
G1 X108.356 Y112.262 E11.36455
G1 X108.543 Y112.357 E11.37292
G0 F1620 X109.135 Y112.659
G1 F2400 E8.17292
G0 F9000 X109.089 Y112.954
G0 X109.346 Y112.977
G0 X112.221 Y113.101
G0 X111.129 Y111.554
G0 X118.382 Y116.765
G0 X116.787 Y115.817
G0 X115.44 Y119.433
G0 X115.615 Y119.726
G1 F1440 E11.37292
G1 F1800 X104.28 Y119.87 E11.82536
G1 X98.593 Y110.016 E12.27945
G1 X104.383 Y100.273 E12.7318
G1 X115.717 Y100.129 E13.1842
G1 X121.407 Y109.983 E13.63835
G1 X115.954 Y119.155 E14.06424
G0 F1620 X115.615 Y119.726
G0 F9000 X115.386 Y119.329
;TYPE:WALL-INNER
G1 F1800 X104.509 Y119.467 E14.4984
G1 X99.056 Y110.019 E14.93379
G1 X104.612 Y100.67 E15.36785
G1 X115.488 Y100.532 E15.80197
G1 X120.944 Y109.98 E16.23742
G1 X115.725 Y118.758 E16.64501
G0 F1620 X115.386 Y119.329
G1 F2400 E13.44501
G0 F9000 X109.082 Y118.799
G0 X109.106 Y120.674
G0 X110 Y111.92
G0 X109.878 Y113.78
G0 X109.01 Y113.044
G1 F1440 E16.64501
G1 F1800 X110 Y113.2 E16.68501
G1 X110.989 Y113.044 E16.72497
G1 X111.881 Y112.59 E16.76492
G1 X112.589 Y111.881 E16.80491
G1 X113.044 Y110.989 E16.84488
G1 X113.2 Y110 E16.88484
G1 X113.044 Y109.011 E16.9248
G1 X112.589 Y108.119 E16.96477
G1 X111.881 Y107.41 E17.00476
G1 X110.989 Y106.956 E17.0447
G1 X110 Y106.8 E17.08467
G1 X109.01 Y106.956 E17.12467
G1 X108.118 Y107.41 E17.16461
G1 X107.41 Y108.119 E17.2046
G1 X106.955 Y109.011 E17.24457
G1 X106.799 Y110 E17.28453
G1 X106.955 Y110.989 E17.32449
G1 X107.41 Y111.881 E17.36446
G1 X108.118 Y112.59 E17.40445
G1 X108.417 Y112.743 E17.41785
G0 F1620 X109.01 Y113.044
G0 F9000 X108.885 Y113.429
G1 F1800 X110 Y113.605 E17.46291
G1 X111.114 Y113.429 E17.50792
G1 X112.119 Y112.918 E17.55292
G1 X112.917 Y112.119 E17.59799
G1 X113.429 Y111.114 E17.64301
G1 X113.605 Y110 E17.68802
G1 X113.429 Y108.886 E17.73304
G1 X112.917 Y107.881 E17.77805
G1 X112.119 Y107.082 E17.82312
G1 X111.114 Y106.571 E17.86812
G1 X110 Y106.395 E17.91314
G1 X108.885 Y106.571 E17.95819
G1 X107.88 Y107.082 E18.00319
G1 X107.082 Y107.881 E18.04826
G1 X106.57 Y108.886 E18.09328
G1 X106.394 Y110 E18.13829
G1 X106.57 Y111.114 E18.1833
G1 X107.082 Y112.119 E18.22832
G1 X107.88 Y112.918 E18.27339
G1 X108.292 Y113.128 E18.29185
G0 F1620 X108.885 Y113.429
G1 F2400 E15.09185
G0 F9000 X111.174 Y113.612
G0 X110.592 Y111.827
G0 X111.263 Y120.646
G0 X111.239 Y118.772
G0 X115.157 Y118.932
G1 F1440 E18.29185
G1 F1800 X104.738 Y119.064 E18.70773
G1 X99.519 Y110.022 E19.12441
G1 X104.841 Y101.067 E19.54018
G1 X115.259 Y100.935 E19.95602
G1 X120.481 Y109.977 E20.37277
G1 X115.496 Y118.361 E20.76207
G0 F1620 X115.157 Y118.932
G0 F9000 X114.933 Y118.544
;TYPE:SKIN
G1 F1800 X104.961 Y118.672 E21.16011
G1 X99.971 Y110.025 E21.55857
G1 X105.065 Y101.455 E21.95648
G1 X115.036 Y101.327 E22.35448
G1 X120.029 Y109.974 E22.753
G1 X115.272 Y117.973 E23.12445
G0 F1620 X114.933 Y118.544
G1 F2400 E19.92445
G0 F9000 X115.172 Y118.688
G0 X116.819 Y115.763
G0 X118.415 Y116.711
G0 X111.553 Y111.129
G0 X113.073 Y112.233
G0 X112.186 Y113.007
G0 X112.351 Y113.238
G1 F1440 E23.12445
G1 F1800 X113.237 Y112.351 E23.17449
G1 X113.805 Y111.236 E23.22443
G1 X113.999 Y110 E23.27437
G1 X113.805 Y108.764 E23.3243
G1 X113.237 Y107.649 E23.37425
G1 X112.351 Y106.762 E23.42428
G1 X111.235 Y106.195 E23.47425
G1 X110 Y106.001 E23.52414
G1 X108.764 Y106.195 E23.57408
G1 X107.648 Y106.762 E23.62404
G1 X106.762 Y107.649 E23.67408
G1 X106.194 Y108.764 E23.72402
G1 X106 Y110 E23.77396
G1 X106.194 Y111.236 E23.82389
G1 X106.762 Y112.351 E23.87383
G1 X107.648 Y113.238 E23.92387
G1 X108.764 Y113.805 E23.97383
G1 X110 Y113.999 E24.02377
G1 X111.235 Y113.805 E24.07366
G1 X111.758 Y113.539 E24.09708
G0 F1620 X112.351 Y113.238
G1 F2400 E20.89708
G0 F9000 X112.186 Y113.007
G0 X110 Y113.798
G0 X110 Y111.92
G0 X110.087 Y120.661
G0 X110.063 Y118.787
G0 X105.477 Y118.945
G0 X105.472 Y118.483
G1 F1440 E24.09708
G1 F1800 X104.498 Y117.509 E24.15206
G0 F9000 X104.1 Y117.737
G0 X103.328 Y116.399
G0 X103.726 Y116.171
G1 F1800 X106.031 Y118.476 E24.28216
G0 F9000 X106.589 Y118.469
G1 F1800 X102.954 Y114.834 E24.48734
G0 F9000 X102.556 Y115.062
G0 X101.784 Y113.724
G0 X102.182 Y113.496
G1 F1800 X107.148 Y118.462 E24.76764
G0 F9000 X107.707 Y118.455
G1 F1800 X101.411 Y112.159 E25.12302
G0 F9000 X101.013 Y112.388
G0 X100.24 Y111.049
G0 X100.638 Y110.821
G1 F1800 X108.265 Y118.448 E25.55352
G0 F9000 X108.824 Y118.441
G1 F1800 X100.264 Y109.881 E26.03668
G0 F9000 X100.476 Y109.527
G1 F1800 X109.383 Y118.434 E26.53943
G0 F9000 X109.941 Y118.426
G1 F1800 X100.687 Y109.172 E27.06176
G0 F9000 X100.897 Y108.817
G1 F1800 X110.5 Y118.419 E27.60377
G0 F9000 X111.058 Y118.412
G1 F1800 X101.108 Y108.462 E28.16539
G0 F9000 X101.319 Y108.107
G1 F1800 X111.616 Y118.405 E28.74663
G0 F9000 X112.175 Y118.397
G1 F1800 X101.53 Y107.753 E29.34745
G0 F9000 X101.741 Y107.398
G1 F1800 X106.421 Y112.078 E29.61161
G0 F9000 X106.832 Y111.87
G0 X106.441 Y111.007
G0 X105.987 Y111.078
G1 F1800 X101.952 Y107.043 E29.83936
G0 F9000 X102.162 Y106.688
G1 F1800 X105.882 Y110.407 E30.04931
G0 F9000 X105.848 Y109.808
G1 F1800 X102.374 Y106.334 E30.24539
G0 F9000 X102.584 Y105.979
G1 F1800 X105.925 Y109.319 E30.43395
G0 F9000 X106.002 Y108.83
G1 F1800 X102.795 Y105.624 E30.61493
G0 F9000 X103.006 Y105.269
G1 F1800 X106.164 Y108.427 E30.79319
G0 F9000 X106.355 Y108.052
G1 F1800 X103.217 Y104.914 E30.97031
G0 F9000 X103.428 Y104.559
G1 F1800 X106.546 Y107.677 E31.1463
G0 F9000 X106.795 Y107.36
G1 F1800 X103.639 Y104.204 E31.32444
G0 F9000 X103.849 Y103.849
G1 F1800 X107.077 Y107.077 E31.50664
G0 F9000 X107.36 Y106.795
G1 F1800 X104.061 Y103.495 E31.69288
G0 F9000 X104.272 Y103.14
G1 F1800 X107.676 Y106.544 E31.88502
G0 F9000 X108.051 Y106.354
G1 F1800 X104.482 Y102.785 E32.08647
G0 F9000 X104.693 Y102.43
G1 F1800 X108.427 Y106.164 E32.29723
G0 F9000 X108.83 Y106.002
G1 F1800 X104.904 Y102.075 E32.51886
G0 F9000 X105.115 Y101.721
G1 F1800 X109.319 Y105.925 E32.75615
G0 F9000 X109.808 Y105.848
G1 F1800 X105.588 Y101.628 E32.99435
G0 F9000 X106.147 Y101.621
G1 F1800 X110.409 Y105.883 E33.23491
G0 F9000 X111.08 Y105.988
G1 F1800 X106.705 Y101.614 E33.48183
G0 F9000 X107.264 Y101.607
G1 F1800 X112.079 Y106.422 E33.75361
G0 F9000 X111.87 Y106.832
G0 X113.165 Y108.124
G0 X113.574 Y107.917
G1 F1800 X118.257 Y112.6 E34.01793
G0 F9000 X118.467 Y112.245
G1 F1800 X107.822 Y101.599 E34.61881
G0 F9000 X108.381 Y101.592
G1 F1800 X118.678 Y111.89 E35.20005
G0 F9000 X118.89 Y111.536
G1 F1800 X108.939 Y101.585 E35.76173
G0 F9000 X109.498 Y101.578
G1 F1800 X119.1 Y111.181 E36.30373
G0 F9000 X119.311 Y110.826
G1 F1800 X110.056 Y101.571 E36.82612
G0 F9000 X110.615 Y101.564
G1 F1800 X119.522 Y110.471 E37.32887
G0 F9000 X119.733 Y110.117
G1 F1800 X111.174 Y101.557 E37.81201
G0 F9000 X111.732 Y101.55
G1 F1800 X119.361 Y109.179 E38.24262
G0 F9000 X119.76 Y108.949
G0 X118.987 Y107.61
G0 X118.588 Y107.84
G1 F1800 X112.29 Y101.542 E38.59811
G0 F9000 X112.849 Y101.535
G1 F1800 X117.816 Y106.502 E38.87847
G0 F9000 X118.214 Y106.273
G0 X117.441 Y104.934
G0 X117.043 Y105.163
G1 F1800 X113.407 Y101.528 E39.08367
G0 F9000 X113.966 Y101.521
G1 F1800 X116.27 Y103.825 E39.21372
G0 F9000 X116.668 Y103.596
G0 X115.894 Y102.255
G0 X115.496 Y102.485
G1 F1800 X114.525 Y101.514 E39.26853
G1 F2400 E36.06853
G0 F9000 X114.52 Y101.054
G0 X115.158 Y101.113
G0 X118.14 Y106.342
G0 X119.761 Y105.405
G0 X111.827 Y109.408
G0 X113.557 Y108.676
G0 X113.557 Y108.988
G0 X114.009 Y108.918
G1 F1440 E39.26853
G1 F1800 X118.046 Y112.955 E39.49639
G0 F9000 X117.835 Y113.309
G1 F1800 X114.115 Y109.59 E39.70634
G0 F9000 X114.149 Y110.189
G1 F1800 X117.624 Y113.664 E39.90248
G0 F9000 X117.413 Y114.019
G1 F1800 X114.073 Y110.679 E40.091
G0 F9000 X113.996 Y111.167
G1 F1800 X117.202 Y114.373 E40.27197
G0 F9000 X116.991 Y114.728
G1 F1800 X113.834 Y111.571 E40.45016
G0 F9000 X113.643 Y111.946
G1 F1800 X116.78 Y115.083 E40.62723
G0 F9000 X116.569 Y115.438
G1 F1800 X113.453 Y112.321 E40.80313
G0 F9000 X113.204 Y112.638
G1 F1800 X116.358 Y115.792 E40.98116
G0 F9000 X116.147 Y116.147
G1 F1800 X112.921 Y112.921 E41.16325
G0 F9000 X112.638 Y113.204
G1 F1800 X115.937 Y116.502 E41.34943
G0 F9000 X115.725 Y116.857
G1 F1800 X112.322 Y113.453 E41.54154
G0 F9000 X111.947 Y113.644
G1 F1800 X115.515 Y117.212 E41.74293
G0 F9000 X115.304 Y117.567
G1 F1800 X111.572 Y113.834 E41.95361
G0 F9000 X111.168 Y113.996
G1 F1800 X115.092 Y117.921 E42.17513
G0 F9000 X114.882 Y118.276
G1 F1800 X110.679 Y114.074 E42.41233
G0 F9000 X110.19 Y114.15
G1 F1800 X114.409 Y118.369 E42.65047
G0 F9000 X113.851 Y118.376
G1 F1800 X109.59 Y114.116 E42.89095
