;FLAVOR:Marlin
;TIME:1043
;Filament used: 0.572469m
;Layer height: 0.2
;MINX:87.452
;MINY:89.051
;MINZ:0.24
;MAXX:132.548
;MAXY:130.948
;MAXZ:15.84
;Generated with Cura_SteamEngine 4.10.0
M82 ;absolute extrusion mode
M201 X500.00 Y500.00 Z100.00 E5000.00 ;Setup machine max acceleration
M203 X500.00 Y500.00 Z10.00 E50.00 ;Setup machine max feedrate
M204 P500.00 R1000.00 T500.00 ;Setup Print/Retract/Travel acceleration
M205 X8.00 Y8.00 Z0.40 E5.00 ;Setup Jerk
M220 S100 ;Reset Feedrate
M221 S100 ;Reset Flowrate

;*** Start Dual Nozzle/Bed Preheating ***
M140 S50 ; start preheating the bed
M104 S195 ?T0 ; start preheating hotend
M190 S50 ; heat to Cura Bed setting and WAIT
M109 S195 ?T0 ; heat to Cura Hotend and WAIT
;*** End Preheating ***

;*** Single Print Start Tone
M300 S1000 P500 ; chirp to indicate starting to print
;*** End Single Start Tone

G28 ;Home

G92 E0 ;Reset Extruder
G1 Z2.0 F3000 ;Move Z Axis up

G1 X10.1 Y20 Z0.28 F5000.0 ;Move to start position
G1 X10.1 Y200.0 Z0.28 F1500.0 E15 ;Draw the first line
G1 X10.4 Y200.0 Z0.28 F5000.0 ;Move to side a little
G1 X10.4 Y20 Z0.28 F1500.0 E30 ;Draw the second line
G92 E0 ;Reset Extruder
G1 Z2.0 F3000 ;Move Z Axis up
G92 E0
G92 E0
G1 F2400 E-3.2
;LAYER_COUNT:80
;LAYER:0
M106 S63.8
M204 S500
M205 X6 Y6
G0 F9000 X96.658 Y92.068 Z0.24
;TYPE:SKIRT
G1 F1440 E0
G1 F1800 X97.346 Y91.456 E0.03675
G1 X98.085 Y90.906 E0.07352
G1 X98.868 Y90.422 E0.11026
G1 X99.69 Y90.008 E0.14699
G1 X100.545 Y89.667 E0.18373
G1 X101.427 Y89.401 E0.2205
G1 X102.328 Y89.213 E0.25724
G1 X103.242 Y89.104 E0.29397
G1 X103.883 Y89.075 E0.31958
G1 X104.699 Y89.064 E0.35215
G1 X115.301 Y89.051 E0.7753
G1 X116.129 Y89.061 E0.80835
G1 X117.048 Y89.113 E0.84509
G1 X117.959 Y89.245 E0.88183
G1 X118.855 Y89.455 E0.91856
G1 X119.73 Y89.743 E0.95533
G1 X120.576 Y90.105 E0.99205
G1 X121.388 Y90.539 E1.0288
G1 X122.159 Y91.042 E1.06554
G1 X122.884 Y91.61 E1.1023
G1 X123.556 Y92.239 E1.13904
G1 X124.172 Y92.924 E1.17581
G1 X124.725 Y93.66 E1.21255
G1 X125.092 Y94.233 E1.23971
G1 X125.558 Y95.016 E1.27608
G1 X130.88 Y104.237 E1.70101
G1 X131.197 Y104.803 E1.7269
G1 X131.612 Y105.625 E1.76365
G1 X131.954 Y106.48 E1.8004
G1 X132.22 Y107.362 E1.83717
G1 X132.408 Y108.263 E1.87391
G1 X132.518 Y109.177 E1.91065
G1 X132.548 Y110.097 E1.94739
G1 X132.499 Y111.016 E1.98412
G1 X132.369 Y111.928 E2.02089
G1 X132.161 Y112.825 E2.05764
G1 X131.876 Y113.7 E2.09437
G1 X131.516 Y114.547 E2.1311
G1 X131.191 Y115.174 E2.15929
G1 X130.762 Y115.936 E2.19419
G1 X125.428 Y125.146 E2.61898
G1 X125.064 Y125.755 E2.6473
G1 X124.557 Y126.524 E2.68406
G1 X123.986 Y127.246 E2.7208
G1 X123.355 Y127.916 E2.75753
G1 X122.668 Y128.529 E2.79428
G1 X121.93 Y129.08 E2.83104
G1 X121.147 Y129.564 E2.86778
G1 X120.325 Y129.979 E2.90453
G1 X119.47 Y130.321 E2.94129
G1 X118.721 Y130.552 E2.97257
G1 X117.823 Y130.756 E3.00932
G1 X116.911 Y130.881 E3.04606
G1 X116.079 Y130.925 E3.07932
G1 X115.296 Y130.935 E3.11057
G1 X104.574 Y130.948 E3.53851
G1 X103.876 Y130.939 E3.56637
G1 X102.957 Y130.887 E3.60311
G1 X102.046 Y130.756 E3.63984
G1 X101.15 Y130.546 E3.67657
G1 X100.275 Y130.259 E3.71333
G1 X99.428 Y129.897 E3.75009
G1 X98.616 Y129.463 E3.78684
G1 X97.845 Y128.961 E3.82356
G1 X97.12 Y128.393 E3.86032
G1 X96.447 Y127.764 E3.89708
G1 X95.832 Y127.08 E3.9338
G1 X95.278 Y126.345 E3.97053
G1 X94.911 Y125.773 E3.99766
G1 X94.517 Y125.113 E4.02833
G1 X89.12 Y115.763 E4.45922
G1 X88.803 Y115.197 E4.48511
G1 X88.388 Y114.375 E4.52186
G1 X88.046 Y113.52 E4.55862
G1 X87.78 Y112.638 E4.59539
G1 X87.592 Y111.737 E4.63212
G1 X87.482 Y110.823 E4.66886
G1 X87.452 Y109.903 E4.7056
G1 X87.501 Y108.984 E4.74233
G1 X87.631 Y108.072 E4.7791
G1 X87.839 Y107.175 E4.81585
G1 X88.124 Y106.3 E4.85258
G1 X88.484 Y105.453 E4.88931
G1 X88.806 Y104.832 E4.91723
G1 X89.247 Y104.047 E4.95317
G1 X94.511 Y94.958 E5.37238
G1 X94.948 Y94.227 E5.40637
G1 X95.454 Y93.459 E5.44308
G1 X96.026 Y92.737 E5.47984
G1 X96.202 Y92.551 E5.49006
G0 F1620 X96.658 Y92.068
G0 F9000 X96.974 Y92.319
G1 F1800 X97.652 Y91.723 E5.52609
G1 X98.381 Y91.189 E5.56216
G1 X99.154 Y90.721 E5.59823
G1 X99.965 Y90.324 E5.63426
G1 X100.808 Y90 E5.67031
G1 X101.676 Y89.752 E5.70634
G1 X102.563 Y89.582 E5.74239
G1 X103.889 Y89.475 E5.79548
G1 X104.699 Y89.464 E5.82781
G1 X115.301 Y89.451 E6.25096
G1 X116.123 Y89.461 E6.28377
G1 X117.025 Y89.513 E6.31983
G1 X117.918 Y89.645 E6.35586
G1 X118.797 Y89.855 E6.39193
G1 X119.653 Y90.142 E6.42797
G1 X120.481 Y90.503 E6.46402
G1 X121.273 Y90.937 E6.50006
G1 X122.024 Y91.438 E6.5361
G1 X122.727 Y92.005 E6.57214
G1 X123.378 Y92.631 E6.60819
G1 X123.971 Y93.312 E6.64423
G1 X124.501 Y94.043 E6.68027
G1 X124.749 Y94.438 E6.69888
G1 X125.212 Y95.216 E6.73502
G1 X130.466 Y104.317 E7.15444
G1 X130.848 Y104.999 E7.18564
G1 X131.254 Y105.805 E7.22166
G1 X131.587 Y106.645 E7.25773
G1 X131.845 Y107.511 E7.29379
G1 X132.025 Y108.396 E7.32984
G1 X132.126 Y109.293 E7.36586
G1 X132.147 Y110.196 E7.40191
G1 X132.088 Y111.097 E7.43795
G1 X131.95 Y111.99 E7.47402
G1 X131.733 Y112.866 E7.51004
G1 X131.44 Y113.72 E7.54607
G1 X131.072 Y114.545 E7.58213
G1 X130.842 Y114.978 E7.60169
G1 X130.416 Y115.735 E7.63636
G1 X125.084 Y124.941 E8.06098
G1 X124.72 Y125.55 E8.08929
G1 X124.223 Y126.304 E8.12534
G1 X123.661 Y127.011 E8.16138
G1 X123.039 Y127.665 E8.19741
G1 X122.361 Y128.262 E8.23346
G1 X121.633 Y128.797 E8.26952
G1 X120.861 Y129.265 E8.30555
G1 X120.05 Y129.663 E8.34161
G1 X119.208 Y129.988 E8.37763
G1 X118.616 Y130.167 E8.40231
G1 X117.735 Y130.365 E8.43835
G1 X116.84 Y130.486 E8.4744
G1 X116.073 Y130.525 E8.50505
G1 X115.296 Y130.535 E8.53607
G1 X104.579 Y130.548 E8.96381
G1 X103.881 Y130.539 E8.99167
G1 X102.98 Y130.488 E9.02769
G1 X102.086 Y130.356 E9.06375
G1 X101.208 Y130.147 E9.09978
G1 X100.351 Y129.86 E9.13585
G1 X99.524 Y129.499 E9.17186
G1 X98.731 Y129.066 E9.20792
G1 X97.98 Y128.565 E9.24396
G1 X97.276 Y127.999 E9.28001
G1 X96.625 Y127.373 E9.31606
G1 X96.032 Y126.692 E9.3521
G1 X95.502 Y125.961 E9.38813
G1 X95.255 Y125.568 E9.40666
G1 X94.785 Y124.779 E9.44331
G1 X89.469 Y115.567 E9.86781
G1 X89.152 Y115.001 E9.89371
G1 X88.746 Y114.195 E9.92973
G1 X88.413 Y113.355 E9.96579
G1 X88.155 Y112.489 E10.00186
G1 X87.975 Y111.604 E10.0379
G1 X87.874 Y110.707 E10.07393
G1 X87.853 Y109.804 E10.10998
G1 X87.912 Y108.903 E10.14602
G1 X88.05 Y108.01 E10.18208
G1 X88.267 Y107.134 E10.2181
G1 X88.56 Y106.28 E10.25414
G1 X88.928 Y105.455 E10.29019
G1 X89.154 Y105.028 E10.30947
G1 X89.593 Y104.247 E10.34523
G1 X94.857 Y95.158 E10.76444
G1 X95.291 Y94.433 E10.79817
G1 X95.789 Y93.679 E10.83423
G1 X96.351 Y92.973 E10.87025
G1 X96.516 Y92.8 E10.87979
G0 F1620 X96.974 Y92.319
G1 F2400 E7.67979
;MESH:KeyHolderMultipleKeys_holecover.3mf
G0 F9000 X103.338 Y99.54
G0 X104.274 Y100.082
G0 X115.317 Y100.826
G0 X120.602 Y109.984
G0 X115.687 Y119.834
G0 X115.851 Y120.134
;TYPE:WALL-OUTER
G1 F1440 E10.87979
G1 F1800 X104.121 Y120.15 E11.34796
G1 X98.271 Y110.016 E11.81498
G1 X104.149 Y99.865 E12.28315
G1 X115.879 Y99.85 E12.75132
G1 X121.729 Y109.984 E13.21835
G1 X116.184 Y119.559 E13.65996
G0 F1620 X115.851 Y120.134
G0 F9000 X115.621 Y119.734
;TYPE:WALL-INNER
G1 F1800 X104.351 Y119.75 E14.10978
G1 X98.733 Y110.016 E14.55834
G1 X104.379 Y100.265 E15.00806
G1 X115.649 Y100.25 E15.45787
G1 X121.267 Y109.984 E15.90644
G1 X115.954 Y119.159 E16.3296
G0 F1620 X115.621 Y119.734
G0 F9000 X115.391 Y119.334
G1 F1800 X104.581 Y119.35 E16.76105
G1 X99.195 Y110.016 E17.19116
G1 X104.609 Y100.665 E17.62242
G1 X115.419 Y100.65 E18.05387
G1 X120.805 Y109.984 E18.48398
G1 X115.724 Y118.759 E18.88869
G0 F1620 X115.391 Y119.334
G0 F9000 X115.167 Y118.944
;TYPE:SKIN
G1 F1800 X104.806 Y118.96 E19.30222
G1 X99.645 Y110.015 E19.7144
G1 X104.833 Y101.055 E20.12763
G1 X115.194 Y101.04 E20.54116
G1 X120.355 Y109.985 E20.95334
G1 X115.5 Y118.369 E21.34002
G0 F1620 X115.167 Y118.944
G0 F9000 X115.408 Y119.084
G0 X115.342 Y119.125
G0 X105.202 Y119.24
G0 X105.202 Y118.779
G1 F1800 X104.508 Y118.084 E21.37922
G0 F9000 X104.11 Y118.312
G0 X104.683 Y119.174
G0 X105.767 Y119.239
G0 X105.767 Y118.778
G1 F1800 X103.736 Y116.747 E21.49386
G0 F9000 X103.338 Y116.975
G0 X102.568 Y115.639
G0 X102.966 Y115.411
G1 F1800 X106.331 Y118.776 E21.68379
G0 F9000 X106.896 Y118.776
G1 F1800 X102.194 Y114.074 E21.94919
G0 F9000 X101.796 Y114.302
G0 X101.025 Y112.965
G0 X101.423 Y112.737
G1 F1800 X107.461 Y118.775 E22.29
G0 F9000 X108.026 Y118.774
G1 F1800 X100.653 Y111.401 E22.70617
G0 F9000 X100.254 Y111.63
G0 X99.482 Y110.292
G0 X99.881 Y110.063
G1 F1800 X108.591 Y118.773 E23.1978
G0 F9000 X109.156 Y118.772
G1 F1800 X100.052 Y109.669 E23.71164
G0 F9000 X100.259 Y109.31
G1 F1800 X109.721 Y118.772 E24.24572
G0 F9000 X110.285 Y118.77
G1 F1800 X100.467 Y108.952 E24.79989
G0 F9000 X100.675 Y108.594
G1 F1800 X110.85 Y118.769 E25.37421
G0 F9000 X111.415 Y118.769
G1 F1800 X100.882 Y108.236 E25.96873
G0 F9000 X101.089 Y107.877
G1 F1800 X111.979 Y118.767 E26.58341
G0 F9000 X112.544 Y118.767
G1 F1800 X101.297 Y107.519 E27.21827
G0 F9000 X101.504 Y107.161
G1 F1800 X113.109 Y118.766 E27.87331
G0 F9000 X113.674 Y118.765
G1 F1800 X101.711 Y106.802 E28.54855
G0 F9000 X101.918 Y106.444
G1 F1800 X114.238 Y118.764 E29.24394
G0 F9000 X114.803 Y118.763
G1 F1800 X102.126 Y106.086 E29.95949
G0 F9000 X102.333 Y105.728
G1 F1800 X115.176 Y118.57 E30.68438
G0 F9000 X115.383 Y118.211
G1 F1800 X102.541 Y105.369 E31.40923
G0 F9000 X102.748 Y105.011
G1 F1800 X115.591 Y117.854 E32.13415
G0 F9000 X115.798 Y117.495
G1 F1800 X102.956 Y104.653 E32.85901
G0 F9000 X103.163 Y104.294
G1 F1800 X116.005 Y117.137 E33.58389
G0 F9000 X116.212 Y116.778
G1 F1800 X103.37 Y103.936 E34.30875
G0 F9000 X103.578 Y103.578
G1 F1800 X116.42 Y116.42 E35.03361
G0 F9000 X116.628 Y116.062
G1 F1800 X103.785 Y103.219 E35.75852
G0 F9000 X103.992 Y102.861
G1 F1800 X116.835 Y115.703 E36.48341
G0 F9000 X117.043 Y115.346
G1 F1800 X104.2 Y102.503 E37.20832
G0 F9000 X104.407 Y102.145
G1 F1800 X117.25 Y114.987 E37.93321
G0 F9000 X117.457 Y114.629
G1 F1800 X104.615 Y101.786 E38.6581
G0 F9000 X104.822 Y101.428
G1 F1800 X117.665 Y114.271 E39.38301
G0 F9000 X117.872 Y113.912
G1 F1800 X105.194 Y101.234 E40.09861
G0 F9000 X105.759 Y101.233
G1 F1800 X118.079 Y113.554 E40.79403
G0 F9000 X118.287 Y113.196
G1 F1800 X106.324 Y101.232 E41.4693
G0 F9000 X106.888 Y101.231
G1 F1800 X118.494 Y112.837 E42.1244
G0 F9000 X118.702 Y112.479
G1 F1800 X107.453 Y101.23 E42.75934
G0 F9000 X108.018 Y101.23
G1 F1800 X118.909 Y112.121 E43.37407
G0 F9000 X119.117 Y111.763
G1 F1800 X108.583 Y101.229 E43.96866
G0 F9000 X109.148 Y101.228
G1 F1800 X119.324 Y111.404 E44.54304
G0 F9000 X119.532 Y111.046
G1 F1800 X109.713 Y101.227 E45.09726
G0 F9000 X110.277 Y101.226
G1 F1800 X119.739 Y110.688 E45.63134
G0 F9000 X119.946 Y110.329
G1 F1800 X110.842 Y101.225 E46.14521
G0 F9000 X111.407 Y101.225
G1 F1800 X120.117 Y109.935 E46.63684
G0 F9000 X120.516 Y109.706
G0 X119.745 Y108.369
G0 X119.346 Y108.598
G1 F1800 X111.972 Y101.224 E47.05306
G0 F9000 X112.537 Y101.223
G1 F1800 X118.575 Y107.261 E47.39387
G0 F9000 X118.974 Y107.032
G0 X118.203 Y105.696
G0 X117.804 Y105.925
G1 F1800 X113.102 Y101.223 E47.65927
G0 F9000 X113.666 Y101.221
G1 F1800 X117.033 Y104.588 E47.84932
G0 F9000 X117.431 Y104.36
G0 X116.66 Y103.023
G0 X116.262 Y103.251
G1 F1800 X114.231 Y101.22 E47.96396
G0 F9000 X114.796 Y101.22
G1 F1800 X115.491 Y101.914 E48.00316
M104 S195
G0 F9000 X116.15 Y101.537
;MESH:NONMESH
G0 F300 X116.15 Y101.537 Z0.48
G0 F9000 X120.602 Y109.984
G0 X115.686 Y119.848
G0 X115.851 Y120.134
;TIME_ELAPSED:54.009573
;LAYER:1
M140 S40
M106 S127.5
;TYPE:WALL-OUTER
;MESH:KeyHolderMultipleKeys_holecover.3mf
G1 F2025 X104.121 Y120.15 E48.47133
G1 X98.271 Y110.016 E48.93835
G1 X104.149 Y99.865 E49.40652
G1 X115.879 Y99.85 E49.87469
G1 X121.729 Y109.984 E50.34172
G1 X116.184 Y119.559 E50.78333
G0 F1822.5 X115.851 Y120.134
G0 F10500 X115.621 Y119.734
;TYPE:WALL-INNER
G1 F2025 X104.351 Y119.75 E51.23314
G1 X98.733 Y110.016 E51.68171
G1 X104.379 Y100.265 E52.13143
G1 X115.649 Y100.25 E52.58124
G1 X121.267 Y109.984 E53.02981
G1 X115.954 Y119.159 E53.45297
G0 F1822.5 X115.621 Y119.734
G0 F10500 X115.391 Y119.334
G1 F2025 X104.581 Y119.35 E53.88442
G1 X99.195 Y110.016 E54.31453
G1 X104.609 Y100.665 E54.74579
G1 X115.419 Y100.65 E55.17724
G1 X120.805 Y109.984 E55.60735
G1 X115.724 Y118.759 E56.01206
G0 F1822.5 X115.391 Y119.334
G0 F10500 X115.167 Y118.944
;TYPE:SKIN
G1 F2025 X104.806 Y118.96 E56.42559
G1 X99.645 Y110.015 E56.83777
G1 X104.833 Y101.055 E57.251
G1 X115.194 Y101.04 E57.66453
G1 X120.355 Y109.985 E58.07671
G1 X115.5 Y118.369 E58.46339
G0 F1822.5 X115.167 Y118.944
G0 F10500 X114.863 Y118.764
G1 F2025 X115.337 Y118.29 E58.49014
G0 F10500 X115.734 Y118.521
G0 X115.29 Y119.158
G0 X114.297 Y119.226
G0 X114.297 Y118.764
G1 F2025 X116.115 Y116.946 E58.59276
G0 F10500 X116.512 Y117.177
G0 X117.29 Y115.834
G0 X116.893 Y115.603
G1 F2025 X113.73 Y118.766 E58.77129
G0 F10500 X113.163 Y118.767
G1 F2025 X117.67 Y114.26 E59.02568
G0 F10500 X118.067 Y114.491
G0 X118.845 Y113.148
G0 X118.448 Y112.917
G1 F2025 X112.597 Y118.767 E59.35591
G0 F10500 X112.031 Y118.768
G1 F2025 X119.225 Y111.573 E59.762
G0 F10500 X119.623 Y111.804
G0 X120.4 Y110.461
G0 X120.003 Y110.23
G1 F2025 X111.464 Y118.769 E60.24398
G0 F10500 X110.897 Y118.77
G1 F2025 X119.976 Y109.692 E60.75641
G0 F10500 X119.769 Y109.332
G1 F2025 X110.331 Y118.771 E61.28916
G0 F10500 X109.764 Y118.772
G1 F2025 X119.562 Y108.974 E61.8422
G0 F10500 X119.355 Y108.615
G1 F2025 X109.197 Y118.773 E62.41556
G0 F10500 X108.631 Y118.774
G1 F2025 X119.148 Y108.256 E63.00921
G0 F10500 X118.941 Y107.898
G1 F2025 X108.065 Y118.774 E63.6231
G0 F10500 X107.497 Y118.776
G1 F2025 X118.734 Y107.539 E64.25737
G0 F10500 X118.528 Y107.18
G1 F2025 X106.931 Y118.776 E64.91192
G0 F10500 X106.365 Y118.777
G1 F2025 X118.32 Y106.821 E65.58674
G0 F10500 X118.113 Y106.463
G1 F2025 X105.798 Y118.778 E66.28186
G0 F10500 X105.231 Y118.779
G1 F2025 X117.907 Y106.104 E66.99732
G0 F10500 X117.7 Y105.745
G1 F2025 X104.82 Y118.624 E67.72429
G0 F10500 X104.613 Y118.266
G1 F2025 X117.493 Y105.386 E68.45129
G0 F10500 X117.286 Y105.027
G1 F2025 X104.406 Y117.907 E69.1783
G0 F10500 X104.199 Y117.548
G1 F2025 X117.079 Y104.669 E69.90527
G0 F10500 X116.872 Y104.31
G1 F2025 X103.992 Y117.19 E70.63227
G0 F10500 X103.785 Y116.831
G1 F2025 X116.665 Y103.951 E71.35928
G0 F10500 X116.458 Y103.593
G1 F2025 X103.579 Y116.472 E72.08622
G0 F10500 X103.371 Y116.114
G1 F2025 X116.251 Y103.234 E72.81323
G0 F10500 X116.044 Y102.875
G1 F2025 X103.165 Y115.754 E73.54017
G0 F10500 X102.958 Y115.396
G1 F2025 X115.837 Y102.517 E74.26712
G0 F10500 X115.631 Y102.157
G1 F2025 X102.751 Y115.037 E74.99412
G0 F10500 X102.544 Y114.678
G1 F2025 X115.423 Y101.799 E75.72107
G0 F10500 X115.216 Y101.44
G1 F2025 X102.337 Y114.32 E76.44804
G0 F10500 X102.13 Y113.961
G1 F2025 X114.872 Y101.219 E77.16726
G0 F10500 X114.305 Y101.22
G1 F2025 X101.923 Y113.602 E77.86615
G0 F10500 X101.716 Y113.243
G1 F2025 X113.739 Y101.22 E78.54478
G0 F10500 X113.173 Y101.221
G1 F2025 X101.509 Y112.885 E79.20315
G0 F10500 X101.302 Y112.526
G1 F2025 X112.606 Y101.223 E79.84117
G0 F10500 X112.039 Y101.223
G1 F2025 X101.095 Y112.167 E80.45889
G0 F10500 X100.888 Y111.809
G1 F2025 X111.473 Y101.224 E81.05635
G0 F10500 X110.906 Y101.225
G1 F2025 X100.682 Y111.449 E81.63344
G0 F10500 X100.474 Y111.091
G1 F2025 X110.34 Y101.225 E82.19032
G0 F10500 X109.774 Y101.226
G1 F2025 X100.268 Y110.732 E82.72688
G0 F10500 X100.061 Y110.373
G1 F2025 X109.206 Y101.227 E83.24309
G0 F10500 X108.64 Y101.228
G1 F2025 X99.854 Y110.015 E83.73904
G0 F10500 X99.457 Y109.784
G0 X100.233 Y108.444
G0 X100.629 Y108.674
G1 F2025 X108.074 Y101.229 E84.15927
G0 F10500 X107.507 Y101.23
G1 F2025 X101.406 Y107.331 E84.50364
G0 F10500 X101.011 Y107.101
G0 X101.788 Y105.758
G0 X102.184 Y105.988
G1 F2025 X106.941 Y101.23 E84.77217
G0 F10500 X106.374 Y101.232
G1 F2025 X102.961 Y104.645 E84.96481
G0 F10500 X102.566 Y104.415
G0 X103.344 Y103.072
G0 X103.738 Y103.301
G1 F2025 X105.807 Y101.232 E85.0816
G0 F10500 X105.241 Y101.233
