;FLAVOR:Marlin
;TIME:249
;Filament used: 0.151218m
;Layer height: 0.2
;MINX:94.622
;MINY:88.105
;MINZ:0.24
;MAXX:125.356
;MAXY:131.9
;MAXZ:2.88
;Generated with Cura_SteamEngine 4.10.0
M82 ;absolute extrusion mode
M201 X500.00 Y500.00 Z100.00 E5000.00 ;Setup machine max acceleration
M203 X500.00 Y500.00 Z10.00 E50.00 ;Setup machine max feedrate
M204 P500.00 R1000.00 T500.00 ;Setup Print/Retract/Travel acceleration
M205 X8.00 Y8.00 Z0.40 E5.00 ;Setup Jerk
M220 S100 ;Reset Feedrate
M221 S100 ;Reset Flowrate

;*** Start Dual Nozzle/Bed Preheating ***
M140 S50 ; start preheating the bed
M104 S200 ?T0 ; start preheating hotend
M190 S50 ; heat to Cura Bed setting and WAIT
M109 S200 ?T0 ; heat to Cura Hotend and WAIT
;*** End Preheating ***

;*** Single Print Start Tone
M300 S1000 P500 ; chirp to indicate starting to print
;*** End Single Start Tone

G28 ;Home

G92 E0 ;Reset Extruder
G1 Z2.0 F3000 ;Move Z Axis up

G1 X10.1 Y20 Z0.28 F5000.0 ;Move to start position
G1 X10.1 Y200.0 Z0.28 F1500.0 E15 ;Draw the first line
G1 X10.4 Y200.0 Z0.28 F5000.0 ;Move to side a little
G1 X10.4 Y20 Z0.28 F1500.0 E30 ;Draw the second line
G92 E0 ;Reset Extruder
G1 Z2.0 F3000 ;Move Z Axis up
G92 E0
G92 E0
G1 F2400 E-3.2
;LAYER_COUNT:13
;LAYER:0
M106 S63.8
M204 S500
M205 X6 Y6
G0 F9000 X97.87 Y91.624 Z0.24
;TYPE:SKIRT
G1 F1440 E0
G1 F1800 X98.547 Y90.975 E0.03743
G1 X99.277 Y90.386 E0.07487
G1 X100.055 Y89.861 E0.11233
G1 X100.874 Y89.404 E0.14976
G1 X101.729 Y89.019 E0.18719
G1 X102.544 Y88.73 E0.2217
G1 X102.666 Y88.692 E0.2268
G1 X103.572 Y88.451 E0.26422
G1 X104.142 Y88.341 E0.28739
G1 X104.541 Y88.275 E0.30353
G1 X105.416 Y88.167 E0.33872
G1 X105.702 Y88.143 E0.35017
G1 X106.247 Y88.11 E0.37196
G1 X106.335 Y88.107 E0.37548
G1 X107.02 Y88.105 E0.40282
G1 X107.552 Y88.12 E0.42406
G1 X108.488 Y88.187 E0.46151
G1 X109.414 Y88.333 E0.49893
G1 X110.325 Y88.557 E0.53637
G1 X111.213 Y88.858 E0.57379
G1 X111.812 Y89.11 E0.59973
G1 X112.066 Y89.226 E0.61087
G1 X112.901 Y89.652 E0.64829
G1 X113.698 Y90.147 E0.68573
G1 X114.629 Y90.858 E0.73249
G1 X114.656 Y90.881 E0.7339
G1 X115.524 Y91.707 E0.78173
G1 X115.926 Y92.134 E0.80513
G1 X117.149 Y93.467 E0.87734
G1 X118.449 Y94.815 E0.95208
G1 X119.187 Y95.565 E0.99408
G1 X119.712 Y96.128 E1.0248
G1 X119.896 Y96.337 E1.03592
G1 X120.485 Y97.067 E1.07335
G1 X120.958 Y97.76 E1.10684
G1 X121.054 Y97.913 E1.11405
G1 X121.381 Y98.47 E1.13983
G1 X121.585 Y98.842 E1.15676
G1 X122.074 Y99.854 E1.20162
G1 X122.314 Y100.434 E1.22667
G1 X122.461 Y100.815 E1.24297
G1 X122.853 Y102.043 E1.29442
G1 X123.08 Y102.932 E1.33104
G1 X123.169 Y103.304 E1.34631
G1 X123.314 Y103.946 E1.37258
G1 X123.485 Y104.898 E1.41118
G1 X123.63 Y105.981 E1.45479
G1 X123.685 Y106.463 E1.47416
G1 X123.886 Y108.414 E1.55244
G1 X124.193 Y111.03 E1.65756
G1 X124.549 Y113.464 E1.75574
G1 X125.033 Y116.184 E1.86601
G1 X125.233 Y117.441 E1.91681
G1 X125.34 Y118.373 E1.95425
G1 X125.356 Y119.661 E2.00566
G1 X125.325 Y120.229 E2.02837
G1 X125.303 Y120.519 E2.03997
G1 X125.193 Y121.45 E2.07739
G1 X125.003 Y122.369 E2.11485
G1 X124.84 Y122.95 E2.13893
G1 X124.799 Y123.082 E2.14445
G1 X124.607 Y123.644 E2.16815
G1 X124.505 Y123.919 E2.17986
G1 X124.142 Y124.784 E2.2173
G1 X123.706 Y125.615 E2.25475
G1 X123.202 Y126.405 E2.29215
G1 X122.631 Y127.149 E2.32959
G1 X122 Y127.843 E2.36702
G1 X121.42 Y128.386 E2.39873
G1 X121.303 Y128.488 E2.40493
G1 X120.813 Y128.891 E2.43025
G1 X120.533 Y129.108 E2.44439
G1 X119.768 Y129.65 E2.48181
G1 X118.96 Y130.125 E2.51922
G1 X118.094 Y130.538 E2.55751
G1 X117.557 Y130.766 E2.58079
G1 X117.073 Y130.96 E2.60161
G1 X116.184 Y131.261 E2.63907
G1 X115.537 Y131.429 E2.66575
G1 X114.809 Y131.591 E2.69551
G1 X114.5 Y131.653 E2.70809
G1 X113.573 Y131.798 E2.74554
G1 X112.893 Y131.854 E2.77277
G1 X112.282 Y131.885 E2.79719
G1 X111.758 Y131.9 E2.81811
G1 X110.82 Y131.877 E2.85556
G1 X110.139 Y131.81 E2.88287
G1 X109.532 Y131.731 E2.9073
G1 X108.608 Y131.57 E2.94474
G1 X107.701 Y131.332 E2.98216
G1 X106.818 Y131.017 E3.01958
G1 X105.965 Y130.627 E3.05702
G1 X105.387 Y130.311 E3.08331
G1 X105.104 Y130.145 E3.0964
G1 X104.644 Y129.86 E3.118
G1 X104.505 Y129.769 E3.12463
G1 X103.743 Y129.222 E3.16207
G1 X102.731 Y128.324 E3.21607
G1 X102.564 Y128.156 E3.22552
G1 X100.763 Y126.397 E3.326
G1 X99.331 Y125.086 E3.40349
G1 X98.524 Y124.333 E3.44754
G1 X97.866 Y123.664 E3.485
G1 X97.267 Y122.942 E3.52244
G1 X96.732 Y122.172 E3.55986
G1 X96.265 Y121.358 E3.59732
G1 X95.869 Y120.508 E3.63474
G1 X95.547 Y119.628 E3.67214
G1 X95.3 Y118.723 E3.70958
G1 X95.093 Y117.48 E3.75988
G1 X94.97 Y116.339 E3.80568
G1 X94.872 Y115.25 E3.84932
G1 X94.821 Y114.582 E3.87606
G1 X94.799 Y114.22 E3.89054
G1 X94.75 Y113.075 E3.93628
G1 X94.743 Y112.869 E3.9445
G1 X94.638 Y108.457 E4.12065
G1 X94.622 Y107.096 E4.17497
G1 X94.625 Y102.411 E4.36196
G1 X94.642 Y101.659 E4.39198
G1 X94.702 Y100.417 E4.44161
G1 X94.715 Y100.197 E4.45041
G1 X94.798 Y98.986 E4.49885
G1 X94.851 Y98.337 E4.52484
G1 X94.968 Y97.406 E4.56229
G1 X95.163 Y96.489 E4.59971
G1 X95.435 Y95.591 E4.63716
G1 X95.783 Y94.72 E4.67459
G1 X96.204 Y93.882 E4.71202
G1 X96.694 Y93.083 E4.74943
G1 X97.251 Y92.328 E4.78688
G1 X97.87 Y91.624 E4.8243
G0 F9000 X98.254 Y91.803
G1 F1800 X98.927 Y91.175 E4.86103
G1 X99.652 Y90.608 E4.89777
G1 X100.423 Y90.106 E4.93449
G1 X101.236 Y89.672 E4.97127
G1 X102.082 Y89.311 E5.00798
G1 X102.663 Y89.112 E5.03249
G1 X102.785 Y89.074 E5.03759
G1 X103.675 Y88.838 E5.07434
G1 X104.207 Y88.736 E5.09596
G1 X104.606 Y88.67 E5.11211
G1 X105.45 Y88.565 E5.14605
G1 X105.736 Y88.541 E5.15751
G1 X106.261 Y88.51 E5.1785
G1 X106.349 Y88.507 E5.18201
G1 X107.009 Y88.505 E5.20835
G1 X107.541 Y88.52 E5.22959
G1 X108.459 Y88.586 E5.26633
G1 X109.368 Y88.731 E5.30307
G1 X110.261 Y88.955 E5.33981
G1 X111.132 Y89.255 E5.37658
G1 X111.645 Y89.474 E5.39884
G1 X111.899 Y89.59 E5.40999
G1 X112.72 Y90.008 E5.44676
G1 X113.5 Y90.496 E5.48348
G1 X114.37 Y91.163 E5.52724
G1 X114.397 Y91.186 E5.52865
G1 X115.233 Y91.981 E5.5747
G1 X115.631 Y92.404 E5.59788
G1 X116.869 Y93.752 E5.67093
G1 X118.159 Y95.09 E5.74511
G1 X118.902 Y95.846 E5.78741
G1 X119.412 Y96.393 E5.81726
G1 X119.596 Y96.602 E5.82837
G1 X120.174 Y97.318 E5.8651
G1 X120.619 Y97.972 E5.89667
G1 X120.715 Y98.125 E5.90388
G1 X121.03 Y98.662 E5.92873
G1 X121.234 Y99.034 E5.94566
G1 X121.706 Y100.009 E5.9889
G1 X121.94 Y100.578 E6.01345
G1 X122.087 Y100.959 E6.02975
G1 X122.466 Y102.142 E6.07933
G1 X122.691 Y103.026 E6.11574
G1 X122.779 Y103.392 E6.13076
G1 X122.924 Y104.034 E6.15703
G1 X123.089 Y104.952 E6.19426
G1 X123.21 Y105.849 E6.23039
G1 X123.27 Y106.35 E6.25052
G1 X123.482 Y108.402 E6.33286
G1 X123.795 Y111.063 E6.4398
G1 X124.16 Y113.562 E6.5406
G1 X124.639 Y116.254 E6.64973
G1 X124.838 Y117.504 E6.70025
G1 X124.942 Y118.419 E6.737
G1 X124.957 Y119.642 E6.78582
G1 X124.927 Y120.199 E6.80808
G1 X124.905 Y120.489 E6.81969
G1 X124.795 Y121.403 E6.85643
G1 X124.607 Y122.304 E6.89317
G1 X124.458 Y122.831 E6.91503
G1 X124.417 Y122.963 E6.92054
G1 X124.232 Y123.505 E6.9434
G1 X124.13 Y123.78 E6.95511
G1 X123.773 Y124.629 E6.99187
G1 X123.343 Y125.443 E7.02861
G1 X122.845 Y126.217 E7.06534
G1 X122.281 Y126.945 E7.1021
G1 X121.656 Y127.621 E7.13884
G1 X121.158 Y128.084 E7.16598
G1 X121.041 Y128.186 E7.17218
G1 X120.568 Y128.574 E7.1966
G1 X120.288 Y128.791 E7.21073
G1 X119.537 Y129.323 E7.24747
G1 X118.742 Y129.788 E7.28423
G1 X117.938 Y130.17 E7.31975
G1 X117.401 Y130.398 E7.34304
G1 X116.928 Y130.587 E7.36337
G1 X116.056 Y130.882 E7.40011
G1 X115.448 Y131.039 E7.42517
G1 X114.73 Y131.199 E7.45453
G1 X114.421 Y131.261 E7.46711
G1 X113.512 Y131.403 E7.50383
G1 X112.873 Y131.454 E7.52942
G1 X112.262 Y131.485 E7.55383
G1 X111.751 Y131.5 E7.57424
G1 X110.83 Y131.477 E7.61101
G1 X110.191 Y131.413 E7.63664
G1 X109.584 Y131.334 E7.66107
G1 X108.677 Y131.176 E7.69782
G1 X107.787 Y130.94 E7.73456
G1 X106.921 Y130.627 E7.77132
G1 X106.086 Y130.24 E7.80805
G1 X105.589 Y129.966 E7.8307
G1 X105.306 Y129.8 E7.8438
G1 X104.863 Y129.526 E7.86458
G1 X104.724 Y129.435 E7.87122
G1 X103.976 Y128.897 E7.90799
G1 X103.015 Y128.042 E7.95933
G1 X102.879 Y127.905 E7.96703
G1 X101.03 Y126.099 E8.07019
G1 X99.603 Y124.793 E8.1474
G1 X98.796 Y124.04 E8.19145
G1 X98.151 Y123.383 E8.2282
G1 X97.565 Y122.673 E8.26494
G1 X97.043 Y121.915 E8.30168
G1 X96.589 Y121.114 E8.33842
G1 X96.206 Y120.277 E8.37516
G1 X95.897 Y119.409 E8.41193
G1 X95.665 Y118.519 E8.44864
G1 X95.49 Y117.437 E8.49239
G1 X95.388 Y116.5 E8.53001
G1 X95.258 Y115.066 E8.58748
G1 X95.219 Y114.552 E8.60805
G1 X95.199 Y114.203 E8.622
G1 X95.143 Y112.86 E8.67565
G1 X95.038 Y108.452 E8.85163
G1 X95.022 Y107.096 E8.90576
G1 X95.025 Y102.417 E9.09251
G1 X95.041 Y101.679 E9.12197
G1 X95.101 Y100.437 E9.1716
G1 X95.187 Y99.157 E9.2228
G1 X95.25 Y98.369 E9.25435
G1 X95.365 Y97.456 E9.29108
G1 X95.558 Y96.556 E9.32782
G1 X95.829 Y95.676 E9.36457
G1 X96.176 Y94.823 E9.40132
G1 X96.595 Y94.003 E9.43808
G1 X97.083 Y93.223 E9.4748
G1 X97.637 Y92.488 E9.51153
G1 X98.254 Y91.803 E9.54833
G0 F9000 X98.636 Y91.986
G1 F1800 X99.305 Y91.38 E9.58436
G1 X100.025 Y90.835 E9.6204
G1 X100.791 Y90.355 E9.65648
G1 X101.596 Y89.946 E9.69251
G1 X102.782 Y89.493 E9.74319
G1 X102.904 Y89.455 E9.74829
G1 X103.777 Y89.225 E9.78432
G1 X104.272 Y89.131 E9.80443
G1 X104.671 Y89.065 E9.82057
G1 X105.483 Y88.964 E9.85323
G1 X105.769 Y88.94 E9.86468
G1 X106.274 Y88.91 E9.88487
G1 X106.362 Y88.907 E9.88839
G1 X106.997 Y88.905 E9.91373
G1 X107.529 Y88.92 E9.93497
G1 X108.43 Y88.985 E9.97103
G1 X109.322 Y89.13 E10.0071
G1 X110.197 Y89.353 E10.04314
G1 X111.049 Y89.653 E10.07919
G1 X111.733 Y89.954 E10.10901
G1 X112.537 Y90.365 E10.14505
G1 X113.302 Y90.846 E10.18112
G1 X114.11 Y91.467 E10.22179
G1 X114.137 Y91.49 E10.22321
G1 X114.942 Y92.256 E10.26756
G1 X115.337 Y92.675 E10.29054
G1 X116.57 Y94.018 E10.36331
G1 X117.868 Y95.365 E10.43797
G1 X118.617 Y96.126 E10.48059
G1 X119.112 Y96.657 E10.50956
G1 X119.296 Y96.866 E10.52067
G1 X119.862 Y97.57 E10.55673
G1 X120.28 Y98.185 E10.58641
G1 X120.376 Y98.338 E10.59362
G1 X120.679 Y98.855 E10.61753
G1 X120.883 Y99.227 E10.63447
G1 X121.337 Y100.165 E10.67606
G1 X121.567 Y100.722 E10.70011
G1 X121.714 Y101.103 E10.71641
G1 X122.078 Y102.242 E10.76413
G1 X122.302 Y103.12 E10.8003
G1 X122.388 Y103.48 E10.81507
G1 X122.533 Y104.122 E10.84134
G1 X122.692 Y105.005 E10.87715
G1 X122.835 Y106.074 E10.9202
G1 X122.889 Y106.545 E10.93912
G1 X123.092 Y108.516 E11.0182
G1 X123.395 Y111.096 E11.12188
G1 X123.764 Y113.624 E11.22385
G1 X124.245 Y116.324 E11.33331
G1 X124.278 Y116.521 E11.34128
G1 X124.443 Y117.566 E11.38351
G1 X124.544 Y118.464 E11.41957
G1 X124.557 Y119.624 E11.46587
G1 X124.528 Y120.169 E11.48766
G1 X124.506 Y120.459 E11.49926
G1 X124.398 Y121.355 E11.53528
G1 X124.211 Y122.239 E11.57135
G1 X124.035 Y122.845 E11.59653
G1 X123.857 Y123.366 E11.61851
G1 X123.755 Y123.641 E11.63022
G1 X123.404 Y124.473 E11.66626
G1 X122.981 Y125.271 E11.7023
G1 X122.488 Y126.028 E11.73836
G1 X121.931 Y126.738 E11.77438
G1 X121.313 Y127.397 E11.81044
G1 X120.895 Y127.782 E11.83312
G1 X120.778 Y127.884 E11.83931
G1 X120.323 Y128.258 E11.86282
G1 X120.043 Y128.475 E11.87696
G1 X119.306 Y128.996 E11.91298
G1 X118.525 Y129.45 E11.94904
G1 X117.781 Y129.802 E11.98189
G1 X117.244 Y130.03 E12.00517
G1 X116.783 Y130.214 E12.02498
G1 X115.928 Y130.503 E12.061
G1 X115.359 Y130.649 E12.08445
G1 X114.652 Y130.807 E12.11336
G1 X114.343 Y130.869 E12.12594
G1 X113.45 Y131.007 E12.16201
G1 X112.853 Y131.055 E12.18591
G1 X112.242 Y131.086 E12.21033
G1 X111.743 Y131.1 E12.23025
G1 X110.841 Y131.077 E12.26627
G1 X110.243 Y131.017 E12.29025
G1 X109.636 Y130.938 E12.31468
G1 X108.746 Y130.782 E12.35075
G1 X107.874 Y130.547 E12.38679
G1 X107.026 Y130.237 E12.42283
G1 X106.208 Y129.853 E12.4589
G1 X105.508 Y129.455 E12.49103
G1 X105.082 Y129.191 E12.51104
G1 X104.943 Y129.1 E12.51767
G1 X104.21 Y128.572 E12.55372
G1 X103.299 Y127.759 E12.60246
G1 X103.195 Y127.654 E12.60836
G1 X101.312 Y125.815 E12.71341
G1 X99.876 Y124.501 E12.79109
G1 X99.069 Y123.748 E12.83515
G1 X98.437 Y123.103 E12.87119
G1 X97.864 Y122.405 E12.90723
G1 X97.355 Y121.659 E12.94328
G1 X96.914 Y120.871 E12.97932
G1 X96.545 Y120.046 E13.01539
G1 X96.25 Y119.193 E13.05141
G1 X96.031 Y118.317 E13.08745
G1 X95.888 Y117.394 E13.12473
G1 X95.767 Y116.267 E13.16997
G1 X95.657 Y115.036 E13.2193
G1 X95.618 Y114.522 E13.23987
G1 X95.598 Y114.186 E13.2533
G1 X95.549 Y113.041 E13.29905
G1 X95.44 Y108.567 E13.47767
G1 X95.422 Y107.097 E13.53634
G1 X95.425 Y102.422 E13.72293
G1 X95.441 Y101.698 E13.75183
G1 X95.501 Y100.456 E13.80146
G1 X95.513 Y100.252 E13.80962
G1 X95.596 Y99.051 E13.85767
G1 X95.649 Y98.402 E13.88366
G1 X95.762 Y97.506 E13.9197
G1 X95.954 Y96.623 E13.95577
G1 X96.224 Y95.761 E13.99182
G1 X96.568 Y94.927 E14.02783
G1 X96.985 Y94.126 E14.06387
G1 X97.472 Y93.365 E14.09993
G1 X98.023 Y92.65 E14.13596
G1 X98.636 Y91.986 E14.17203
G1 F2400 E10.97203
;MESH:Belize.stl
G0 F9000 X105.826 Y98.516
G0 X106.2 Y99.559
G0 X106.26 Y99.638
G0 X105.997 Y99.367
;TYPE:WALL-OUTER
G1 F1440 E14.17203
G1 F1800 X106.542 Y99.301 E14.19394
G1 X107.194 Y99.304 E14.21996
G1 X107.379 Y99.389 E14.22809
G1 X107.524 Y99.61 E14.23863
G1 X107.698 Y100.109 E14.25973
G1 X108.052 Y100.859 E14.29283
G1 X108.678 Y101.598 E14.33148
G1 X109.577 Y102.335 E14.37788
G1 X110.801 Y103.117 E14.43585
G1 X111.179 Y103.381 E14.45425
G1 X111.489 Y103.722 E14.47265
G1 X111.76 Y104.196 E14.49444
G1 X112.023 Y104.853 E14.52268
G1 X112.407 Y106.446 E14.58809
G1 X112.629 Y108.338 E14.66412
G1 X112.65 Y110.035 E14.73185
G1 X112.451 Y111.08 E14.77431
G1 X112.306 Y111.408 E14.78863
G1 X112.243 Y111.75 E14.8025
G1 X112.286 Y112.097 E14.81646
G1 X112.528 Y112.771 E14.84504
G1 X112.675 Y113.597 E14.87853
G1 X112.733 Y114.524 E14.9156
G1 X112.838 Y114.994 E14.93482
G1 X113.006 Y115.422 E14.95317
G1 X113.42 Y116.086 E14.9844
G1 X113.563 Y116.444 E14.99979
G1 X113.659 Y116.849 E15.0164
G1 X113.712 Y117.646 E15.04828
G1 X113.863 Y118.304 E15.07523
G1 X114.116 Y118.708 E15.09425
G1 X114.177 Y119.151 E15.1121
G1 X114.147 Y119.65 E15.13205
G1 X114.03 Y119.982 E15.1461
G1 X113.675 Y120.266 E15.16425
G1 X113.036 Y120.522 E15.19172
G1 X112.263 Y120.688 E15.22328
G1 X111.509 Y120.712 E15.25338
G1 X111.006 Y120.638 E15.27368
G1 X110.679 Y120.439 E15.28895
G1 X110.323 Y119.921 E15.31404
G1 X109.789 Y118.881 E15.3607
G1 X109.102 Y117.597 E15.41882
G1 X108.502 Y116.797 E15.45874
G1 X107.854 Y116.384 E15.4894
G1 X107.085 Y116.278 E15.52039
G1 X106.48 Y116.223 E15.54463
G1 X106.198 Y116.149 E15.55627
G1 X105.962 Y113.528 E15.6613
G1 X105.822 Y107.717 E15.8933
G1 X105.824 Y101.925 E16.12447
G1 X105.997 Y99.367 E16.2268
G0 F9000 X106.374 Y99.724
;TYPE:WALL-INNER
G1 F1800 X106.564 Y99.701 E16.23444
G1 X107.108 Y99.704 E16.25615
G1 X107.161 Y99.785 E16.26001
G1 X107.327 Y100.261 E16.28013
G1 X107.713 Y101.077 E16.31616
G1 X108.396 Y101.884 E16.35836
G1 X109.342 Y102.659 E16.40717
G1 X110.572 Y103.445 E16.46543
G1 X110.913 Y103.683 E16.48203
G1 X111.163 Y103.958 E16.49686
G1 X111.4 Y104.372 E16.5159
G1 X111.64 Y104.972 E16.54169
G1 X112.013 Y106.52 E16.60524
G1 X112.229 Y108.361 E16.67923
G1 X112.249 Y109.999 E16.74461
G1 X112.067 Y110.959 E16.7836
G1 X111.921 Y111.289 E16.79801
G1 X111.838 Y111.738 E16.81623
G1 X111.895 Y112.19 E16.83441
G1 X112.139 Y112.87 E16.86325
G1 X112.278 Y113.648 E16.89479
G1 X112.336 Y114.58 E16.93206
G1 X112.454 Y115.111 E16.95377
G1 X112.647 Y115.602 E16.97483
G1 X113.063 Y116.269 E17.0062
G1 X113.262 Y116.908 E17.03292
G1 X113.315 Y117.704 E17.06476
G1 X113.488 Y118.459 E17.09567
G1 X113.732 Y118.848 E17.114
G1 X113.776 Y119.167 E17.12685
G1 X113.751 Y119.57 E17.14297
G1 X113.691 Y119.741 E17.1502
G1 X113.471 Y119.917 E17.16144
G1 X112.92 Y120.138 E17.18514
G1 X112.216 Y120.289 E17.21388
G1 X111.532 Y120.311 E17.24119
G1 X111.145 Y120.254 E17.2568
G1 X110.961 Y120.142 E17.2654
G1 X110.666 Y119.714 E17.28615
G1 X110.143 Y118.695 E17.33186
G1 X109.44 Y117.381 E17.39134
G1 X108.778 Y116.499 E17.43536
G1 X107.995 Y116 E17.47241
G1 X107.13 Y115.88 E17.50727
G1 X106.571 Y115.83 E17.52967
