;FLAVOR:Marlin
;TIME:546
;Filament used: 0.356375m
;Layer height: 0.2
;MINX:85.086
;MINY:87.378
;MINZ:0.24
;MAXX:134.912
;MAXY:132.621
;MAXZ:2.88
;Generated with Cura_SteamEngine 4.10.0
M82 ;absolute extrusion mode
M201 X500.00 Y500.00 Z100.00 E5000.00 ;Setup machine max acceleration
M203 X500.00 Y500.00 Z10.00 E50.00 ;Setup machine max feedrate
M204 P500.00 R1000.00 T500.00 ;Setup Print/Retract/Travel acceleration
M205 X8.00 Y8.00 Z0.40 E5.00 ;Setup Jerk
M220 S100 ;Reset Feedrate
M221 S100 ;Reset Flowrate

;*** Start Dual Nozzle/Bed Preheating ***
M140 S50 ; start preheating the bed
M104 S200 ?T0 ; start preheating hotend
M190 S50 ; heat to Cura Bed setting and WAIT
M109 S200 ?T0 ; heat to Cura Hotend and WAIT
;*** End Preheating ***

;*** Single Print Start Tone
M300 S1000 P500 ; chirp to indicate starting to print
;*** End Single Start Tone

G28 ;Home

G92 E0 ;Reset Extruder
G1 Z2.0 F3000 ;Move Z Axis up

G1 X10.1 Y20 Z0.28 F5000.0 ;Move to start position
G1 X10.1 Y200.0 Z0.28 F1500.0 E15 ;Draw the first line
G1 X10.4 Y200.0 Z0.28 F5000.0 ;Move to side a little
G1 X10.4 Y20 Z0.28 F1500.0 E30 ;Draw the second line
G92 E0 ;Reset Extruder
G1 Z2.0 F3000 ;Move Z Axis up
G92 E0
G92 E0
G1 F2400 E-3.2
;LAYER_COUNT:13
;LAYER:0
M106 S63.8
M204 S500
M205 X6 Y6
G0 F9000 X91.051 Y104.514 Z0.24
;TYPE:SKIRT
G1 F1440 E0
G1 F1800 X91.817 Y103.913 E0.03886
G1 X92.03 Y103.754 E0.04947
G1 X92.612 Y103.331 E0.07818
G1 X93.359 Y102.836 E0.11395
G1 X94.307 Y102.263 E0.15816
G1 X94.633 Y102.049 E0.17373
G1 X95.858 Y101.319 E0.23064
G1 X96.101 Y101.168 E0.24206
G1 X98.295 Y99.758 E0.34615
G1 X100.368 Y98.341 E0.44637
G1 X102.438 Y96.839 E0.54845
G1 X104.428 Y95.307 E0.64868
G1 X106.4 Y93.699 E0.75024
G1 X108.274 Y92.078 E0.84913
G1 X109.698 Y90.769 E0.92633
G1 X110.329 Y90.203 E0.96017
G1 X111.04 Y89.618 E0.99691
G1 X111.799 Y89.097 E1.03366
G1 X112.601 Y88.644 E1.07042
G1 X113.355 Y88.297 E1.10355
G1 X113.628 Y88.184 E1.11534
G1 X114.493 Y87.869 E1.15208
G1 X115.382 Y87.63 E1.18882
G1 X116.289 Y87.47 E1.22558
G1 X117.559 Y87.379 E1.2764
G1 X117.645 Y87.378 E1.27983
G1 X118.421 Y87.393 E1.31081
G1 X119.155 Y87.434 E1.34015
G1 X119.339 Y87.446 E1.34751
G1 X120.76 Y87.557 E1.4044
G1 X121.908 Y87.632 E1.45032
G1 X122.823 Y87.732 E1.48705
G1 X123.726 Y87.91 E1.52379
G1 X124.611 Y88.167 E1.56057
G1 X125.469 Y88.499 E1.59729
G1 X126.473 Y89.003 E1.64213
G1 X127.122 Y89.382 E1.67212
G1 X127.775 Y89.79 E1.70285
G1 X128.232 Y90.093 E1.72474
G1 X128.488 Y90.272 E1.73721
G1 X129.219 Y90.832 E1.77396
G1 X130.098 Y91.658 E1.8221
G1 X130.365 Y91.939 E1.83757
G1 X130.97 Y92.633 E1.87432
G1 X131.512 Y93.377 E1.91106
G1 X131.987 Y94.165 E1.94778
G1 X132.393 Y94.992 E1.98455
G1 X132.725 Y95.851 E2.02131
G1 X132.976 Y96.716 E2.05726
G1 X133.04 Y96.977 E2.06798
G1 X133.243 Y98.036 E2.11102
G1 X133.375 Y98.984 E2.14922
G1 X133.47 Y99.74 E2.17963
G1 X133.643 Y101.041 E2.23201
G1 X134.026 Y103.608 E2.3356
G1 X134.479 Y106.151 E2.4387
G1 X134.697 Y107.233 E2.48275
G1 X134.78 Y107.698 E2.5016
G1 X134.886 Y108.613 E2.53837
G1 X134.912 Y109.533 E2.5751
G1 X134.858 Y110.452 E2.61184
G1 X134.725 Y111.363 E2.64859
G1 X134.513 Y112.259 E2.68534
G1 X134.224 Y113.133 E2.72208
G1 X133.86 Y113.979 E2.75884
G1 X133.424 Y114.79 E2.79558
G1 X132.92 Y115.56 E2.83232
G1 X132.613 Y115.966 E2.85263
G1 X132.319 Y116.336 E2.87149
G1 X130.751 Y118.369 E2.97396
G1 X129.225 Y120.467 E3.07751
G1 X127.823 Y122.515 E3.17657
G1 X126.434 Y124.671 E3.27893
G1 X125.765 Y125.762 E3.33001
G1 X125.25 Y126.525 E3.36675
G1 X124.671 Y127.241 E3.4035
G1 X124.032 Y127.903 E3.44022
G1 X123.337 Y128.508 E3.477
G1 X122.593 Y129.05 E3.51374
G1 X121.805 Y129.525 E3.55046
G1 X121.275 Y129.795 E3.5742
G1 X121.098 Y129.879 E3.58202
G1 X120.25 Y130.238 E3.61877
G1 X119.374 Y130.521 E3.65552
G1 X118.476 Y130.727 E3.69229
G1 X117.565 Y130.855 E3.72901
G1 X117.085 Y130.89 E3.74821
G1 X114.411 Y131.024 E3.85507
G1 X111.845 Y131.226 E3.95781
G1 X109.893 Y131.428 E4.03613
G1 X109.188 Y131.509 E4.06445
G1 X108.602 Y131.56 E4.08793
G1 X108.099 Y131.589 E4.10804
G1 X105.549 Y131.774 E4.21008
G1 X103.023 Y132.028 E4.31141
G1 X101.279 Y132.264 E4.38165
G1 X99.931 Y132.433 E4.43587
G1 X99.618 Y132.467 E4.44844
G1 X98.884 Y132.537 E4.47787
G1 X98.592 Y132.561 E4.48956
G1 X98.059 Y132.597 E4.51088
G1 X97.322 Y132.621 E4.54031
G1 X96.402 Y132.581 E4.57707
G1 X95.489 Y132.461 E4.61382
G1 X94.764 Y132.308 E4.64339
G1 X94.126 Y132.145 E4.66968
G1 X93.797 Y132.054 E4.6833
G1 X92.921 Y131.771 E4.72004
G1 X92.073 Y131.412 E4.7568
G1 X91.26 Y130.981 E4.79352
G1 X90.487 Y130.481 E4.83027
G1 X89.76 Y129.916 E4.86701
G1 X89.085 Y129.29 E4.90376
G1 X88.467 Y128.608 E4.94049
G1 X87.977 Y127.971 E4.97257
G1 X87.833 Y127.768 E4.9825
G1 X87.334 Y126.995 E5.01922
G1 X86.903 Y126.181 E5.05598
G1 X86.545 Y125.333 E5.09272
G1 X86.261 Y124.457 E5.12948
G1 X86.123 Y123.897 E5.1525
G1 X86.028 Y123.444 E5.17097
G1 X85.903 Y122.78 E5.19794
G1 X85.56 Y120.817 E5.27747
G1 X85.273 Y119.31 E5.3387
G1 X85.14 Y118.399 E5.37545
G1 X85.086 Y117.291 E5.41972
G1 X85.095 Y116.647 E5.44543
G1 X85.106 Y116.36 E5.45689
G1 X85.169 Y115.545 E5.48952
G1 X85.268 Y114.827 E5.51844
G1 X85.391 Y114.11 E5.54748
G1 X85.555 Y113.325 E5.57949
G1 X85.638 Y112.978 E5.59373
G1 X85.768 Y112.473 E5.61454
G1 X85.993 Y111.716 E5.64606
G1 X86.199 Y111.126 E5.671
G1 X86.34 Y110.752 E5.68695
G1 X86.702 Y109.905 E5.72372
G1 X87.136 Y109.093 E5.76046
G1 X87.444 Y108.604 E5.78353
G1 X87.798 Y108.074 E5.80897
G1 X88.272 Y107.405 E5.84169
G1 X88.842 Y106.681 E5.87847
G1 X89.224 Y106.261 E5.90113
G1 X89.658 Y105.813 E5.92602
G1 X89.918 Y105.558 E5.94056
G1 X90.415 Y105.079 E5.96811
G1 X91.051 Y104.514 E6.00206
G0 F9000 X91.304 Y104.823
G1 F1800 X92.06 Y104.231 E6.04039
G1 X92.265 Y104.078 E6.0506
G1 X92.847 Y103.655 E6.07931
G1 X93.566 Y103.178 E6.11375
G1 X94.345 Y102.707 E6.15008
G1 X94.838 Y102.392 E6.17343
G1 X96.053 Y101.668 E6.22988
G1 X96.323 Y101.5 E6.24258
G1 X98.515 Y100.092 E6.34656
G1 X100.623 Y98.651 E6.44847
G1 X102.672 Y97.164 E6.54952
G1 X104.68 Y95.618 E6.65066
G1 X106.648 Y94.013 E6.75202
G1 X108.559 Y92.36 E6.85287
G1 X110.059 Y90.982 E6.93416
G1 X110.596 Y90.5 E6.96296
G1 X111.294 Y89.927 E6.99901
G1 X112.04 Y89.418 E7.03505
G1 X112.828 Y88.978 E7.07107
G1 X113.508 Y88.666 E7.10093
G1 X113.781 Y88.553 E7.11273
G1 X114.63 Y88.245 E7.14877
G1 X115.503 Y88.014 E7.18481
G1 X116.393 Y87.86 E7.22086
G1 X117.563 Y87.779 E7.26767
G1 X117.649 Y87.778 E7.27111
G1 X118.408 Y87.793 E7.30141
G1 X119.131 Y87.833 E7.33031
G1 X119.308 Y87.845 E7.33739
G1 X120.705 Y87.955 E7.39332
G1 X121.882 Y88.031 E7.44039
G1 X122.78 Y88.13 E7.47645
G1 X123.665 Y88.307 E7.51247
G1 X124.532 Y88.562 E7.54854
G1 X125.372 Y88.893 E7.58458
G1 X126.275 Y89.35 E7.62497
G1 X126.91 Y89.722 E7.65434
G1 X127.563 Y90.13 E7.68507
G1 X128.003 Y90.421 E7.70613
G1 X128.259 Y90.6 E7.7186
G1 X128.975 Y91.15 E7.75463
G1 X129.808 Y91.933 E7.80026
G1 X130.075 Y92.214 E7.81573
G1 X130.668 Y92.896 E7.8518
G1 X131.198 Y93.627 E7.88784
G1 X131.661 Y94.402 E7.92387
G1 X132.054 Y95.216 E7.95995
G1 X132.373 Y96.06 E7.99596
G1 X132.588 Y96.811 E8.02714
G1 X132.652 Y97.072 E8.03786
G1 X132.847 Y98.092 E8.07931
G1 X132.978 Y99.034 E8.11727
G1 X133.082 Y99.858 E8.15042
G1 X133.245 Y101.088 E8.19994
G1 X133.628 Y103.655 E8.30353
G1 X134.084 Y106.213 E8.40723
G1 X134.305 Y107.312 E8.45197
G1 X134.385 Y107.761 E8.47018
G1 X134.488 Y108.659 E8.50625
G1 X134.511 Y109.562 E8.54231
G1 X134.455 Y110.463 E8.57834
G1 X134.318 Y111.356 E8.61439
G1 X134.104 Y112.233 E8.65042
G1 X133.813 Y113.088 E8.68647
G1 X133.447 Y113.913 E8.72249
G1 X133.009 Y114.703 E8.75855
G1 X132.3 Y115.717 E8.80793
G1 X132.035 Y116.05 E8.82491
G1 X130.397 Y118.174 E8.93197
G1 X128.916 Y120.211 E9.03249
G1 X127.489 Y122.294 E9.13326
G1 X126.096 Y124.457 E9.23595
G1 X125.424 Y125.553 E9.28726
G1 X124.918 Y126.301 E9.3233
G1 X124.348 Y127.001 E9.35933
G1 X123.718 Y127.649 E9.3954
G1 X123.034 Y128.238 E9.43143
G1 X122.3 Y128.764 E9.46747
G1 X121.522 Y129.223 E9.50352
G1 X120.926 Y129.518 E9.53006
G1 X120.094 Y129.869 E9.56611
G1 X119.234 Y130.144 E9.60214
G1 X118.353 Y130.343 E9.63819
G1 X117.065 Y130.49 E9.68993
G1 X114.395 Y130.624 E9.79663
G1 X111.813 Y130.827 E9.9
G1 X109.893 Y131.026 E9.97704
G1 X109.142 Y131.112 E10.00721
G1 X108.579 Y131.161 E10.02977
G1 X108.045 Y131.192 E10.05112
G1 X105.516 Y131.375 E10.15232
G1 X102.986 Y131.63 E10.25381
G1 X101.229 Y131.867 E10.32457
G1 X99.881 Y132.036 E10.37879
G1 X99.58 Y132.069 E10.39088
G1 X98.846 Y132.139 E10.42031
G1 X98.565 Y132.162 E10.43156
G1 X98.032 Y132.198 E10.45288
G1 X97.322 Y132.221 E10.48123
G1 X96.42 Y132.181 E10.51727
G1 X95.525 Y132.061 E10.55331
G1 X94.861 Y131.92 E10.5804
G1 X94.233 Y131.76 E10.60627
G1 X93.904 Y131.669 E10.61989
G1 X93.045 Y131.39 E10.65594
G1 X92.214 Y131.036 E10.69199
G1 X91.418 Y130.61 E10.72803
G1 X90.662 Y130.115 E10.76409
G1 X89.953 Y129.555 E10.80015
G1 X89.297 Y128.935 E10.83618
G1 X88.698 Y128.259 E10.87223
G1 X88.304 Y127.739 E10.89827
G1 X88.16 Y127.536 E10.9082
G1 X87.67 Y126.777 E10.94426
G1 X87.25 Y125.978 E10.98028
G1 X86.902 Y125.145 E11.01632
G1 X86.629 Y124.284 E11.05237
G1 X86.476 Y123.637 E11.0789
G1 X86.421 Y123.37 E11.08978
G1 X86.297 Y122.711 E11.11655
G1 X85.952 Y120.737 E11.19653
G1 X85.666 Y119.235 E11.25755
G1 X85.536 Y118.341 E11.29361
G1 X85.486 Y117.292 E11.33552
G1 X85.494 Y116.662 E11.36067
G1 X85.505 Y116.375 E11.37213
G1 X85.566 Y115.591 E11.40352
G1 X85.663 Y114.886 E11.43192
G1 X85.784 Y114.18 E11.46051
G1 X85.945 Y113.411 E11.49187
G1 X86.025 Y113.078 E11.50554
G1 X86.155 Y112.573 E11.52635
G1 X86.372 Y111.844 E11.55671
G1 X86.574 Y111.267 E11.58111
G1 X86.715 Y110.893 E11.59706
G1 X87.07 Y110.063 E11.63309
G1 X87.498 Y109.267 E11.66916
G1 X87.777 Y108.826 E11.68999
G1 X88.131 Y108.296 E11.71543
G1 X88.596 Y107.638 E11.74759
G1 X89.156 Y106.929 E11.78365
G1 X89.513 Y106.538 E11.80478
G1 X89.939 Y106.098 E11.82922
G1 X90.196 Y105.846 E11.84359
G1 X90.693 Y105.367 E11.87114
G1 X91.304 Y104.823 E11.90379
G1 F2400 E8.70379
;MESH:CostaRica.stl
G0 F9000 X114.955 Y101.103
G0 X115.984 Y100.749
G0 X117.799 Y101.067
G0 X117.843 Y100.77
;TYPE:WALL-OUTER
G1 F1440 E11.90379
G1 F1800 X117.877 Y100.775 E11.90516
G1 X118.188 Y100.821 E11.91771
G1 X118.591 Y100.739 E11.93412
G1 X119.311 Y100.491 E11.96452
G1 X119.955 Y100.116 E11.99426
G1 X120.508 Y99.625 E12.02378
G1 X120.952 Y99.033 E12.05331
G1 X121.292 Y98.475 E12.07939
G1 X121.933 Y98.865 E12.10934
G1 X122.331 Y99.133 E12.12849
G1 X122.506 Y99.326 E12.13889
G1 X122.551 Y99.511 E12.14648
G1 X122.502 Y99.833 E12.15948
G1 X122.253 Y100.911 E12.20364
G1 X122.176 Y101.599 E12.23127
G1 X122.318 Y102.059 E12.25049
G1 X122.712 Y102.39 E12.27103
G1 X122.894 Y102.543 E12.28052
G1 X122.712 Y102.696 E12.28636
G1 X122.58 Y102.806 E12.29322
G1 X122.441 Y103.291 E12.31336
G1 X122.379 Y104.064 E12.34431
G1 X122.363 Y105.25 E12.39165
G1 X122.363 Y107.697 E12.48931
G1 X124.042 Y109.375 E12.58405
G1 X122.944 Y110.474 E12.64606
G1 X122.409 Y111.024 E12.67668
G1 X121.873 Y111.604 E12.7082
G1 X121.396 Y112.145 E12.73699
G1 X121.046 Y112.573 E12.75906
G1 X120.734 Y112.942 E12.77834
G1 X120.362 Y113.321 E12.79954
G1 X119.957 Y113.685 E12.82127
G1 X119.59 Y113.968 E12.83977
G1 X118.921 Y114.526 E12.87454
G1 X118.38 Y115.182 E12.90848
G1 X118.017 Y115.87 E12.93952
G1 X117.844 Y116.737 E12.97481
G1 X117.539 Y117.345 E13.00196
G1 X117.019 Y118.06 E13.03725
G1 X116.81 Y118.492 E13.0564
G1 X116.683 Y118.947 E13.07525
G1 X116.63 Y119.695 E13.10518
G1 X116.627 Y119.75 E13.10738
G1 X116.57 Y120.072 E13.12043
G1 X116.505 Y120.045
G1 X116.454 Y120.024 E13.12245
G1 X116.164 Y119.903 E13.135
G1 X115.661 Y119.67 E13.15712
G1 X115.064 Y119.381 E13.18359
G1 X113.663 Y118.799 E13.24414
G1 X112.464 Y118.652 E13.29236
G1 X111.27 Y118.978 E13.34176
G1 X109.878 Y119.766 E13.4056
G1 X108.694 Y120.484 E13.46086
G1 X107.944 Y120.786 E13.49313
G1 X107.477 Y120.75 E13.51183
G1 X107 Y120.398 E13.53549
G1 X106.224 Y119.962 E13.57101
G1 X105.104 Y119.888 E13.61581
G1 X103.651 Y120.166 E13.67486
G1 X101.823 Y120.787 E13.75191
G1 X100.067 Y121.379 E13.82587
G1 X98.509 Y121.735 E13.88966
G1 X97.34 Y121.83 E13.93647
G1 X96.731 Y121.669 E13.96161
G1 X96.658 Y121.563 E13.96675
G1 X96.602 Y121.288 E13.97795
G1 X96.598 Y120.822 E13.99655
G1 X96.725 Y119.4 E14.05353
G1 X96.708 Y118.848 E14.07557
G1 X96.581 Y118.423 E14.09328
G1 X96.17 Y117.865 E14.12094
G1 X95.921 Y117.439 E14.14063
G1 X95.877 Y117.303 E14.14634
G1 X95.888 Y116.781 E14.16717
G1 X96.015 Y115.993 E14.19903
G1 X96.214 Y115.175 E14.23263
G1 X96.435 Y114.563 E14.2586
G1 X97.014 Y113.728 E14.29916
G1 X97.906 Y112.846 E14.34922
G1 X98.946 Y112.067 E14.40108
G1 X99.987 Y111.517 E14.44808
G1 X100.579 Y111.256 E14.4739
G1 X101.171 Y110.949 E14.50051
G1 X101.689 Y110.635 E14.52469
G1 X102.077 Y110.339 E14.54417
G1 X102.576 Y109.881 E14.5712
G1 X103.122 Y110.388 E14.60094
G1 X103.567 Y110.835 E14.62611
G1 X103.671 Y110.96 E14.6326
G1 X103.305 Y111.383 E14.65493
G1 X103.01 Y111.687 E14.67184
G1 X102.51 Y112.282 E14.70286
G1 X102.246 Y112.843 E14.7276
G1 X102.28 Y113.358 E14.7482
G1 X102.724 Y113.731 E14.77135
G1 X103.601 Y113.374 E14.80914
G1 X105.051 Y112.477 E14.87719
G1 X106.676 Y111.335 E14.95646
G1 X107.992 Y110.268 E15.02408
G1 X108.327 Y109.908 E15.04371
G1 X108.516 Y109.515 E15.06111
G1 X108.561 Y109.023 E15.08083
G1 X108.506 Y108.369 E15.10703
G1 X108.474 Y107.632 E15.13647
G1 X108.618 Y107.302 E15.15084
G1 X109.034 Y107.138 E15.16869
G1 X109.971 Y107.086 E15.20614
G1 X110.974 Y106.864 E15.24714
G1 X112.332 Y106.299 E15.30585
G1 X113.789 Y105.515 E15.37188
G1 X115.096 Y104.633 E15.43482
G1 X115.738 Y104.1 E15.46812
G1 X116.156 Y103.643 E15.49284
G1 X116.395 Y103.182 E15.51356
G1 X116.493 Y102.664 E15.5346
G1 X116.497 Y102.209 E15.55276
G1 X116.422 Y101.801 E15.56932
G1 X116.263 Y101.436 E15.58521
G1 X115.775 Y100.833 E15.61617
G1 X115.742 Y100.735 E15.6203
G1 X115.818 Y100.605 E15.62631
G1 X116.184 Y100.25 E15.64666
G1 X116.736 Y99.591 E15.68097
G1 X117.203 Y98.778 E15.71839
G1 X117.38 Y98.419 E15.73437
G1 X117.538 Y98.236 E15.74402
G1 X117.711 Y98.169 E15.75142
G1 X117.996 Y98.174 E15.7628
G1 X118.383 Y98.303 E15.77908
G1 X118.554 Y98.504 E15.78961
G1 X118.563 Y98.75 E15.79944
G1 X118.207 Y99.267 E15.82449
G1 X117.923 Y99.799 E15.84856
G1 X117.763 Y100.411 E15.87381
G1 X117.755 Y100.444 E15.87516
G1 X117.843 Y100.77 E15.88864
G0 F9000 X117.525 Y101.127
;TYPE:WALL-INNER
G1 F1800 X118.199 Y101.227 E15.91584
G1 X118.696 Y101.126 E15.93608
G1 X119.478 Y100.856 E15.9691
G1 X120.191 Y100.442 E16.002
G1 X120.804 Y99.897 E16.03474
G1 X121.284 Y99.258 E16.06664
G1 X121.426 Y99.025 E16.07753
G1 X122.067 Y99.438 E16.10796
G1 X122.144 Y99.531 E16.11278
G1 X122.112 Y99.743 E16.12134
G1 X121.858 Y100.844 E16.16644
G1 X121.769 Y101.637 E16.19829
G1 X121.971 Y102.289 E16.22553
G1 X122.264 Y102.535 E16.2408
G1 X122.272 Y102.542 E16.24122
G1 X122.229 Y102.578
G1 X122.045 Y103.219 E16.26784
G1 X121.979 Y104.045 E16.30091
G1 X121.963 Y105.247 E16.34889
G1 X121.963 Y107.863 E16.4533
G1 X123.476 Y109.375 E16.53867
G1 X122.659 Y110.193 E16.58482
G1 X122.119 Y110.749 E16.61575
G1 X121.576 Y111.336 E16.64767
G1 X121.091 Y111.886 E16.67693
G1 X120.736 Y112.32 E16.69931
G1 X120.095 Y113.023 E16.73728
G1 X119.7 Y113.378 E16.75848
G1 X119.34 Y113.656 E16.77663
G1 X118.636 Y114.243 E16.81322
G1 X118.045 Y114.959 E16.85027
G1 X117.636 Y115.735 E16.88528
G1 X117.463 Y116.604 E16.92065
G1 X117.194 Y117.14 E16.94458
G1 X116.674 Y117.854 E16.97984
G1 X116.434 Y118.35 E17.00183
G1 X116.287 Y118.879 E17.02374
G1 X116.264 Y119.21 E17.03699
G1 X116.244 Y119.499 E17.04855
G1 X115.981 Y119.378 E17.05534
G1 X115.829 Y119.307 E17.06204
G1 X115.228 Y119.016 E17.08869
G1 X113.766 Y118.409 E17.15187
G1 X112.435 Y118.245 E17.2054
G1 X111.116 Y118.605 E17.25997
G1 X109.676 Y119.421 E17.32603
G1 X108.515 Y120.125 E17.38022
G1 X107.882 Y120.38 E17.40746
G1 X107.623 Y120.36 E17.41782
G1 X107.218 Y120.061 E17.43792
G1 X106.341 Y119.569 E17.47805
G1 X105.079 Y119.485 E17.52853
G1 X103.549 Y119.778 E17.59071
