;FLAVOR:Marlin
;TIME:236
;Filament used: 0.141456m
;Layer height: 0.2
;MINX:89.482
;MINY:93.712
;MINZ:0.24
;MAXX:130.527
;MAXY:126.291
;MAXZ:2.88
;Generated with Cura_SteamEngine 4.10.0
M82 ;absolute extrusion mode
M201 X500.00 Y500.00 Z100.00 E5000.00 ;Setup machine max acceleration
M203 X500.00 Y500.00 Z10.00 E50.00 ;Setup machine max feedrate
M204 P500.00 R1000.00 T500.00 ;Setup Print/Retract/Travel acceleration
M205 X8.00 Y8.00 Z0.40 E5.00 ;Setup Jerk
M220 S100 ;Reset Feedrate
M221 S100 ;Reset Flowrate

;*** Start Dual Nozzle/Bed Preheating ***
M140 S50 ; start preheating the bed
M104 S200 ?T0 ; start preheating hotend
M190 S50 ; heat to Cura Bed setting and WAIT
M109 S200 ?T0 ; heat to Cura Hotend and WAIT
;*** End Preheating ***

;*** Single Print Start Tone
M300 S1000 P500 ; chirp to indicate starting to print
;*** End Single Start Tone

G28 ;Home

G92 E0 ;Reset Extruder
G1 Z2.0 F3000 ;Move Z Axis up

G1 X10.1 Y20 Z0.28 F5000.0 ;Move to start position
G1 X10.1 Y200.0 Z0.28 F1500.0 E15 ;Draw the first line
G1 X10.4 Y200.0 Z0.28 F5000.0 ;Move to side a little
G1 X10.4 Y20 Z0.28 F1500.0 E30 ;Draw the second line
G92 E0 ;Reset Extruder
G1 Z2.0 F3000 ;Move Z Axis up
G92 E0
G92 E0
G1 F2400 E-3.2
;LAYER_COUNT:13
;LAYER:0
M106 S63.8
M204 S500
M205 X6 Y6
G0 F9000 X93.346 Y100.677 Z0.24
;TYPE:SKIRT
G1 F1440 E0
G1 F1800 X94.332 Y99.908 E0.04991
G1 X94.933 Y99.502 E0.07885
G1 X96.023 Y98.873 E0.12908
G1 X96.719 Y98.536 E0.15995
G1 X98.676 Y97.654 E0.24562
G1 X99.888 Y97.1 E0.29881
G1 X100.637 Y96.783 E0.33127
G1 X101.163 Y96.578 E0.3538
G1 X101.503 Y96.452 E0.36827
G1 X102.319 Y96.165 E0.4028
G1 X103.852 Y95.649 E0.46736
G1 X104.389 Y95.453 E0.49017
G1 X104.98 Y95.248 E0.51514
G1 X105.325 Y95.135 E0.52963
G1 X105.986 Y94.942 E0.55711
G1 X106.907 Y94.703 E0.59509
G1 X107.137 Y94.646 E0.60455
G1 X109.232 Y94.15 E0.69047
G1 X109.822 Y94.012 E0.71466
G1 X110.089 Y93.957 E0.72554
G1 X111.014 Y93.807 E0.76294
G1 X111.631 Y93.752 E0.78766
G1 X112.298 Y93.717 E0.81432
G1 X112.48 Y93.712 E0.82159
G1 X113.363 Y93.723 E0.85683
G1 X113.76 Y93.744 E0.8727
G1 X116.338 Y93.846 E0.97567
G1 X116.918 Y93.856 E0.99883
G1 X117.407 Y93.873 E1.01835
G1 X117.97 Y93.911 E1.04088
G1 X118.658 Y93.981 E1.06848
G1 X118.873 Y94.008 E1.07713
G1 X119.797 Y94.164 E1.11453
G1 X120.705 Y94.399 E1.15196
G1 X121.59 Y94.71 E1.1894
G1 X122.472 Y95.109 E1.22804
G1 X122.549 Y95.148 E1.23148
G1 X123.104 Y95.449 E1.25668
G1 X123.302 Y95.564 E1.26582
G1 X124.092 Y96.069 E1.30324
G1 X124.836 Y96.64 E1.34068
G1 X125.448 Y97.192 E1.37357
G1 X126.352 Y98.073 E1.42395
G1 X126.97 Y98.692 E1.45886
G1 X127.823 Y99.649 E1.51003
G1 X127.892 Y99.736 E1.51446
G1 X128.207 Y100.152 E1.53529
G1 X128.35 Y100.351 E1.54507
G1 X128.864 Y101.135 E1.58248
G1 X129.31 Y101.96 E1.61991
G1 X129.684 Y102.821 E1.65738
G1 X129.983 Y103.709 E1.69478
G1 X130.148 Y104.352 E1.72127
G1 X130.276 Y104.97 E1.74646
G1 X130.335 Y105.299 E1.7598
G1 X130.448 Y106.097 E1.79197
G1 X130.503 Y106.859 E1.82246
G1 X130.523 Y107.511 E1.8485
G1 X130.527 Y108.064 E1.87057
G1 X130.513 Y108.851 E1.90198
G1 X130.492 Y109.324 E1.92088
G1 X130.373 Y110.52 E1.96885
G1 X130.351 Y110.662 E1.97459
G1 X130.243 Y111.254 E1.99861
G1 X130.158 Y111.656 E2.01501
G1 X129.925 Y112.564 E2.05242
G1 X129.616 Y113.449 E2.08983
G1 X129.235 Y114.299 E2.12701
G1 X129.17 Y114.429 E2.13281
G1 X128.903 Y114.93 E2.15547
G1 X128.732 Y115.232 E2.16932
G1 X128.236 Y116.028 E2.20675
G1 X127.48 Y117.008 E2.25615
G1 X127.083 Y117.463 E2.28026
G1 X126.97 Y117.588 E2.28698
G1 X126.459 Y118.117 E2.31634
G1 X126.059 Y118.504 E2.33855
G1 X125.745 Y118.797 E2.35569
G1 X125.025 Y119.399 E2.39315
G1 X124.507 Y119.773 E2.41865
G1 X124.283 Y119.925 E2.42945
G1 X123.765 Y120.255 E2.45397
G1 X123.62 Y120.342 E2.46072
G1 X122.796 Y120.79 E2.49815
G1 X121.626 Y121.281 E2.54879
G1 X121.125 Y121.458 E2.57
G1 X118.641 Y122.375 E2.67568
G1 X116.324 Y123.306 E2.77534
G1 X113.991 Y124.321 E2.87689
G1 X113.57 Y124.518 E2.89544
G1 X112.497 Y125.003 E2.94244
G1 X111.626 Y125.352 E2.97989
G1 X110.717 Y125.63 E3.01783
G1 X110.02 Y125.81 E3.04656
G1 X109.717 Y125.883 E3.059
G1 X109.143 Y126.014 E3.0825
G1 X108.22 Y126.184 E3.11996
G1 X106.829 Y126.289 E3.17563
G1 X106.665 Y126.291 E3.18218
G1 X105.921 Y126.275 E3.21188
G1 X105.471 Y126.25 E3.22987
G1 X104.537 Y126.158 E3.26733
G1 X103.615 Y125.987 E3.30475
G1 X102.769 Y125.756 E3.33975
G1 X102.674 Y125.726 E3.34373
G1 X102.111 Y125.532 E3.3675
G1 X101.84 Y125.43 E3.37906
G1 X100.977 Y125.062 E3.4165
G1 X100.149 Y124.623 E3.4539
G1 X99.361 Y124.114 E3.49135
G1 X98.619 Y123.54 E3.52879
G1 X98.225 Y123.191 E3.5498
G1 X98.124 Y123.097 E3.5553
G1 X96.215 Y121.359 E3.65834
G1 X95.472 Y120.724 E3.69735
G1 X95.333 Y120.595 E3.70492
G1 X94.377 Y119.764 E3.75548
G1 X93.696 Y119.119 E3.79291
G1 X93.039 Y118.378 E3.83244
G1 X92.515 Y117.73 E3.8657
G1 X92.106 Y117.197 E3.89251
G1 X91.576 Y116.423 E3.92995
G1 X91.113 Y115.607 E3.9674
G1 X90.746 Y114.812 E4.00235
G1 X90.469 Y114.117 E4.03221
G1 X90.367 Y113.841 E4.04395
G1 X90.16 Y113.255 E4.06876
G1 X89.786 Y111.942 E4.12325
G1 X89.758 Y111.814 E4.12848
G1 X89.585 Y110.793 E4.16981
G1 X89.556 Y110.555 E4.17938
G1 X89.482 Y109.621 E4.21677
G1 X89.488 Y108.683 E4.25421
G1 X89.575 Y107.749 E4.29165
G1 X89.74 Y106.826 E4.32907
G1 X89.983 Y105.92 E4.36651
G1 X90.45 Y104.698 E4.41872
G1 X90.576 Y104.419 E4.43094
G1 X90.998 Y103.581 E4.46839
G1 X91.49 Y102.783 E4.50581
G1 X92.048 Y102.029 E4.54325
G1 X92.668 Y101.325 E4.58069
G1 X93.346 Y100.677 E4.61812
G0 F9000 X93.674 Y100.923
G1 F1800 X94.56 Y100.236 E4.66287
G1 X95.152 Y99.837 E4.69136
G1 X96.202 Y99.23 E4.73977
G1 X96.889 Y98.898 E4.77022
G1 X98.783 Y98.044 E4.85314
G1 X100.054 Y97.463 E4.90892
G1 X100.782 Y97.156 E4.94045
G1 X101.308 Y96.951 E4.96299
G1 X101.636 Y96.829 E4.97695
G1 X102.447 Y96.544 E5.01126
G1 X103.977 Y96.029 E5.07569
G1 X104.522 Y95.831 E5.09884
G1 X105.105 Y95.629 E5.12346
G1 X105.45 Y95.516 E5.13795
G1 X106.086 Y95.329 E5.16441
G1 X107.007 Y95.09 E5.20239
G1 X107.229 Y95.035 E5.21152
G1 X109.458 Y94.506 E5.30295
G1 X110.169 Y94.349 E5.33201
G1 X111.078 Y94.203 E5.36876
G1 X111.656 Y94.151 E5.39192
G1 X112.309 Y94.117 E5.41802
G1 X112.491 Y94.112 E5.42529
G1 X113.342 Y94.123 E5.45925
G1 X113.648 Y94.139 E5.47148
G1 X116.359 Y94.247 E5.57977
G1 X116.911 Y94.256 E5.60181
G1 X117.39 Y94.272 E5.62093
G1 X117.932 Y94.309 E5.64262
G1 X118.608 Y94.378 E5.66974
G1 X118.823 Y94.405 E5.67839
G1 X119.73 Y94.559 E5.7151
G1 X120.621 Y94.791 E5.75185
G1 X121.489 Y95.1 E5.78863
G1 X122.292 Y95.466 E5.82385
G1 X122.369 Y95.505 E5.82729
G1 X122.903 Y95.795 E5.85155
G1 X123.101 Y95.91 E5.86068
G1 X123.876 Y96.406 E5.89741
G1 X124.605 Y96.968 E5.93415
G1 X125.169 Y97.478 E5.9645
G1 X125.944 Y98.232 E6.00765
G1 X126.687 Y98.976 E6.04962
G1 X127.51 Y99.897 E6.09891
G1 X127.579 Y99.984 E6.10335
G1 X127.882 Y100.385 E6.12341
G1 X128.025 Y100.584 E6.13319
G1 X128.529 Y101.355 E6.16995
G1 X128.965 Y102.166 E6.2067
G1 X129.328 Y103.012 E6.24344
G1 X129.617 Y103.886 E6.28018
G1 X129.758 Y104.44 E6.303
G1 X129.883 Y105.041 E6.3275
G1 X129.942 Y105.37 E6.34084
G1 X130.051 Y106.14 E6.37188
G1 X130.104 Y106.874 E6.40125
G1 X130.123 Y107.514 E6.42681
G1 X130.127 Y108.067 E6.44888
G1 X130.114 Y108.833 E6.47946
G1 X130.093 Y109.306 E6.49835
G1 X129.978 Y110.459 E6.5446
G1 X129.956 Y110.601 E6.55034
G1 X129.852 Y111.171 E6.57346
G1 X129.767 Y111.573 E6.58986
G1 X129.537 Y112.464 E6.62659
G1 X129.231 Y113.333 E6.66336
G1 X128.877 Y114.12 E6.6978
G1 X128.812 Y114.25 E6.7036
G1 X128.555 Y114.733 E6.72544
G1 X128.384 Y115.035 E6.73929
G1 X127.896 Y115.816 E6.77605
G1 X127.177 Y116.746 E6.82296
G1 X126.786 Y117.194 E6.8467
G1 X126.673 Y117.319 E6.85342
G1 X126.181 Y117.829 E6.88171
G1 X125.781 Y118.216 E6.90392
G1 X125.475 Y118.501 E6.92061
G1 X124.769 Y119.092 E6.95736
G1 X124.282 Y119.442 E6.98129
G1 X124.058 Y119.594 E6.9921
G1 X123.56 Y119.912 E7.01568
G1 X123.415 Y119.999 E7.02243
G1 X122.605 Y120.438 E7.0592
G1 X121.493 Y120.904 E7.10732
G1 X121.002 Y121.077 E7.1281
G1 X118.491 Y122.004 E7.23493
G1 X116.165 Y122.939 E7.33499
G1 X113.828 Y123.956 E7.43671
G1 X113.405 Y124.153 E7.45534
G1 X112.332 Y124.638 E7.50233
G1 X111.477 Y124.981 E7.5391
G1 X110.616 Y125.242 E7.57501
G1 X109.919 Y125.422 E7.60374
G1 X109.628 Y125.493 E7.6157
G1 X109.054 Y125.624 E7.6392
G1 X108.148 Y125.79 E7.67596
G1 X106.824 Y125.889 E7.72895
G1 X106.66 Y125.891 E7.7355
G1 X105.943 Y125.876 E7.76412
G1 X105.493 Y125.851 E7.78211
G1 X104.577 Y125.76 E7.81885
G1 X103.672 Y125.59 E7.8556
G1 X102.889 Y125.375 E7.88801
G1 X102.794 Y125.345 E7.89198
G1 X102.252 Y125.158 E7.91487
G1 X101.981 Y125.056 E7.92642
G1 X101.134 Y124.694 E7.96319
G1 X100.322 Y124.261 E7.99992
G1 X99.551 Y123.758 E8.03666
G1 X98.498 Y122.898 E8.09092
G1 X96.476 Y121.056 E8.20009
G1 X95.731 Y120.42 E8.23919
G1 X95.589 Y120.287 E8.24695
G1 X94.639 Y119.462 E8.29717
G1 X93.971 Y118.829 E8.3339
G1 X93.35 Y118.126 E8.37134
G1 X92.826 Y117.478 E8.4046
G1 X92.426 Y116.957 E8.43081
G1 X91.906 Y116.197 E8.46757
G1 X91.454 Y115.395 E8.50431
G1 X91.115 Y114.659 E8.53665
G1 X90.842 Y113.974 E8.56608
G1 X90.744 Y113.708 E8.5774
G1 X90.537 Y113.122 E8.6022
G1 X90.177 Y111.856 E8.65473
G1 X90.149 Y111.728 E8.65996
G1 X89.982 Y110.745 E8.69976
G1 X89.953 Y110.507 E8.70933
G1 X89.881 Y109.589 E8.74608
G1 X89.89 Y108.669 E8.7828
G1 X89.978 Y107.752 E8.81957
G1 X90.145 Y106.847 E8.8563
G1 X90.391 Y105.96 E8.89304
G1 X90.814 Y104.862 E8.94
G1 X90.94 Y104.583 E8.95222
G1 X91.355 Y103.761 E8.98897
G1 X91.84 Y102.979 E9.0257
G1 X92.391 Y102.241 E9.06246
G1 X93.004 Y101.554 E9.09921
G1 X93.674 Y100.923 E9.13594
G0 F9000 X94.001 Y101.169
G1 F1800 X94.788 Y100.565 E9.17554
G1 X95.372 Y100.171 E9.20365
G1 X96.382 Y99.587 E9.25022
G1 X97.059 Y99.26 E9.28022
G1 X97.215 Y99.188 E9.28708
G1 X99.004 Y98.383 E9.36538
G1 X100.22 Y97.827 E9.41875
G1 X100.927 Y97.528 E9.44938
G1 X101.453 Y97.323 E9.47192
G1 X101.769 Y97.206 E9.48537
G1 X102.574 Y96.924 E9.51941
G1 X104.091 Y96.413 E9.5833
G1 X104.655 Y96.208 E9.60725
G1 X105.229 Y96.009 E9.6315
G1 X105.574 Y95.896 E9.64599
G1 X106.187 Y95.716 E9.67149
G1 X107.108 Y95.477 E9.70946
G1 X107.321 Y95.424 E9.71822
G1 X109.555 Y94.894 E9.80986
G1 X110.25 Y94.741 E9.83826
G1 X111.142 Y94.598 E9.87432
G1 X111.68 Y94.55 E9.89588
G1 X112.32 Y94.517 E9.92146
G1 X112.502 Y94.512 E9.92872
G1 X113.321 Y94.522 E9.96141
G1 X113.688 Y94.541 E9.97608
G1 X116.292 Y94.645 E10.0801
G1 X116.904 Y94.655 E10.10452
G1 X117.374 Y94.672 E10.1233
G1 X117.895 Y94.707 E10.14414
G1 X118.558 Y94.774 E10.17073
G1 X118.773 Y94.801 E10.17938
G1 X119.663 Y94.954 E10.21542
G1 X120.536 Y95.184 E10.25146
G1 X121.386 Y95.49 E10.28751
G1 X122.111 Y95.823 E10.31936
G1 X122.188 Y95.862 E10.3228
G1 X122.702 Y96.141 E10.34614
G1 X122.9 Y96.256 E10.35528
G1 X123.66 Y96.743 E10.39131
G1 X124.374 Y97.297 E10.42738
G1 X124.89 Y97.765 E10.45518
G1 X125.784 Y98.637 E10.50503
G1 X126.405 Y99.259 E10.54011
G1 X127.197 Y100.146 E10.58757
G1 X127.557 Y100.619 E10.61129
G1 X127.7 Y100.818 E10.62107
G1 X128.194 Y101.574 E10.65712
G1 X128.619 Y102.371 E10.69317
G1 X128.972 Y103.202 E10.7292
G1 X129.251 Y104.061 E10.76525
G1 X129.399 Y104.67 E10.79026
G1 X129.548 Y105.441 E10.82161
G1 X129.653 Y106.182 E10.85148
G1 X129.704 Y106.889 E10.87977
G1 X129.723 Y107.517 E10.90484
G1 X129.727 Y108.07 E10.92692
G1 X129.714 Y108.815 E10.95665
G1 X129.693 Y109.288 E10.97555
G1 X129.583 Y110.398 E11.02007
G1 X129.561 Y110.54 E11.02581
G1 X129.46 Y111.088 E11.04805
G1 X129.375 Y111.49 E11.06445
G1 X129.15 Y112.364 E11.10047
G1 X128.847 Y113.216 E11.13656
G1 X128.519 Y113.942 E11.16835
G1 X128.454 Y114.072 E11.17415
G1 X128.207 Y114.536 E11.19513
G1 X128.036 Y114.838 E11.20899
G1 X127.557 Y115.603 E11.24501
G1 X126.875 Y116.485 E11.28951
G1 X126.49 Y116.926 E11.31287
G1 X126.377 Y117.051 E11.3196
G1 X125.902 Y117.542 E11.34687
G1 X125.502 Y117.929 E11.36908
G1 X125.205 Y118.206 E11.38529
G1 X124.512 Y118.784 E11.42131
G1 X124.057 Y119.111 E11.44367
G1 X123.833 Y119.263 E11.45447
G1 X123.354 Y119.569 E11.47716
G1 X123.209 Y119.656 E11.48391
G1 X122.415 Y120.086 E11.51995
G1 X121.36 Y120.527 E11.56559
G1 X120.792 Y120.728 E11.58963
G1 X118.381 Y121.617 E11.6922
G1 X115.992 Y122.578 E11.79497
G1 X113.692 Y123.579 E11.89509
G1 X113.24 Y123.789 E11.91498
G1 X112.167 Y124.274 E11.96198
G1 X111.329 Y124.609 E11.998
G1 X110.516 Y124.855 E12.0319
G1 X109.819 Y125.035 E12.06063
G1 X109.539 Y125.103 E12.07213
G1 X108.965 Y125.234 E12.09563
G1 X108.076 Y125.396 E12.13169
G1 X106.819 Y125.489 E12.182
G1 X106.655 Y125.491 E12.18855
G1 X105.965 Y125.476 E12.21609
G1 X105.515 Y125.451 E12.23408
G1 X104.617 Y125.361 E12.2701
G1 X103.729 Y125.192 E12.30618
G1 X103.009 Y124.994 E12.33598
G1 X102.914 Y124.964 E12.33996
G1 X102.393 Y124.783 E12.36197
G1 X102.122 Y124.681 E12.37353
G1 X101.292 Y124.326 E12.40956
G1 X100.496 Y123.899 E12.44561
G1 X99.741 Y123.403 E12.48167
G1 X98.77 Y122.605 E12.53183
G1 X96.755 Y120.769 E12.64063
G1 X95.991 Y120.116 E12.68074
G1 X95.84 Y119.975 E12.68899
G1 X94.902 Y119.16 E12.73858
G1 X94.247 Y118.538 E12.77464
G1 X93.661 Y117.875 E12.80995
G1 X93.137 Y117.227 E12.84321
G1 X92.746 Y116.717 E12.86886
G1 X92.237 Y115.971 E12.90491
G1 X91.795 Y115.183 E12.94097
G1 X91.485 Y114.506 E12.97069
G1 X91.216 Y113.83 E12.99973
G1 X91.121 Y113.574 E13.01062
G1 X90.914 Y112.988 E13.03543
G1 X90.568 Y111.771 E13.08593
G1 X90.54 Y111.643 E13.09116
G1 X90.379 Y110.697 E13.12946
G1 X90.35 Y110.459 E13.13903
G1 X90.28 Y109.558 E13.17509
G1 X90.291 Y108.655 E13.21114
G1 X90.381 Y107.757 E13.24716
G1 X90.551 Y106.87 E13.2832
G1 X90.798 Y106.001 E13.31926
G1 X91.179 Y105.027 E13.36101
G1 X91.305 Y104.748 E13.37322
G1 X91.713 Y103.942 E13.40928
G1 X92.19 Y103.175 E13.44533
G1 X92.734 Y102.454 E13.48138
G1 X93.339 Y101.784 E13.51741
G1 X94.001 Y101.169 E13.55347
G1 F2400 E10.35347
;MESH:ElSalvador.stl
G0 F9000 X104.485 Y106.361
G0 X104.925 Y107.351
G0 X101.79 Y109.61
G0 X101.935 Y110.029
G0 X102.35 Y110.565
G0 X106.401 Y114.105
G0 X106.576 Y114.124
G0 X107.518 Y113.896
G0 X108.535 Y113.309
G0 X112.908 Y109.925
G0 X113.14 Y110.113
;TYPE:WALL-OUTER
G1 F1440 E13.55347
G1 F1800 X112.431 Y110.99 E13.59848
G1 X110.897 Y112.664 E13.68911
G1 X109.329 Y113.971 E13.77058
G1 X107.879 Y114.808 E13.8374
G1 X106.669 Y115.101 E13.88709
G1 X106.121 Y115.079 E13.90898
G1 X105.828 Y114.975 E13.92139
G1 X105.604 Y114.703 E13.93545
G1 X105.314 Y114.095 E13.96234
G1 X105.047 Y113.574 E13.9857
G1 X104.741 Y113.144 E14.00677
G1 X104.399 Y112.815 E14.02571
G1 X104.034 Y112.604 E14.04254
G1 X102.616 Y111.944 E14.10496
G1 X101.669 Y111.273 E14.15128
G1 X101.075 Y110.506 E14.19
G1 X100.707 Y109.514 E14.23223
G1 X100.669 Y109.239 E14.24331
G1 X100.745 Y109.078 E14.25042
G1 X101.064 Y108.862 E14.26579
G1 X101.757 Y108.545 E14.29621
G1 X102.421 Y108.254 E14.32515
G1 X103.11 Y107.943 E14.35532
G1 X103.786 Y107.632 E14.38502
G1 X104.328 Y107.376 E14.40894
G1 X104.845 Y107.147 E14.43151
G1 X105.359 Y106.958 E14.45337
G1 X105.778 Y106.838 E14.47076
G1 X106.415 Y106.74 E14.49648
G1 X106.868 Y106.6 E14.51541
G1 X107.375 Y106.397 E14.53721
G1 X107.919 Y106.134 E14.56132
G1 X108.409 Y105.909 E14.58284
G1 X108.963 Y105.719 E14.60622
G1 X109.509 Y105.589 E14.62862
G1 X110.419 Y105.508 E14.66508
G1 X111.326 Y105.296 E14.70226
G1 X111.987 Y104.996 E14.73123
G1 X112.341 Y104.918 E14.7457
G1 X112.778 Y104.898 E14.76316
G1 X113.344 Y104.948 E14.78584
G1 X113.869 Y104.999 E14.80689
G1 X114.588 Y105.04 E14.83563
G1 X115.419 Y105.061 E14.86881
G1 X116.97 Y105.054 E14.93071
G1 X117.443 Y105.107 E14.94971
G1 X117.627 Y105.208 E14.95809
G1 X117.87 Y105.681 E14.97931
G1 X118.104 Y105.953 E14.99363
G1 X118.394 Y106.204 E15.00894
G1 X119.071 Y106.623 E15.04072
G1 X119.24 Y106.851 E15.05205
G1 X119.319 Y107.265 E15.06887
G1 X119.337 Y108.04 E15.09981
G1 X119.313 Y108.816 E15.13079
G1 X119.216 Y109.31 E15.15089
G1 X118.999 Y109.708 E15.16898
G1 X118.605 Y110.152 E15.19267
G1 X118.2 Y110.531 E15.21481
G1 X117.899 Y110.728 E15.22917
G1 X117.641 Y110.795 E15.23981
G1 X116.966 Y110.689 E15.26708
