;FLAVOR:Marlin
;TIME:960
;Filament used: 0.728565m
;Layer height: 0.2
;MINX:82.616
;MINY:80.569
;MINZ:0.24
;MAXX:137.382
;MAXY:139.442
;MAXZ:2.88
;Generated with Cura_SteamEngine 4.10.0
M82 ;absolute extrusion mode
M201 X500.00 Y500.00 Z100.00 E5000.00 ;Setup machine max acceleration
M203 X500.00 Y500.00 Z10.00 E50.00 ;Setup machine max feedrate
M204 P500.00 R1000.00 T500.00 ;Setup Print/Retract/Travel acceleration
M205 X8.00 Y8.00 Z0.40 E5.00 ;Setup Jerk
M220 S100 ;Reset Feedrate
M221 S100 ;Reset Flowrate

;*** Start Dual Nozzle/Bed Preheating ***
M140 S50 ; start preheating the bed
M104 S200 ?T0 ; start preheating hotend
M190 S50 ; heat to Cura Bed setting and WAIT
M109 S200 ?T0 ; heat to Cura Hotend and WAIT
;*** End Preheating ***

;*** Single Print Start Tone
M300 S1000 P500 ; chirp to indicate starting to print
;*** End Single Start Tone

G28 ;Home

G92 E0 ;Reset Extruder
G1 Z2.0 F3000 ;Move Z Axis up

G1 X10.1 Y20 Z0.28 F5000.0 ;Move to start position
G1 X10.1 Y200.0 Z0.28 F1500.0 E15 ;Draw the first line
G1 X10.4 Y200.0 Z0.28 F5000.0 ;Move to side a little
G1 X10.4 Y20 Z0.28 F1500.0 E30 ;Draw the second line
G92 E0 ;Reset Extruder
G1 Z2.0 F3000 ;Move Z Axis up
G92 E0
G92 E0
G1 F2400 E-3.2
;LAYER_COUNT:13
;LAYER:0
M106 S63.8
M204 S500
M205 X6 Y6
G0 F9000 X86.176 Y90.182 Z0.24
;TYPE:SKIRT
G1 F1440 E0
G1 F1800 X86.873 Y89.581 E0.03673
G1 X87.434 Y89.167 E0.06456
G1 X88.243 Y88.611 E0.10374
G1 X88.903 Y88.171 E0.1354
G1 X90.935 Y86.735 E0.23471
G1 X93.31 Y84.949 E0.35331
G1 X93.582 Y84.737 E0.36708
G1 X94.332 Y84.203 E0.40382
G1 X95.2 Y83.696 E0.44394
G1 X95.78 Y83.403 E0.46988
G1 X96.241 Y83.185 E0.49023
G1 X97.089 Y82.828 E0.52695
G1 X98.23 Y82.477 E0.5746
G1 X98.844 Y82.325 E0.59984
G1 X100.867 Y81.8 E0.68326
G1 X101.559 Y81.617 E0.71183
G1 X102.099 Y81.488 E0.73399
G1 X102.657 Y81.367 E0.75678
G1 X103.588 Y81.216 E0.79442
G1 X104.185 Y81.152 E0.81839
G1 X104.441 Y81.13 E0.82864
G1 X105.234 Y81.074 E0.86037
G1 X107.742 Y80.859 E0.96084
G1 X109.812 Y80.63 E1.04396
G1 X110.73 Y80.569 E1.08068
G1 X111.788 Y80.597 E1.12292
G1 X111.971 Y80.611 E1.13025
G1 X112.487 Y80.663 E1.15095
G1 X112.868 Y80.711 E1.16627
G1 X113.776 Y80.866 E1.20304
G1 X114.666 Y81.099 E1.23976
G1 X115.533 Y81.408 E1.27649
G1 X116.371 Y81.791 E1.31327
G1 X117.171 Y82.246 E1.35
G1 X118.21 Y82.987 E1.40093
G1 X118.648 Y83.348 E1.42359
G1 X119.164 Y83.799 E1.45094
G1 X119.292 Y83.915 E1.45783
G1 X121.205 Y85.618 E1.56006
G1 X121.782 Y86.101 E1.59009
G1 X121.889 Y86.199 E1.59588
G1 X122.689 Y86.882 E1.63786
G1 X122.973 Y87.133 E1.65299
G1 X123.567 Y87.678 E1.68517
G1 X124.218 Y88.33 E1.72194
G1 X124.987 Y89.272 E1.77047
G1 X125.364 Y89.796 E1.79624
G1 X126.338 Y91.185 E1.86395
G1 X127.852 Y93.217 E1.96509
G1 X129.408 Y95.189 E2.06534
G1 X131.064 Y97.169 E2.16837
G1 X132.496 Y98.792 E2.25475
G1 X134.284 Y100.769 E2.36114
G1 X134.761 Y101.324 E2.39035
G1 X135.325 Y102.052 E2.42711
G1 X135.823 Y102.826 E2.46384
G1 X136.252 Y103.64 E2.50057
G1 X136.609 Y104.489 E2.53733
G1 X136.892 Y105.365 E2.57407
G1 X137.081 Y106.181 E2.6075
G1 X137.211 Y106.921 E2.63749
G1 X137.28 Y107.403 E2.65692
G1 X137.371 Y108.319 E2.69366
G1 X137.382 Y109.24 E2.73042
G1 X137.313 Y110.158 E2.76716
G1 X137.149 Y111.14 E2.8069
G1 X137.116 Y111.293 E2.81315
G1 X136.962 Y111.912 E2.83861
G1 X136.877 Y112.216 E2.8512
G1 X136.591 Y113.091 E2.88795
G1 X136.27 Y113.855 E2.92102
G1 X136.132 Y114.146 E2.93387
G1 X135.139 Y116.192 E3.02464
G1 X134.098 Y118.501 E3.12573
G1 X133.109 Y120.865 E3.22801
G1 X132.222 Y123.178 E3.32688
G1 X131.371 Y125.588 E3.42889
G1 X130.602 Y127.985 E3.52936
G1 X129.894 Y130.427 E3.63084
G1 X129.679 Y131.233 E3.66414
G1 X129.578 Y131.592 E3.67902
G1 X129.288 Y132.465 E3.71574
G1 X128.922 Y133.311 E3.75253
G1 X128.485 Y134.121 E3.78926
G1 X127.979 Y134.89 E3.826
G1 X127.409 Y135.612 E3.86272
G1 X126.778 Y136.283 E3.89948
G1 X126.091 Y136.896 E3.93623
G1 X125.353 Y137.447 E3.97299
G1 X124.57 Y137.931 E4.00973
G1 X123.749 Y138.347 E4.04646
G1 X122.894 Y138.689 E4.08321
G1 X122.013 Y138.956 E4.11996
G1 X121.112 Y139.145 E4.1567
G1 X120.404 Y139.238 E4.1852
G1 X119.887 Y139.288 E4.20593
G1 X119.345 Y139.328 E4.22762
G1 X118.615 Y139.36 E4.25679
G1 X117.668 Y139.386 E4.2946
G1 X117.055 Y139.397 E4.31907
G1 X114.939 Y139.423 E4.40353
G1 X111.93 Y139.437 E4.52363
G1 X105.461 Y139.442 E4.78182
G1 X104.761 Y139.433 E4.80976
G1 X103.842 Y139.381 E4.8465
G1 X102.93 Y139.25 E4.88327
G1 X102.034 Y139.04 E4.92
G1 X101.159 Y138.753 E4.95675
G1 X100.313 Y138.391 E4.99348
G1 X99.5 Y137.957 E5.03026
G1 X98.729 Y137.455 E5.06698
G1 X98.004 Y136.887 E5.10374
G1 X97.265 Y136.187 E5.14437
G1 X95.395 Y134.294 E5.25057
G1 X93.69 Y132.659 E5.34485
G1 X92.812 Y131.838 E5.39283
G1 X92.168 Y131.181 E5.42955
G1 X91.583 Y130.47 E5.4663
G1 X91.062 Y129.711 E5.50304
G1 X90.608 Y128.909 E5.53982
G1 X90.226 Y128.072 E5.57654
G1 X89.919 Y127.204 E5.61329
G1 X89.628 Y126.018 E5.66203
G1 X89.125 Y123.289 E5.77279
G1 X88.595 Y120.81 E5.87396
G1 X88.008 Y118.395 E5.97316
G1 X87.341 Y115.957 E6.07404
G1 X86.591 Y113.496 E6.17672
G1 X85.792 Y111.111 E6.27711
G1 X84.926 Y108.756 E6.37726
G1 X84.816 Y108.477 E6.38923
G1 X84.377 Y107.324 E6.43847
G1 X84.087 Y106.45 E6.47523
G1 X83.948 Y105.906 E6.49764
G1 X83.681 Y104.736 E6.54553
G1 X83.285 Y103.106 E6.61248
G1 X83.264 Y102.999 E6.61683
G1 X82.957 Y101.744 E6.6684
G1 X82.778 Y100.841 E6.70514
G1 X82.703 Y100.241 E6.72928
G1 X82.668 Y99.877 E6.74387
G1 X82.621 Y99.091 E6.7753
G1 X82.616 Y98.86 E6.78452
G1 X82.635 Y97.965 E6.82025
G1 X82.653 Y97.679 E6.83169
G1 X82.751 Y96.764 E6.86842
G1 X82.94 Y95.807 E6.90735
G1 X83.012 Y95.515 E6.91935
G1 X83.271 Y94.632 E6.95608
G1 X83.606 Y93.774 E6.99284
G1 X84.014 Y92.949 E7.02958
G1 X84.492 Y92.162 E7.06633
G1 X85.036 Y91.419 E7.10308
G1 X85.399 Y90.991 E7.12548
G1 X85.533 Y90.841 E7.13351
G1 X86.176 Y90.182 E7.17026
G0 F9000 X86.462 Y90.461
G1 F1800 X87.148 Y89.874 E7.20629
G1 X87.661 Y89.497 E7.2317
G1 X88.595 Y88.856 E7.27691
G1 X89.108 Y88.515 E7.3015
G1 X91.199 Y87.037 E7.4037
G1 X93.575 Y85.251 E7.52233
G1 X93.828 Y85.053 E7.53516
G1 X94.564 Y84.529 E7.57122
G1 X95.385 Y84.051 E7.60913
G1 X95.951 Y83.765 E7.63444
G1 X96.412 Y83.547 E7.6548
G1 X97.244 Y83.197 E7.69082
G1 X98.326 Y82.866 E7.73598
G1 X98.876 Y82.73 E7.7586
G1 X100.967 Y82.187 E7.84482
G1 X101.652 Y82.006 E7.8731
G1 X102.192 Y81.877 E7.89526
G1 X102.739 Y81.759 E7.91759
G1 X103.635 Y81.613 E7.95382
G1 X104.223 Y81.55 E7.97743
G1 X104.47 Y81.529 E7.98732
G1 X105.225 Y81.476 E8.01753
G1 X107.82 Y81.254 E8.12148
G1 X109.856 Y81.028 E8.20324
G1 X110.757 Y80.968 E8.23928
G1 X111.757 Y80.996 E8.27921
G1 X112.437 Y81.06 E8.30647
G1 X112.818 Y81.108 E8.32179
G1 X113.708 Y81.26 E8.35783
G1 X114.581 Y81.491 E8.39387
G1 X115.431 Y81.798 E8.42994
G1 X116.25 Y82.179 E8.466
G1 X117.032 Y82.631 E8.50205
G1 X117.958 Y83.298 E8.54759
G1 X118.387 Y83.651 E8.56977
G1 X118.894 Y84.094 E8.59664
G1 X119.042 Y84.229 E8.60463
G1 X120.948 Y85.925 E8.70646
G1 X121.525 Y86.408 E8.7365
G1 X121.612 Y86.487 E8.74119
G1 X122.43 Y87.186 E8.78413
G1 X122.703 Y87.428 E8.79869
G1 X123.297 Y87.973 E8.83087
G1 X123.935 Y88.613 E8.86693
G1 X124.663 Y89.507 E8.91295
G1 X125.037 Y90.025 E8.93845
G1 X126.023 Y91.43 E9.00696
G1 X127.525 Y93.448 E9.10736
G1 X129.121 Y95.469 E9.21014
G1 X130.758 Y97.427 E9.31201
G1 X132.199 Y99.06 E9.39893
G1 X133.987 Y101.037 E9.50532
G1 X134.456 Y101.582 E9.53402
G1 X135.008 Y102.297 E9.57007
G1 X135.495 Y103.057 E9.6061
G1 X135.913 Y103.858 E9.64216
G1 X136.258 Y104.692 E9.67818
G1 X136.528 Y105.554 E9.71423
G1 X136.688 Y106.256 E9.74297
G1 X136.815 Y106.978 E9.77223
G1 X136.884 Y107.46 E9.79166
G1 X136.972 Y108.358 E9.82767
G1 X136.981 Y109.261 E9.86372
G1 X136.909 Y110.162 E9.89979
G1 X136.758 Y111.056 E9.93598
G1 X136.725 Y111.209 E9.94223
G1 X136.577 Y111.805 E9.96674
G1 X136.492 Y112.109 E9.97933
G1 X136.211 Y112.967 E10.01537
G1 X135.908 Y113.685 E10.04647
G1 X135.772 Y113.972 E10.05915
G1 X134.78 Y116.016 E10.14983
G1 X133.728 Y118.348 E10.25194
G1 X132.742 Y120.705 E10.35391
G1 X131.843 Y123.05 E10.45415
G1 X130.989 Y125.47 E10.55657
G1 X130.22 Y127.866 E10.65701
G1 X129.503 Y130.341 E10.75985
G1 X129.247 Y131.296 E10.79931
G1 X129.194 Y131.482 E10.80703
G1 X128.908 Y132.339 E10.84309
G1 X128.547 Y133.167 E10.87914
G1 X128.115 Y133.96 E10.91518
G1 X127.615 Y134.712 E10.95123
G1 X127.05 Y135.416 E10.98725
G1 X126.424 Y136.068 E11.02333
G1 X125.744 Y136.662 E11.05937
G1 X125.014 Y137.193 E11.0954
G1 X124.239 Y137.657 E11.13145
G1 X123.427 Y138.052 E11.16749
G1 X122.582 Y138.373 E11.20356
G1 X121.713 Y138.618 E11.2396
G1 X120.826 Y138.785 E11.27562
G1 X120.366 Y138.84 E11.29411
G1 X119.849 Y138.89 E11.31485
G1 X119.319 Y138.929 E11.33606
G1 X118.599 Y138.961 E11.36482
G1 X117.66 Y138.986 E11.40231
G1 X117.05 Y138.997 E11.42666
G1 X114.937 Y139.023 E11.511
G1 X111.93 Y139.037 E11.63102
G1 X105.466 Y139.042 E11.88901
G1 X104.766 Y139.033 E11.91695
G1 X103.864 Y138.982 E11.95301
G1 X102.971 Y138.85 E11.98904
G1 X102.092 Y138.641 E12.0251
G1 X101.236 Y138.354 E12.06114
G1 X100.408 Y137.993 E12.09719
G1 X99.616 Y137.56 E12.13321
G1 X98.864 Y137.059 E12.16928
G1 X98.16 Y136.493 E12.20533
G1 X97.496 Y135.853 E12.24214
G1 X95.655 Y133.989 E12.3467
G1 X94.009 Y132.411 E12.43771
G1 X93.085 Y131.546 E12.48823
G1 X92.454 Y130.901 E12.52424
G1 X91.882 Y130.202 E12.56029
G1 X91.374 Y129.455 E12.59635
G1 X90.934 Y128.666 E12.6324
G1 X90.565 Y127.842 E12.66844
G1 X90.271 Y126.988 E12.70449
G1 X90.022 Y125.945 E12.74729
G1 X89.523 Y123.238 E12.85715
G1 X88.991 Y120.745 E12.95889
G1 X88.386 Y118.26 E13.06097
G1 X87.723 Y115.84 E13.16111
G1 X86.981 Y113.4 E13.2629
G1 X86.17 Y110.983 E13.36466
G1 X85.296 Y108.605 E13.46578
G1 X85.19 Y108.334 E13.47739
G1 X84.751 Y107.181 E13.52663
G1 X84.467 Y106.324 E13.56266
G1 X84.338 Y105.817 E13.58355
G1 X84.068 Y104.633 E13.63201
G1 X83.674 Y103.012 E13.6986
G1 X83.652 Y102.902 E13.70307
G1 X83.346 Y101.649 E13.75455
G1 X83.17 Y100.763 E13.79061
G1 X83.101 Y100.202 E13.81317
G1 X83.066 Y99.838 E13.82776
G1 X83.021 Y99.083 E13.85795
G1 X83.016 Y98.852 E13.86717
G1 X83.034 Y97.99 E13.90158
G1 X83.052 Y97.704 E13.91302
G1 X83.149 Y96.806 E13.94907
G1 X83.329 Y95.903 E13.98582
G1 X83.401 Y95.611 E13.99782
G1 X83.655 Y94.745 E14.03384
G1 X83.986 Y93.904 E14.06991
G1 X84.389 Y93.096 E14.10595
G1 X84.863 Y92.327 E14.14201
G1 X85.402 Y91.603 E14.17803
G1 X85.831 Y91.108 E14.20417
G1 X86.462 Y90.461 E14.24025
G1 F2400 E11.04025
;MESH:Guatemala.stl
G0 F9000 X93.815 Y104.17
G0 X94.996 Y103.961
G0 X95.42 Y104.552
G0 X100.24 Y112.411
G0 X105.948 Y112.222
G0 X107.258 Y112.229
G0 X108.106 Y112.302
G0 X108.65 Y112.519
G0 X108.844 Y112.92
G0 X109.127 Y114.315
G0 X109.176 Y115.029
G0 X109.108 Y115.613
G0 X108.871 Y116.128
G0 X104.494 Y122.562
G0 X103.878 Y123.016
G0 X105.102 Y123.752
G0 X105.094 Y124.05
;TYPE:WALL-OUTER
G1 F1440 E14.24025
G1 F1800 X101.338 Y123.939 E14.39022
G1 X100.693 Y123.921 E14.41597
G1 X101.236 Y123.572 E14.42942
G1 X102.143 Y122.99 E14.47244
G1 X103.929 Y121.775 E14.55865
G1 X105.247 Y120.7 E14.62653
G1 X106.212 Y119.659 E14.68319
G1 X106.928 Y118.554 E14.73574
G1 X107.253 Y117.985 E14.76189
G1 X107.62 Y117.405 E14.78929
G1 X107.98 Y116.882 E14.81463
G1 X108.665 Y116.003 E14.85911
G1 X108.875 Y115.548 E14.87911
G1 X108.936 Y115.024 E14.90016
G1 X108.889 Y114.34 E14.92753
G1 X108.818 Y113.836 E14.94784
G1 X108.617 Y113 E14.98216
G1 X108.476 Y112.705 E14.99521
G1 X108.051 Y112.537 E15.01345
G1 X107.248 Y112.468 E15.04562
G1 X105.95 Y112.461 E15.09742
G1 X104.061 Y112.512 E15.17284
G1 X100.131 Y112.651 E15.3298
G1 X99.312 Y111.635 E15.38188
G1 X98.926 Y111.14 E15.40694
G1 X98.527 Y110.597 E15.43383
G1 X98.165 Y110.075 E15.45918
G1 X97.637 Y109.259 E15.49798
G1 X97.198 Y108.721 E15.52569
G1 X97.09 Y108.653 E15.53078
G1 X96.76 Y108.187 E15.55357
G1 X96.172 Y107.044 E15.60488
G1 X95.625 Y105.829 E15.65806
G1 X95.383 Y105.086 E15.68925
G1 X95.208 Y104.666 E15.70741
G1 X94.816 Y104.086 E15.73535
G1 X94.572 Y103.744 E15.75211
G1 X94.476 Y103.523 E15.76173
G1 X94.481 Y103.364 E15.76808
G1 X94.589 Y103.135 E15.77818
G1 X94.878 Y102.393 E15.80997
G1 X94.885 Y101.582 E15.84234
G1 X94.615 Y100.807 E15.87509
G1 X94.098 Y100.165 E15.90799
G1 X93.747 Y99.814 E15.9278
G1 X93.543 Y99.503 E15.94265
G1 X93.436 Y99.17 E15.95661
G1 X93.402 Y98.752 E15.97335
G1 X93.423 Y98.354 E15.98925
G1 X93.478 Y98.142 E15.99799
G1 X93.536 Y98.077 E16.00147
G1 X93.681 Y98.043 E16.00742
G1 X94.489 Y97.895 E16.0402
G1 X95.456 Y97.487 E16.08209
G1 X96.546 Y96.832 E16.13285
G1 X97.762 Y95.933 E16.1932
G1 X98.462 Y95.352 E16.22951
G1 X99.037 Y94.831 E16.26048
G1 X99.439 Y94.416 E16.28354
G1 X99.602 Y94.157 E16.29575
G1 X99.779 Y93.664 E16.31666
G1 X100.207 Y93.257 E16.34023
G1 X100.832 Y92.951 E16.36801
G1 X101.553 Y92.831 E16.39718
G1 X102.029 Y92.792 E16.41624
G1 X102.584 Y92.681 E16.43883
G1 X103.133 Y92.519 E16.46168
G1 X103.65 Y92.301 E16.48407
G1 X104.185 Y92.08 E16.50718
G1 X104.859 Y91.931 E16.53473
G1 X105.788 Y91.852 E16.57194
G1 X108.189 Y91.797 E16.66779
G1 X109.136 Y91.744 E16.70565
G1 X109.874 Y91.671 E16.73525
G1 X110.294 Y91.583 E16.75237
G1 X111.002 Y91.36 E16.782
G1 X111.462 Y91.409 E16.80046
G1 X111.859 Y91.743 E16.82117
G1 X112.3 Y92.471 E16.85514
G1 X112.692 Y93.157 E16.88668
G1 X113.139 Y93.672 E16.91389
G1 X113.752 Y94.103 E16.9438
G1 X115.404 Y94.953 E17.01795
G1 X115.917 Y95.289 E17.04243
G1 X116.245 Y95.601 E17.0605
G1 X116.424 Y95.914 E17.07489
G1 X116.885 Y97.085 E17.12512
G1 X117.334 Y97.953 E17.16412
G1 X117.813 Y98.573 E17.19539
G1 X118.356 Y98.996 E17.22286
G1 X118.796 Y99.279 E17.24374
G1 X118.971 Y99.511 E17.25534
G1 X119.013 Y99.903 E17.27108
G1 X118.948 Y100.683 E17.30232
G1 X118.904 Y101.693 E17.34267
G1 X119.093 Y102.435 E17.37323
G1 X119.609 Y102.998 E17.40371
G1 X120.465 Y103.502 E17.44335
G1 X122.132 Y104.546 E17.52186
G1 X124.095 Y106.008 E17.61955
G1 X125.766 Y107.423 E17.70694
G1 X126.492 Y108.257 E17.75107
G1 X126.594 Y108.895 E17.77686
G1 X126.508 Y109.229 E17.79063
G1 X126.239 Y109.378 E17.8029
G1 X125.599 Y109.396 E17.82845
G1 X125.065 Y109.397 E17.84977
G1 X124.486 Y109.48 E17.87311
G1 X123.893 Y109.643 E17.89766
G1 X123.3 Y109.878 E17.92312
G1 X122.741 Y110.104 E17.94718
G1 X122.08 Y110.319 E17.97492
G1 X121.414 Y110.494 E18.00241
G1 X120.81 Y110.612 E18.02697
G1 X120.272 Y110.707 E18.04878
G1 X119.435 Y110.933 E18.08338
G1 X119.155 Y111.09 E18.09619
G1 X119.099 Y111.961 E18.13103
G1 X119.082 Y113.877 E18.2075
G1 X119.097 Y116.651 E18.31822
G1 X119.147 Y120.267 E18.46255
G1 X119.196 Y123.563 E18.59412
G1 X119.22 Y126.095 E18.69518
G1 X119.218 Y127.971 E18.77006
G1 X119.196 Y128.52 E18.79199
G1 X118.774 Y128.553 E18.80888
G1 X117.195 Y128.595 E18.87192
G1 X114.887 Y128.623 E18.96405
G1 X112.087 Y128.637 E19.0758
G1 X108.635 Y128.639 E19.21358
G1 X105.294 Y128.644 E19.34693
G1 X105.094 Y128.644 E19.35491
G1 X105.094 Y128.444 E19.36008
G1 X105.094 Y124.05 E19.53545
G0 F9000 X105.494 Y123.662
;TYPE:WALL-INNER
G1 F1800 X102.593 Y123.576 E19.65129
G1 X102.357 Y123.57 E19.66071
G1 X101.998 Y123.559 E19.67505
G1 X102.364 Y123.324 E19.68191
G1 X102.559 Y123.191 E19.6896
G1 X104.168 Y122.096 E19.76728
G1 X105.521 Y120.992 E19.83698
G1 X106.529 Y119.906 E19.89612
G1 X107.27 Y118.762 E19.95052
G1 X107.591 Y118.199 E19.97638
G1 X107.958 Y117.619 E20.00378
G1 X108.296 Y117.128 E20.02757
G1 X109.009 Y116.212 E20.0739
G1 X109.265 Y115.658 E20.09826
G1 X109.338 Y115.033 E20.12337
G1 X109.287 Y114.298 E20.15278
G1 X109.211 Y113.761 E20.17442
G1 X108.996 Y112.866 E20.21116
G1 X108.769 Y112.391 E20.23217
G1 X108.144 Y112.143 E20.25901
G1 X107.266 Y112.068 E20.29418
G1 X105.946 Y112.061 E20.34687
G1 X104.049 Y112.112 E20.42261
G1 X100.316 Y112.244 E20.57169
G1 X99.623 Y111.384 E20.61577
G1 X99.241 Y110.894 E20.64057
G1 X98.856 Y110.369 E20.66656
G1 X98.494 Y109.847 E20.69191
G1 X97.961 Y109.023 E20.73108
G1 X97.467 Y108.417 E20.76228
G1 X97.37 Y108.356 E20.76686
G1 X97.105 Y107.983 E20.78512
G1 X96.528 Y106.861 E20.83547
G1 X95.997 Y105.681 E20.88712
G1 X95.758 Y104.947 E20.91793
