;FLAVOR:Marlin
;TIME:960
;Filament used: 0.740161m
;Layer height: 0.2
;MINX:72.607
;MINY:86.348
;MINZ:0.24
;MAXX:147.372
;MAXY:133.638
;MAXZ:2.88
;Generated with Cura_SteamEngine 4.10.0
M82 ;absolute extrusion mode
M201 X500.00 Y500.00 Z100.00 E5000.00 ;Setup machine max acceleration
M203 X500.00 Y500.00 Z10.00 E50.00 ;Setup machine max feedrate
M204 P500.00 R1000.00 T500.00 ;Setup Print/Retract/Travel acceleration
M205 X8.00 Y8.00 Z0.40 E5.00 ;Setup Jerk
M220 S100 ;Reset Feedrate
M221 S100 ;Reset Flowrate

;*** Start Dual Nozzle/Bed Preheating ***
M140 S50 ; start preheating the bed
M104 S200 ?T0 ; start preheating hotend
M190 S50 ; heat to Cura Bed setting and WAIT
M109 S200 ?T0 ; heat to Cura Hotend and WAIT
;*** End Preheating ***

;*** Single Print Start Tone
M300 S1000 P500 ; chirp to indicate starting to print
;*** End Single Start Tone

G28 ;Home

G92 E0 ;Reset Extruder
G1 Z2.0 F3000 ;Move Z Axis up

G1 X10.1 Y20 Z0.28 F5000.0 ;Move to start position
G1 X10.1 Y200.0 Z0.28 F1500.0 E15 ;Draw the first line
G1 X10.4 Y200.0 Z0.28 F5000.0 ;Move to side a little
G1 X10.4 Y20 Z0.28 F1500.0 E30 ;Draw the second line
G92 E0 ;Reset Extruder
G1 Z2.0 F3000 ;Move Z Axis up
G92 E0
G92 E0
G1 F2400 E-3.2
;LAYER_COUNT:13
;LAYER:0
M106 S63.8
M204 S500
M205 X6 Y6
G0 F9000 X77.123 Y100.582 Z0.24
;TYPE:SKIRT
G1 F1440 E0
G1 F1800 X77.873 Y100.102 E0.03554
G1 X78.224 Y99.898 E0.05174
G1 X80.155 Y98.806 E0.14028
G1 X82.279 Y97.522 E0.23934
G1 X84.446 Y96.127 E0.3422
G1 X86.488 Y94.729 E0.44098
G1 X88.54 Y93.237 E0.54224
G1 X91.089 Y91.255 E0.67111
G1 X91.451 Y90.979 E0.68928
G1 X93.523 Y89.351 E0.79445
G1 X94.348 Y88.69 E0.83664
G1 X95.091 Y88.146 E0.87339
G1 X95.878 Y87.669 E0.91012
G1 X96.704 Y87.262 E0.94688
G1 X97.561 Y86.928 E0.98359
G1 X98.445 Y86.669 E1.02035
G1 X99.348 Y86.489 E1.0571
G1 X100.263 Y86.387 E1.09385
G1 X100.778 Y86.365 E1.11442
G1 X101.637 Y86.349 E1.14871
G1 X101.971 Y86.348 E1.16204
G1 X102.665 Y86.357 E1.18974
G1 X103.161 Y86.375 E1.20955
G1 X103.696 Y86.407 E1.23094
G1 X104.536 Y86.491 E1.26464
G1 X105.229 Y86.605 E1.29267
G1 X105.864 Y86.732 E1.31851
G1 X107.18 Y87.093 E1.37298
G1 X107.82 Y87.322 E1.40011
G1 X108.149 Y87.45 E1.4142
G1 X108.973 Y87.812 E1.45012
G1 X109.495 Y88.068 E1.47333
G1 X110.129 Y88.405 E1.50198
G1 X110.82 Y88.804 E1.53383
G1 X111.413 Y89.174 E1.56173
G1 X111.839 Y89.459 E1.58218
G1 X112.114 Y89.649 E1.59552
G1 X113.057 Y90.325 E1.64183
G1 X113.824 Y90.89 E1.67985
G1 X115.922 Y92.347 E1.7818
G1 X118.016 Y93.715 E1.88163
G1 X120.18 Y95.042 E1.98295
G1 X120.887 Y95.45 E2.01553
G1 X122.643 Y96.495 E2.09708
G1 X123.479 Y97.006 E2.13619
G1 X125.67 Y98.262 E2.23699
G1 X127.889 Y99.451 E2.33747
G1 X130.178 Y100.597 E2.43964
G1 X132.455 Y101.656 E2.53986
G1 X134.75 Y102.647 E2.63964
G1 X137.144 Y103.602 E2.74251
G1 X140.368 Y104.765 E2.8793
G1 X141.22 Y105.114 E2.91605
G1 X142.038 Y105.536 E2.95279
G1 X142.816 Y106.028 E2.98953
G1 X143.549 Y106.585 E3.02627
G1 X144.231 Y107.204 E3.06303
G1 X144.856 Y107.88 E3.09977
G1 X145.42 Y108.607 E3.1365
G1 X145.92 Y109.381 E3.17328
G1 X146.35 Y110.195 E3.21002
G1 X146.708 Y111.043 E3.24676
G1 X146.991 Y111.919 E3.2835
G1 X147.197 Y112.816 E3.32023
G1 X147.324 Y113.728 E3.35698
G1 X147.372 Y114.647 E3.39371
G1 X147.339 Y115.568 E3.4305
G1 X147.227 Y116.481 E3.46721
G1 X147.036 Y117.382 E3.50397
G1 X146.768 Y118.263 E3.54072
G1 X146.424 Y119.117 E3.57747
G1 X146.008 Y119.938 E3.6142
G1 X145.54 Y120.693 E3.64966
G1 X145.415 Y120.877 E3.65853
G1 X144.86 Y121.622 E3.69561
G1 X144.585 Y121.959 E3.71297
G1 X143.999 Y122.618 E3.74817
G1 X143.611 Y123.02 E3.77047
G1 X143.364 Y123.268 E3.78444
G1 X142.04 Y124.552 E3.85805
G1 X141.787 Y124.79 E3.87191
G1 X141.166 Y125.354 E3.9054
G1 X140.58 Y125.86 E3.9363
G1 X140.426 Y125.99 E3.94434
G1 X139.961 Y126.372 E3.96836
G1 X139.191 Y126.947 E4.00672
G1 X138.554 Y127.38 E4.03746
G1 X138.024 Y127.718 E4.06255
G1 X137.441 Y128.059 E4.0895
G1 X137.147 Y128.219 E4.10286
G1 X136.392 Y128.617 E4.13693
G1 X135.737 Y128.943 E4.16613
G1 X134.788 Y129.387 E4.20795
G1 X134.497 Y129.518 E4.22068
G1 X134.032 Y129.719 E4.2409
G1 X133.89 Y129.79 E4.24724
G1 X130.993 Y131.081 E4.37382
G1 X130.117 Y131.492 E4.41244
G1 X129.268 Y131.847 E4.44917
G1 X128.39 Y132.126 E4.48594
G1 X127.623 Y132.304 E4.51737
G1 X126.987 Y132.422 E4.54319
G1 X126.533 Y132.495 E4.56154
G1 X125.348 Y132.617 E4.60908
G1 X124.518 Y132.656 E4.64225
G1 X121.934 Y132.814 E4.74557
G1 X119.398 Y133.042 E4.8472
G1 X115.758 Y133.494 E4.9936
G1 X115.462 Y133.536 E5.00553
G1 X114.546 Y133.627 E5.04227
G1 X113.625 Y133.638 E5.07903
G1 X113.059 Y133.604 E5.10166
G1 X112.393 Y133.547 E5.12834
G1 X111.607 Y133.46 E5.1599
G1 X111.326 Y133.423 E5.17121
G1 X110.68 Y133.329 E5.19727
G1 X108.08 Y132.988 E5.30193
G1 X105.54 Y132.727 E5.40384
G1 X103.02 Y132.54 E5.50469
G1 X100.49 Y132.424 E5.60578
G1 X97.962 Y132.38 E5.70669
G1 X96.533 Y132.386 E5.76373
G1 X95.642 Y132.397 E5.79929
G1 X94.721 Y132.369 E5.83607
G1 X94.129 Y132.308 E5.85982
G1 X93.741 Y132.257 E5.87544
G1 X92.834 Y132.097 E5.9122
G1 X91.52 Y131.716 E5.9668
G1 X91.174 Y131.591 E5.98149
G1 X90.323 Y131.241 E6.01821
G1 X89.191 Y130.631 E6.06953
G1 X87.623 Y129.659 E6.14317
G1 X86.506 Y128.863 E6.19791
G1 X86.294 Y128.69 E6.20883
G1 X85.773 Y128.235 E6.23644
G1 X84.919 Y127.44 E6.28301
G1 X84.676 Y127.225 E6.29596
G1 X84.136 Y126.716 E6.32557
G1 X82.264 Y125.049 E6.42562
G1 X80.294 Y123.391 E6.52839
G1 X78.783 Y122.182 E6.60562
G1 X78.089 Y121.576 E6.6424
G1 X77.311 Y120.75 E6.68769
G1 X77.015 Y120.4 E6.70598
G1 X76.452 Y119.672 E6.74271
G1 X75.954 Y118.898 E6.77945
G1 X75.417 Y117.847 E6.82655
G1 X74.816 Y116.491 E6.88575
G1 X74.009 Y114.632 E6.96664
G1 X73.575 Y113.687 E7.00814
G1 X73.227 Y112.834 E7.04491
G1 X72.955 Y111.955 E7.08163
G1 X72.76 Y111.055 E7.11839
G1 X72.644 Y110.141 E7.15516
G1 X72.607 Y109.222 E7.19187
G1 X72.651 Y108.302 E7.22863
G1 X72.774 Y107.39 E7.26536
G1 X72.976 Y106.491 E7.30214
G1 X73.255 Y105.614 E7.33887
G1 X73.609 Y104.764 E7.37562
G1 X74.035 Y103.948 E7.41236
G1 X74.531 Y103.172 E7.44912
G1 X75.092 Y102.442 E7.48586
G1 X75.714 Y101.764 E7.52258
G1 X76.393 Y101.142 E7.55934
G1 X77.123 Y100.582 E7.59606
G0 F9000 X77.581 Y100.754
G1 F1800 X78.074 Y100.447 E7.61924
G1 X78.421 Y100.247 E7.63522
G1 X80.327 Y99.169 E7.72262
G1 X82.506 Y97.852 E7.82424
G1 X84.658 Y96.466 E7.9264
G1 X86.727 Y95.05 E8.02647
G1 X88.771 Y93.564 E8.12733
G1 X91.332 Y91.573 E8.2568
G1 X91.657 Y91.325 E8.27312
G1 X93.733 Y89.695 E8.37846
G1 X94.598 Y89.002 E8.4227
G1 X95.327 Y88.469 E8.45874
G1 X96.1 Y88.003 E8.49477
G1 X96.912 Y87.607 E8.53083
G1 X97.755 Y87.284 E8.56686
G1 X98.624 Y87.038 E8.6029
G1 X99.511 Y86.869 E8.63894
G1 X100.785 Y86.765 E8.68996
G1 X101.644 Y86.749 E8.72425
G1 X101.966 Y86.748 E8.7371
G1 X102.66 Y86.757 E8.7648
G1 X103.137 Y86.774 E8.78385
G1 X103.672 Y86.806 E8.80524
G1 X104.481 Y86.887 E8.83769
G1 X105.159 Y86.999 E8.86512
G1 X105.783 Y87.123 E8.89051
G1 X107.049 Y87.471 E8.94292
G1 X107.675 Y87.695 E8.96945
G1 X108.004 Y87.823 E8.98354
G1 X108.797 Y88.171 E9.01811
G1 X109.319 Y88.427 E9.04131
G1 X109.928 Y88.752 E9.06886
G1 X110.619 Y89.151 E9.10071
G1 X111.191 Y89.506 E9.12758
G1 X111.617 Y89.791 E9.14804
G1 X111.881 Y89.974 E9.16086
G1 X112.82 Y90.647 E9.20697
G1 X113.604 Y91.225 E9.24584
G1 X115.681 Y92.667 E9.34676
G1 X117.81 Y94.058 E9.44826
G1 X119.966 Y95.38 E9.5492
G1 X120.682 Y95.794 E9.58221
G1 X122.434 Y96.837 E9.66359
G1 X123.251 Y97.336 E9.7018
G1 X125.488 Y98.619 E9.80473
G1 X127.7 Y99.804 E9.90488
G1 X129.967 Y100.939 E10.00607
G1 X132.307 Y102.028 E10.10908
G1 X134.623 Y103.028 E10.20977
G1 X136.987 Y103.971 E10.31135
G1 X140.232 Y105.141 E10.44903
G1 X141.067 Y105.485 E10.48507
G1 X141.869 Y105.901 E10.52113
G1 X142.63 Y106.386 E10.55715
G1 X143.346 Y106.937 E10.59321
G1 X144.01 Y107.549 E10.62925
G1 X144.617 Y108.218 E10.6653
G1 X145.163 Y108.937 E10.70133
G1 X145.643 Y109.702 E10.73738
G1 X146.054 Y110.506 E10.77342
G1 X146.391 Y111.344 E10.80947
G1 X146.654 Y112.208 E10.84551
G1 X146.839 Y113.092 E10.88156
G1 X146.945 Y113.989 E10.91761
G1 X146.971 Y114.892 E10.95367
G1 X146.917 Y115.793 E10.98969
G1 X146.784 Y116.686 E11.02573
G1 X146.572 Y117.564 E11.06178
G1 X146.283 Y118.42 E11.09784
G1 X145.92 Y119.247 E11.13388
G1 X145.485 Y120.039 E11.16995
G1 X145.209 Y120.468 E11.19031
G1 X145.084 Y120.652 E11.19919
G1 X144.55 Y121.369 E11.23487
G1 X144.275 Y121.706 E11.25223
G1 X143.711 Y122.341 E11.28613
G1 X143.323 Y122.743 E11.30843
G1 X143.085 Y122.981 E11.32186
G1 X141.761 Y124.265 E11.39547
G1 X141.518 Y124.494 E11.4088
G1 X140.897 Y125.058 E11.44228
G1 X140.32 Y125.556 E11.4727
G1 X140.172 Y125.681 E11.48043
G1 X139.707 Y126.063 E11.50445
G1 X138.966 Y126.617 E11.54138
G1 X138.329 Y127.05 E11.57212
G1 X137.819 Y127.374 E11.59623
G1 X137.247 Y127.709 E11.62269
G1 X136.961 Y127.865 E11.63569
G1 X136.206 Y128.263 E11.66976
G1 X135.567 Y128.581 E11.69825
G1 X134.618 Y129.025 E11.74006
G1 X133.912 Y129.335 E11.77084
G1 X133.727 Y129.425 E11.77905
G1 X130.818 Y130.722 E11.90617
G1 X129.947 Y131.13 E11.94456
G1 X129.114 Y131.477 E11.98058
G1 X128.252 Y131.749 E12.01665
G1 X127.547 Y131.911 E12.04552
G1 X126.923 Y132.027 E12.07086
G1 X126.469 Y132.1 E12.08921
G1 X125.329 Y132.218 E12.13495
G1 X124.477 Y132.258 E12.16899
G1 X121.873 Y132.418 E12.27312
G1 X119.374 Y132.642 E12.37326
G1 X115.702 Y133.098 E12.52094
G1 X115.405 Y133.14 E12.53292
G1 X114.507 Y133.228 E12.56893
G1 X113.604 Y133.237 E12.60497
G1 X113.093 Y133.206 E12.6254
G1 X112.427 Y133.149 E12.65208
G1 X111.654 Y133.063 E12.68313
G1 X111.384 Y133.027 E12.694
G1 X110.723 Y132.931 E12.72066
G1 X108.137 Y132.592 E12.82475
G1 X105.577 Y132.329 E12.92746
G1 X103.032 Y132.139 E13.02932
G1 X100.515 Y132.024 E13.12989
G1 X97.967 Y131.98 E13.2316
G1 X96.526 Y131.986 E13.28911
G1 X95.637 Y131.997 E13.3246
G1 X94.734 Y131.968 E13.36066
G1 X94.181 Y131.911 E13.38285
G1 X93.793 Y131.86 E13.39846
G1 X92.903 Y131.703 E13.43453
G1 X91.656 Y131.34 E13.48637
G1 X91.31 Y131.215 E13.50105
G1 X90.475 Y130.871 E13.5371
G1 X89.402 Y130.291 E13.58578
G1 X87.834 Y129.319 E13.65941
G1 X86.759 Y128.553 E13.71209
G1 X86.547 Y128.38 E13.72302
G1 X86.046 Y127.943 E13.74955
G1 X85.057 Y127.022 E13.80349
G1 X84.951 Y126.934 E13.80899
G1 X84.43 Y126.443 E13.83756
G1 X82.504 Y124.728 E13.94049
G1 X80.538 Y123.073 E14.04306
G1 X79.033 Y121.869 E14.11998
G1 X78.353 Y121.274 E14.15605
G1 X77.617 Y120.492 E14.19891
G1 X77.321 Y120.142 E14.2172
G1 X76.769 Y119.427 E14.25325
G1 X76.282 Y118.666 E14.28931
G1 X75.782 Y117.685 E14.33326
G1 X75.183 Y116.331 E14.39235
G1 X74.39 Y114.503 E14.47188
G1 X73.938 Y113.52 E14.51506
G1 X73.598 Y112.683 E14.55112
G1 X73.333 Y111.82 E14.58715
G1 X73.145 Y110.936 E14.62323
G1 X73.037 Y110.04 E14.65925
G1 X73.008 Y109.137 E14.6953
G1 X73.059 Y108.235 E14.73136
G1 X73.189 Y107.342 E14.76738
G1 X73.399 Y106.463 E14.80345
G1 X73.685 Y105.607 E14.83947
G1 X74.045 Y104.779 E14.87551
G1 X74.478 Y103.986 E14.91157
G1 X74.979 Y103.234 E14.94763
G1 X75.544 Y102.53 E14.98366
G1 X76.169 Y101.879 E15.01968
G1 X76.85 Y101.285 E15.05575
G1 X77.581 Y100.754 E15.09181
G1 F2400 E11.89181
;MESH:Honduras.stl
G0 F9000 X84.351 Y108.519
G0 X84.521 Y109.576
G0 X84.643 Y109.603
G0 X83.857 Y109.416
;TYPE:WALL-OUTER
G1 F1440 E15.09181
G1 F1800 X84.24 Y109.392 E15.10712
G1 X84.427 Y109.38 E15.1146
G1 X84.535 Y109.366 E15.11895
G1 X85.143 Y109.284 E15.14344
G1 X85.839 Y109.042 E15.17285
G1 X86.638 Y108.602 E15.20925
G1 X87.682 Y107.903 E15.2594
G1 X88.488 Y107.299 E15.2996
G1 X89.231 Y106.672 E15.3384
G1 X89.832 Y106.093 E15.37171
G1 X90.242 Y105.59 E15.39761
G1 X90.719 Y105.015 E15.42743
G1 X91.323 Y104.72 E15.45425
G1 X92.174 Y104.694 E15.48824
G1 X93.404 Y104.943 E15.53832
G1 X94.267 Y105.156 E15.5738
G1 X94.873 Y105.238 E15.59821
G1 X95.354 Y105.175 E15.61757
G1 X95.823 Y104.973 E15.63795
G1 X96.555 Y104.46 E15.67363
G1 X96.928 Y104.124 E15.69366
G1 X97.251 Y103.779 E15.71253
G1 X97.612 Y103.288 E15.73685
G1 X97.828 Y102.769 E15.75929
G1 X97.926 Y102.11 E15.78588
G1 X97.948 Y101.187 E15.82273
G1 X97.948 Y99.678 E15.88296
G1 X99.163 Y99.577 E15.93162
G1 X100.131 Y99.438 E15.97065
G1 X100.774 Y99.135 E15.99902
G1 X101.1 Y98.573 E16.02495
G1 X101.179 Y97.763 E16.05743
G1 X101.182 Y97.144 E16.08214
G1 X102.345 Y97.144 E16.12855
G1 X103.065 Y97.18 E16.15733
G1 X103.665 Y97.295 E16.18171
G1 X104.288 Y97.526 E16.20823
G1 X105 Y97.892 E16.24018
G1 X105.514 Y98.203 E16.26416
G1 X105.947 Y98.504 E16.28521
G1 X106.297 Y98.839 E16.30454
G1 X106.312 Y99.123 E16.3159
G1 X106.33 Y99.736 E16.34037
G1 X106.345 Y100.557 E16.37315
G1 X106.359 Y101.513 E16.41131
G1 X106.384 Y102.596 E16.45454
G1 X106.453 Y103.354 E16.48492
G1 X106.596 Y103.823 E16.50449
G1 X106.882 Y104.021 E16.51837
G1 X107.322 Y104.064 E16.53602
G1 X107.98 Y104.117 E16.56237
G1 X108.839 Y104.18 E16.59674
G1 X109.842 Y104.25 E16.63687
G1 X111.115 Y104.349 E16.68783
G1 X111.915 Y104.5 E16.72033
G1 X112.432 Y104.78 E16.74379
G1 X113.45 Y105.706 E16.79872
G1 X113.849 Y106.025 E16.81911
G1 X114.191 Y106.251 E16.83547
G1 X114.478 Y106.36 E16.84772
G1 X114.94 Y106.219 E16.867
G1 X115.479 Y105.921 E16.89158
G1 X115.996 Y105.552 E16.91693
G1 X116.288 Y105.272 E16.93308
G1 X116.324 Y105.324
G1 X116.569 Y105.677 E16.95023
G1 X116.921 Y106.193 E16.97516
G1 X117.495 Y106.736 E17.0067
G1 X118.362 Y107.365 E17.04945
G1 X119.6 Y108.153 E17.10802
G1 X120.111 Y108.556 E17.13399
G1 X120.39 Y108.931 E17.15265
G1 X120.851 Y109.798 E17.19184
G1 X121.612 Y110.926 E17.24615
G1 X122.407 Y111.952 E17.29795
G1 X123.001 Y112.533 E17.33112
G1 X123.595 Y112.768 E17.35661
G1 X124.148 Y112.764 E17.37868
G1 X124.714 Y112.502 E17.40358
G1 X125.395 Y111.965 E17.43819
G1 X125.865 Y111.575 E17.46257
G1 X126.203 Y111.414 E17.47751
G1 X126.622 Y111.419 E17.49423
G1 X127.37 Y111.58 E17.52477
G1 X127.91 Y111.739 E17.54724
G1 X128.453 Y111.952 E17.57052
G1 X128.935 Y112.19 E17.59197
G1 X129.285 Y112.423 E17.60876
G1 X129.692 Y112.717 E17.6288
G1 X130.292 Y113.094 E17.65708
G1 X130.999 Y113.503 E17.68968
G1 X131.736 Y113.896 E17.72301
G1 X132.703 Y114.357 E17.76577
G1 X133.497 Y114.637 E17.79937
G1 X134.273 Y114.772 E17.83081
G1 X135.233 Y114.807 E17.86915
G1 X135.847 Y114.818 E17.89366
G1 X136.122 Y114.835 E17.90466
G1 X136.253 Y114.843 E17.9099
G1 X136.448 Y114.856 E17.9177
G1 X136.236 Y115.124 E17.92511
G1 X136.144 Y115.217 E17.92962
G1 X135.241 Y116.127 E17.98078
G1 X134.046 Y117.242 E18.04602
G1 X133.021 Y118.108 E18.09957
G1 X132.423 Y118.496 E18.12802
G1 X131.55 Y118.972 E18.16771
G1 X130.544 Y119.46 E18.21234
G1 X129.494 Y119.914 E18.25799
G1 X128.457 Y120.345 E18.30282
G1 X127.474 Y120.777 E18.34567
G1 X126.654 Y121.16 E18.38179
G1 X126.118 Y121.44 E18.40593
G1 X125.56 Y121.712 E18.4307
G1 X124.844 Y121.838 E18.45972
G1 X123.541 Y121.849 E18.51173
G1 X118.88 Y121.672 E18.69789
G1 X117.525 Y121.689 E18.75198
G1 X116.709 Y121.871 E18.78535
G1 X115.994 Y122.247 E18.81759
G1 X114.978 Y122.689 E18.86181
G1 X113.936 Y122.854 E18.90392
G1 X112.898 Y122.748 E18.94556
G1 X111.854 Y122.353 E18.99011
G1 X108.782 Y121.617 E19.11619
G1 X103.927 Y121.1 E19.31106
G1 X99.222 Y120.94 E19.49896
G1 X96.59 Y121.276 E19.60486
G1 X96.039 Y121.529 E19.62906
G1 X95.491 Y121.606 E19.65114
G1 X95.003 Y121.533 E19.67084
G1 X94.657 Y121.314 E19.68718
G1 X94.224 Y120.971 E19.70923
G1 X93.598 Y120.641 E19.73747
G1 X93.327 Y120.499 E19.74968
G1 X93.124 Y120.336 E19.76008
G1 X93.011 Y120.185 E19.7676
G1 X92.91 Y119.766 E19.7848
G1 X92.525 Y119.051 E19.81722
G1 X92.246 Y118.682 E19.83568
G1 X91.108 Y117.629 E19.89756
G1 X89.307 Y116.212 E19.98902
G1 X87.42 Y114.858 E20.08172
G1 X86.022 Y114.006 E20.14706
G1 X85.502 Y113.734 E20.17049
G1 X85.292 Y113.478 E20.1837
G1 X85.225 Y112.942 E20.20526
G1 X85.256 Y111.751 E20.25281
G1 X85.269 Y110.969 E20.28403
G1 X85.164 Y110.41 E20.30673
G1 X84.832 Y110.019 E20.3272
G1 X84.348 Y109.71 E20.35012
G1 X84.257 Y109.652 E20.35339
G1 X83.857 Y109.416 E20.36099
G1 F2400 E17.16099
G0 F9000 X84.599 Y109.593
G0 X86.084 Y109.995
G0 X86.217 Y113.008
G0 X93.921 Y119.71
G0 X95.35 Y120.603
G0 X108.948 Y120.659
