;FLAVOR:Marlin
;TIME:1155
;Filament used: 0.794987m
;Layer height: 0.2
;MINX:80.42
;MINY:80.507
;MINZ:0.24
;MAXX:139.585
;MAXY:139.502
;MAXZ:2.88
;Generated with Cura_SteamEngine 4.10.0
M82 ;absolute extrusion mode
M201 X500.00 Y500.00 Z100.00 E5000.00 ;Setup machine max acceleration
M203 X500.00 Y500.00 Z10.00 E50.00 ;Setup machine max feedrate
M204 P500.00 R1000.00 T500.00 ;Setup Print/Retract/Travel acceleration
M205 X8.00 Y8.00 Z0.40 E5.00 ;Setup Jerk
M220 S100 ;Reset Feedrate
M221 S100 ;Reset Flowrate

;*** Start Dual Nozzle/Bed Preheating ***
M140 S50 ; start preheating the bed
M104 S200 ?T0 ; start preheating hotend
M190 S50 ; heat to Cura Bed setting and WAIT
M109 S200 ?T0 ; heat to Cura Hotend and WAIT
;*** End Preheating ***

;*** Single Print Start Tone
M300 S1000 P500 ; chirp to indicate starting to print
;*** End Single Start Tone

G28 ;Home

G92 E0 ;Reset Extruder
G1 Z2.0 F3000 ;Move Z Axis up

G1 X10.1 Y20 Z0.28 F5000.0 ;Move to start position
G1 X10.1 Y200.0 Z0.28 F1500.0 E15 ;Draw the first line
G1 X10.4 Y200.0 Z0.28 F5000.0 ;Move to side a little
G1 X10.4 Y20 Z0.28 F1500.0 E30 ;Draw the second line
G92 E0 ;Reset Extruder
G1 Z2.0 F3000 ;Move Z Axis up
G92 E0
G92 E0
G1 F2400 E-3.2
;LAYER_COUNT:13
;LAYER:0
M106 S63.8
M204 S500
M205 X6 Y6
G0 F9000 X93.368 Y92.186 Z0.24
;TYPE:SKIRT
G1 F1440 E0
G1 F1800 X93.571 Y91.98 E0.01154
G1 X94.82 Y90.747 E0.08159
G1 X95.763 Y89.786 E0.13533
G1 X96.844 Y88.671 E0.19731
G1 X97.383 Y88.131 E0.22776
G1 X97.782 Y87.75 E0.24978
G1 X98.288 Y87.303 E0.27673
G1 X98.554 Y87.08 E0.29058
G1 X99.091 Y86.639 E0.31832
G1 X99.827 Y86.086 E0.35506
G1 X100.608 Y85.6 E0.39178
G1 X101.429 Y85.182 E0.42855
G1 X102.05 Y84.923 E0.4554
G1 X102.752 Y84.665 E0.48525
G1 X103.22 Y84.508 E0.50495
G1 X104.342 Y84.199 E0.5514
G1 X104.768 Y84.106 E0.56881
G1 X107.215 Y83.541 E0.66904
G1 X110.692 Y82.613 E0.81267
G1 X111.174 Y82.478 E0.83265
G1 X111.932 Y82.287 E0.86385
G1 X112.912 Y82.069 E0.90392
G1 X113.47 Y81.964 E0.92658
G1 X114.875 Y81.739 E0.98337
G1 X115.217 Y81.689 E0.99717
G1 X117.669 Y81.257 E1.09654
G1 X118.996 Y80.98 E1.15064
G1 X120.375 Y80.707 E1.20675
G1 X121.286 Y80.567 E1.24354
G1 X122.204 Y80.507 E1.28026
G1 X123.125 Y80.528 E1.31702
G1 X124.193 Y80.652 E1.35994
G1 X124.294 Y80.669 E1.36402
G1 X124.864 Y80.781 E1.38721
G1 X125.126 Y80.84 E1.39793
G1 X126.396 Y81.211 E1.45074
G1 X126.698 Y81.32 E1.46355
G1 X127.315 Y81.565 E1.49005
G1 X128.15 Y81.927 E1.52637
G1 X128.881 Y82.268 E1.55856
G1 X129.451 Y82.554 E1.58402
G1 X130.173 Y82.934 E1.61658
G1 X130.396 Y83.055 E1.62671
G1 X130.893 Y83.332 E1.64942
G1 X131.677 Y83.815 E1.68617
G1 X132.417 Y84.364 E1.72294
G1 X133.105 Y84.975 E1.75967
G1 X133.738 Y85.643 E1.7964
G1 X134.311 Y86.364 E1.83316
G1 X134.819 Y87.132 E1.86991
G1 X135.258 Y87.941 E1.90665
G1 X135.626 Y88.785 E1.94339
G1 X135.919 Y89.658 E1.98015
G1 X136.135 Y90.552 E2.01686
G1 X136.307 Y91.848 E2.06904
G1 X136.359 Y92.592 E2.0988
G1 X136.579 Y95.182 E2.20255
G1 X136.862 Y97.674 E2.30265
G1 X137.222 Y100.199 E2.40445
G1 X137.647 Y102.678 E2.50483
G1 X137.892 Y104.004 E2.55865
G1 X138.019 Y104.916 E2.5954
G1 X138.058 Y105.497 E2.61864
G1 X138.084 Y106.164 E2.64528
G1 X138.128 Y107.828 E2.71172
G1 X138.266 Y110.352 E2.81261
G1 X138.475 Y112.857 E2.91294
G1 X138.755 Y115.373 E3.01398
G1 X139.109 Y117.892 E3.1155
G1 X139.241 Y118.687 E3.14767
G1 X139.323 Y119.225 E3.16939
G1 X139.372 Y119.585 E3.18389
G1 X139.493 Y120.615 E3.22528
G1 X139.55 Y121.239 E3.25029
G1 X139.585 Y122.159 E3.28704
G1 X139.566 Y122.731 E3.30988
G1 X139.509 Y123.677 E3.3477
G1 X139.393 Y126.249 E3.45046
G1 X139.377 Y127.596 E3.50423
G1 X139.364 Y127.83 E3.51358
G1 X139.34 Y129.09 E3.56388
G1 X139.283 Y130.009 E3.60063
G1 X139.146 Y130.919 E3.63736
G1 X138.93 Y131.814 E3.67411
G1 X138.638 Y132.687 E3.71085
G1 X138.271 Y133.532 E3.74762
G1 X137.832 Y134.341 E3.78435
G1 X137.324 Y135.109 E3.8211
G1 X136.752 Y135.83 E3.85784
G1 X136.12 Y136.499 E3.89457
G1 X135.431 Y137.111 E3.93135
G1 X134.693 Y137.66 E3.96806
G1 X133.909 Y138.143 E4.00481
G1 X133.086 Y138.557 E4.04158
G1 X132.231 Y138.897 E4.07831
G1 X131.349 Y139.162 E4.11506
G1 X130.448 Y139.35 E4.1518
G1 X129.534 Y139.458 E4.18853
G1 X128.939 Y139.486 E4.21231
G1 X128.132 Y139.501 E4.24452
G1 X127.793 Y139.502 E4.25805
G1 X127.271 Y139.495 E4.27889
G1 X126.61 Y139.471 E4.30529
G1 X126.017 Y139.434 E4.329
G1 X124.788 Y139.275 E4.37846
G1 X124.213 Y139.166 E4.40182
G1 X123.386 Y138.982 E4.43564
G1 X122.407 Y138.73 E4.47598
G1 X121.55 Y138.499 E4.51141
G1 X119.091 Y137.91 E4.61233
G1 X116.628 Y137.391 E4.71279
G1 X114.77 Y137.067 E4.78807
G1 X113.564 Y136.843 E4.83702
G1 X112.667 Y136.635 E4.87378
G1 X111.792 Y136.351 E4.91049
G1 X110.944 Y135.992 E4.94725
G1 X109.95 Y135.452 E4.99239
G1 X108.992 Y134.862 E5.0373
G1 X108.629 Y134.632 E5.05445
G1 X106.44 Y133.323 E5.15625
G1 X104.254 Y132.1 E5.25622
G1 X101.997 Y130.919 E5.35789
G1 X99.738 Y129.818 E5.45819
G1 X97.45 Y128.782 E5.55844
G1 X96.16 Y128.24 E5.61428
G1 X95.427 Y127.921 E5.64619
G1 X94.6 Y127.518 E5.68291
G1 X93.81 Y127.044 E5.71968
G1 X93.065 Y126.503 E5.75643
G1 X92.665 Y126.169 E5.77722
G1 X92.038 Y125.617 E5.81056
G1 X90.986 Y124.667 E5.86714
G1 X89.069 Y123.031 E5.96773
G1 X87.087 Y121.436 E6.06927
G1 X85.121 Y119.941 E6.16784
G1 X84.726 Y119.649 E6.18745
G1 X84.01 Y119.071 E6.22417
G1 X83.346 Y118.432 E6.26095
G1 X82.74 Y117.739 E6.2977
G1 X82.197 Y116.996 E6.33443
G1 X81.72 Y116.208 E6.37119
G1 X81.314 Y115.382 E6.40793
G1 X80.98 Y114.524 E6.44467
G1 X80.722 Y113.64 E6.48143
G1 X80.542 Y112.737 E6.51818
G1 X80.441 Y111.822 E6.55492
G1 X80.42 Y110.902 E6.59165
G1 X80.479 Y109.983 E6.6284
G1 X80.617 Y109.073 E6.66514
G1 X80.834 Y108.178 E6.70189
G1 X81.127 Y107.306 E6.73861
G1 X81.495 Y106.462 E6.77536
G1 X81.906 Y105.703 E6.80981
G1 X82.211 Y105.192 E6.83356
G1 X82.72 Y104.369 E6.87218
G1 X83.07 Y103.791 E6.89915
G1 X83.74 Y102.813 E6.94647
G1 X84.172 Y102.269 E6.97419
G1 X84.626 Y101.732 E7.00226
G1 X84.984 Y101.325 E7.02389
G1 X85.18 Y101.111 E7.03548
G1 X86.294 Y99.929 E7.1003
G1 X86.704 Y99.507 E7.12378
G1 X88.51 Y97.592 E7.22884
G1 X90.53 Y95.315 E7.35033
G1 X91.001 Y94.766 E7.3792
G1 X91.605 Y94.073 E7.41589
G1 X92.233 Y93.376 E7.45334
G1 X92.444 Y93.15 E7.46568
G1 X93.368 Y92.186 E7.51897
G0 F9000 X93.656 Y92.463
G1 F1800 X93.852 Y92.265 E7.53009
G1 X95.104 Y91.029 E7.60031
G1 X95.998 Y90.118 E7.65125
G1 X97.127 Y88.953 E7.716
G1 X97.666 Y88.413 E7.74646
G1 X98.05 Y88.047 E7.76763
G1 X98.545 Y87.609 E7.79401
G1 X98.808 Y87.389 E7.80769
G1 X99.345 Y86.948 E7.83543
G1 X100.067 Y86.407 E7.87144
G1 X100.835 Y85.931 E7.9075
G1 X101.642 Y85.525 E7.94356
G1 X102.192 Y85.297 E7.96732
G1 X102.879 Y85.045 E7.99652
G1 X103.347 Y84.888 E8.01623
G1 X104.427 Y84.59 E8.06094
G1 X104.864 Y84.495 E8.07879
G1 X107.298 Y83.933 E8.17849
G1 X110.783 Y83.002 E8.32247
G1 X111.274 Y82.865 E8.34281
G1 X112.019 Y82.677 E8.37348
G1 X112.994 Y82.46 E8.41334
G1 X113.534 Y82.359 E8.43527
G1 X114.933 Y82.135 E8.49182
G1 X115.273 Y82.085 E8.50553
G1 X117.729 Y81.652 E8.60507
G1 X119.074 Y81.372 E8.6599
G1 X120.453 Y81.099 E8.71601
G1 X121.346 Y80.963 E8.75206
G1 X122.247 Y80.907 E8.78809
G1 X123.15 Y80.93 E8.82415
G1 X124.127 Y81.046 E8.86341
G1 X124.228 Y81.063 E8.8675
G1 X124.776 Y81.171 E8.88979
G1 X125.038 Y81.23 E8.90051
G1 X126.26 Y81.587 E8.95132
G1 X126.562 Y81.696 E8.96414
G1 X127.156 Y81.932 E8.98965
G1 X127.991 Y82.294 E9.02597
G1 X128.709 Y82.629 E9.0576
G1 X129.265 Y82.908 E9.08242
G1 X129.987 Y83.288 E9.11499
G1 X130.202 Y83.404 E9.12474
G1 X130.699 Y83.681 E9.14745
G1 X131.467 Y84.156 E9.18349
G1 X132.191 Y84.696 E9.21954
G1 X132.864 Y85.298 E9.25558
G1 X133.481 Y85.957 E9.29161
G1 X134.038 Y86.669 E9.32769
G1 X134.529 Y87.426 E9.3637
G1 X134.951 Y88.225 E9.39976
G1 X135.301 Y89.057 E9.43579
G1 X135.576 Y89.917 E9.47183
G1 X135.774 Y90.799 E9.50791
G1 X135.908 Y91.876 E9.55122
G1 X135.958 Y92.586 E9.57963
G1 X136.182 Y95.225 E9.68534
G1 X136.468 Y97.744 E9.78652
G1 X136.825 Y100.253 E9.88767
G1 X137.255 Y102.757 E9.98907
G1 X137.499 Y104.077 E10.04265
G1 X137.623 Y104.971 E10.07867
G1 X137.659 Y105.513 E10.10035
G1 X137.684 Y106.175 E10.12679
G1 X137.728 Y107.823 E10.19259
G1 X137.867 Y110.376 E10.29464
G1 X138.08 Y112.93 E10.39693
G1 X138.356 Y115.407 E10.4964
G1 X138.717 Y117.972 E10.59979
G1 X138.846 Y118.747 E10.63114
G1 X138.928 Y119.285 E10.65286
G1 X138.974 Y119.632 E10.66684
G1 X139.095 Y120.662 E10.70823
G1 X139.151 Y121.271 E10.73264
G1 X139.185 Y122.174 E10.7687
G1 X139.167 Y122.707 E10.78999
G1 X139.112 Y123.635 E10.82709
G1 X138.993 Y126.257 E10.93185
G1 X138.977 Y127.591 E10.9851
G1 X138.964 Y127.827 E10.99453
G1 X138.94 Y129.082 E11.04463
G1 X138.883 Y129.984 E11.0807
G1 X138.746 Y130.876 E11.11672
G1 X138.531 Y131.753 E11.15276
G1 X138.239 Y132.608 E11.18882
G1 X137.873 Y133.434 E11.22488
G1 X137.435 Y134.223 E11.2609
G1 X136.929 Y134.971 E11.29694
G1 X136.359 Y135.672 E11.333
G1 X135.729 Y136.319 E11.36904
G1 X135.044 Y136.908 E11.4051
G1 X134.31 Y137.434 E11.44114
G1 X133.533 Y137.893 E11.47716
G1 X132.717 Y138.281 E11.51322
G1 X131.871 Y138.596 E11.54925
G1 X131 Y138.835 E11.5853
G1 X130.111 Y138.996 E11.62136
G1 X128.932 Y139.086 E11.66855
G1 X128.125 Y139.101 E11.70077
G1 X127.798 Y139.102 E11.71382
G1 X127.276 Y139.095 E11.73466
G1 X126.627 Y139.072 E11.76057
G1 X126.045 Y139.035 E11.78385
G1 X124.862 Y138.882 E11.83146
G1 X124.287 Y138.773 E11.85482
G1 X123.485 Y138.594 E11.88762
G1 X122.511 Y138.344 E11.92775
G1 X121.642 Y138.11 E11.96367
G1 X119.195 Y137.523 E12.0641
G1 X116.69 Y136.996 E12.16627
G1 X114.843 Y136.673 E12.24111
G1 X113.637 Y136.449 E12.29007
G1 X112.758 Y136.245 E12.32608
G1 X111.899 Y135.964 E12.36215
G1 X111.069 Y135.608 E12.3982
G1 X110.159 Y135.111 E12.43958
G1 X109.334 Y134.604 E12.47823
G1 X108.855 Y134.3 E12.50088
G1 X106.65 Y132.982 E12.60341
G1 X104.441 Y131.746 E12.70443
G1 X102.193 Y130.571 E12.80567
G1 X99.899 Y129.453 E12.90753
G1 X97.603 Y128.412 E13.00814
G1 X96.32 Y127.874 E13.06367
G1 X95.587 Y127.555 E13.09558
G1 X94.775 Y127.158 E13.13165
G1 X94.002 Y126.691 E13.1677
G1 X92.929 Y125.868 E13.22167
G1 X92.306 Y125.321 E13.25476
G1 X91.23 Y124.349 E13.31263
G1 X89.314 Y122.714 E13.41316
G1 X87.335 Y121.121 E13.51456
G1 X85.361 Y119.62 E13.61354
G1 X84.964 Y119.327 E13.63323
G1 X84.261 Y118.759 E13.6693
G1 X83.612 Y118.131 E13.70535
G1 X83.02 Y117.449 E13.74139
G1 X82.492 Y116.717 E13.77741
G1 X82.03 Y115.941 E13.81346
G1 X81.639 Y115.127 E13.8495
G1 X81.321 Y114.281 E13.88557
G1 X81.079 Y113.411 E13.92162
G1 X80.915 Y112.523 E13.95766
G1 X80.831 Y111.624 E13.99369
G1 X80.826 Y110.721 E14.02973
G1 X80.901 Y109.821 E14.06578
G1 X81.055 Y108.931 E14.10183
G1 X81.288 Y108.058 E14.13789
G1 X81.596 Y107.21 E14.1739
G1 X81.979 Y106.392 E14.20995
G1 X82.25 Y105.907 E14.23213
G1 X82.551 Y105.403 E14.25556
G1 X83.037 Y104.617 E14.29244
G1 X83.412 Y103.998 E14.32133
G1 X84.057 Y103.057 E14.36686
G1 X84.478 Y102.528 E14.39384
G1 X84.932 Y101.991 E14.42191
G1 X85.283 Y101.591 E14.44315
G1 X85.472 Y101.385 E14.45431
G1 X86.581 Y100.208 E14.51885
G1 X86.999 Y99.777 E14.54281
G1 X88.791 Y97.878 E14.64703
G1 X90.876 Y95.527 E14.77244
G1 X91.303 Y95.029 E14.79863
G1 X92.03 Y94.197 E14.84272
G1 X92.53 Y93.644 E14.87248
G1 X92.732 Y93.427 E14.88431
G1 X93.656 Y92.463 E14.93761
G1 F2400 E11.73761
;MESH:Nicaragua.stl
G0 F9000 X90.94 Y110.129
G0 X91.411 Y110.626
G0 X91.378 Y110.94
G0 X91.417 Y110.92
;TYPE:WALL-OUTER
G1 F1440 E14.93761
G1 F1800 X91.655 Y110.601 E14.95349
G1 X91.822 Y110.377 E14.96464
G1 X92.094 Y109.836 E14.98881
G1 X92.127 Y109.672 E14.99549
G1 X92.287 Y109.399 E15.00812
G1 X92.763 Y108.821 E15.038
G1 X93.496 Y108.016 E15.08146
G1 X95.429 Y106.025 E15.19221
G1 X96.563 Y104.808 E15.2586
G1 X97.654 Y103.599 E15.3236
G1 X99.409 Y101.552 E15.43122
G1 X100.115 Y100.754 E15.47374
G1 X100.777 Y100.035 E15.51275
G1 X101.235 Y99.578 E15.53857
G1 X101.67 Y99.168 E15.56243
G1 X102.239 Y98.608 E15.5943
G1 X102.46 Y98.381 E15.60694
G1 X103.039 Y97.797 E15.63976
G1 X105.005 Y95.767 E15.75255
G1 X105.916 Y94.997 E15.80016
G1 X106.614 Y94.75 E15.82971
G1 X108.29 Y94.75 E15.89661
G1 X108.924 Y94.69 E15.92202
G1 X109.478 Y94.566 E15.94468
G1 X109.941 Y94.38 E15.9646
G1 X110.884 Y93.955 E16.00588
G1 X112.101 Y93.494 E16.05782
G1 X113.403 Y93.065 E16.11253
G1 X114.583 Y92.739 E16.1614
G1 X115.165 Y92.62 E16.1851
G1 X115.512 Y92.627 E16.19896
G1 X115.796 Y92.768 E16.21161
G1 X116.206 Y93.129 E16.23342
G1 X117.021 Y93.646 E16.27194
G1 X118.001 Y93.698 E16.31111
G1 X119.166 Y93.274 E16.36059
G1 X120.605 Y92.393 E16.42793
G1 X121.268 Y91.953 E16.45969
G1 X121.836 Y91.602 E16.48634
G1 X122.447 Y91.302 E16.51351
G1 X122.742 Y91.363 E16.52553
G1 X123.29 Y91.57 E16.54891
G1 X124.016 Y91.902 E16.58077
G1 X124.852 Y92.332 E16.61829
G1 X125.485 Y92.674 E16.64701
G1 X125.07 Y93.617 E16.68813
G1 X124.833 Y94.221 E16.71403
G1 X124.731 Y94.832 E16.73875
G1 X124.779 Y95.595 E16.76926
G1 X124.962 Y96.725 E16.81495
G1 X125.204 Y98.122 E16.87154
G1 X125.282 Y98.776 E16.89783
G1 X125.259 Y98.845 E16.90073
G1 X124.781 Y98.983 E16.92059
G1 X124.519 Y99.333 E16.93804
G1 X124.373 Y99.819 E16.95829
G1 X124.323 Y100.445 E16.98335
G1 X124.599 Y101.426 E17.02403
G1 X125.243 Y102.805 E17.08477
G1 X126.033 Y104.174 E17.14786
G1 X126.745 Y105.1 E17.19448
G1 X127.155 Y105.571 E17.2194
G1 X127.266 Y105.92 E17.23402
G1 X127.152 Y106.266 E17.24856
G1 X126.357 Y107.164 E17.29643
G1 X126.151 Y107.817 E17.32376
G1 X126.078 Y109.002 E17.37114
G1 X126.067 Y111.102 E17.45496
G1 X126.083 Y113.122 E17.53558
G1 X126.162 Y114.41 E17.58709
G1 X126.348 Y115.306 E17.62361
G1 X126.678 Y116.126 E17.65889
G1 X126.933 Y116.704 E17.6841
G1 X127.188 Y117.323 E17.71082
G1 X127.413 Y117.911 E17.73595
G1 X127.739 Y118.859 E17.77596
G1 X127.957 Y119.407 E17.7995
G1 X128.357 Y120.273 E17.83757
G1 X128.708 Y121.193 E17.87688
G1 X128.793 Y122.08 E17.91244
G1 X128.63 Y122.899 E17.94577
G1 X128.174 Y123.685 E17.98204
G1 X127.751 Y124.394 E18.01499
G1 X127.572 Y125.325 E18.05283
G1 X127.682 Y126.406 E18.0962
G1 X128.067 Y127.665 E18.14874
G1 X128.36 Y128.436 E18.18166
G1 X128.462 Y128.706 E18.19318
G1 X128.174 Y128.706 E18.19995
G1 X128.173 Y128.706 E18.19999
G1 X127.434 Y128.706 E18.22948
G1 X126.721 Y128.666 E18.25798
G1 X126.066 Y128.528 E18.2847
G1 X125.361 Y128.264 E18.31475
G1 X124.464 Y127.826 E18.35459
G1 X123.77 Y127.446 E18.38617
G1 X123.117 Y127.06 E18.41644
G1 X122.58 Y126.713 E18.44196
G1 X122.244 Y126.457 E18.45882
G1 X121.534 Y126.013 E18.49224
G1 X120.511 Y125.614 E18.53607
G1 X119.363 Y125.317 E18.5834
G1 X118.257 Y125.179 E18.62788
G1 X117.728 Y125.195 E18.649
G1 X117.271 Y125.309 E18.6678
G1 X116.852 Y125.542 E18.68694
G1 X116.445 Y125.885 E18.70818
G1 X115.936 Y126.28 E18.7339
G1 X115.597 Y126.242 E18.74751
G1 X115.036 Y125.617 E18.78103
G1 X114.044 Y124.09 E18.85371
G1 X113.468 Y123.221 E18.89532
G1 X112.905 Y122.533 E18.9308
G1 X112.315 Y122.016 E18.96211
G1 X111.057 Y121.232 E19.02127
G1 X110.521 Y120.807 E19.04857
G1 X110.041 Y120.338 E19.07536
G1 X109.613 Y119.808 E19.10255
G1 X109.001 Y119.028 E19.14212
G1 X108.722 Y118.74 E19.15812
G1 X108.465 Y118.559 E19.17067
G1 X108.176 Y118.599 E19.18231
G1 X107.877 Y118.766 E19.19598
G1 X107.239 Y119.331 E19.23
G1 X106.634 Y119.993 E19.26579
G1 X104.383 Y118.01 E19.38552
G1 X99.85 Y118.01 E19.56644
G1 X99.85 Y115.833 E19.65333
G1 X99.835 Y114.49 E19.70694
G1 X99.751 Y113.665 E19.74004
G1 X99.529 Y113.133 E19.76304
G1 X99.131 Y112.705 E19.78637
G1 X98.57 Y112.252 E19.81515
G1 X98.323 Y112.103 E19.82666
G1 X97.801 Y111.902 E19.84899
G1 X97.183 Y111.511 E19.87818
G1 X96.657 Y111.199 E19.90258
G1 X96.016 Y111.017 E19.92918
G1 X95.084 Y110.938 E19.96651
G1 X93.65 Y110.92 E20.02375
G1 X91.815 Y110.92 E20.09699
G1 X91.417 Y110.92 E20.10578
G1 F2400 E16.90578
G0 F9000 X91.378 Y110.94
G0 X91.542 Y110.714
G0 X90.94 Y110.129
G0 X103.935 Y107.305
G0 X104.879 Y107.797
G0 X105.003 Y107.347
G0 X104.887 Y107.497
G1 F1440 E20.10578
G1 F1800 X104.94 Y107.618 E20.11105
G1 X105.003 Y107.76 E20.11725
G1 X105.035 Y107.8 E20.1193
G1 X105.12 Y107.905 E20.12469
