;FLAVOR:Marlin
;TIME:842
;Filament used: 0.469152m
;Layer height: 0.2
;MINX:74.047
;MINY:89.201
;MINZ:0.24
;MAXX:145.95
;MAXY:130.788
;MAXZ:2.88
;Generated with Cura_SteamEngine 4.10.0
M82 ;absolute extrusion mode
M201 X500.00 Y500.00 Z100.00 E5000.00 ;Setup machine max acceleration
M203 X500.00 Y500.00 Z10.00 E50.00 ;Setup machine max feedrate
M204 P500.00 R1000.00 T500.00 ;Setup Print/Retract/Travel acceleration
M205 X8.00 Y8.00 Z0.40 E5.00 ;Setup Jerk
M220 S100 ;Reset Feedrate
M221 S100 ;Reset Flowrate

;*** Start Dual Nozzle/Bed Preheating ***
M140 S50 ; start preheating the bed
M104 S200 ?T0 ; start preheating hotend
M190 S50 ; heat to Cura Bed setting and WAIT
M109 S200 ?T0 ; heat to Cura Hotend and WAIT
;*** End Preheating ***

;*** Single Print Start Tone
M300 S1000 P500 ; chirp to indicate starting to print
;*** End Single Start Tone

G28 ;Home

G92 E0 ;Reset Extruder
G1 Z2.0 F3000 ;Move Z Axis up

G1 X10.1 Y20 Z0.28 F5000.0 ;Move to start position
G1 X10.1 Y200.0 Z0.28 F1500.0 E15 ;Draw the first line
G1 X10.4 Y200.0 Z0.28 F5000.0 ;Move to side a little
G1 X10.4 Y20 Z0.28 F1500.0 E30 ;Draw the second line
G92 E0 ;Reset Extruder
G1 Z2.0 F3000 ;Move Z Axis up
G92 E0
G92 E0
G1 F2400 E-3.2
;LAYER_COUNT:13
;LAYER:0
M106 S63.8
M204 S500
M205 X6 Y6
G0 F9000 X78.303 Y100.679 Z0.24
;TYPE:SKIRT
G1 F1440 E0
G1 F1800 X78.843 Y100.295 E0.02645
G1 X78.989 Y100.198 E0.03344
G1 X79.777 Y99.722 E0.07019
G1 X80.935 Y99.179 E0.12123
G1 X81.965 Y98.769 E0.16548
G1 X84.386 Y97.765 E0.27009
G1 X86.728 Y96.715 E0.37253
G1 X88.972 Y95.633 E0.47196
G1 X91.216 Y94.471 E0.57281
G1 X93.458 Y93.229 E0.67511
G1 X95.631 Y91.942 E0.77591
G1 X97.015 Y91.08 E0.84099
G1 X97.347 Y90.868 E0.85671
G1 X98.145 Y90.408 E0.89347
G1 X98.979 Y90.019 E0.9302
G1 X99.844 Y89.704 E0.96694
G1 X100.733 Y89.465 E1.00368
G1 X101.639 Y89.304 E1.04041
G1 X102.715 Y89.216 E1.0835
G1 X103.366 Y89.201 E1.10949
G1 X103.757 Y89.201 E1.1251
G1 X105.047 Y89.219 E1.17659
G1 X105.742 Y89.246 E1.20435
G1 X106.882 Y89.359 E1.25007
G1 X107.33 Y89.428 E1.26816
G1 X110.066 Y89.884 E1.37887
G1 X112.537 Y90.224 E1.47842
G1 X115.051 Y90.497 E1.57935
G1 X117.568 Y90.698 E1.68013
G1 X120.109 Y90.83 E1.78168
G1 X122.621 Y90.888 E1.88197
G1 X125.167 Y90.876 E1.98358
G1 X127.694 Y90.792 E2.0845
G1 X128.51 Y90.744 E2.11712
G1 X129.215 Y90.713 E2.14529
G1 X130.136 Y90.713 E2.18205
G1 X131.053 Y90.794 E2.21879
G1 X131.96 Y90.954 E2.25555
G1 X132.849 Y91.192 E2.29228
G1 X133.714 Y91.506 E2.32901
G1 X134.273 Y91.755 E2.35343
G1 X134.742 Y91.988 E2.37433
G1 X135.108 Y92.181 E2.39085
G1 X135.903 Y92.645 E2.42759
G1 X136.638 Y93.164 E2.4635
G1 X137.333 Y93.701 E2.49855
G1 X138.286 Y94.456 E2.54708
G1 X139.4 Y95.291 E2.60265
G1 X139.916 Y95.689 E2.62865
G1 X140.859 Y96.51 E2.67856
G1 X141.368 Y97.009 E2.70701
G1 X141.849 Y97.504 E2.73455
G1 X142.456 Y98.196 E2.77129
G1 X142.824 Y98.683 E2.79566
G1 X143.38 Y99.464 E2.83392
G1 X143.588 Y99.767 E2.84859
G1 X143.935 Y100.292 E2.87371
G1 X144.409 Y101.082 E2.91048
G1 X144.812 Y101.909 E2.94719
G1 X145.143 Y102.768 E2.98394
G1 X145.386 Y103.61 E3.01891
G1 X145.563 Y104.331 E3.04854
G1 X145.728 Y105.08 E3.07916
G1 X145.879 Y105.988 E3.11589
G1 X145.946 Y106.782 E3.1477
G1 X145.948 Y106.825 E3.14941
G1 X145.95 Y107.745 E3.18613
G1 X145.873 Y108.663 E3.2229
G1 X145.717 Y109.57 E3.25963
G1 X145.574 Y110.149 E3.28344
G1 X145.431 Y110.647 E3.30412
G1 X145.301 Y111.064 E3.32155
G1 X145.076 Y111.745 E3.35018
G1 X144.979 Y112.026 E3.36204
G1 X144.73 Y112.714 E3.39124
G1 X144.2 Y114.277 E3.45711
G1 X144.079 Y114.59 E3.47051
G1 X143.701 Y115.675 E3.51637
G1 X143.334 Y116.592 E3.55579
G1 X143.073 Y117.142 E3.58008
G1 X142.919 Y117.446 E3.59369
G1 X142.283 Y118.536 E3.64405
G1 X141.859 Y119.151 E3.67387
G1 X141.643 Y119.445 E3.68843
G1 X141.235 Y119.966 E3.71484
G1 X140.676 Y120.635 E3.74964
G1 X140.157 Y121.226 E3.78103
G1 X139.538 Y121.867 E3.81659
G1 X139.148 Y122.238 E3.83808
G1 X138.899 Y122.467 E3.85158
G1 X138.444 Y122.873 E3.87592
G1 X137.766 Y123.429 E3.91091
G1 X136.698 Y124.234 E3.96429
G1 X136.603 Y124.312 E3.9692
G1 X135.961 Y124.789 E4.00112
G1 X134.699 Y125.772 E4.06497
G1 X133.841 Y126.453 E4.10869
G1 X133.096 Y126.994 E4.14544
G1 X132.306 Y127.467 E4.18219
G1 X131.839 Y127.706 E4.20312
G1 X131.248 Y127.984 E4.22919
G1 X130.87 Y128.15 E4.24567
G1 X130.261 Y128.407 E4.27205
G1 X129.464 Y128.706 E4.30603
G1 X128.96 Y128.868 E4.32715
G1 X128.287 Y129.067 E4.35517
G1 X127.632 Y129.248 E4.38229
G1 X127.063 Y129.389 E4.40568
G1 X125.738 Y129.676 E4.45979
G1 X125.272 Y129.771 E4.47878
G1 X123.705 Y130.135 E4.54298
G1 X122.531 Y130.386 E4.5909
G1 X121.968 Y130.491 E4.61376
G1 X121.055 Y130.606 E4.65049
G1 X120.258 Y130.642 E4.68233
G1 X119.869 Y130.644 E4.69785
G1 X117.158 Y130.64 E4.80606
G1 X115.904 Y130.668 E4.85612
G1 X115.619 Y130.67 E4.86749
G1 X114.689 Y130.635 E4.90464
G1 X113.999 Y130.575 E4.93228
G1 X112.509 Y130.412 E4.99211
G1 X111.887 Y130.335 E5.01712
G1 X109.352 Y130.098 E5.11874
G1 X106.872 Y129.935 E5.21793
G1 X104.327 Y129.841 E5.31958
G1 X101.779 Y129.817 E5.42128
G1 X99.272 Y129.866 E5.52136
G1 X96.729 Y129.988 E5.62297
G1 X94.267 Y130.175 E5.72152
G1 X90.516 Y130.59 E5.87214
G1 X89.902 Y130.665 E5.89683
G1 X89.241 Y130.723 E5.92332
G1 X88.95 Y130.742 E5.93495
G1 X88.31 Y130.775 E5.96053
G1 X87.639 Y130.788 E5.98732
G1 X87.004 Y130.771 E6.01267
G1 X86.645 Y130.751 E6.02702
G1 X85.729 Y130.66 E6.06376
G1 X84.764 Y130.475 E6.10298
G1 X84.376 Y130.382 E6.1189
G1 X83.491 Y130.129 E6.15564
G1 X82.631 Y129.8 E6.19239
G1 X81.803 Y129.397 E6.22914
G1 X81.013 Y128.924 E6.26589
G1 X80.394 Y128.484 E6.29621
G1 X79.976 Y128.156 E6.31741
G1 X79.91 Y128.102 E6.32082
G1 X79.223 Y127.489 E6.35756
G1 X78.592 Y126.818 E6.39433
G1 X78.022 Y126.095 E6.43107
G1 X77.53 Y125.347 E6.46681
G1 X77.346 Y125.04 E6.48109
G1 X76.907 Y124.231 E6.51783
G1 X76.421 Y123.057 E6.56854
G1 X76.303 Y122.716 E6.58294
G1 X75.959 Y121.489 E6.6338
G1 X75.78 Y120.602 E6.66992
G1 X75.683 Y119.976 E6.6952
G1 X75.625 Y119.521 E6.71351
G1 X75.246 Y116.856 E6.82095
G1 X74.814 Y114.324 E6.92346
G1 X74.51 Y112.77 E6.98666
G1 X74.257 Y111.531 E7.03713
G1 X74.112 Y110.622 E7.07387
G1 X74.047 Y109.703 E7.11064
G1 X74.062 Y108.783 E7.14737
G1 X74.156 Y107.867 E7.18412
G1 X74.314 Y107.026 E7.21827
G1 X74.38 Y106.74 E7.22999
G1 X74.626 Y105.853 E7.26673
G1 X74.948 Y104.991 E7.30345
G1 X75.344 Y104.159 E7.34023
G1 X75.81 Y103.365 E7.37697
G1 X76.343 Y102.615 E7.4137
G1 X76.939 Y101.913 E7.45045
G1 X77.594 Y101.266 E7.4872
G1 X78.303 Y100.679 E7.52393
G0 F9000 X78.655 Y100.915
G1 F1800 X79.21 Y100.531 E7.55087
G1 X79.984 Y100.065 E7.58693
G1 X81.083 Y99.55 E7.63537
G1 X82.143 Y99.128 E7.68091
G1 X84.555 Y98.129 E7.78511
G1 X86.887 Y97.082 E7.88713
G1 X89.151 Y95.991 E7.98744
G1 X91.415 Y94.819 E8.08919
G1 X93.65 Y93.581 E8.19116
G1 X95.835 Y92.286 E8.29254
G1 X97.29 Y91.379 E8.36097
G1 X97.562 Y91.206 E8.37383
G1 X98.345 Y90.755 E8.4099
G1 X99.164 Y90.375 E8.44593
G1 X100.014 Y90.07 E8.48198
G1 X100.887 Y89.84 E8.51801
G1 X101.778 Y89.689 E8.55408
G1 X102.727 Y89.616 E8.59207
G1 X103.366 Y89.601 E8.61758
G1 X103.757 Y89.601 E8.63318
G1 X105.041 Y89.619 E8.68443
G1 X105.724 Y89.645 E8.71171
G1 X106.821 Y89.754 E8.75571
G1 X107.264 Y89.823 E8.77361
G1 X109.983 Y90.276 E8.88363
G1 X112.506 Y90.623 E8.98527
G1 X115.012 Y90.895 E9.08588
G1 X117.549 Y91.098 E9.18746
G1 X120.08 Y91.229 E9.28861
G1 X122.613 Y91.288 E9.38974
G1 X125.182 Y91.276 E9.49227
G1 X127.69 Y91.192 E9.59243
G1 X128.693 Y91.135 E9.63253
G1 X129.232 Y91.112 E9.65406
G1 X130.135 Y91.114 E9.6901
G1 X131.035 Y91.195 E9.72616
G1 X131.923 Y91.356 E9.76218
G1 X132.794 Y91.594 E9.79822
G1 X133.973 Y92.056 E9.84876
G1 X134.104 Y92.117 E9.85453
G1 X134.556 Y92.342 E9.87468
G1 X134.922 Y92.535 E9.8912
G1 X135.701 Y92.991 E9.92722
G1 X136.394 Y93.48 E9.96107
G1 X137.085 Y94.015 E9.99595
G1 X138.061 Y94.789 E10.04567
G1 X139.277 Y95.701 E10.10634
G1 X139.672 Y96.006 E10.12626
G1 X140.579 Y96.795 E10.17424
G1 X141.088 Y97.294 E10.20269
G1 X141.56 Y97.781 E10.22975
G1 X142.155 Y98.46 E10.26579
G1 X142.498 Y98.915 E10.28853
G1 X143.054 Y99.696 E10.32679
G1 X143.254 Y99.988 E10.34092
G1 X143.601 Y100.513 E10.36604
G1 X144.065 Y101.287 E10.40205
G1 X144.459 Y102.1 E10.43811
G1 X144.78 Y102.945 E10.47419
G1 X144.998 Y103.705 E10.50575
G1 X145.175 Y104.426 E10.53538
G1 X145.336 Y105.163 E10.56549
G1 X145.484 Y106.054 E10.60153
G1 X145.546 Y106.8 E10.63141
G1 X145.548 Y106.843 E10.63313
G1 X145.55 Y107.746 E10.66917
G1 X145.472 Y108.646 E10.70523
G1 X145.315 Y109.535 E10.74126
G1 X145.188 Y110.042 E10.76212
G1 X145.049 Y110.53 E10.78237
G1 X144.921 Y110.939 E10.79947
G1 X144.696 Y111.62 E10.8281
G1 X144.603 Y111.89 E10.8395
G1 X144.34 Y112.618 E10.87039
G1 X143.821 Y114.148 E10.93487
G1 X143.703 Y114.451 E10.94785
G1 X143.323 Y115.544 E10.99404
G1 X142.97 Y116.426 E11.03196
G1 X142.716 Y116.961 E11.05559
G1 X142.562 Y117.265 E11.06919
G1 X141.95 Y118.314 E11.11767
G1 X141.537 Y118.914 E11.14674
G1 X141.321 Y119.208 E11.1613
G1 X140.928 Y119.709 E11.18671
G1 X140.369 Y120.378 E11.22151
G1 X139.858 Y120.961 E11.25245
G1 X139.262 Y121.577 E11.28666
G1 X138.872 Y121.948 E11.30814
G1 X138.633 Y122.169 E11.32114
G1 X138.178 Y122.575 E11.34547
G1 X137.526 Y123.11 E11.37914
G1 X136.495 Y123.887 E11.43066
G1 X136.365 Y123.991 E11.43731
G1 X135.688 Y124.495 E11.47099
G1 X134.528 Y125.398 E11.52967
G1 X133.593 Y126.14 E11.57731
G1 X132.861 Y126.669 E11.61335
G1 X132.085 Y127.132 E11.64942
G1 X131.366 Y127.49 E11.68148
G1 X130.883 Y127.709 E11.70264
G1 X130.106 Y128.038 E11.73632
G1 X129.339 Y128.326 E11.76902
G1 X128.845 Y128.485 E11.78973
G1 X128.181 Y128.682 E11.81738
G1 X127.526 Y128.863 E11.8445
G1 X126.978 Y128.998 E11.86702
G1 X125.658 Y129.284 E11.92093
G1 X125.18 Y129.382 E11.94041
G1 X123.615 Y129.745 E12.00453
G1 X122.448 Y129.995 E12.05216
G1 X121.901 Y130.097 E12.07437
G1 X121.005 Y130.209 E12.11041
G1 X120.255 Y130.242 E12.14037
G1 X119.87 Y130.244 E12.15574
G1 X117.15 Y130.24 E12.2643
G1 X115.902 Y130.268 E12.31412
G1 X115.617 Y130.27 E12.3255
G1 X114.721 Y130.237 E12.36128
G1 X114.043 Y130.178 E12.38845
G1 X112.558 Y130.015 E12.44807
G1 X111.903 Y129.934 E12.47441
G1 X109.418 Y129.701 E12.57403
G1 X106.879 Y129.535 E12.67558
G1 X104.345 Y129.441 E12.77679
G1 X101.774 Y129.417 E12.87941
G1 X99.245 Y129.466 E12.98037
G1 X96.748 Y129.586 E13.08014
G1 X94.194 Y129.78 E13.18237
G1 X90.469 Y130.192 E13.33195
G1 X89.862 Y130.267 E13.35636
G1 X89.209 Y130.324 E13.38252
G1 X88.929 Y130.342 E13.39372
G1 X88.289 Y130.375 E13.4193
G1 X87.644 Y130.388 E13.44505
G1 X87.027 Y130.371 E13.46968
G1 X86.668 Y130.351 E13.48403
G1 X85.769 Y130.261 E13.52009
G1 X84.857 Y130.086 E13.55716
G1 X84.469 Y129.993 E13.57308
G1 X83.601 Y129.744 E13.60912
G1 X82.759 Y129.419 E13.64515
G1 X81.948 Y129.021 E13.6812
G1 X81.176 Y128.552 E13.71725
G1 X80.638 Y128.166 E13.74368
G1 X80.229 Y127.846 E13.76441
G1 X80.163 Y127.792 E13.76781
G1 X79.49 Y127.19 E13.80385
G1 X78.873 Y126.531 E13.83988
G1 X78.317 Y125.819 E13.87594
G1 X77.873 Y125.142 E13.90825
G1 X77.689 Y124.835 E13.92254
G1 X77.26 Y124.04 E13.95859
G1 X76.799 Y122.927 E14.00667
G1 X76.681 Y122.586 E14.02108
G1 X76.35 Y121.404 E14.07007
G1 X76.174 Y120.536 E14.10542
G1 X76.079 Y119.925 E14.13009
G1 X76.002 Y119.323 E14.15432
G1 X75.65 Y116.844 E14.25425
G1 X75.208 Y114.259 E14.35892
G1 X74.902 Y112.69 E14.42272
G1 X74.649 Y111.451 E14.4732
G1 X74.508 Y110.559 E14.50924
G1 X74.446 Y109.658 E14.54529
G1 X74.464 Y108.755 E14.58133
G1 X74.562 Y107.857 E14.61739
G1 X74.704 Y107.116 E14.6475
G1 X74.77 Y106.83 E14.65922
G1 X75.012 Y105.96 E14.69526
G1 X75.33 Y105.115 E14.73129
G1 X75.721 Y104.301 E14.76733
G1 X76.183 Y103.525 E14.80338
G1 X76.712 Y102.793 E14.83943
G1 X77.303 Y102.11 E14.87547
G1 X77.953 Y101.483 E14.91152
G1 X78.655 Y100.915 E14.94756
G1 F2400 E11.74756
;MESH:Panama.stl
G0 F9000 X101.964 Y102.637
G0 X102.998 Y102.968
G0 X104.194 Y100.981
G0 X105.407 Y101.041
G0 X106.323 Y101.727
G0 X109.465 Y101.819
G0 X110.068 Y101.596
;TYPE:WALL-OUTER
G1 F1440 E14.94756
G1 F1800 X109.744 Y101.916 E14.96574
G1 X108.757 Y102.894 E15.02119
G1 X108.053 Y103.629 E15.06182
G1 X107.529 Y104.259 E15.09452
G1 X107.191 Y104.78 E15.11931
G1 X107.031 Y105.413 E15.14537
G1 X106.802 Y105.868 E15.1657
G1 X106.611 Y106.075 E15.17694
G1 X106.167 Y106.705 E15.2077
G1 X106.06 Y107.492 E15.2394
G1 X106.295 Y108.282 E15.2723
G1 X106.843 Y108.959 E15.30706
G1 X107.633 Y109.502 E15.34532
G1 X108.463 Y109.91 E15.38223
G1 X110.335 Y110.607 E15.46196
G1 X111.197 Y111.036 E15.50039
G1 X111.473 Y111.455 E15.52041
G1 X111.585 Y112.249 E15.55242
G1 X111.758 Y113.194 E15.59076
G1 X112.091 Y113.81 E15.61871
G1 X112.691 Y114.107 E15.64543
G1 X113.595 Y114.178 E15.68162
G1 X114.043 Y114.202 E15.69953
G1 X114.296 Y114.283 E15.71013
G1 X114.457 Y114.451 E15.71942
G1 X114.63 Y114.828 E15.73597
G1 X115.014 Y115.405 E15.76364
G1 X115.671 Y115.832 E15.79491
G1 X116.544 Y116.084 E15.83118
G1 X117.633 Y116.17 E15.87478
G1 X119.134 Y115.836 E15.93615
G1 X120.894 Y114.978 E16.0143
G1 X122.588 Y113.796 E16.09674
G1 X123.889 Y112.484 E16.17049
G1 X124.759 Y111.335 E16.22801
G1 X126.493 Y111.407 E16.29728
G1 X127.425 Y111.427 E16.33448
G1 X128.083 Y111.382 E16.36081
G1 X128.552 Y111.251 E16.38024
G1 X128.888 Y111.013 E16.39668
G1 X129.113 Y110.754 E16.41037
G1 X129.231 Y110.491 E16.42187
G1 X129.198 Y110.216 E16.43293
G1 X129.041 Y109.971 E16.44454
G1 X128.674 Y109.676 E16.46334
G1 X128.289 Y109.555 E16.47944
G1 X128.08 Y109.481 E16.48829
G1 X127.816 Y109.099 E16.50682
G1 X127.637 Y108.945 E16.51625
G1 X127.418 Y108.841 E16.52593
G1 X127.241 Y108.813 E16.53308
G1 X126.973 Y108.687 E16.5449
G1 X126.691 Y108.35 E16.56244
G1 X126.463 Y107.886 E16.58307
G1 X126.381 Y107.455 E16.60058
G1 X126.842 Y106.205 E16.65376
G1 X127.927 Y104.145 E16.74668
G1 X129.088 Y102.255 E16.83521
G1 X129.698 Y101.563 E16.87203
G1 X129.717 Y101.542 E16.87316
G1 X130.032 Y101.702 E16.88726
G1 X130.048 Y101.725 E16.88838
G1 X130.398 Y102.23 E16.9129
G1 X130.586 Y102.842 E16.93846
G1 X130.486 Y103.318 E16.95787
G1 X130.332 Y103.728 E16.97535
G1 X130.374 Y104.273 E16.99717
G1 X130.595 Y104.753 E17.01826
G1 X131.012 Y104.994 E17.03748
G1 X131.457 Y104.846 E17.0562
G1 X131.865 Y104.546 E17.07641
G1 X132.194 Y104.172 E17.09629
G1 X132.392 Y103.762 E17.11446
G1 X132.411 Y103.722 E17.11623
G1 X132.723 Y103.807 E17.12914
G1 X132.759 Y103.833 E17.13091
G1 X133.352 Y104.252 E17.15989
G1 X134.079 Y104.99 E17.20123
G1 X134.924 Y106.229 E17.26109
G1 X135.166 Y107.296 E17.30476
G1 X134.837 Y108.339 E17.34841
G1 X133.647 Y109.803 E17.42371
G1 X133.506 Y110.168 E17.43933
G1 X133.473 Y110.609 E17.45698
G1 X133.527 Y111.203 E17.48078
G1 X133.57 Y111.719 E17.50145
G1 X133.506 Y112.138 E17.51837
G1 X133.296 Y112.566 E17.53739
G1 X132.872 Y113.16 E17.56652
G1 X132.103 Y114.045 E17.61332
G1 X131.272 Y114.812 E17.65845
G1 X130.531 Y115.336 E17.69467
G1 X129.979 Y115.535 E17.71809
G1 X129.419 Y115.773 E17.74238
G1 X128.679 Y116.336 E17.77949
G1 X128 Y117.011 E17.8177
G1 X127.64 Y117.563 E17.84401
G1 X127.147 Y117.989 E17.87001
G1 X126.068 Y118.465 E17.91708
G1 X124.759 Y118.848 E17.97152
G1 X123.589 Y119.006 E18.01864
G1 X123.136 Y119.045 E18.03678
G1 X122.563 Y119.153 E18.06006
G1 X121.958 Y119.312 E18.08502
G1 X121.395 Y119.506 E18.10879
G1 X120.706 Y119.75 E18.13796
G1 X120.18 Y119.852 E18.15935
G1 X119.624 Y119.838 E18.18155
G1 X118.884 Y119.714 E18.21149
G1 X118.178 Y119.599 E18.24004
G1 X117.541 Y119.561 E18.26551
G1 X116.938 Y119.602 E18.28963
G1 X116.334 Y119.721 E18.3142
G1 X115.514 Y119.878 E18.34753
G1 X114.983 Y119.828 E18.36881
G1 X114.535 Y119.538 E18.39011
G1 X114.001 Y118.916 E18.42283
G1 X113.717 Y118.511 E18.44258
G1 X113.584 Y118.243 E18.45452
G1 X113.567 Y118.102 E18.46019
G1 X113.634 Y117.978 E18.46581
G1 X113.946 Y117.304 E18.49545
G1 X113.61 Y116.624 E18.52573
G1 X112.826 Y116.181 E18.56167
G1 X111.74 Y116.018 E18.6055
G1 X111.31 Y116.044 E18.62269
G1 X110.992 Y116.174 E18.6364
G1 X110.828 Y116.462 E18.64963
G1 X110.784 Y116.981 E18.67042
G1 X110.779 Y117.046 E18.67302
