;FLAVOR:Marlin
;TIME:3029
;Filament used: 5.22497m
;Layer height: 0.24
;MINX:20.766
;MINY:8.021
;MINZ:0.24
;MAXX:199.24
;MAXY:211.8
;MAXZ:4.88
;Generated with Cura_SteamEngine 4.5.0
M140 S50
M105
M190 S50
M104 S215
M105
M109 S215
M82 ;absolute extrusion mode
M201 X500.00 Y500.00 Z100.00 E5000.00 ;Setup machine max acceleration
M203 X500.00 Y500.00 Z10.00 E50.00 ;Setup machine max feedrate
M204 P500.00 R1000.00 T500.00 ;Setup Print/Retract/Travel acceleration
M205 X8.00 Y8.00 Z0.40 E5.00 ;Setup Jerk
M220 S100 ;Reset Feedrate
M221 S100 ;Reset Flowrate

G28 ;Home

G92 E0 ;Reset Extruder
G1 Z2.0 F3000 ;Move Z Axis up
G1 X10.1 Y20 Z0.28 F5000.0 ;Move to start position
G1 X10.1 Y200.0 Z0.28 F1500.0 E15 ;Draw the first line
G1 X10.4 Y200.0 Z0.28 F5000.0 ;Move to side a little
G1 X10.4 Y20 Z0.28 F1500.0 E30 ;Draw the second line
G92 E0 ;Reset Extruder
G1 Z2.0 F3000 ;Move Z Axis up

G92 E0
G92 E0
G1 F1800 E-3
;LAYER_COUNT:21
;LAYER:0
M107
G0 F9000 X58.376 Y21.48 Z0.24
;TYPE:SKIRT
G1 F1800 E0
G1 X58.679 Y20.685 E0.04245
G1 X58.933 Y20.08 E0.07518
G1 X59.16 Y19.576 E0.10276
G1 X59.508 Y18.881 E0.14154
G1 X59.818 Y18.308 E0.17404
G1 X60.117 Y17.791 E0.20384
G1 X60.565 Y17.083 E0.24564
G1 X60.921 Y16.56 E0.2772
G1 X61.291 Y16.05 E0.30863
G1 X61.771 Y15.442 E0.34728
G1 X62.178 Y14.958 E0.37883
G1 X62.549 Y14.54 E0.40671
G1 X63.131 Y13.936 E0.44856
G1 X63.608 Y13.473 E0.48172
G1 X64.053 Y13.065 E0.51184
G1 X64.638 Y12.572 E0.55001
G1 X65.174 Y12.149 E0.58408
G1 X65.648 Y11.796 E0.61356
G1 X66.303 Y11.349 E0.65313
G1 X66.845 Y11.003 E0.68521
G1 X67.383 Y10.681 E0.71649
G1 X68.062 Y10.313 E0.75502
G1 X68.654 Y10.016 E0.78806
G1 X69.21 Y9.757 E0.81866
G1 X69.911 Y9.465 E0.85655
G1 X70.526 Y9.23 E0.88939
G1 X71.114 Y9.025 E0.92046
G1 X71.845 Y8.803 E0.95858
G1 X72.474 Y8.633 E0.99108
G1 X73.064 Y8.492 E1.02135
G1 X73.761 Y8.355 E1.05679
G1 X74.47 Y8.237 E1.09264
G1 X75.053 Y8.156 E1.12201
G1 X75.763 Y8.09 E1.15758
G1 X76.457 Y8.046 E1.19228
G1 X77.196 Y8.021 E1.22917
G1 X78.142 Y8.032 E1.27637
G1 X79.139 Y8.088 E1.32619
G1 X79.744 Y8.146 E1.35651
G1 X80.507 Y8.253 E1.39495
G1 X81.177 Y8.368 E1.42886
G1 X81.816 Y8.498 E1.4614
G1 X82.538 Y8.677 E1.49851
G1 X83.245 Y8.875 E1.53514
G1 X85.9 Y9.661 E1.67328
G1 X88.33 Y10.305 E1.7987
G1 X90.794 Y10.885 E1.92498
G1 X93.314 Y11.405 E2.05336
G1 X95.766 Y11.835 E2.17755
G1 X98.252 Y12.201 E2.30292
G1 X100.745 Y12.497 E2.42817
G1 X103.287 Y12.726 E2.5555
G1 X105.806 Y12.88 E2.68141
G1 X108.315 Y12.964 E2.80666
G1 X110.848 Y12.976 E2.93303
G1 X113.356 Y12.917 E3.05819
G1 X115.889 Y12.786 E3.18473
G1 X118.415 Y12.583 E3.31116
G1 X120.917 Y12.311 E3.43672
G1 X123.427 Y11.966 E3.56312
G1 X125.896 Y11.556 E3.68799
G1 X128.367 Y11.072 E3.81361
G1 X130.859 Y10.511 E3.94104
G1 X133.285 Y9.892 E4.06596
G1 X136.254 Y9.037 E4.2201
G1 X136.834 Y8.863 E4.25031
G1 X137.436 Y8.693 E4.28152
G1 X138.032 Y8.542 E4.31219
G1 X138.79 Y8.385 E4.35081
G1 X139.417 Y8.274 E4.38258
G1 X140.009 Y8.186 E4.41244
G1 X140.747 Y8.108 E4.44946
G1 X141.442 Y8.056 E4.48423
G1 X142.002 Y8.029 E4.5122
G1 X142.636 Y8.021 E4.54384
G1 X143.148 Y8.027 E4.56938
G1 X144.086 Y8.068 E4.61623
G1 X144.706 Y8.121 E4.64727
G1 X145.388 Y8.208 E4.68157
G1 X146.104 Y8.321 E4.71773
G1 X146.729 Y8.439 E4.74947
G1 X147.487 Y8.617 E4.78831
G1 X148.138 Y8.791 E4.82193
G1 X148.729 Y8.967 E4.8527
G1 X149.456 Y9.217 E4.89105
G1 X150.063 Y9.447 E4.92343
G1 X150.62 Y9.677 E4.9535
G1 X151.336 Y10.006 E4.99281
G1 X151.908 Y10.291 E5.02469
G1 X152.452 Y10.582 E5.05547
G1 X153.106 Y10.968 E5.09336
G1 X153.66 Y11.318 E5.12605
G1 X154.16 Y11.654 E5.15611
G1 X154.791 Y12.117 E5.19515
G1 X155.308 Y12.522 E5.22792
G1 X155.777 Y12.912 E5.25835
G1 X156.344 Y13.425 E5.2965
G1 X156.835 Y13.898 E5.33051
G1 X157.259 Y14.33 E5.36071
G1 X157.804 Y14.934 E5.4013
G1 X158.214 Y15.419 E5.43298
G1 X158.581 Y15.879 E5.46234
G1 X159.029 Y16.488 E5.50006
G1 X159.408 Y17.038 E5.53338
G1 X159.757 Y17.579 E5.5655
G1 X160.175 Y18.293 E5.60678
G1 X160.469 Y18.834 E5.6375
G1 X160.729 Y19.344 E5.66606
G1 X161.053 Y20.047 E5.70468
G1 X161.306 Y20.644 E5.73703
G1 X161.549 Y21.272 E5.77062
G1 X161.786 Y21.973 E5.80754
G1 X161.977 Y22.595 E5.84
G1 X162.138 Y23.177 E5.87013
G1 X162.312 Y23.923 E5.90834
G1 X162.442 Y24.568 E5.94117
G1 X162.556 Y25.247 E5.97552
G1 X162.638 Y25.908 E6.00875
G1 X162.962 Y28.976 E6.16266
G1 X163.297 Y31.432 E6.28633
G1 X163.714 Y33.961 E6.41421
G1 X164.192 Y36.42 E6.53918
G1 X164.742 Y38.883 E6.66509
G1 X165.358 Y41.316 E6.7903
G1 X166.053 Y43.764 E6.91726
G1 X166.813 Y46.182 E7.04371
G1 X167.639 Y48.568 E7.16968
G1 X168.525 Y50.908 E7.29451
G1 X169.492 Y53.266 E7.42166
G1 X170.508 Y55.552 E7.54647
G1 X171.61 Y57.854 E7.6738
G1 X172.746 Y60.066 E7.79785
G1 X173.776 Y61.951 E7.90502
G1 X174.657 Y63.519 E7.99475
G1 X175.304 Y64.702 E8.06202
G1 X176.577 Y67.106 E8.19774
G1 X177.228 Y68.371 E8.26871
G1 X178.439 Y70.8 E8.40412
G1 X179.01 Y71.981 E8.46957
G1 X180.195 Y74.517 E8.60922
G1 X180.714 Y75.657 E8.67171
G1 X181.846 Y78.244 E8.81259
G1 X182.56 Y79.942 E8.90449
G1 X183.386 Y81.963 E9.01342
G1 X183.901 Y83.264 E9.08322
G1 X184.852 Y85.766 E9.21676
G1 X185.358 Y87.15 E9.29028
G1 X186.247 Y89.673 E9.42374
G1 X186.669 Y90.918 E9.48932
G1 X187.543 Y93.609 E9.63048
G1 X187.904 Y94.766 E9.69095
G1 X188.109 Y95.447 E9.72643
G1 X188.733 Y97.55 E9.83587
G1 X189.061 Y98.702 E9.89563
G1 X189.249 Y99.392 E9.93131
G1 X189.942 Y101.964 E10.0642
G1 X190.515 Y104.063 E10.17275
G1 X191.244 Y106.47 E10.29822
G1 X192.041 Y108.856 E10.42373
G1 X192.896 Y111.195 E10.54797
G1 X193.852 Y113.595 E10.67686
G1 X194.845 Y115.896 E10.80189
G1 X195.897 Y118.157 E10.9263
G1 X197.052 Y120.465 E11.05506
G1 X197.561 Y121.449 E11.11034
G1 X197.945 Y122.293 E11.1566
G1 X198.254 Y123.167 E11.20285
G1 X198.488 Y124.064 E11.24909
G1 X198.643 Y124.978 E11.29534
G1 X198.715 Y125.815 E11.33726
G1 X198.742 Y126.485 E11.37071
G1 X198.83 Y131.884 E11.6401
G1 X198.83 Y132.748 E11.68321
G1 X198.813 Y133.34 E11.71276
G1 X198.777 Y133.975 E11.74449
G1 X198.674 Y135.412 E11.81636
G1 X198.565 Y137.874 E11.93931
G1 X198.524 Y140.448 E12.06775
G1 X198.555 Y142.95 E12.19258
G1 X198.658 Y145.483 E12.31906
G1 X198.832 Y147.991 E12.44448
G1 X198.975 Y149.565 E12.52333
G1 X199.068 Y150.499 E12.57016
G1 X199.114 Y151.169 E12.60367
G1 X199.156 Y152.309 E12.66058
G1 X199.239 Y157.282 E12.90872
G1 X199.24 Y158.115 E12.95028
G1 X199.2 Y159.041 E12.99652
G1 X199.08 Y159.961 E13.04281
G1 X198.882 Y160.866 E13.08903
G1 X198.606 Y161.752 E13.13532
G1 X198.255 Y162.61 E13.18157
G1 X197.832 Y163.434 E13.22778
G1 X197.339 Y164.22 E13.27407
G1 X196.655 Y165.108 E13.32999
G1 X195.987 Y165.889 E13.38127
G1 X194.331 Y167.879 E13.51043
G1 X192.78 Y169.854 E13.63571
G1 X191.261 Y171.905 E13.76304
G1 X190.36 Y173.184 E13.8411
G1 X189.898 Y173.8 E13.87951
G1 X189.559 Y174.217 E13.90632
G1 X189.169 Y174.673 E13.93626
G1 X188.763 Y175.121 E13.96642
G1 X188.23 Y175.662 E14.00431
G1 X187.296 Y176.551 E14.06864
G1 X186.247 Y177.52 E14.13989
G1 X184.452 Y179.273 E14.26506
G1 X182.691 Y181.093 E14.39141
G1 X180.98 Y182.965 E14.51794
G1 X179.333 Y184.873 E14.64369
G1 X177.745 Y186.819 E14.769
G1 X176.189 Y188.843 E14.89637
G1 X174.726 Y190.86 E15.02068
G1 X172.935 Y193.477 E15.17889
G1 X172.543 Y194.013 E15.21202
G1 X172.098 Y194.57 E15.24759
G1 X171.719 Y195.018 E15.27686
G1 X171.298 Y195.487 E15.30831
G1 X170.797 Y195.999 E15.34404
G1 X170.374 Y196.407 E15.37336
G1 X169.889 Y196.847 E15.40603
G1 X169.29 Y197.345 E15.4449
G1 X168.834 Y197.7 E15.47373
G1 X168.349 Y198.056 E15.50374
G1 X167.728 Y198.473 E15.54106
G1 X167.252 Y198.773 E15.56913
G1 X166.675 Y199.112 E15.60252
G1 X166.009 Y199.465 E15.64013
G1 X165.497 Y199.717 E15.6686
G1 X164.989 Y199.951 E15.6965
G1 X164.211 Y200.269 E15.73843
G1 X163.657 Y200.473 E15.76789
G1 X162.617 Y200.814 E15.82249
G1 X161.438 Y201.164 E15.88385
G1 X159.492 Y201.721 E15.98483
G1 X158.279 Y202.053 E16.04758
G1 X155.497 Y202.78 E16.19103
G1 X154.352 Y203.068 E16.24993
G1 X151.584 Y203.727 E16.39189
G1 X150.158 Y204.049 E16.46483
G1 X147.602 Y204.636 E16.59566
G1 X145.138 Y205.275 E16.72266
G1 X142.721 Y205.974 E16.84819
G1 X140.334 Y206.74 E16.97326
G1 X137.91 Y207.593 E17.10146
G1 X135.624 Y208.472 E17.22365
G1 X133.281 Y209.449 E17.3503
G1 X131.524 Y210.253 E17.4467
G1 X130.219 Y210.838 E17.51804
G1 X129.358 Y211.18 E17.56426
G1 X128.47 Y211.447 E17.61053
G1 X127.562 Y211.636 E17.6568
G1 X126.642 Y211.747 E17.70303
G1 X126.042 Y211.776 E17.733
G1 X125.01 Y211.797 E17.7845
G1 X120.24 Y211.8 E18.02247
G1 X119.418 Y211.787 E18.06349
G1 X118.81 Y211.76 E18.09385
G1 X118.108 Y211.708 E18.12897
G1 X116.651 Y211.58 E18.20194
G1 X114.125 Y211.429 E18.32819
G1 X111.579 Y211.347 E18.45527
G1 X109.077 Y211.34 E18.5801
G1 X106.548 Y211.402 E18.70631
G1 X104.009 Y211.538 E18.83316
G1 X102.675 Y211.647 E18.89994
G1 X101.343 Y211.747 E18.96658
G1 X100.756 Y211.775 E18.9959
G1 X99.656 Y211.797 E19.05079
G1 X94.84 Y211.8 E19.29106
G1 X94.016 Y211.787 E19.33217
G1 X93.091 Y211.731 E19.37841
G1 X92.173 Y211.596 E19.4247
G1 X91.271 Y211.382 E19.47095
G1 X90.391 Y211.091 E19.51719
G1 X89.634 Y210.77 E19.55821
G1 X87.067 Y209.599 E19.69898
G1 X84.737 Y208.617 E19.82512
G1 X82.386 Y207.702 E19.95098
G1 X80.027 Y206.86 E20.07595
G1 X77.586 Y206.067 E20.20399
G1 X75.215 Y205.37 E20.32729
G1 X72.743 Y204.719 E20.45482
G1 X68.52 Y203.75 E20.67098
G1 X65.764 Y203.095 E20.81231
G1 X64.603 Y202.805 E20.87201
G1 X61.786 Y202.069 E21.01727
G1 X60.647 Y201.758 E21.07618
G1 X58.051 Y201.017 E21.21086
G1 X57.291 Y200.791 E21.25042
G1 X56.479 Y200.525 E21.29305
G1 X55.761 Y200.266 E21.33113
G1 X55.225 Y200.05 E21.35996
G1 X54.545 Y199.743 E21.39719
G1 X54.001 Y199.477 E21.4274
G1 X53.436 Y199.18 E21.45924
G1 X52.798 Y198.808 E21.49609
G1 X52.299 Y198.497 E21.52542
G1 X51.782 Y198.154 E21.55638
G1 X51.16 Y197.7 E21.59479
G1 X50.698 Y197.34 E21.62401
G1 X50.246 Y196.968 E21.65322
G1 X49.662 Y196.442 E21.69243
G1 X49.219 Y196.017 E21.72306
G1 X48.832 Y195.626 E21.75051
G1 X48.296 Y195.037 E21.79024
G1 X47.916 Y194.59 E21.81951
G1 X47.57 Y194.162 E21.84697
G1 X47.088 Y193.508 E21.8875
G1 X46.032 Y191.972 E21.98049
G1 X45.74 Y191.538 E22.00659
G1 X44.292 Y189.501 E22.13128
G1 X42.777 Y187.492 E22.25681
G1 X41.176 Y185.489 E22.38474
G1 X39.564 Y183.586 E22.50916
G1 X37.85 Y181.675 E22.63723
G1 X36.129 Y179.862 E22.76195
G1 X34.361 Y178.101 E22.88644
G1 X31.827 Y175.717 E23.06002
G1 X31.41 Y175.302 E23.08937
G1 X30.881 Y174.728 E23.12831
G1 X30.48 Y174.264 E23.15891
G1 X30.036 Y173.716 E23.1941
G1 X29.733 Y173.309 E23.21941
G1 X28.111 Y171.039 E23.3586
G1 X26.608 Y169.053 E23.48286
G1 X25.021 Y167.078 E23.60926
G1 X23.332 Y165.091 E23.73937
G1 X22.762 Y164.36 E23.78562
G1 X22.258 Y163.582 E23.83186
G1 X21.823 Y162.763 E23.87813
G1 X21.459 Y161.91 E23.9244
G1 X21.171 Y161.029 E23.97064
G1 X20.959 Y160.126 E24.01692
G1 X20.826 Y159.209 E24.06314
G1 X20.772 Y158.178 E24.11465
G1 X20.767 Y157.097 E24.16858
G1 X20.841 Y152.284 E24.40873
G1 X20.867 Y151.401 E24.45281
G1 X20.901 Y150.815 E24.48209
G1 X21.113 Y147.932 E24.62631
G1 X21.222 Y145.467 E24.74941
G1 X21.263 Y142.894 E24.8778
G1 X21.232 Y140.391 E25.00268
G1 X21.131 Y137.918 E25.12616
G1 X20.845 Y134.119 E25.31623
G1 X20.771 Y132.883 E25.37801
G1 X20.766 Y131.751 E25.43448
G1 X20.841 Y126.887 E25.67718
G1 X20.867 Y126.005 E25.7212
G1 X20.935 Y125.08 E25.76747
G1 X21.082 Y124.165 E25.81371
G1 X21.308 Y123.265 E25.86
G1 X21.61 Y122.389 E25.90623
G1 X22.056 Y121.406 E25.96008
G1 X22.311 Y120.911 E25.98786
G1 X23.181 Y119.297 E26.07934
G1 X24.333 Y117.018 E26.20674
G1 X25.395 Y114.759 E26.33127
G1 X26.403 Y112.448 E26.45706
G1 X27.367 Y110.061 E26.58549
G1 X28.226 Y107.734 E26.70925
G1 X29.042 Y105.323 E26.83623
G1 X29.785 Y102.906 E26.96239
G1 X30.285 Y101.127 E27.05458
G1 X30.883 Y98.915 E27.1689
G1 X31.254 Y97.605 E27.23683
G1 X32.039 Y94.961 E27.37443
G1 X32.437 Y93.678 E27.44145
G1 X33.272 Y91.1 E27.57664
G1 X33.716 Y89.784 E27.64593
G1 X34.621 Y87.209 E27.7821
G1 X35.09 Y85.925 E27.8503
G1 X36.042 Y83.418 E27.98409
G1 X36.564 Y82.094 E28.05509
G1 X37.595 Y79.566 E28.1913
G1 X38.11 Y78.347 E28.25732
G1 X39.194 Y75.868 E28.39231
G1 X39.769 Y74.595 E28.462
G1 X40.918 Y72.139 E28.59727
G1 X41.515 Y70.898 E28.66598
G1 X42.741 Y68.436 E28.80319
G1 X43.344 Y67.261 E28.86908
G1 X44.622 Y64.843 E29.00553
G1 X45.265 Y63.663 E29.07257
G1 X46.217 Y61.966 E29.16965
G1 X47.457 Y59.682 E29.29931
G1 X48.611 Y57.406 E29.42662
G1 X49.676 Y55.15 E29.55109
G1 X50.691 Y52.831 E29.67738
G1 X51.658 Y50.445 E29.80582
G1 X52.519 Y48.122 E29.92942
G1 X53.327 Y45.746 E30.05463
G1 X54.081 Y43.309 E30.18189
G1 X54.757 Y40.876 E30.30788
G1 X55.364 Y38.427 E30.43375
G1 X55.901 Y35.974 E30.55903
G1 X56.365 Y33.501 E30.68456
G1 X56.765 Y30.997 E30.81107
G1 X57.096 Y28.459 E30.93877
G1 X57.321 Y26.299 E31.04711
G1 X57.423 Y25.379 E31.09329
G1 X57.538 Y24.677 E31.12878
G1 X57.666 Y24.016 E31.16237
G1 X57.81 Y23.378 E31.195
G1 X58.012 Y22.629 E31.23371
G1 X58.187 Y22.049 E31.26393
G1 X58.376 Y21.48 E31.29384
G0 F9000 X58.846 Y21.651
G1 F1800 X59.14 Y20.878 E31.3351
G1 X59.394 Y20.273 E31.36784
G1 X59.61 Y19.793 E31.3941
G1 X59.948 Y19.119 E31.43172
G1 X60.258 Y18.546 E31.46422
G1 X60.542 Y18.053 E31.4926
G1 X60.979 Y17.364 E31.53331
G1 X61.335 Y16.841 E31.56487
G1 X61.687 Y16.355 E31.59481
G1 X62.154 Y15.764 E31.63239
G1 X62.561 Y15.28 E31.66394
G1 X62.915 Y14.881 E31.69055
G1 X63.479 Y14.295 E31.73113
G1 X63.956 Y13.832 E31.76429
G1 X64.381 Y13.442 E31.79307
G1 X64.948 Y12.965 E31.83004
G1 X65.484 Y12.542 E31.8641
G1 X65.936 Y12.205 E31.89223
G1 X66.572 Y11.77 E31.93067
G1 X67.114 Y11.424 E31.96275
G1 X67.627 Y11.117 E31.99258
G1 X68.287 Y10.76 E32.03002
G1 X68.879 Y10.463 E32.06306
G1 X69.408 Y10.216 E32.09219
G1 X70.089 Y9.932 E32.129
G1 X70.704 Y9.697 E32.16184
G1 X71.265 Y9.501 E32.19149
G1 X71.976 Y9.286 E32.22855
G1 X72.605 Y9.116 E32.26106
G1 X73.167 Y8.981 E32.28989
G1 X73.843 Y8.848 E32.32427
G1 X74.552 Y8.73 E32.36012
G1 X75.108 Y8.653 E32.38813
G1 X75.794 Y8.589 E32.4225
G1 X76.488 Y8.545 E32.45719
G1 X77.205 Y8.521 E32.49299
G1 X78.132 Y8.532 E32.53924
G1 X79.105 Y8.587 E32.58786
G1 X79.682 Y8.643 E32.61678
G1 X80.422 Y8.746 E32.65405
G1 X81.092 Y8.861 E32.68797
G1 X81.702 Y8.985 E32.71903
G1 X82.403 Y9.159 E32.75506
G1 X83.11 Y9.357 E32.79169
G1 X85.768 Y10.143 E32.92997
G1 X88.234 Y10.796 E33.05724
G1 X90.683 Y11.373 E33.18277
G1 X93.192 Y11.89 E33.31057
G1 X95.683 Y12.328 E33.43676
G1 X98.191 Y12.697 E33.56323
G1 X100.712 Y12.996 E33.68988
G1 X103.247 Y13.224 E33.81687
G1 X105.792 Y13.38 E33.94407
G1 X108.297 Y13.464 E34.06912
G1 X110.858 Y13.476 E34.19689
G1 X113.394 Y13.416 E34.32345
G1 X115.919 Y13.286 E34.44959
G1 X118.438 Y13.084 E34.57566
G1 X120.969 Y12.808 E34.70268
G1 X123.506 Y12.46 E34.83044
G1 X126.003 Y12.044 E34.95673
G1 X128.469 Y11.562 E35.08209
G1 X130.988 Y10.995 E35.21091
G1 X133.388 Y10.382 E35.33449
G1 X136.417 Y9.51 E35.49174
G1 X136.969 Y9.344 E35.5205
G1 X137.571 Y9.174 E35.55171
G1 X138.14 Y9.031 E35.58098
G1 X138.877 Y8.877 E35.61854
G1 X139.504 Y8.766 E35.65031
G1 X140.068 Y8.682 E35.67876
G1 X140.784 Y8.607 E35.71468
G1 X141.479 Y8.555 E35.74945
G1 X142.013 Y8.529 E35.77612
G1 X142.63 Y8.521 E35.8069
G1 X143.142 Y8.527 E35.83245
G1 X144.058 Y8.568 E35.8782
G1 X144.649 Y8.618 E35.90779
G1 X145.31 Y8.702 E35.94103
G1 X146.026 Y8.815 E35.97719
G1 X146.622 Y8.927 E36.00745
G1 X147.358 Y9.1 E36.04517
G1 X148.009 Y9.274 E36.07879
G1 X148.573 Y9.442 E36.10815
G1 X149.279 Y9.685 E36.1454
G1 X149.886 Y9.915 E36.17778
G1 X150.417 Y10.133 E36.20642
G1 X151.113 Y10.454 E36.24466
G1 X151.685 Y10.739 E36.27654
G1 X152.203 Y11.016 E36.30585
G1 X152.839 Y11.39 E36.34266
G1 X153.393 Y11.74 E36.37535
G1 X153.869 Y12.061 E36.40399
G1 X154.483 Y12.511 E36.44197
G1 X155 Y12.916 E36.47474
G1 X155.447 Y13.287 E36.50372
G1 X155.997 Y13.785 E36.54073
G1 X156.488 Y14.258 E36.57475
G1 X156.893 Y14.67 E36.60357
G1 X157.422 Y15.257 E36.64299
G1 X157.832 Y15.742 E36.67468
G1 X158.183 Y16.18 E36.70268
G1 X158.617 Y16.772 E36.7393
G1 X158.996 Y17.322 E36.77263
G1 X159.329 Y17.838 E36.80326
