;FLAVOR:Marlin
;TIME:2453
;Filament used: 5.10852m
;Layer height: 0.24
;MINX:30.982
;MINY:18.442
;MINZ:0.24
;MAXX:189.018
;MAXY:201.559
;MAXZ:4.88
;Generated with Cura_SteamEngine 4.5.0
M140 S50
M105
M190 S50
M104 S230
M105
M109 S230
M82 ;absolute extrusion mode
M201 X500.00 Y500.00 Z100.00 E5000.00 ;Setup machine max acceleration
M203 X500.00 Y500.00 Z10.00 E50.00 ;Setup machine max feedrate
M204 P500.00 R1000.00 T500.00 ;Setup Print/Retract/Travel acceleration
M205 X8.00 Y8.00 Z0.40 E5.00 ;Setup Jerk
M220 S100 ;Reset Feedrate
M221 S100 ;Reset Flowrate

G28 ;Home

G92 E0 ;Reset Extruder
G1 Z2.0 F3000 ;Move Z Axis up
G1 X10.1 Y20 Z0.28 F5000.0 ;Move to start position
G1 X10.1 Y200.0 Z0.28 F1500.0 E15 ;Draw the first line
G1 X10.4 Y200.0 Z0.28 F5000.0 ;Move to side a little
G1 X10.4 Y20 Z0.28 F1500.0 E30 ;Draw the second line
G92 E0 ;Reset Extruder
G1 Z2.0 F3000 ;Move Z Axis up

G92 E0
G92 E0
G1 F1800 E-3
;LAYER_COUNT:21
;LAYER:0
M107
;MESH:Object 1
G0 F9000 X182.812 Y131.045 Z0.24
;TYPE:WALL-INNER
G1 F1800 E0
G1 F3600 X182.671 Y129.382 E0.08327
G1 X182.649 Y129.116 E0.09658
G1 X182.915 Y129.113 E0.10499
G1 X182.916 Y129.112 E0.10506
G1 X186.282 Y129.058 E0.27301
G1 X186.31 Y130.746 E0.35724
G1 X186.314 Y130.996 E0.36971
G1 X186.064 Y130.999 E0.37777
G1 X182.812 Y131.045 E0.54003
G0 F9000 X182.762 Y131.546
G1 F3600 X182.776 Y131.805 E0.55297
G1 X182.806 Y132.336 E0.5795
G1 X183.023 Y136.157 E0.77044
G1 X183.11 Y138.408 E0.88283
G1 X183.142 Y139.491 E0.93688
G1 X183.15 Y139.981 E0.96133
G1 X183.181 Y141.739 E1.04905
G1 X183.187 Y142.826 E1.10328
G1 X183.184 Y143.809 E1.15233
G1 X183.179 Y145.072 E1.21534
G1 X183.159 Y146.164 E1.26983
G1 X183.123 Y147.635 E1.34324
G1 X183.103 Y148.402 E1.38152
G1 X182.968 Y151.459 E1.53418
G1 X182.897 Y153.067 E1.61448
G1 X187.167 Y152.987 E1.82755
G1 X187.231 Y156.886 E2.0221
G1 X182.642 Y156.952 E2.25107
G1 X182.589 Y156.952 E2.25371
G1 X182.369 Y159.096 E2.36124
G1 X182.358 Y159.201 E2.3665
G1 X182.181 Y160.822 E2.44786
G1 X181.988 Y162.421 E2.52821
G1 X181.913 Y162.935 E2.55413
G1 X181.885 Y163.125 E2.56371
G1 X181.797 Y163.621 E2.58884
G1 X181.743 Y163.807 E2.5985
G1 X181.588 Y164.334 E2.62591
G1 X181.455 Y164.665 E2.6437
G1 X181.312 Y165.018 E2.66271
G1 X181.062 Y165.485 E2.68913
G1 X180.958 Y165.679 E2.70011
G1 X180.576 Y166.25 E2.73439
G1 X180.559 Y166.275 E2.7359
G1 X180.08 Y166.851 E2.77327
G1 X179.961 Y166.968 E2.7816
G1 X179.556 Y167.364 E2.80986
G1 X179.288 Y167.577 E2.82694
G1 X178.968 Y167.83 E2.84729
G1 X178.547 Y168.098 E2.87219
G1 X178.352 Y168.223 E2.88374
G1 X177.747 Y168.527 E2.91752
G1 X177.709 Y168.546 E2.91964
G1 X176.993 Y168.816 E2.95782
G1 X176.86 Y168.851 E2.96468
G1 X176.301 Y169 E2.99354
G1 X175.997 Y169.048 E3.0089
G1 X175.499 Y169.128 E3.03406
G1 X175.079 Y169.179 E3.05517
G1 X174.548 Y169.245 E3.08186
G1 X174.072 Y169.335 E3.10603
G1 X173.475 Y169.448 E3.13635
G1 X173.119 Y169.551 E3.15484
G1 X172.406 Y169.757 E3.19186
G1 X172.196 Y169.84 E3.20313
G1 X171.372 Y170.166 E3.24734
G1 X171.305 Y170.2 E3.25109
G1 X170.403 Y170.659 E3.30158
G1 X170.382 Y170.67 E3.30276
G1 X169.576 Y171.178 E3.35029
G1 X169.442 Y171.263 E3.35821
G1 X168.807 Y171.757 E3.39835
G1 X168.565 Y171.945 E3.41364
G1 X168.063 Y172.415 E3.44795
G1 X167.755 Y172.704 E3.46902
G1 X167.406 Y173.099 E3.49531
G1 X167.019 Y173.535 E3.5244
G1 X166.774 Y173.873 E3.54523
G1 X166.364 Y174.436 E3.57997
G1 X166.238 Y174.649 E3.59232
G1 X165.797 Y175.392 E3.63542
G1 X165.746 Y175.5 E3.64138
G1 X165.323 Y176.397 E3.69086
G1 X165.316 Y176.419 E3.69201
G1 X164.981 Y177.342 E3.741
G1 X164.945 Y177.442 E3.7463
G1 X164.734 Y178.264 E3.78864
G1 X164.668 Y178.518 E3.80174
G1 X164.556 Y179.223 E3.83735
G1 X164.493 Y179.614 E3.85711
G1 X164.457 Y180.183 E3.88555
G1 X164.422 Y180.724 E3.9126
G1 X164.434 Y181.166 E3.93466
G1 X164.455 Y181.923 E3.97244
G1 X164.473 Y182.571 E4.00478
G1 X164.458 Y182.773 E4.01489
G1 X164.418 Y183.31 E4.04175
G1 X164.351 Y183.684 E4.06071
G1 X164.287 Y184.033 E4.07841
G1 X164.13 Y184.577 E4.10666
G1 X164.089 Y184.717 E4.11394
G1 X163.806 Y185.421 E4.15179
G1 X163.781 Y185.469 E4.15449
G1 X163.471 Y186.058 E4.1877
G1 X163.331 Y186.268 E4.20029
G1 X163.064 Y186.668 E4.22428
G1 X162.785 Y187.005 E4.24611
G1 X162.593 Y187.238 E4.26117
G1 X162.153 Y187.672 E4.29201
G1 X162.07 Y187.755 E4.29786
G1 X161.496 Y188.215 E4.33456
G1 X161.406 Y188.273 E4.3399
G1 X160.894 Y188.606 E4.37037
G1 X160.612 Y188.749 E4.38615
G1 X160.218 Y188.95 E4.40821
G1 X159.543 Y189.212 E4.44434
G1 X158.906 Y189.4 E4.47747
G1 X158.741 Y189.449 E4.48606
G1 X158.245 Y189.596 E4.51187
G1 X155.678 Y190.329 E4.64506
G1 X151.959 Y191.302 E4.83684
G1 X148.268 Y192.181 E5.02614
G1 X144.521 Y192.987 E5.21735
G1 X140.785 Y193.704 E5.40714
G1 X137.024 Y194.339 E5.59744
G1 X133.231 Y194.896 E5.7887
G1 X129.444 Y195.367 E5.97909
G1 X124.54 Y195.865 E6.22501
G1 X124.551 Y199.549 E6.40881
G1 X124.551 Y199.799 E6.42128
G1 X124.301 Y199.799 E6.42935
G1 X121.101 Y199.8 E6.589
G1 X120.851 Y199.8 E6.60147
G1 X120.851 Y199.55 E6.60954
G1 X120.86 Y196.403 E6.76654
G1 X120.86 Y196.402 E6.76659
G1 X120.86 Y196.142 E6.77957
G1 X120.6 Y196.153 E6.78787
G1 X115.726 Y196.365 E7.03126
G1 X111.899 Y196.45 E7.22224
G1 X108.1 Y196.45 E7.41177
G1 X104.275 Y196.366 E7.60265
G1 X99.398 Y196.151 E7.8462
G1 X99.138 Y196.14 E7.85918
G1 X99.138 Y196.4 E7.86748
G1 X99.138 Y196.401 E7.86753
G1 X99.149 Y199.799 E8.03705
G1 X95.701 Y199.8 E8.20908
G1 X95.451 Y199.8 E8.22155
G1 X95.451 Y199.55 E8.22962
G1 X95.46 Y195.867 E8.41336
G1 X90.557 Y195.366 E8.65925
G1 X86.77 Y194.895 E8.84964
G1 X82.977 Y194.339 E9.0409
G1 X79.216 Y193.703 E9.2312
G1 X75.48 Y192.985 E9.421
G1 X71.732 Y192.18 E9.61225
G1 X68.042 Y191.303 E9.80147
G1 X64.323 Y190.328 E9.99328
G1 X60.919 Y189.357 E10.16989
G1 X60.751 Y189.309 E10.1786
G1 X60.702 Y189.295 E10.18114
G1 X59.966 Y189.037 E10.22005
G1 X59.487 Y188.811 E10.24648
G1 X59.309 Y188.727 E10.2563
G1 X58.833 Y188.438 E10.28408
G1 X58.684 Y188.347 E10.29279
G1 X58.16 Y187.951 E10.32556
G1 X58.088 Y187.896 E10.33008
G1 X57.566 Y187.41 E10.36566
G1 X57.489 Y187.322 E10.37149
G1 X57.072 Y186.848 E10.40299
G1 X56.926 Y186.641 E10.41563
G1 X56.651 Y186.254 E10.43931
G1 X56.449 Y185.895 E10.45987
G1 X56.285 Y185.606 E10.47644
G1 X56.064 Y185.101 E10.50395
G1 X55.996 Y184.945 E10.51244
G1 X55.779 Y184.264 E10.54809
G1 X55.773 Y184.248 E10.54895
G1 X55.769 Y184.228 E10.54996
G1 X55.618 Y183.521 E10.58603
G1 X55.601 Y183.36 E10.59411
G1 X55.542 Y182.799 E10.62225
G1 X55.542 Y182.494 E10.63747
G1 X55.54 Y182.041 E10.66007
G1 X55.553 Y181.576 E10.68328
G1 X55.569 Y181.04 E10.71003
G1 X55.553 Y180.556 E10.73419
G1 X55.531 Y179.948 E10.76454
G1 X55.485 Y179.589 E10.7826
G1 X55.389 Y178.846 E10.81998
G1 X55.341 Y178.632 E10.83092
G1 X55.142 Y177.761 E10.87549
G1 X55.112 Y177.668 E10.88037
G1 X54.807 Y176.735 E10.92934
G1 X54.797 Y176.706 E10.93087
G1 X54.413 Y175.83 E10.97859
G1 X54.351 Y175.688 E10.98632
G1 X53.955 Y174.973 E11.0271
G1 X53.813 Y174.716 E11.04174
G1 X53.435 Y174.163 E11.07516
G1 X53.185 Y173.798 E11.09723
G1 X52.837 Y173.381 E11.12433
G1 X52.473 Y172.945 E11.15267
G1 X52.187 Y172.661 E11.17278
G1 X51.686 Y172.162 E11.20805
G1 X51.482 Y171.995 E11.22121
G1 X50.827 Y171.456 E11.26353
G1 X50.724 Y171.386 E11.26974
G1 X49.905 Y170.833 E11.31904
G1 X49.021 Y170.351 E11.36928
G1 X48.929 Y170.301 E11.3745
G1 X48.159 Y169.97 E11.41631
G1 X47.909 Y169.863 E11.42988
G1 X47.219 Y169.641 E11.46604
G1 X46.85 Y169.522 E11.48539
G1 X46.295 Y169.401 E11.51373
G1 X45.764 Y169.284 E11.54085
G1 X45.741 Y169.282 E11.542
G1 X45.311 Y169.229 E11.56362
G1 X44.579 Y169.137 E11.60043
G1 X43.932 Y169.055 E11.63296
G1 X43.743 Y169.011 E11.64264
G1 X43.212 Y168.886 E11.66986
G1 X42.872 Y168.769 E11.6878
G1 X42.509 Y168.643 E11.70697
G1 X42.034 Y168.422 E11.73311
G1 X41.838 Y168.33 E11.74391
G1 X41.243 Y167.975 E11.77848
G1 X41.21 Y167.955 E11.7804
G1 X40.622 Y167.516 E11.81701
G1 X40.495 Y167.399 E11.82563
G1 X40.077 Y167.014 E11.85398
G1 X39.853 Y166.762 E11.8708
G1 X39.584 Y166.459 E11.89101
G1 X39.291 Y166.048 E11.91619
G1 X39.157 Y165.86 E11.92771
G1 X38.821 Y165.273 E11.96146
G1 X38.795 Y165.228 E11.96405
G1 X38.497 Y164.547 E12.00114
G1 X38.451 Y164.402 E12.00872
G1 X38.268 Y163.839 E12.03826
G1 X38.208 Y163.555 E12.05274
G1 X38.11 Y163.096 E12.07616
G1 X38.087 Y162.936 E12.08422
G1 X38.014 Y162.428 E12.10983
G1 X37.87 Y161.275 E12.1678
G1 X37.688 Y159.658 E12.24898
G1 X37.631 Y159.097 E12.27711
G1 X37.411 Y156.952 E12.38469
G1 X32.77 Y156.886 E12.61625
G1 X32.832 Y152.988 E12.81075
G1 X37.102 Y153.067 E13.02381
G1 X37.032 Y151.46 E13.10406
G1 X36.898 Y148.404 E13.25667
G1 X36.879 Y147.636 E13.295
G1 X36.84 Y146.164 E13.36847
G1 X36.822 Y145.078 E13.42265
G1 X36.817 Y143.81 E13.48592
G1 X36.812 Y142.845 E13.53406
G1 X36.82 Y141.757 E13.58834
G1 X36.849 Y139.982 E13.67691
G1 X36.857 Y139.514 E13.70026
G1 X36.891 Y138.424 E13.75467
G1 X36.976 Y136.167 E13.86735
G1 X36.976 Y136.15 E13.8682
G1 X37.192 Y132.337 E14.05873
G1 X37.237 Y131.552 E14.09796
G1 X32.77 Y131.49 E14.32084
G1 X32.817 Y128.549 E14.46759
G1 X37.491 Y128.624 E14.70081
G1 X37.504 Y128.507 E14.70668
G1 X37.947 Y124.712 E14.8973
G1 X38.064 Y123.711 E14.94758
G1 X38.431 Y121.088 E15.07972
G1 X38.455 Y120.917 E15.08833
G1 X38.594 Y119.96 E15.13658
G1 X39.063 Y117.139 E15.27925
G1 X39.213 Y116.239 E15.32477
G1 X39.764 Y113.374 E15.47032
G1 X39.93 Y112.515 E15.51397
G1 X40.558 Y109.63 E15.66128
G1 X40.737 Y108.81 E15.70315
G1 X41.367 Y106.21 E15.83662
G1 X41.442 Y105.904 E15.85234
G1 X41.637 Y105.121 E15.89259
G1 X42.424 Y102.206 E16.04323
G1 X42.623 Y101.468 E16.08136
G1 X43.497 Y98.529 E16.23434
G1 X43.705 Y97.832 E16.27063
G1 X44.662 Y94.881 E16.4254
G1 X44.875 Y94.225 E16.45981
G1 X45.916 Y91.265 E16.61635
G1 X46.141 Y90.625 E16.6502
G1 X47.259 Y87.681 E16.80731
G1 X47.481 Y87.098 E16.83843
G1 X48.693 Y84.13 E16.99838
G1 X48.922 Y83.57 E17.02856
G1 X50.215 Y80.615 E17.18948
G1 X50.432 Y80.12 E17.21645
G1 X51.825 Y77.143 E17.38042
G1 X52.04 Y76.684 E17.40571
G1 X53.52 Y73.711 E17.5714
G1 X53.741 Y73.268 E17.5961
G1 X55.299 Y70.321 E17.76241
G1 X55.502 Y69.938 E17.78403
G1 X57.165 Y66.977 E17.95346
G1 X57.359 Y66.633 E17.97316
G1 X59.114 Y63.682 E18.14446
G1 X59.31 Y63.353 E18.16356
G1 X61.143 Y60.435 E18.33548
G1 X61.318 Y60.156 E18.35191
G1 X63.253 Y57.241 E18.52647
G1 X63.411 Y57.003 E18.54072
G1 X65.443 Y54.1 E18.71751
G1 X65.603 Y53.871 E18.73144
G1 X67.709 Y51.014 E18.90852
G1 X67.834 Y50.845 E18.91901
G1 X70.053 Y47.986 E19.09957
G1 X70.174 Y47.83 E19.10942
G1 X72.47 Y45.019 E19.29049
G1 X72.557 Y44.912 E19.29737
G1 X74.962 Y42.112 E19.48152
G1 X75.033 Y42.03 E19.48693
G1 X77.526 Y39.267 E19.6726
G1 X77.569 Y39.219 E19.67581
G1 X80.159 Y36.49 E19.86352
G1 X80.178 Y36.47 E19.86489
G1 X82.898 Y33.741 E20.05712
G1 X83.017 Y33.61 E20.06595
G1 X83.329 Y33.267 E20.08908
G1 X83.538 Y32.995 E20.1062
G1 X83.885 Y32.542 E20.13467
G1 X83.994 Y32.356 E20.14542
G1 X84.358 Y31.736 E20.18129
G1 X84.386 Y31.672 E20.18478
G1 X84.715 Y30.919 E20.22577
G1 X84.732 Y30.88 E20.2279
G1 X84.943 Y30.179 E20.26442
G1 X85.001 Y29.986 E20.27447
G1 X85.104 Y29.403 E20.30401
G1 X85.164 Y29.064 E20.32118
G1 X85.186 Y28.626 E20.34306
G1 X85.212 Y28.13 E20.36784
G1 X85.193 Y27.85 E20.38185
G1 X85.149 Y27.2 E20.41435
G1 X85.122 Y27.053 E20.4218
G1 X84.977 Y26.282 E20.46094
G1 X84.731 Y25.504 E20.50165
G1 X84.695 Y25.391 E20.50757
G1 X84.424 Y24.793 E20.54032
G1 X84.308 Y24.539 E20.55426
G1 X84.038 Y24.094 E20.58022
G1 X83.823 Y23.741 E20.60084
G1 X83.609 Y23.469 E20.61811
G1 X83.245 Y23.006 E20.64749
G1 X83.091 Y22.852 E20.65836
G1 X82.583 Y22.344 E20.6942
G1 X82.545 Y22.314 E20.69662
G1 X81.889 Y21.799 E20.73823
G1 X81.848 Y21.767 E20.74082
G1 X81.21 Y21.379 E20.77807
G1 X81.049 Y21.281 E20.78748
G1 X80.535 Y21.049 E20.81561
G1 X80.198 Y20.896 E20.83408
G1 X79.778 Y20.763 E20.85606
G1 X79.306 Y20.613 E20.88077
G1 X79.045 Y20.565 E20.894
G1 X78.384 Y20.442 E20.92755
G1 X78.253 Y20.434 E20.9341
G1 X77.701 Y20.397 E20.9617
G1 X77.456 Y20.38 E20.97395
G1 X77.236 Y20.391 E20.98494
G1 X76.769 Y20.416 E21.00827
G1 X76.418 Y20.464 E21.02595
G1 X75.865 Y20.541 E21.0538
G1 X75.664 Y20.594 E21.06417
G1 X74.963 Y20.779 E21.10034
G1 X74.907 Y20.801 E21.10334
G1 X74.133 Y21.107 E21.14487
G1 X74.093 Y21.123 E21.14702
G1 X73.439 Y21.478 E21.18414
G1 X73.271 Y21.57 E21.1937
G1 X72.796 Y21.908 E21.22278
G1 X72.51 Y22.112 E21.24031
G1 X72.189 Y22.403 E21.26193
G1 X71.819 Y22.738 E21.28683
G1 X71.628 Y22.958 E21.30136
G1 X71.207 Y23.445 E21.33348
G1 X71.138 Y23.547 E21.33962
G1 X70.683 Y24.218 E21.38007
G1 X70.318 Y24.931 E21.42003
G1 X70.258 Y25.048 E21.42659
G1 X70.026 Y25.671 E21.45976
G1 X69.932 Y25.924 E21.47322
G1 X69.812 Y26.428 E21.49907
G1 X69.722 Y26.804 E21.51836
G1 X69.714 Y26.834 E21.51991
G1 X69.672 Y27.202 E21.53839
G1 X69.607 Y27.763 E21.56656
G1 X69.607 Y27.953 E21.57604
G1 X69.611 Y28.699 E21.61326
G1 X69.618 Y28.761 E21.61637
G1 X69.722 Y29.573 E21.65722
G1 X69.729 Y29.626 E21.65988
G1 X69.905 Y30.34 E21.69657
G1 X69.953 Y30.532 E21.70644
G1 X70.161 Y31.075 E21.73545
G1 X70.289 Y31.406 E21.75316
G1 X70.49 Y31.792 E21.77487
G1 X70.721 Y32.234 E21.79975
G1 X70.875 Y32.456 E21.81323
G1 X71.255 Y33.004 E21.8465
G1 X71.337 Y33.098 E21.85273
G1 X71.773 Y33.591 E21.88556
G1 X71.851 Y33.704 E21.89241
G1 X71.892 Y33.763 E21.89599
G1 X71.905 Y33.813 E21.89857
G1 X71.909 Y33.825 E21.8992
G1 X71.904 Y33.883 E21.90211
G1 X71.882 Y33.929 E21.90465
G1 X71.831 Y33.98 E21.90825
G1 X71.781 Y34.003 E21.911
G1 X71.726 Y34.008 E21.91375
G1 X71.666 Y33.991 E21.91565
G1 X71.552 Y33.911 E21.92076
G1 X71.492 Y33.845 E21.92376
G1 X71.049 Y33.353 E21.949
G1 X70.955 Y33.225 E21.9552
G1 X70.555 Y32.679 E21.98104
G1 X70.404 Y32.421 E21.99253
G1 X70.142 Y31.974 E22.01234
G1 X69.953 Y31.56 E22.02977
G1 X69.796 Y31.216 E22.04428
G1 X69.604 Y30.652 E22.06699
G1 X69.529 Y30.434 E22.0759
G1 X69.363 Y29.711 E22.10419
G1 X69.342 Y29.622 E22.10788
G1 X69.24 Y28.81 E22.13914
G1 X69.238 Y28.708 E22.14323
G1 X69.22 Y27.955 E22.17189
G1 X69.237 Y27.734 E22.18047
G1 X69.283 Y27.158 E22.20256
G1 X69.353 Y26.769 E22.21766
G1 X69.431 Y26.338 E22.23464
G1 X69.578 Y25.823 E22.25506
G1 X69.661 Y25.536 E22.26653
G1 X69.913 Y24.91 E22.29222
G1 X69.975 Y24.756 E22.29871
G1 X70.346 Y24.046 E22.32929
G1 X70.369 Y24.011 E22.33112
G1 X70.819 Y23.331 E22.36217
G1 X70.918 Y23.21 E22.36828
G1 X71.332 Y22.703 E22.39328
G1 X71.558 Y22.477 E22.40557
G1 X71.924 Y22.112 E22.42536
G1 X72.277 Y21.826 E22.44277
G1 X72.568 Y21.589 E22.45717
G1 X73.067 Y21.261 E22.48001
G1 X73.253 Y21.138 E22.48863
G1 X73.92 Y20.792 E22.51721
G1 X73.993 Y20.754 E22.52055
G1 X74.766 Y20.446 E22.55216
G1 X74.86 Y20.42 E22.55607
G1 X75.565 Y20.219 E22.58397
G1 X75.8 Y20.178 E22.59315
G1 X76.364 Y20.077 E22.61494
G1 X76.741 Y20.049 E22.62942
G1 X77.216 Y20.013 E22.64724
G1 X77.458 Y20.014 E22.65638
G1 X77.726 Y20.017 E22.66652
G1 X78.278 Y20.047 E22.6877
G1 X78.443 Y20.073 E22.69427
G1 X79.115 Y20.182 E22.72024
G1 X79.4 Y20.257 E22.73157
G1 X79.896 Y20.389 E22.75118
G1 X80.327 Y20.552 E22.76878
G1 X80.696 Y20.691 E22.78388
G1 X81.214 Y20.95 E22.80601
G1 X81.41 Y21.048 E22.81447
G1 X82.047 Y21.45 E22.84313
G1 X82.124 Y21.499 E22.84681
G1 X82.78 Y22.013 E22.87856
G1 X82.843 Y22.073 E22.88208
G1 X83.366 Y22.577 E22.90983
G1 X83.526 Y22.766 E22.91938
G1 X83.917 Y23.226 E22.94243
G1 X84.127 Y23.531 E22.95666
G1 X84.373 Y23.889 E22.97331
G1 X84.631 Y24.362 E22.99388
G1 X84.778 Y24.631 E23.00564
G1 X85.038 Y25.245 E23.03106
G1 X85.098 Y25.387 E23.03711
G1 X85.339 Y26.17 E23.06838
G1 X85.345 Y26.189 E23.06937
G1 X85.348 Y26.208 E23.07033
G1 X85.502 Y26.981 E23.10046
G1 X85.519 Y27.164 E23.10762
G1 X85.582 Y27.823 E23.13284
G1 X85.58 Y28.132 E23.14471
G1 X85.576 Y28.646 E23.16429
G1 X85.528 Y29.102 E23.18172
G1 X85.488 Y29.47 E23.19583
G1 X85.363 Y30.062 E23.21884
G1 X85.314 Y30.29 E23.22785
G1 X85.089 Y30.994 E23.25601
G1 X85.064 Y31.071 E23.25929
G1 X84.735 Y31.824 E23.29049
G1 X84.683 Y31.917 E23.29472
G1 X84.327 Y32.551 E23.32229
G1 X84.185 Y32.753 E23.33174
G1 X83.847 Y33.231 E23.3539
