;FLAVOR:Marlin
;TIME:827
;Filament used: 0.208056m
;Layer height: 0.16
;MINX:88.661
;MINY:76.618
;MINZ:0.16
;MAXX:131.338
;MAXY:131.34
;MAXZ:3.96
;Generated with Cura_SteamEngine 4.5.0
M140 S70
M105
M190 S70
M104 S200
M105
M109 S200
M82 ;absolute extrusion mode
M201 X500.00 Y500.00 Z100.00 E5000.00 ;Setup machine max acceleration
M203 X500.00 Y500.00 Z10.00 E50.00 ;Setup machine max feedrate
M204 P500.00 R1000.00 T500.00 ;Setup Print/Retract/Travel acceleration
M205 X8.00 Y8.00 Z0.40 E5.00 ;Setup Jerk
M220 S100 ;Reset Feedrate
M221 S100 ;Reset Flowrate

G28 ;Home

G92 E0 ;Reset Extruder
G1 Z2.0 F3000 ;Move Z Axis up
G1 X10.1 Y20 Z0.28 F5000.0 ;Move to start position
G1 X10.1 Y200.0 Z0.28 F1500.0 E15 ;Draw the first line
G1 X10.4 Y200.0 Z0.28 F5000.0 ;Move to side a little
G1 X10.4 Y20 Z0.28 F1500.0 E30 ;Draw the second line
G92 E0 ;Reset Extruder
G1 Z2.0 F3000 ;Move Z Axis up

G92 E0
G92 E0
;LAYER_COUNT:21
;LAYER:0
M107
G0 F6000 X94.514 Y80.107 Z0.16
;TYPE:SKIRT
G1 F3000 X95.177 Y79.449 E0.04511
G1 X95.893 Y78.85 E0.09019
G1 X96.658 Y78.315 E0.13528
G1 X97.466 Y77.847 E0.18037
G1 X98.311 Y77.451 E0.22544
G1 X99.187 Y77.127 E0.27054
G1 X100.087 Y76.88 E0.31562
G1 X101.006 Y76.711 E0.36074
G1 X101.935 Y76.622 E0.40581
G1 X103.291 Y76.633 E0.4713
G1 X106.259 Y76.806 E0.61488
G1 X108.787 Y76.878 E0.73702
G1 X111.281 Y76.878 E0.85746
G1 X113.859 Y76.805 E0.98201
G1 X115.8 Y76.701 E1.07588
G1 X116.759 Y76.639 E1.12229
G1 X117.693 Y76.618 E1.16741
G1 X118.625 Y76.678 E1.21252
G1 X119.548 Y76.817 E1.25759
G1 X120.456 Y77.035 E1.30269
G1 X121.342 Y77.329 E1.34777
G1 X122.199 Y77.699 E1.39285
G1 X123.022 Y78.14 E1.43794
G1 X123.804 Y78.65 E1.48303
G1 X124.539 Y79.225 E1.5281
G1 X125.223 Y79.861 E1.57321
G1 X125.849 Y80.553 E1.61827
G1 X126.414 Y81.296 E1.66335
G1 X126.914 Y82.085 E1.70846
G1 X127.344 Y82.914 E1.75356
G1 X127.701 Y83.776 E1.79862
G1 X127.984 Y84.666 E1.84372
G1 X128.189 Y85.577 E1.88882
G1 X128.345 Y86.885 E1.95243
G1 X128.495 Y89.928 E2.09957
G1 X128.691 Y92.465 E2.22245
G1 X128.958 Y94.988 E2.34498
G1 X129.29 Y97.467 E2.46577
G1 X129.697 Y99.953 E2.58742
G1 X130.17 Y102.412 E2.70836
G1 X130.835 Y105.385 E2.85548
G1 X131.083 Y106.708 E2.92049
G1 X131.202 Y107.559 E2.96198
G1 X131.264 Y108.183 E2.99227
G1 X131.311 Y108.887 E3.02634
G1 X131.338 Y109.673 E3.06432
G1 X131.337 Y110.436 E3.10117
G1 X131.314 Y111.08 E3.13229
G1 X131.264 Y111.803 E3.16729
G1 X131.188 Y112.544 E3.20327
G1 X131.09 Y113.263 E3.23831
G1 X130.976 Y113.932 E3.27108
G1 X130.825 Y114.665 E3.30723
G1 X130.665 Y115.326 E3.34007
G1 X130.468 Y116.036 E3.37566
G1 X130.228 Y116.798 E3.41424
G1 X129.979 Y117.502 E3.4503
G1 X129.754 Y118.076 E3.48007
G1 X129.485 Y118.705 E3.51311
G1 X129.187 Y119.344 E3.54716
G1 X128.826 Y120.049 E3.58541
G1 X128.442 Y120.737 E3.62346
G1 X128.072 Y121.352 E3.65813
G1 X127.737 Y121.869 E3.68788
G1 X127.327 Y122.458 E3.72254
G1 X126.887 Y123.048 E3.75808
G1 X126.412 Y123.64 E3.79474
G1 X125.926 Y124.205 E3.83073
G1 X125.431 Y124.744 E3.86607
G1 X124.99 Y125.192 E3.89643
G1 X124.449 Y125.705 E3.93243
G1 X123.863 Y126.224 E3.97024
G1 X123.299 Y126.69 E4.00557
G1 X122.776 Y127.094 E4.03748
G1 X122.19 Y127.517 E4.07239
G1 X121.587 Y127.922 E4.10747
G1 X120.955 Y128.316 E4.14343
G1 X120.374 Y128.651 E4.17582
G1 X119.715 Y129.001 E4.21186
G1 X119.05 Y129.326 E4.2476
G1 X118.384 Y129.624 E4.28284
G1 X117.735 Y129.889 E4.3167
G1 X117.053 Y130.142 E4.35183
G1 X116.388 Y130.363 E4.38567
G1 X115.681 Y130.571 E4.42126
G1 X114.997 Y130.748 E4.45538
G1 X114.263 Y130.911 E4.49169
G1 X113.587 Y131.037 E4.5249
G1 X112.871 Y131.146 E4.55988
G1 X112.153 Y131.231 E4.59479
G1 X111.411 Y131.294 E4.63076
G1 X110.704 Y131.329 E4.66494
G1 X109.972 Y131.34 E4.7003
G1 X109.239 Y131.327 E4.7357
G1 X108.503 Y131.289 E4.77129
G1 X107.872 Y131.235 E4.80188
G1 X107.145 Y131.148 E4.83724
G1 X106.41 Y131.035 E4.87315
G1 X105.682 Y130.898 E4.90893
G1 X104.986 Y130.742 E4.94337
G1 X104.287 Y130.561 E4.97824
G1 X103.619 Y130.364 E5.01188
G1 X102.916 Y130.13 E5.04766
G1 X102.233 Y129.877 E5.08283
G1 X101.529 Y129.588 E5.11958
G1 X100.914 Y129.31 E5.15218
G1 X100.27 Y128.993 E5.18684
G1 X99.637 Y128.655 E5.2215
G1 X99.013 Y128.295 E5.25629
G1 X98.407 Y127.918 E5.29076
G1 X97.773 Y127.492 E5.32764
G1 X97.226 Y127.096 E5.36026
G1 X96.655 Y126.653 E5.39516
G1 X96.089 Y126.183 E5.43069
G1 X95.536 Y125.691 E5.46644
G1 X95.035 Y125.214 E5.49984
G1 X94.508 Y124.676 E5.53621
G1 X94.026 Y124.149 E5.5707
G1 X93.56 Y123.606 E5.60526
G1 X93.106 Y123.039 E5.64034
G1 X92.67 Y122.455 E5.67554
G1 X92.303 Y121.928 E5.70655
G1 X91.895 Y121.296 E5.74288
G1 X91.512 Y120.656 E5.7789
G1 X91.159 Y120.018 E5.81411
G1 X90.832 Y119.378 E5.84882
G1 X90.519 Y118.711 E5.8844
G1 X90.247 Y118.076 E5.91776
G1 X89.981 Y117.393 E5.95316
G1 X89.755 Y116.749 E5.98612
G1 X89.535 Y116.049 E6.02156
G1 X89.329 Y115.305 E6.05884
G1 X89.155 Y114.578 E6.09494
G1 X89.032 Y113.976 E6.12462
G1 X88.91 Y113.258 E6.15979
G1 X88.809 Y112.513 E6.19609
G1 X88.735 Y111.782 E6.23158
G1 X88.686 Y111.055 E6.26677
G1 X88.661 Y110.305 E6.30301
G1 X88.662 Y109.647 E6.33479
G1 X88.688 Y108.919 E6.36997
G1 X88.739 Y108.175 E6.40598
G1 X88.815 Y107.431 E6.4421
G1 X88.911 Y106.735 E6.47603
G1 X89.033 Y106.027 E6.51072
G1 X89.239 Y105.026 E6.56008
G1 X89.729 Y102.846 E6.66799
G1 X90.213 Y100.388 E6.78897
G1 X90.634 Y97.873 E6.91212
G1 X90.98 Y95.376 E7.03386
G1 X91.252 Y92.888 E7.15473
G1 X91.456 Y90.379 E7.2763
G1 X91.6 Y87.489 E7.41604
G1 X91.638 Y86.844 E7.44725
G1 X91.735 Y85.916 E7.49231
G1 X91.91 Y84.999 E7.53739
G1 X92.164 Y84.1 E7.58251
G1 X92.493 Y83.227 E7.62756
G1 X92.896 Y82.384 E7.67269
G1 X93.37 Y81.58 E7.71776
G1 X93.91 Y80.819 E7.76282
G1 X94.083 Y80.615 E7.77574
G0 F2700 X94.514 Y80.107
G0 F6000 X95.094 Y80.366
G1 F3000 X95.751 Y79.741 E7.81953
G1 X96.461 Y79.175 E7.86339
G1 X97.218 Y78.674 E7.90722
G1 X98.016 Y78.242 E7.95105
G1 X98.849 Y77.882 E7.99487
G1 X99.71 Y77.596 E8.03869
G1 X100.593 Y77.387 E8.08251
G1 X101.491 Y77.257 E8.12633
G1 X102.398 Y77.207 E8.1702
G1 X103.249 Y77.232 E8.21131
G1 X106.243 Y77.407 E8.35615
G1 X108.77 Y77.478 E8.47824
G1 X111.298 Y77.478 E8.60032
G1 X113.868 Y77.405 E8.72449
G1 X115.793 Y77.302 E8.81759
G1 X116.798 Y77.237 E8.86622
G1 X117.706 Y77.219 E8.91008
G1 X118.611 Y77.28 E8.95389
G1 X119.508 Y77.421 E8.99774
G1 X120.388 Y77.64 E9.04154
G1 X121.246 Y77.936 E9.08537
G1 X122.075 Y78.306 E9.12921
G1 X122.868 Y78.748 E9.17305
G1 X123.618 Y79.258 E9.21685
G1 X124.321 Y79.831 E9.26065
G1 X124.971 Y80.465 E9.3045
G1 X125.563 Y81.153 E9.34834
G1 X126.091 Y81.891 E9.39216
G1 X126.553 Y82.672 E9.43598
G1 X126.944 Y83.491 E9.47981
G1 X127.262 Y84.341 E9.52364
G1 X127.503 Y85.216 E9.56747
G1 X127.666 Y86.109 E9.61131
G1 X127.746 Y86.919 E9.65062
G1 X127.899 Y90.003 E9.79974
G1 X128.092 Y92.504 E9.92088
G1 X128.358 Y95.025 E10.04331
G1 X128.7 Y97.573 E10.16746
G1 X129.105 Y100.053 E10.28882
G1 X129.581 Y102.526 E10.41044
G1 X130.25 Y105.516 E10.55841
G1 X130.492 Y106.814 E10.62217
G1 X130.605 Y107.619 E10.66143
G1 X130.667 Y108.243 E10.69171
G1 X130.711 Y108.907 E10.72385
G1 X130.738 Y109.693 E10.76183
G1 X130.737 Y110.415 E10.7967
G1 X130.714 Y111.059 E10.82782
G1 X130.667 Y111.742 E10.86088
G1 X130.591 Y112.483 E10.89686
G1 X130.499 Y113.162 E10.92995
G1 X130.385 Y113.831 E10.96272
G1 X130.242 Y114.524 E10.9969
G1 X130.082 Y115.185 E11.02974
G1 X129.895 Y115.856 E11.06338
G1 X129.655 Y116.618 E11.10196
G1 X129.421 Y117.283 E11.13601
G1 X129.196 Y117.857 E11.16578
G1 X128.941 Y118.451 E11.197
G1 X128.643 Y119.09 E11.23105
G1 X128.302 Y119.757 E11.26723
G1 X127.918 Y120.445 E11.30528
G1 X127.568 Y121.026 E11.33803
G1 X127.233 Y121.543 E11.36779
G1 X126.846 Y122.1 E11.40054
G1 X126.406 Y122.69 E11.43609
G1 X125.958 Y123.249 E11.47068
G1 X125.472 Y123.814 E11.50667
G1 X125.003 Y124.323 E11.5401
G1 X124.562 Y124.771 E11.57046
G1 X124.051 Y125.256 E11.60448
G1 X123.465 Y125.775 E11.64229
G1 X122.933 Y126.215 E11.67563
G1 X122.41 Y126.619 E11.70754
G1 X121.856 Y127.018 E11.74051
G1 X121.253 Y127.423 E11.77559
G1 X120.655 Y127.796 E11.80963
G1 X120.074 Y128.131 E11.84202
G1 X119.452 Y128.462 E11.87605
G1 X118.787 Y128.787 E11.91179
G1 X118.158 Y129.069 E11.94508
G1 X117.509 Y129.334 E11.97894
G1 X116.863 Y129.572 E12.01218
G1 X116.198 Y129.793 E12.04603
G1 X115.53 Y129.991 E12.07967
G1 X114.846 Y130.168 E12.1138
G1 X114.153 Y130.322 E12.14808
G1 X113.477 Y130.448 E12.18129
G1 X112.801 Y130.551 E12.21431
G1 X112.083 Y130.636 E12.24923
G1 X111.381 Y130.694 E12.28325
G1 X110.674 Y130.729 E12.31743
G1 X109.982 Y130.74 E12.35085
G1 X109.249 Y130.727 E12.38626
G1 X108.554 Y130.691 E12.41987
G1 X107.923 Y130.637 E12.45045
G1 X107.236 Y130.555 E12.48387
G1 X106.501 Y130.442 E12.51978
G1 X105.813 Y130.313 E12.55358
G1 X105.117 Y130.157 E12.58803
G1 X104.456 Y129.985 E12.62102
G1 X103.788 Y129.788 E12.65465
G1 X103.124 Y129.568 E12.68843
G1 X102.441 Y129.315 E12.72361
G1 X101.776 Y129.042 E12.75832
G1 X101.161 Y128.764 E12.79092
G1 X100.552 Y128.464 E12.8237
G1 X99.919 Y128.126 E12.85836
G1 X99.33 Y127.786 E12.8912
G1 X98.724 Y127.409 E12.92567
G1 X98.125 Y127.006 E12.96053
G1 X97.578 Y126.61 E12.99315
G1 X97.038 Y126.191 E13.02616
G1 X96.472 Y125.721 E13.06168
G1 X95.95 Y125.257 E13.09541
G1 X95.449 Y124.78 E13.12882
G1 X94.951 Y124.271 E13.16321
G1 X94.469 Y123.744 E13.1977
G1 X94.029 Y123.231 E13.23034
G1 X93.575 Y122.664 E13.26542
G1 X93.163 Y122.112 E13.29868
G1 X92.796 Y121.585 E13.3297
G1 X92.41 Y120.988 E13.36403
G1 X92.027 Y120.348 E13.40005
G1 X91.693 Y119.745 E13.43334
G1 X91.366 Y119.105 E13.46805
G1 X91.07 Y118.475 E13.50167
G1 X90.798 Y117.84 E13.53503
G1 X90.547 Y117.195 E13.56845
G1 X90.321 Y116.551 E13.60141
G1 X90.113 Y115.888 E13.63497
G1 X89.907 Y115.144 E13.67225
G1 X89.742 Y114.458 E13.70633
G1 X89.619 Y113.856 E13.736
G1 X89.504 Y113.178 E13.76921
G1 X89.403 Y112.433 E13.80552
G1 X89.333 Y111.742 E13.83906
G1 X89.284 Y111.015 E13.87425
G1 X89.261 Y110.306 E13.90851
G1 X89.262 Y109.648 E13.94029
G1 X89.286 Y108.96 E13.97353
G1 X89.337 Y108.216 E14.00955
G1 X89.41 Y107.513 E14.04368
G1 X89.506 Y106.817 E14.07761
G1 X89.62 Y106.148 E14.11038
G1 X89.826 Y105.147 E14.15974
G1 X90.319 Y102.956 E14.2682
G1 X90.803 Y100.498 E14.38918
G1 X91.224 Y97.984 E14.51228
G1 X91.574 Y95.453 E14.63568
G1 X91.851 Y92.928 E14.75835
G1 X92.054 Y90.426 E14.87958
G1 X92.199 Y87.519 E15.02014
G1 X92.237 Y86.881 E15.05101
G1 X92.332 Y85.978 E15.09486
G1 X92.506 Y85.087 E15.1387
G1 X92.758 Y84.215 E15.18254
G1 X93.085 Y83.369 E15.22634
G1 X93.486 Y82.555 E15.27016
G1 X93.957 Y81.779 E15.314
G1 X94.494 Y81.048 E15.35781
G1 X94.654 Y80.866 E15.36951
G0 F2700 X95.094 Y80.366
;MESH:ring_cat_2_2.stl
G0 F6000 X114.958 Y88.748
G0 X115.461 Y89.674
G0 X116.598 Y90.927
;TYPE:WALL-INNER
G1 F600 X116.573 Y90.894 E15.37151
G1 X116.273 Y90.42 E15.3986
G1 X116.225 Y90.332 E15.40344
G1 X116.026 Y89.968 E15.42347
G1 X115.96 Y89.828 E15.43095
G1 X116.249 Y89.651 E15.44732
G1 X116.283 Y89.628 E15.4493
G1 X116.618 Y89.398 E15.46892
G1 X116.618 Y89.651 E15.47093
G1 X116.618 Y89.968 E15.48019
G1 X116.618 Y90.116 E15.48559
G1 X116.611 Y90.428 E15.49623
G1 X116.599 Y90.894 E15.50221
G1 X116.598 Y90.927
G0 F6000 X116.912 Y91.908
G0 X117.105 Y92.439
;TYPE:WALL-OUTER
G1 F600 X116.776 Y92.117 E15.52444
G1 X116.419 Y91.699 E15.55099
G1 X116.078 Y91.234 E15.57884
G1 X115.759 Y90.73 E15.60764
G1 X115.489 Y90.237 E15.63479
G1 X115.244 Y89.714 E15.66268
G1 X115.189 Y89.578 E15.66976
G1 X115.437 Y89.444 E15.68338
G1 X115.923 Y89.147 E15.71088
G1 X116.393 Y88.825 E15.7384
G1 X116.845 Y88.478 E15.76592
G1 X117.211 Y88.166 E15.78914
G1 X117.219 Y88.557 E15.80803
G1 X117.218 Y90.131 E15.88404
G1 X117.189 Y91.281 E15.9396
G1 X117.162 Y91.775 E15.96349
G0 F540 X117.157 Y91.869
G0 X117.105 Y92.439
G0 F6000 X116.888 Y91.715
;TYPE:SKIN
G1 F600 X116.447 Y91.274 E15.97353
G0 F6000 X116.772 Y91.316
G1 F600 X116.885 Y91.147 E15.98083
G0 F6000 X116.855 Y91.117
G0 X116.919 Y89.224
G0 X116.808 Y89.089
G1 F600 X116.888 Y88.887 E15.98944
G0 F6000 X116.808 Y89.51
G0 X115.461 Y89.674
G0 X114.477 Y90.056
G0 X105.484 Y90.138
G0 X104.494 Y89.758
G0 X103.399 Y90.929
;TYPE:WALL-INNER
G1 F600 X103.392 Y90.708 E16.00012
G1 X103.391 Y90.567 E16.00693
G1 X103.384 Y90.116 E16.02871
G1 X103.384 Y90.083 E16.03031
G1 X103.384 Y90.048 E16.032
G1 X103.383 Y89.944 E16.03702
G1 X103.381 Y89.87 E16.04059
G1 X103.378 Y89.642 E16.05161
G1 X103.374 Y89.394 E16.06358
G1 X103.698 Y89.617 E16.08258
G1 X103.726 Y89.636
G1 X103.754 Y89.653 E16.08416
G1 X103.92 Y89.755 E16.09357
G1 X104.037 Y89.827 E16.10021
G1 X103.977 Y89.95 E16.10681
G1 X103.917 Y90.075 E16.11351
G1 X103.641 Y90.563 E16.13922
G1 X103.499 Y90.778 E16.14494
G1 X103.399 Y90.929 E16.14542
G0 F6000 X103.084 Y91.902
G0 X102.892 Y92.431
;TYPE:WALL-OUTER
G1 F600 X102.845 Y91.924 E16.17001
G1 X102.809 Y91.241 E16.20304
G1 X102.792 Y90.728 E16.22783
G1 X102.775 Y89.621 E16.28129
G1 X102.773 Y88.993 E16.31162
G1 X102.785 Y88.165 E16.35161
G1 X103.132 Y88.462 E16.37367
G1 X103.583 Y88.81 E16.40118
G1 X104.053 Y89.133 E16.42872
G1 X104.538 Y89.431 E16.45621
G1 X104.8 Y89.574 E16.47063
G1 X104.698 Y89.84 E16.48439
G1 X104.45 Y90.352 E16.51186
G1 X104.154 Y90.874 E16.54084
G1 X103.823 Y91.376 E16.56988
G1 X103.465 Y91.84 E16.59818
G1 X103.359 Y91.957 E16.60581
G0 F540 X103.101 Y92.24
G0 X102.892 Y92.431
G0 F6000 X103.176 Y91.58
;TYPE:SKIN
G1 F600 X103.23 Y91.351 E16.61359
G1 X103.412 Y91.268 E16.62021
G0 F540 X103.425 Y91.262
G0 F6000 X103.484 Y91.326
G0 X103.103 Y89.243
G0 X103.075 Y89.215
G1 F600 X103.167 Y89.024 E16.62689
G0 F6000 X103.171 Y89.497
;MESH:ring_cat_1_1.stl
G0 X103.058 Y91.978
G0 X103.696 Y92.834
G0 X105.641 Y99.91
G0 X106.191 Y101.205
G0 X104.409 Y102.276
G0 X103.351 Y103.167
G0 X102.432 Y104.201
G0 X101.673 Y105.358
G0 X101.086 Y106.612
G0 X100.69 Y107.939
G0 X100.49 Y109.313
G0 X100.523 Y111.037
G0 X100.771 Y112.398
G0 X101.216 Y113.709
G0 X101.845 Y114.941
G0 X102.647 Y116.07
G0 X103.604 Y117.07
G0 X104.694 Y117.921
G0 X105.897 Y118.607
G0 X107.185 Y119.111
G0 X108.535 Y119.422
G0 X108.925 Y119.453
G0 X109.909 Y119.505
G0 X109.914 Y119.395
;TYPE:WALL-OUTER
G1 F600 X110.597 Y119.377 E16.65989
G1 X111.276 Y119.308 E16.69285
G1 X111.948 Y119.191 E16.72579
G1 X112.609 Y119.025 E16.7587
G1 X113.258 Y118.813 E16.79168
G1 X113.889 Y118.552 E16.82465
G1 X114.499 Y118.248 E16.85757
G1 X115.085 Y117.899 E16.89051
G1 X115.645 Y117.51 E16.92344
G1 X116.176 Y117.08 E16.95643
G1 X116.673 Y116.613 E16.98937
G1 X117.136 Y116.111 E17.02235
G1 X117.561 Y115.577 E17.05531
G1 X117.946 Y115.014 E17.08825
G1 X118.289 Y114.424 E17.12121
G1 X118.587 Y113.811 E17.15412
G1 X118.841 Y113.178 E17.18706
G1 X119.049 Y112.528 E17.22002
G1 X119.208 Y111.865 E17.25295
G1 X119.32 Y111.191 E17.28594
G1 X119.382 Y110.511 E17.31892
G1 X119.394 Y109.83 E17.35181
G1 X119.357 Y109.148 E17.3848
G1 X119.27 Y108.471 E17.41776
G1 X119.135 Y107.803 E17.45067
G1 X118.951 Y107.146 E17.48362
G1 X118.721 Y106.503 E17.5166
G1 X118.444 Y105.879 E17.54958
G1 X118.122 Y105.278 E17.5825
G1 X117.758 Y104.701 E17.61545
G1 X117.353 Y104.152 E17.6484
G1 X116.909 Y103.634 E17.68135
G1 X116.429 Y103.149 E17.7143
G1 X115.915 Y102.701 E17.74723
G1 X115.37 Y102.291 E17.78016
G1 X114.796 Y101.921 E17.81314
G1 X114.197 Y101.594 E17.8461
G1 X113.575 Y101.311 E17.8791
G1 X112.936 Y101.075 E17.912
G1 X112.28 Y100.886 E17.94497
G1 X111.613 Y100.744 E17.9779
G1 X110.937 Y100.651 E18.01086
G1 X110.256 Y100.608 E18.04381
G1 X109.573 Y100.614 E18.0768
G1 X108.894 Y100.67 E18.1097
G1 X108.219 Y100.775 E18.14269
G1 X107.555 Y100.928 E18.1756
G1 X106.903 Y101.13 E18.20856
G1 X106.267 Y101.379 E18.24155
G1 X105.651 Y101.672 E18.27449
G1 X105.058 Y102.01 E18.30745
G1 X104.491 Y102.389 E18.34039
G1 X103.954 Y102.809 E18.37331
G1 X103.448 Y103.267 E18.40627
G1 X102.977 Y103.76 E18.4392
G1 X102.542 Y104.286 E18.47217
G1 X102.147 Y104.842 E18.5051
G1 X101.794 Y105.426 E18.53806
G1 X101.483 Y106.033 E18.571
G1 X101.217 Y106.662 E18.60398
G1 X100.998 Y107.308 E18.63692
G1 X100.827 Y107.969 E18.66989
G1 X100.704 Y108.64 E18.70284
