;FLAVOR:Marlin
;TIME:1590
;Filament used: 0.600007m
;Layer height: 0.16
;MINX:87.395
;MINY:80.181
;MINZ:0.24
;MAXX:153.103
;MAXY:143.23
;MAXZ:8.4
;Generated with Cura_SteamEngine 4.5.0
M140 S50
M105
M190 S50
M104 S215
M105
M109 S215
M82 ;absolute extrusion mode
M201 X500.00 Y500.00 Z100.00 E5000.00 ;Setup machine max acceleration
M203 X500.00 Y500.00 Z10.00 E50.00 ;Setup machine max feedrate
M204 P500.00 R1000.00 T500.00 ;Setup Print/Retract/Travel acceleration
M205 X8.00 Y8.00 Z0.40 E5.00 ;Setup Jerk
M220 S100 ;Reset Feedrate
M221 S100 ;Reset Flowrate

G28 ;Home

G92 E0 ;Reset Extruder
G1 Z2.0 F3000 ;Move Z Axis up
G1 X10.1 Y20 Z0.28 F5000.0 ;Move to start position
G1 X10.1 Y200.0 Z0.28 F1500.0 E15 ;Draw the first line
G1 X10.4 Y200.0 Z0.28 F5000.0 ;Move to side a little
G1 X10.4 Y20 Z0.28 F1500.0 E30 ;Draw the second line
G92 E0 ;Reset Extruder
G1 Z2.0 F3000 ;Move Z Axis up

G92 E0
G92 E0
G1 F1800 E-3
;LAYER_COUNT:52
;LAYER:0
M107
G0 F9000 X92.767 Y86.992 Z0.24
;TYPE:SKIRT
G1 F1800 E0
G1 F3000 X93.477 Y86.264 E0.04059
G1 X94.167 Y85.585 E0.07922
G1 X94.852 Y84.97 E0.11597
G1 X95.344 Y84.59 E0.14078
G1 X96.104 Y84.037 E0.17829
G1 X97.05 Y83.385 E0.22415
G1 X97.832 Y82.9 E0.26087
G1 X98.4 Y82.602 E0.28647
G1 X99.397 Y82.118 E0.33071
G1 X100.286 Y81.713 E0.3697
G1 X101.142 Y81.372 E0.40647
G1 X101.714 Y81.19 E0.43043
G1 X102.561 Y80.947 E0.4656
G1 X103.73 Y80.643 E0.51381
G1 X104.631 Y80.454 E0.55055
G1 X105.261 Y80.37 E0.57592
G1 X106.06 Y80.287 E0.60798
G1 X106.716 Y80.234 E0.63425
G1 X107.925 Y80.181 E0.68255
G1 X108.863 Y80.186 E0.71999
G1 X109.402 Y80.218 E0.74154
G1 X110.049 Y80.271 E0.76745
G1 X110.952 Y80.361 E0.80367
G1 X111.863 Y80.493 E0.84041
G1 X112.464 Y80.625 E0.86497
G1 X113.234 Y80.818 E0.89665
G1 X114.175 Y81.079 E0.93563
G1 X114.814 Y81.281 E0.96237
G1 X115.993 Y81.727 E1.01268
G1 X116.703 Y82.038 E1.04362
G1 X117.768 Y82.541 E1.09063
G1 X118.581 Y82.975 E1.12741
G1 X119.156 Y83.34 E1.15459
G1 X120.109 Y83.989 E1.20061
G1 X120.844 Y84.514 E1.23666
G1 X121.757 Y85.253 E1.28355
G1 X122.34 Y85.781 E1.31494
G1 X124.268 Y87.482 E1.41756
G1 X126.22 Y89.109 E1.51898
G1 X128.206 Y90.671 E1.61982
G1 X130.249 Y92.188 E1.72139
G1 X132.292 Y93.615 E1.82085
G1 X134.444 Y95.032 E1.92369
G1 X136.564 Y96.341 E2.02313
G1 X138.751 Y97.607 E2.12399
G1 X141.046 Y98.852 E2.2282
G1 X141.491 Y99.085 E2.24824
G1 X142.598 Y99.693 E2.29865
G1 X143.099 Y99.986 E2.32182
G1 X143.833 Y100.46 E2.35669
G1 X144.489 Y100.923 E2.38874
G1 X145.306 Y101.562 E2.43013
G1 X146.172 Y102.307 E2.47573
G1 X146.633 Y102.728 E2.50065
G1 X147.493 Y103.613 E2.5499
G1 X148.221 Y104.446 E2.59405
G1 X148.592 Y104.894 E2.61727
G1 X149.346 Y105.922 E2.66815
G1 X149.975 Y106.886 E2.71409
G1 X150.321 Y107.453 E2.7406
G1 X150.736 Y108.213 E2.77517
G1 X151.094 Y108.937 E2.8074
G1 X151.51 Y109.895 E2.84909
G1 X151.896 Y110.908 E2.89235
G1 X152.09 Y111.46 E2.91571
G1 X152.375 Y112.412 E2.95537
G1 X152.562 Y113.151 E2.98579
G1 X152.711 Y113.845 E3.01412
G1 X152.802 Y114.337 E3.03409
G1 X152.902 Y114.959 E3.05924
G1 X152.985 Y115.686 E3.08844
G1 X153.066 Y116.705 E3.12924
G1 X153.099 Y117.489 E3.16056
G1 X153.103 Y118.25 E3.19093
G1 X153.076 Y119.179 E3.22803
G1 X153.027 Y119.842 E3.25456
G1 X152.947 Y120.581 E3.28423
G1 X152.84 Y121.328 E3.31435
G1 X152.382 Y123.95 E3.42058
G1 X151.992 Y126.512 E3.52401
G1 X151.684 Y129.01 E3.62447
G1 X151.485 Y131.05 E3.70628
G1 X151.369 Y132.155 E3.75062
G1 X151.295 Y132.651 E3.77064
G1 X151.209 Y133.159 E3.7912
G1 X150.997 Y134.097 E3.82958
G1 X150.858 Y134.604 E3.85057
G1 X150.576 Y135.48 E3.8873
G1 X150.197 Y136.376 E3.92613
G1 X149.961 Y136.86 E3.94762
G1 X149.38 Y137.9 E3.99516
G1 X148.856 Y138.657 E4.03191
G1 X148.268 Y139.366 E4.06867
G1 X147.906 Y139.746 E4.08962
G1 X146.968 Y140.628 E4.14101
G1 X146.238 Y141.189 E4.17775
G1 X145.462 Y141.685 E4.21451
G1 X144.646 Y142.111 E4.25125
G1 X144.035 Y142.374 E4.2778
G1 X142.971 Y142.75 E4.32284
G1 X141.95 Y142.998 E4.36478
G1 X140.809 Y143.176 E4.41087
G1 X139.89 Y143.23 E4.44761
G1 X139.128 Y143.214 E4.47803
G1 X137.787 Y143.138 E4.53164
G1 X136.985 Y143.083 E4.56372
G1 X134.428 Y142.976 E4.66587
G1 X131.916 Y142.942 E4.76613
G1 X129.37 Y142.98 E4.86776
G1 X126.83 Y143.09 E4.96923
G1 X125.231 Y143.197 E5.0332
G1 X124.516 Y143.227 E5.06176
G1 X123.595 Y143.216 E5.09852
G1 X122.249 Y143.055 E5.15263
G1 X119.769 Y142.596 E5.25329
G1 X117.235 Y142.198 E5.35567
G1 X114.741 Y141.878 E5.45602
G1 X112.186 Y141.623 E5.55851
G1 X109.705 Y141.447 E5.65778
G1 X107.183 Y141.339 E5.75853
G1 X104.647 Y141.302 E5.85975
G1 X101.359 Y141.36 E5.99101
G1 X100.551 Y141.389 E6.02328
G1 X99.63 Y141.382 E6.06004
G1 X98.714 Y141.295 E6.09676
G1 X97.808 Y141.129 E6.13352
G1 X96.595 Y140.773 E6.18398
G1 X95.428 Y140.312 E6.23406
G1 X94.609 Y139.891 E6.27081
G1 X93.829 Y139.401 E6.30758
G1 X93.096 Y138.845 E6.3443
G1 X92.513 Y138.325 E6.37548
G1 X91.62 Y137.411 E6.42648
G1 X91.045 Y136.692 E6.46322
G1 X90.534 Y135.926 E6.49997
G1 X90.211 Y135.353 E6.52623
G1 X89.964 Y134.872 E6.54781
G1 X89.477 Y133.782 E6.59546
G1 X89.206 Y132.986 E6.62902
G1 X89.044 Y132.419 E6.65255
G1 X88.831 Y131.526 E6.68919
G1 X88.706 Y130.832 E6.71734
G1 X88.577 Y129.856 E6.75663
G1 X88.48 Y128.795 E6.79916
G1 X88.433 Y128.066 E6.82831
G1 X88.411 Y127.54 E6.84932
G1 X88.384 Y126.073 E6.90789
G1 X88.379 Y124.915 E6.9541
G1 X88.396 Y123.866 E6.99598
G1 X88.416 Y123.262 E7.0201
G1 X88.554 Y120.48 E7.13127
G1 X88.609 Y117.93 E7.23307
G1 X88.592 Y115.419 E7.33329
G1 X88.503 Y112.875 E7.43489
G1 X88.342 Y110.336 E7.53643
G1 X88.113 Y107.851 E7.63603
G1 X87.787 Y105.151 E7.74458
G1 X87.661 Y104.226 E7.78184
G1 X87.5 Y102.714 E7.84253
G1 X87.423 Y101.724 E7.88216
G1 X87.395 Y100.804 E7.91889
G1 X87.419 Y100.213 E7.9425
G1 X87.482 Y99.302 E7.97895
G1 X87.591 Y98.142 E8.02545
G1 X87.721 Y97.231 E8.06218
G1 X87.861 Y96.59 E8.08837
G1 X88.084 Y95.703 E8.12487
G1 X88.343 Y94.771 E8.16348
G1 X88.559 Y94.096 E8.19176
G1 X88.793 Y93.467 E8.21855
G1 X89.029 Y92.903 E8.24295
G1 X89.408 Y92.055 E8.28002
G1 X89.792 Y91.247 E8.31573
G1 X90.228 Y90.436 E8.35248
G1 X90.548 Y89.932 E8.37631
G1 X91.04 Y89.202 E8.41144
G1 X91.744 Y88.213 E8.45989
G1 X92.313 Y87.489 E8.49665
G1 X92.767 Y86.992 E8.52351
G0 F9000 X93.054 Y87.271
G1 F3000 X93.764 Y86.543 E8.5641
G1 X94.447 Y85.871 E8.60234
G1 X95.12 Y85.269 E8.63838
G1 X95.58 Y84.913 E8.6616
G1 X96.34 Y84.36 E8.69911
G1 X97.275 Y83.716 E8.74442
G1 X98.043 Y83.24 E8.78049
G1 X98.574 Y82.962 E8.80441
G1 X99.571 Y82.478 E8.84864
G1 X100.451 Y82.078 E8.88722
G1 X101.29 Y81.744 E8.92327
G1 X101.824 Y81.575 E8.94562
G1 X102.671 Y81.332 E8.98079
G1 X103.829 Y81.031 E9.02854
G1 X104.713 Y80.846 E9.06459
G1 X105.302 Y80.768 E9.0883
G1 X106.101 Y80.685 E9.12037
G1 X106.745 Y80.633 E9.14615
G1 X107.941 Y80.581 E9.19393
G1 X108.843 Y80.586 E9.22993
G1 X109.37 Y80.617 E9.251
G1 X110.017 Y80.67 E9.27691
G1 X110.912 Y80.759 E9.31281
G1 X111.806 Y80.889 E9.34887
G1 X112.367 Y81.013 E9.3718
G1 X113.137 Y81.206 E9.40348
G1 X114.067 Y81.464 E9.442
G1 X114.681 Y81.658 E9.4677
G1 X115.832 Y82.093 E9.51681
G1 X116.542 Y82.404 E9.54775
G1 X117.596 Y82.902 E9.59428
G1 X118.392 Y83.328 E9.63031
G1 X118.93 Y83.67 E9.65575
G1 X119.883 Y84.319 E9.70177
G1 X120.61 Y84.839 E9.73745
G1 X121.489 Y85.55 E9.78257
G1 X122.049 Y86.057 E9.81272
G1 X124.011 Y87.788 E9.91715
G1 X125.962 Y89.415 E10.01854
G1 X127.983 Y91.004 E10.12115
G1 X129.988 Y92.492 E10.2208
G1 X132.114 Y93.978 E10.32433
G1 X134.195 Y95.348 E10.42377
G1 X136.375 Y96.693 E10.52601
G1 X138.566 Y97.962 E10.62706
G1 X140.813 Y99.181 E10.72909
G1 X141.298 Y99.436 E10.75096
G1 X142.405 Y100.044 E10.80137
G1 X142.887 Y100.326 E10.82366
G1 X143.604 Y100.788 E10.8577
G1 X144.251 Y101.244 E10.88929
G1 X145.045 Y101.866 E10.92955
G1 X145.911 Y102.611 E10.97514
G1 X146.355 Y103.016 E10.99913
G1 X147.192 Y103.876 E11.04703
G1 X147.92 Y104.709 E11.09118
G1 X148.277 Y105.14 E11.11352
G1 X149.011 Y106.14 E11.16303
G1 X149.64 Y107.104 E11.20897
G1 X149.973 Y107.65 E11.23449
G1 X150.379 Y108.393 E11.26829
G1 X150.732 Y109.105 E11.30001
G1 X151.136 Y110.037 E11.34055
G1 X151.522 Y111.05 E11.38382
G1 X151.708 Y111.582 E11.40631
G1 X151.988 Y112.512 E11.44507
G1 X152.172 Y113.24 E11.47504
G1 X152.318 Y113.918 E11.50272
G1 X152.409 Y114.41 E11.52269
G1 X152.506 Y115.019 E11.54731
G1 X152.586 Y115.718 E11.57539
G1 X152.667 Y116.737 E11.61619
G1 X152.699 Y117.491 E11.64631
G1 X152.703 Y118.252 E11.67668
G1 X152.676 Y119.163 E11.71306
G1 X152.629 Y119.801 E11.73859
G1 X152.55 Y120.53 E11.76786
G1 X152.446 Y121.259 E11.79725
G1 X151.991 Y123.865 E11.90283
G1 X151.594 Y126.474 E12.00816
G1 X151.287 Y128.962 E12.10822
G1 X151.076 Y131.128 E12.19507
G1 X150.973 Y132.096 E12.23393
G1 X150.899 Y132.592 E12.25394
G1 X150.815 Y133.089 E12.27406
G1 X150.611 Y133.991 E12.31097
G1 X150.472 Y134.498 E12.33195
G1 X150.195 Y135.357 E12.36798
G1 X149.836 Y136.203 E12.40466
G1 X149.605 Y136.677 E12.4257
G1 X149.033 Y137.702 E12.47255
G1 X148.517 Y138.443 E12.50859
G1 X147.937 Y139.136 E12.54466
G1 X147.363 Y139.723 E12.57743
G1 X146.697 Y140.333 E12.61347
G1 X145.98 Y140.882 E12.64951
G1 X145.216 Y141.364 E12.68557
G1 X144.413 Y141.778 E12.72163
G1 X143.888 Y142.002 E12.74441
G1 X142.841 Y142.371 E12.78872
G1 X141.875 Y142.605 E12.82839
G1 X140.751 Y142.78 E12.87379
G1 X139.849 Y142.83 E12.90984
G1 X139.151 Y142.815 E12.93771
G1 X137.81 Y142.739 E12.99132
G1 X136.996 Y142.682 E13.02388
G1 X134.449 Y142.576 E13.12563
G1 X131.915 Y142.542 E13.22678
G1 X129.382 Y142.58 E13.32788
G1 X126.788 Y142.692 E13.43151
G1 X125.205 Y142.798 E13.49484
G1 X124.503 Y142.827 E13.52288
G1 X123.6 Y142.816 E13.55892
G1 X122.321 Y142.662 E13.61034
G1 X119.789 Y142.194 E13.71311
G1 X117.311 Y141.804 E13.81323
G1 X114.799 Y141.482 E13.91431
G1 X112.218 Y141.224 E14.01783
G1 X109.748 Y141.049 E14.11666
G1 X107.172 Y140.939 E14.21957
G1 X104.646 Y140.902 E14.3204
G1 X101.392 Y140.96 E14.45029
G1 X100.536 Y140.99 E14.48448
G1 X99.633 Y140.982 E14.52052
G1 X98.735 Y140.894 E14.55653
G1 X97.847 Y140.727 E14.5926
G1 X96.73 Y140.397 E14.63908
G1 X95.579 Y139.942 E14.68848
G1 X94.777 Y139.527 E14.72452
G1 X94.015 Y139.043 E14.76055
G1 X93.298 Y138.493 E14.79662
G1 X92.79 Y138.037 E14.82387
G1 X91.91 Y137.135 E14.87416
G1 X91.347 Y136.428 E14.91023
G1 X90.85 Y135.674 E14.94628
G1 X90.566 Y135.168 E14.96944
G1 X90.324 Y134.697 E14.99057
G1 X89.844 Y133.623 E15.03752
G1 X89.59 Y132.873 E15.06913
G1 X89.431 Y132.318 E15.09217
G1 X89.224 Y131.449 E15.12782
G1 X89.101 Y130.773 E15.15525
G1 X88.975 Y129.82 E15.19361
G1 X88.878 Y128.759 E15.23614
G1 X88.832 Y128.044 E15.26473
G1 X88.81 Y127.525 E15.28547
G1 X88.783 Y126.067 E15.34367
G1 X88.779 Y124.914 E15.38969
G1 X88.796 Y123.874 E15.4312
G1 X88.816 Y123.277 E15.45504
G1 X88.954 Y120.509 E15.56566
G1 X89.009 Y117.936 E15.66837
G1 X88.992 Y115.402 E15.76951
G1 X88.903 Y112.869 E15.87067
G1 X88.741 Y110.309 E15.97305
G1 X88.51 Y107.802 E16.07354
G1 X88.185 Y105.115 E16.18156
G1 X88.057 Y104.172 E16.21954
G1 X87.898 Y102.673 E16.27971
G1 X87.822 Y101.695 E16.31886
G1 X87.795 Y100.792 E16.35492
G1 X87.818 Y100.24 E16.37697
G1 X87.881 Y99.329 E16.41341
G1 X87.99 Y98.181 E16.45944
G1 X88.117 Y97.287 E16.49548
G1 X88.249 Y96.688 E16.51996
G1 X88.472 Y95.801 E16.55646
G1 X88.728 Y94.881 E16.59458
G1 X88.936 Y94.231 E16.62182
G1 X89.164 Y93.616 E16.648
G1 X89.394 Y93.066 E16.67179
G1 X89.773 Y92.218 E16.70886
G1 X90.153 Y91.421 E16.7441
G1 X90.581 Y90.626 E16.78014
G1 X90.88 Y90.155 E16.80241
G1 X91.372 Y89.425 E16.83754
G1 X92.069 Y88.446 E16.88551
G1 X92.627 Y87.736 E16.92155
G1 X93.054 Y87.271 E16.94674
G1 F1800 E13.94674
;MESH:Ring_-_Holes_-_size_17.stl
G0 F9000 X99.919 Y93.872
G0 X100.685 Y94.638
G0 X99.516 Y97.765
G0 X99.146 Y99.144
G0 X98.961 Y100.903
G0 X99.101 Y102.496
G0 X99.516 Y104.041
G0 X100.191 Y105.491
G0 X101.155 Y106.849
G0 X102.241 Y107.934
G0 X103.5 Y108.815
G0 X105.003 Y109.527
G0 X105.878 Y109.762
G0 X108.109 Y110.24
;TYPE:WALL-INNER
G1 F1800 E16.94674
G1 F3000 X108.569 Y110.202 E16.96517
G1 X109.67 Y110.108 E17.00927
G1 X109.745 Y110.091 E17.01234
G1 X110.215 Y109.98 E17.03161
G1 X111.121 Y109.736 E17.06906
G1 X111.334 Y109.678 E17.07787
G1 X111.515 Y109.594 E17.08584
G1 X112.808 Y108.991 E17.14278
G1 X113.738 Y108.341 E17.18807
G1 X114.139 Y108.037 E17.20815
G1 X114.233 Y107.966 E17.21285
G1 X115.187 Y107.014 E17.26664
G1 X115.295 Y106.906 E17.27274
G1 X115.438 Y106.702 E17.28268
G1 X116.228 Y105.572 E17.33771
G1 X116.782 Y104.384 E17.39003
G1 X116.916 Y104.097 E17.40267
G1 X116.944 Y103.993 E17.40697
G1 X117.339 Y102.526 E17.46761
G1 X117.478 Y100.893 E17.53302
G1 X117.337 Y99.282 E17.59756
G1 X117.033 Y98.144 E17.64458
G1 X116.933 Y97.77 E17.66003
G1 X116.875 Y97.642 E17.66564
G1 X116.4 Y96.605 E17.71116
G1 X116.308 Y96.405 E17.71995
G1 X116.204 Y96.243 E17.72763
G1 X115.867 Y95.716 E17.7526
G1 X115.63 Y95.381 E17.76898
G1 X115.284 Y94.892 E17.79288
G1 X115.266 Y94.874 E17.7939
G1 X114.854 Y94.458 E17.81727
G1 X114.142 Y93.749 E17.85737
G1 X112.809 Y92.815 E17.92234
G1 X111.548 Y92.226 E17.97788
G1 X111.334 Y92.126 E17.98731
G1 X111.139 Y92.075 E17.99536
G1 X109.741 Y91.707 E18.05305
G1 X109.726 Y91.703 E18.05367
G1 X108.324 Y91.58 E18.10985
G1 X108.14 Y91.563 E18.11722
G1 X107.845 Y91.589 E18.12904
G1 X106.518 Y91.707 E18.18221
G1 X105.144 Y92.075 E18.23899
G1 X104.966 Y92.145 E18.24662
G1 X104.609 Y92.285 E18.26192
G1 X103.47 Y92.814 E18.31205
G1 X102.137 Y93.749 E18.37703
G1 X101.01 Y94.877 E18.44068
G1 X100.569 Y95.497 E18.47104
G1 X100.052 Y96.234 E18.50697
G1 X99.5 Y97.42 E18.55918
G1 X99.365 Y97.71 E18.57195
G1 X99.322 Y97.873 E18.57868
G1 X98.988 Y99.113 E18.62994
G1 X98.971 Y99.267 E18.63612
G1 X98.855 Y100.288 E18.67713
G1 X98.8 Y100.903 E18.70178
G1 X98.943 Y102.525 E18.76676
G1 X99.365 Y104.096 E18.83169
G1 X100.051 Y105.573 E18.89669
G1 X100.759 Y106.584 E18.94595
G1 X101.005 Y106.916 E18.96244
G1 X101.033 Y106.954 E18.96432
G1 X102.137 Y108.058 E19.02664
G1 X102.517 Y108.323 E19.04513
G1 X103.418 Y108.953 E19.08901
G1 X103.587 Y109.036 E19.09652
G1 X103.951 Y109.216 E19.11273
G1 X104.948 Y109.678 E19.15659
G1 X106.518 Y110.101 E19.22149
G1 X107.993 Y110.229 E19.28058
G1 X108.109 Y110.24 E19.28523
G0 F9000 X108.11 Y109.839
;TYPE:WALL-OUTER
G1 F3000 X109.607 Y109.712 E19.34519
G1 X110.117 Y109.592 E19.3661
G1 X111.196 Y109.301 E19.41071
G1 X112.608 Y108.643 E19.47288
G1 X113.503 Y108.018 E19.51645
G1 X113.97 Y107.664 E19.53984
G1 X114.987 Y106.648 E19.59721
G1 X115.88 Y105.371 E19.65941
G1 X116.539 Y103.959 E19.7216
G1 X116.943 Y102.456 E19.78372
G1 X117.077 Y100.893 E19.84633
G1 X116.942 Y99.352 E19.90807
G1 X116.555 Y97.906 E19.96781
G1 X115.956 Y96.597 E20.02527
G1 X115.535 Y95.939 E20.05645
G1 X114.977 Y95.15 E20.09502
G1 X114.571 Y94.741 E20.11802
G1 X113.884 Y94.057 E20.15671
G1 X112.608 Y93.163 E20.21889
G1 X111.197 Y92.504 E20.28105
G1 X109.657 Y92.098 E20.34461
G1 X108.14 Y91.965 E20.40539
G1 X106.588 Y92.102 E20.46758
G1 X105.269 Y92.455 E20.52207
G1 X104.767 Y92.653 E20.54361
G1 X103.671 Y93.162 E20.59184
G1 X102.395 Y94.056 E20.65403
G1 X101.317 Y95.136 E20.71493
G1 X100.896 Y95.728 E20.74392
G1 X100.4 Y96.435 E20.77839
G1 X99.742 Y97.847 E20.84057
G1 X99.382 Y99.188 E20.89599
G1 X99.253 Y100.328 E20.94178
G1 X99.202 Y100.903 E20.96482
G1 X99.338 Y102.455 E21.027
G1 X99.742 Y103.959 E21.08915
G1 X100.399 Y105.372 E21.15135
G1 X101.084 Y106.35 E21.199
G1 X101.337 Y106.692 E21.21598
G1 X102.395 Y107.75 E21.2757
G1 X103.622 Y108.608 E21.33546
G1 X104.124 Y108.855 E21.35779
G1 X105.085 Y109.301 E21.40007
G1 X106.588 Y109.706 E21.4622
G1 X108.11 Y109.839 E21.52318
G0 F9000 X108.11 Y110.279
G0 X109.799 Y110.316
;TYPE:WALL-INNER
G1 F3000 X109.69 Y110.325 E21.52592
G1 X108.588 Y110.422 E21.55011
G1 X108.117 Y110.44 E21.5601
G1 X107.975 Y110.446 E21.56331
G1 X106.51 Y110.317 E21.59516
G1 X106.465 Y110.305 E21.59702
G1 X104.893 Y109.889 E21.63185
G1 X104.868 Y109.882 E21.63265
G1 X104.856 Y109.877 E21.63305
G1 X103.86 Y109.412 E21.65697
G1 X103.488 Y109.238 E21.66604
G1 X103.308 Y109.117 E21.67088
G1 X102.393 Y108.502 E21.69373
