;FLAVOR:Marlin
;TIME:11953
;Filament used: 11.8585m
;Layer height: 0.2
;MINX:53.25
;MINY:59.4
;MINZ:0.24
;MAXX:175.85
;MAXY:160.6
;MAXZ:47.8
;Generated with Cura_SteamEngine 4.5.0
M140 S40
M105
M190 S40
M104 S215
M105
M109 S215
M82 ;absolute extrusion mode
M201 X500.00 Y500.00 Z100.00 E5000.00 ;Setup machine max acceleration
M203 X500.00 Y500.00 Z10.00 E50.00 ;Setup machine max feedrate
M204 P500.00 R1000.00 T500.00 ;Setup Print/Retract/Travel acceleration
M205 X8.00 Y8.00 Z0.40 E5.00 ;Setup Jerk
M220 S100 ;Reset Feedrate
M221 S100 ;Reset Flowrate

G28 ;Home

G92 E0 ;Reset Extruder
G1 Z2.0 F3000 ;Move Z Axis up
G1 X10.1 Y20 Z0.28 F5000.0 ;Move to start position
G1 X10.1 Y200.0 Z0.28 F1500.0 E15 ;Draw the first line
G1 X10.4 Y200.0 Z0.28 F5000.0 ;Move to side a little
G1 X10.4 Y20 Z0.28 F1500.0 E30 ;Draw the second line
G92 E0 ;Reset Extruder
G1 Z2.0 F3000 ;Move Z Axis up

G92 E0
G92 E0
G1 F1800 E-3
;LAYER_COUNT:211
;LAYER:0
M107
G0 F6000 X57.683 Y62.427 Z0.24
;TYPE:SKIRT
G1 F1800 E0
G1 F1200 X58.369 Y61.813 E0.03675
G1 X59.105 Y61.261 E0.07346
G1 X59.887 Y60.774 E0.11023
G1 X60.708 Y60.358 E0.14697
G1 X61.562 Y60.014 E0.18371
G1 X62.442 Y59.745 E0.22044
G1 X63.343 Y59.554 E0.2572
G1 X64.257 Y59.442 E0.29395
G1 X64.792 Y59.413 E0.31534
G1 X65.41 Y59.4 E0.34001
G1 X81.543 Y59.4 E0.98391
G1 X82.393 Y59.411 E1.01784
G1 X83.312 Y59.464 E1.05458
G1 X84.223 Y59.597 E1.09133
G1 X84.713 Y59.702 E1.11133
G1 X87.635 Y60.378 E1.23103
G1 X90.118 Y60.878 E1.33212
G1 X92.631 Y61.309 E1.43389
G1 X95.14 Y61.666 E1.53503
G1 X97.61 Y61.946 E1.63425
G1 X100.16 Y62.164 E1.7364
G1 X102.637 Y62.305 E1.83542
G1 X106.574 Y62.389 E1.99259
G1 X113.875 Y62.392 E2.28399
G1 X116.463 Y62.356 E2.38729
G1 X119.019 Y62.249 E2.48939
G1 X121.539 Y62.072 E2.59022
G1 X124.019 Y61.826 E2.68969
G1 X126.551 Y61.503 E2.79156
G1 X129.063 Y61.11 E2.89304
G1 X131.522 Y60.654 E2.99286
G1 X134.758 Y59.945 E3.12508
G1 X135.752 Y59.707 E3.16587
G1 X136.656 Y59.532 E3.20262
G1 X137.933 Y59.42 E3.25379
G1 X138.526 Y59.404 E3.27746
G1 X164.543 Y59.4 E4.31586
G1 X165.378 Y59.41 E4.34919
G1 X166.297 Y59.462 E4.38593
G1 X167.208 Y59.593 E4.42266
G1 X168.104 Y59.803 E4.45939
G1 X168.979 Y60.09 E4.49614
G1 X169.826 Y60.452 E4.53291
G1 X170.638 Y60.886 E4.56966
G1 X171.409 Y61.388 E4.60638
G1 X172.134 Y61.956 E4.64314
G1 X172.807 Y62.585 E4.6799
G1 X173.422 Y63.269 E4.71661
G1 X173.976 Y64.004 E4.75335
G1 X174.464 Y64.785 E4.7901
G1 X174.883 Y65.605 E4.82686
G1 X175.229 Y66.458 E4.8636
G1 X175.499 Y67.338 E4.90034
G1 X175.692 Y68.239 E4.93711
G1 X175.806 Y69.152 E4.97384
G1 X175.837 Y69.712 E4.99622
G1 X175.85 Y70.33 E5.02089
G1 X175.85 Y91.293 E5.85757
G1 X175.839 Y92.142 E5.89146
G1 X175.786 Y93.061 E5.9282
G1 X175.719 Y93.587 E5.94936
G1 X175.277 Y96.204 E6.05529
G1 X174.918 Y98.737 E6.1574
G1 X174.634 Y101.236 E6.25778
G1 X174.422 Y103.748 E6.3584
G1 X174.28 Y106.268 E6.45914
G1 X174.209 Y108.814 E6.56079
G1 X174.209 Y111.327 E6.66109
G1 X174.282 Y113.868 E6.76255
G1 X174.427 Y116.411 E6.86421
G1 X174.638 Y118.886 E6.96335
G1 X174.925 Y121.405 E7.06454
G1 X175.287 Y123.94 E7.16674
G1 X175.672 Y126.207 E7.25852
G1 X175.786 Y127.121 E7.29528
G1 X175.819 Y127.766 E7.32106
G1 X175.831 Y128.465 E7.34896
G1 X175.85 Y149.292 E8.18021
G1 X175.839 Y150.143 E8.21418
G1 X175.785 Y151.062 E8.25092
G1 X175.653 Y151.973 E8.28766
G1 X175.441 Y152.869 E8.32441
G1 X175.153 Y153.743 E8.36114
G1 X174.789 Y154.589 E8.3979
G1 X174.354 Y155.4 E8.43463
G1 X173.85 Y156.171 E8.47139
G1 X173.281 Y156.894 E8.50812
G1 X172.652 Y157.566 E8.54485
G1 X171.966 Y158.181 E8.58162
G1 X171.23 Y158.733 E8.61834
G1 X170.448 Y159.22 E8.65511
G1 X169.628 Y159.637 E8.69183
G1 X168.774 Y159.982 E8.72859
G1 X167.893 Y160.251 E8.76536
G1 X166.993 Y160.442 E8.80208
G1 X165.637 Y160.581 E8.85648
G1 X164.92 Y160.6 E8.88511
G1 X138.957 Y160.6 E9.92135
G1 X138.106 Y160.589 E9.95532
G1 X137.187 Y160.536 E9.99206
G1 X136.276 Y160.403 E10.0288
G1 X135.763 Y160.292 E10.04975
G1 X132.869 Y159.622 E10.16831
G1 X130.326 Y159.109 E10.27185
G1 X127.902 Y158.696 E10.36999
G1 X125.369 Y158.335 E10.47211
G1 X122.887 Y158.053 E10.57181
G1 X120.34 Y157.836 E10.67384
G1 X117.864 Y157.695 E10.77282
G1 X113.926 Y157.611 E10.93003
G1 X106.564 Y157.608 E11.22386
G1 X103.975 Y157.644 E11.32721
G1 X101.419 Y157.751 E11.42931
G1 X98.902 Y157.928 E11.53002
G1 X96.413 Y158.175 E11.62985
G1 X93.898 Y158.496 E11.73104
G1 X91.365 Y158.892 E11.83337
G1 X88.922 Y159.345 E11.93253
G1 X85.681 Y160.055 E12.06496
G1 X84.747 Y160.277 E12.10327
G1 X83.843 Y160.451 E12.14002
G1 X82.959 Y160.543 E12.17549
G1 X82.213 Y160.577 E12.20529
G1 X65.766 Y160.599 E12.86173
G1 X64.966 Y160.59 E12.89366
G1 X64.046 Y160.539 E12.93044
G1 X63.135 Y160.408 E12.96717
G1 X62.239 Y160.199 E13.00389
G1 X61.364 Y159.913 E13.04063
G1 X60.517 Y159.552 E13.07738
G1 X59.704 Y159.119 E13.11415
G1 X58.933 Y158.616 E13.15089
G1 X58.207 Y158.049 E13.18765
G1 X57.534 Y157.421 E13.22439
G1 X56.918 Y156.737 E13.26113
G1 X56.363 Y156.002 E13.29789
G1 X55.875 Y155.222 E13.33461
G1 X55.456 Y154.402 E13.37137
G1 X55.109 Y153.549 E13.40812
G1 X54.838 Y152.67 E13.44483
G1 X54.644 Y151.77 E13.48158
G1 X54.502 Y150.413 E13.53603
G1 X54.482 Y149.69 E13.5649
G1 X54.481 Y70.674 E16.7186
G1 X54.492 Y69.85 E16.75149
G1 X54.546 Y68.931 E16.78823
G1 X54.679 Y68.02 E16.82498
G1 X54.891 Y67.124 E16.86173
G1 X55.18 Y66.249 E16.89851
G1 X55.544 Y65.404 E16.93523
G1 X55.979 Y64.593 E16.97196
G1 X56.484 Y63.822 E17.00875
G1 X57.053 Y63.099 E17.04547
G1 X57.683 Y62.427 E17.08223
G0 F6000 X58.074 Y62.606
G1 F1200 X58.756 Y62.014 E17.11828
G1 X59.488 Y61.485 E17.15432
G1 X60.264 Y61.023 E17.19037
G1 X61.078 Y60.632 E17.22641
G1 X61.923 Y60.313 E17.26246
G1 X62.793 Y60.071 E17.2985
G1 X63.681 Y59.907 E17.33454
G1 X64.803 Y59.813 E17.37948
G1 X65.41 Y59.8 E17.40371
G1 X81.543 Y59.8 E18.04762
G1 X82.387 Y59.811 E18.0813
G1 X83.289 Y59.864 E18.11737
G1 X84.62 Y60.091 E18.17126
G1 X87.546 Y60.768 E18.29113
G1 X90.077 Y61.277 E18.39417
G1 X92.543 Y61.7 E18.49403
G1 X95.07 Y62.06 E18.5959
G1 X97.603 Y62.348 E18.69765
G1 X100.139 Y62.564 E18.79924
G1 X102.605 Y62.704 E18.89782
G1 X106.565 Y62.789 E19.05591
G1 X113.88 Y62.792 E19.34786
G1 X116.486 Y62.756 E19.45188
G1 X119.028 Y62.649 E19.55343
G1 X121.57 Y62.471 E19.65514
G1 X124.077 Y62.222 E19.75569
G1 X126.627 Y61.897 E19.85829
G1 X129.093 Y61.511 E19.95791
G1 X131.591 Y61.048 E20.05931
G1 X134.878 Y60.328 E20.19361
G1 X135.845 Y60.096 E20.2333
G1 X136.732 Y59.925 E20.26935
G1 X137.944 Y59.82 E20.31791
G1 X138.537 Y59.804 E20.34159
G1 X164.543 Y59.8 E21.37954
G1 X165.373 Y59.81 E21.41267
G1 X166.274 Y59.861 E21.44869
G1 X167.168 Y59.993 E21.48476
G1 X168.046 Y60.202 E21.52078
G1 X168.903 Y60.489 E21.55685
G1 X169.73 Y60.85 E21.59287
G1 X170.523 Y61.283 E21.62893
G1 X171.274 Y61.784 E21.66496
G1 X171.978 Y62.35 E21.70101
G1 X172.629 Y62.976 E21.73706
G1 X173.222 Y63.657 E21.7731
G1 X173.752 Y64.388 E21.80914
G1 X174.216 Y65.163 E21.84519
G1 X174.61 Y65.976 E21.88125
G1 X174.93 Y66.82 E21.91727
G1 X175.174 Y67.69 E21.95334
G1 X175.34 Y68.578 E21.98939
G1 X175.437 Y69.723 E22.03526
G1 X175.45 Y70.33 E22.05949
G1 X175.45 Y91.293 E22.89617
G1 X175.439 Y92.136 E22.92982
G1 X175.386 Y93.038 E22.96588
G1 X175.292 Y93.737 E22.99403
G1 X174.879 Y96.157 E23.09201
G1 X174.524 Y98.667 E23.19319
G1 X174.237 Y101.191 E23.29458
G1 X174.023 Y103.731 E23.39631
G1 X173.88 Y106.269 E23.49777
G1 X173.809 Y108.803 E23.59895
G1 X173.809 Y111.339 E23.70016
G1 X173.882 Y113.902 E23.8025
G1 X174.025 Y116.397 E23.90224
G1 X174.244 Y118.964 E24.00507
G1 X174.526 Y121.44 E24.10453
G1 X174.895 Y124.023 E24.20867
G1 X175.277 Y126.274 E24.2998
G1 X175.389 Y127.17 E24.33584
G1 X175.419 Y127.774 E24.35998
G1 X175.431 Y128.466 E24.3876
G1 X175.45 Y149.293 E25.21885
G1 X175.439 Y150.137 E25.25254
G1 X175.386 Y151.038 E25.28856
G1 X175.253 Y151.932 E25.32464
G1 X175.042 Y152.81 E25.36068
G1 X174.754 Y153.666 E25.39672
G1 X174.391 Y154.493 E25.43277
G1 X173.957 Y155.284 E25.46878
G1 X173.454 Y156.035 E25.50486
G1 X172.887 Y156.738 E25.5409
G1 X172.26 Y157.388 E25.57695
G1 X171.578 Y157.98 E25.61299
G1 X170.847 Y158.509 E25.64901
G1 X170.071 Y158.971 E25.68505
G1 X169.257 Y159.364 E25.72113
G1 X168.412 Y159.682 E25.75717
G1 X167.542 Y159.925 E25.79322
G1 X166.654 Y160.089 E25.82926
G1 X165.622 Y160.181 E25.87061
G1 X164.92 Y160.2 E25.89864
G1 X138.957 Y160.2 E26.93488
G1 X138.112 Y160.189 E26.96861
G1 X137.211 Y160.136 E27.00463
G1 X136.317 Y160.004 E27.0407
G1 X132.958 Y159.232 E27.17826
G1 X130.406 Y158.717 E27.28217
G1 X127.953 Y158.299 E27.38148
G1 X125.434 Y157.94 E27.48304
G1 X122.894 Y157.652 E27.58507
G1 X120.363 Y157.436 E27.68645
G1 X117.894 Y157.296 E27.78515
G1 X113.934 Y157.211 E27.94324
G1 X106.559 Y157.208 E28.23759
G1 X103.952 Y157.244 E28.34165
G1 X101.41 Y157.351 E28.4432
G1 X98.871 Y157.529 E28.54479
G1 X96.355 Y157.779 E28.6457
G1 X93.822 Y158.102 E28.74762
G1 X91.336 Y158.491 E28.84804
G1 X88.854 Y158.951 E28.94879
G1 X85.572 Y159.67 E29.08289
G1 X84.655 Y159.888 E29.12051
G1 X83.768 Y160.058 E29.15656
G1 X82.934 Y160.144 E29.19002
G1 X82.207 Y160.177 E29.21907
G1 X65.766 Y160.199 E29.87526
G1 X64.971 Y160.19 E29.907
G1 X64.069 Y160.139 E29.94305
G1 X63.175 Y160.009 E29.97911
G1 X62.297 Y159.8 E30.01513
G1 X61.44 Y159.514 E30.05119
G1 X60.612 Y159.154 E30.08723
G1 X59.819 Y158.721 E30.12329
G1 X59.068 Y158.22 E30.15932
G1 X58.363 Y157.655 E30.19538
G1 X57.712 Y157.03 E30.2314
G1 X57.118 Y156.349 E30.26747
G1 X56.587 Y155.619 E30.30349
G1 X56.123 Y154.844 E30.33955
G1 X55.728 Y154.032 E30.37559
G1 X55.408 Y153.187 E30.41165
G1 X55.163 Y152.318 E30.44769
G1 X54.996 Y151.43 E30.48375
G1 X54.902 Y150.397 E30.52515
G1 X54.882 Y149.69 E30.55338
G1 X54.881 Y70.674 E33.70708
G1 X54.892 Y69.856 E33.73973
G1 X54.946 Y68.954 E33.77579
G1 X55.079 Y68.061 E33.81183
G1 X55.29 Y67.183 E33.84787
G1 X55.579 Y66.327 E33.88393
G1 X55.942 Y65.5 E33.91997
G1 X56.376 Y64.709 E33.95599
G1 X56.879 Y63.958 E33.99206
G1 X57.447 Y63.256 E34.0281
G1 X58.074 Y62.606 E34.06415
G1 F1800 E31.06415
;MESH:Object 1
G0 F6000 X65.501 Y69.335
G0 X65.501 Y70.42
G0 X66.264 Y148.818
G0 X81.855 Y148.981
;TYPE:WALL-INNER
G1 F1800 E34.06415
G1 F1200 X66.281 Y149 E34.68574
G1 X66.082 Y149 E34.69368
G1 X66.082 Y148.801 E34.69882
G1 X66.081 Y71.199 E37.79609
G1 X66.081 Y71 E37.80403
G1 X66.28 Y71 E37.80917
G1 X81.836 Y71 E38.43004
G1 X84.816 Y73.981 E38.59827
G1 X134.977 Y74 E40.60031
G1 X135.705 Y73.959 E40.62941
G1 X138.664 Y71 E40.79643
G1 X164.25 Y71 E41.81762
G1 X164.25 Y91.586 E42.63925
G1 X161.269 Y94.566 E42.80748
G1 X161.25 Y124.819 E44.01495
G1 X161.25 Y125.415 E44.03873
G1 X164.231 Y128.395 E44.20697
G1 X164.25 Y148.801 E45.02141
G1 X164.25 Y149 E45.02936
G1 X164.051 Y149 E45.0345
G1 X138.664 Y149 E46.04775
G1 X135.684 Y146.019 E46.21598
G1 X84.835 Y146 E48.24547
G1 X81.855 Y148.981 E48.4137
G0 F6000 X82.021 Y149.381
G1 F1200 X65.881 Y149.4 E49.05789
G1 X65.681 Y149.4 E49.06587
G1 X65.681 Y149.2 E49.07104
G1 X65.682 Y148.898 E49.08309
G1 X65.681 Y70.799 E52.20019
G1 X65.681 Y70.6 E52.20813
G1 X65.88 Y70.6 E52.21327
G1 X82.002 Y70.6 E52.85674
G1 X84.982 Y73.581 E53.02497
G1 X134.966 Y73.6 E55.01994
G1 X135.53 Y73.568 E55.04249
G1 X138.498 Y70.6 E55.21001
G1 X164.65 Y70.6 E56.25379
G1 X164.65 Y91.752 E57.09802
G1 X161.669 Y94.732 E57.26625
G1 X161.65 Y124.819 E58.46709
G1 X161.65 Y125.249 E58.48425
G1 X164.631 Y128.229 E58.65248
G1 X164.65 Y149.201 E59.48952
G1 X164.65 Y149.4 E59.49746
G1 X164.451 Y149.4 E59.5026
G1 X138.498 Y149.4 E60.53844
G1 X135.518 Y146.419 E60.70667
G1 X85.001 Y146.4 E62.72292
G1 X82.021 Y149.381 E62.89115
G0 F6000 X82.187 Y149.781
;TYPE:WALL-OUTER
G1 F1200 X65.281 Y149.8 E63.5659
G1 X65.282 Y148.898 E63.6019
G1 X65.281 Y70.2 E66.74291
G1 X82.168 Y70.2 E67.41691
G1 X85.148 Y73.181 E67.58514
G1 X134.955 Y73.2 E69.57305
G1 X135.355 Y73.177 E69.58904
G1 X138.332 Y70.2 E69.75707
G1 X165.05 Y70.2 E70.82345
G1 X165.05 Y91.918 E71.69026
G1 X162.069 Y94.898 E71.85849
G1 X162.05 Y124.819 E73.0527
G1 X162.05 Y125.083 E73.06324
G1 X165.031 Y128.063 E73.23147
G1 X165.05 Y149.8 E74.09904
G1 X138.332 Y149.8 E75.16542
G1 X135.352 Y146.819 E75.33365
G1 X85.167 Y146.8 E77.33664
G1 X82.187 Y149.781 E77.50487
G0 F6000 X82.019 Y149.375
G0 X81.695 Y148.591
;TYPE:SKIN
G1 F1200 X66.472 Y148.61 E78.11246
G1 X66.471 Y71.39 E81.19447
G1 X81.676 Y71.39 E81.80134
G1 X84.654 Y74.371 E81.96951
G1 X134.988 Y74.39 E83.97845
G1 X135.875 Y74.34 E84.01391
G1 X138.824 Y71.39 E84.18039
G1 X163.86 Y71.39 E85.17963
G1 X163.86 Y91.426 E85.97931
G1 X160.879 Y94.404 E86.14749
G1 X160.86 Y124.819 E87.36142
G1 X160.86 Y125.577 E87.39167
G1 X163.841 Y128.555 E87.55985
G1 X163.86 Y148.61 E88.36029
G1 X138.824 Y148.61 E89.35953
G1 X135.846 Y145.629 E89.5277
G1 X84.673 Y145.61 E91.57013
G1 X81.695 Y148.591 E91.7383
G0 F6000 X81.891 Y148.788
G0 X66.989 Y148.89
G0 X66.989 Y148.448
G1 F1200 X66.63 Y148.089 E91.75857
G0 F6000 X66.63 Y147.523
G1 F1200 X67.554 Y148.447 E91.81072
G0 F6000 X68.119 Y148.447
G1 F1200 X66.63 Y146.958 E91.89477
G0 F6000 X66.63 Y146.392
G1 F1200 X68.684 Y148.446 E92.0107
G0 F6000 X69.249 Y148.445
G1 F1200 X66.63 Y145.826 E92.15853
G0 F6000 X66.63 Y145.26
G1 F1200 X69.814 Y148.445 E92.33828
G0 F6000 X70.379 Y148.444
G1 F1200 X66.63 Y144.695 E92.54989
G0 F6000 X66.63 Y144.129
G1 F1200 X70.944 Y148.443 E92.79339
G0 F6000 X71.509 Y148.442
G1 F1200 X66.63 Y143.563 E93.06878
G0 F6000 X66.63 Y142.998
G1 F1200 X72.074 Y148.442 E93.37606
G0 F6000 X72.639 Y148.441
G1 F1200 X66.63 Y142.432 E93.71524
G0 F6000 X66.63 Y141.866
G1 F1200 X73.204 Y148.44 E94.0863
G0 F6000 X73.769 Y148.44
G1 F1200 X66.63 Y141.301 E94.48926
G0 F6000 X66.63 Y140.735
G1 F1200 X74.334 Y148.439 E94.92411
G0 F6000 X74.899 Y148.438
G1 F1200 X66.63 Y140.169 E95.39084
G0 F6000 X66.63 Y139.604
G1 F1200 X75.464 Y148.437 E95.88945
G0 F6000 X76.029 Y148.437
G1 F1200 X66.63 Y139.038 E96.41997
G0 F6000 X66.63 Y138.472
G1 F1200 X76.594 Y148.436 E96.98238
G0 F6000 X77.159 Y148.435
G1 F1200 X66.63 Y137.907 E97.57665
G0 F6000 X66.63 Y137.341
G1 F1200 X77.724 Y148.435 E98.20284
G0 F6000 X78.289 Y148.434
G1 F1200 X66.63 Y136.775 E98.86093
G0 F6000 X66.63 Y136.209
G1 F1200 X78.853 Y148.433 E99.55088
G0 F6000 X79.418 Y148.432
G1 F1200 X66.63 Y135.644 E100.27269
G0 F6000 X66.63 Y135.078
G1 F1200 X79.983 Y148.431 E101.02639
G0 F6000 X80.548 Y148.43
G1 F1200 X66.63 Y134.512 E101.81198
G0 F6000 X66.63 Y133.947
G1 F1200 X81.113 Y148.43 E102.62946
G0 F6000 X81.654 Y148.405
G1 F1200 X66.63 Y133.381 E103.47748
G0 F6000 X66.63 Y132.815
G1 F1200 X81.937 Y148.122 E104.34147
G0 F6000 X82.22 Y147.839
G1 F1200 X66.63 Y132.25 E105.22141
G0 F6000 X66.63 Y131.684
G1 F1200 X82.503 Y147.556 E106.11733
G0 F6000 X82.785 Y147.273
G1 F1200 X66.63 Y131.118 E107.02918
G0 F6000 X66.63 Y130.553
G1 F1200 X83.068 Y146.99 E107.95699
G0 F6000 X83.35 Y146.707
G1 F1200 X66.63 Y129.987 E108.90074
G0 F6000 X66.63 Y129.421
G1 F1200 X83.633 Y146.424 E109.86046
G0 F6000 X83.915 Y146.141
G1 F1200 X66.63 Y128.856 E110.8361
G0 F6000 X66.63 Y128.29
G1 F1200 X84.198 Y145.858 E111.82771
G0 F6000 X84.481 Y145.575
G1 F1200 X66.63 Y127.724 E112.8353
G0 F6000 X66.63 Y127.159
G1 F1200 X84.921 Y145.449 E113.86769
G0 F6000 X85.487 Y145.449
G1 F1200 X66.63 Y126.593 E114.93204
G0 F6000 X66.63 Y126.027
G1 F1200 X86.052 Y145.449 E116.0283
G0 F6000 X86.619 Y145.45
G1 F1200 X66.63 Y125.461 E117.15656
G0 F6000 X66.63 Y124.896
G1 F1200 X87.184 Y145.45 E118.31672
G0 F6000 X87.75 Y145.45
G1 F1200 X66.63 Y124.33 E119.50883
G0 F6000 X66.63 Y123.764
G1 F1200 X88.316 Y145.45 E120.73288
G0 F6000 X88.882 Y145.451
G1 F1200 X66.63 Y123.199 E121.98888
G0 F6000 X66.63 Y122.633
G1 F1200 X89.448 Y145.451 E123.27682
G0 F6000 X90.013 Y145.451
G1 F1200 X66.63 Y122.067 E124.59669
G0 F6000 X66.63 Y121.502
G1 F1200 X90.58 Y145.451 E125.9485
G0 F6000 X91.146 Y145.451
G1 F1200 X66.63 Y120.936 E127.33226
G0 F6000 X66.63 Y120.37
G1 F1200 X91.711 Y145.451 E128.74794
G0 F6000 X92.278 Y145.452
G1 F1200 X66.63 Y119.805 E130.1956
G0 F6000 X66.63 Y119.239
G1 F1200 X92.843 Y145.452 E131.67517
G0 F6000 X93.409 Y145.452
