;FLAVOR:Marlin
;TIME:11999
;Filament used: 11.7442m
;Layer height: 0.2
;MINX:53.25
;MINY:59.4
;MINZ:0.2
;MAXX:175.85
;MAXY:160.6
;MAXZ:47.92
;Generated with Cura_SteamEngine 4.4.1
M140 S40
M105
M190 S40
M104 S215
M105
M109 S215
M82 ;absolute extrusion mode
M201 X500.00 Y500.00 Z100.00 E5000.00 ;Setup machine max acceleration
M203 X500.00 Y500.00 Z10.00 E50.00 ;Setup machine max feedrate
M204 P500.00 R1000.00 T500.00 ;Setup Print/Retract/Travel acceleration
M205 X8.00 Y8.00 Z0.40 E5.00 ;Setup Jerk
M220 S100 ;Reset Feedrate
M221 S100 ;Reset Flowrate

G28 ;Home

G92 E0 ;Reset Extruder
G1 Z2.0 F3000 ;Move Z Axis up
G1 X10.1 Y20 Z0.28 F5000.0 ;Move to start position
G1 X10.1 Y200.0 Z0.28 F1500.0 E15 ;Draw the first line
G1 X10.4 Y200.0 Z0.28 F5000.0 ;Move to side a little
G1 X10.4 Y20 Z0.28 F1500.0 E30 ;Draw the second line
G92 E0 ;Reset Extruder
G1 Z2.0 F3000 ;Move Z Axis up

G92 E0
G92 E0
G1 F1800 E-3
;LAYER_COUNT:212
;LAYER:0
M107
G0 F6000 X57.698 Y62.439 Z0.2
;TYPE:SKIRT
G1 F1800 E0
G1 F1200 X58.383 Y61.823 E0.03064
G1 X59.119 Y61.27 E0.06126
G1 X59.9 Y60.782 E0.09189
G1 X60.72 Y60.364 E0.1225
G1 X61.574 Y60.019 E0.15314
G1 X62.454 Y59.749 E0.18375
G1 X63.354 Y59.557 E0.21436
G1 X64.268 Y59.443 E0.245
G1 X64.82 Y59.413 E0.26338
G1 X65.14 Y59.404 E0.27403
G1 X65.438 Y59.4 E0.28394
G1 X81.543 Y59.4 E0.8196
G1 X81.695 Y59.401 E0.82465
G1 X82.393 Y59.411 E0.84787
G1 X83.312 Y59.464 E0.87849
G1 X84.223 Y59.597 E0.90911
G1 X84.729 Y59.706 E0.92632
G1 X85.128 Y59.802 E0.93997
G1 X87.623 Y60.377 E1.02513
G1 X90.146 Y60.886 E1.11074
G1 X92.617 Y61.308 E1.19411
G1 X95.113 Y61.664 E1.27797
G1 X97.619 Y61.949 E1.36186
G1 X100.152 Y62.165 E1.44641
G1 X102.627 Y62.306 E1.52886
G1 X106.595 Y62.391 E1.66087
G1 X113.881 Y62.393 E1.9032
G1 X116.471 Y62.357 E1.98936
G1 X119.04 Y62.249 E2.07488
G1 X121.503 Y62.075 E2.157
G1 X124.071 Y61.821 E2.24283
G1 X126.529 Y61.506 E2.32525
G1 X129.081 Y61.107 E2.41116
G1 X131.517 Y60.655 E2.49357
G1 X134.744 Y59.948 E2.60344
G1 X135.766 Y59.705 E2.63838
G1 X136.67 Y59.531 E2.669
G1 X137.896 Y59.423 E2.70994
G1 X138.491 Y59.405 E2.72974
G1 X138.812 Y59.4 E2.74041
G1 X164.543 Y59.4 E3.59623
G1 X164.68 Y59.401 E3.60079
G1 X165.378 Y59.41 E3.624
G1 X166.297 Y59.462 E3.65462
G1 X167.208 Y59.593 E3.68523
G1 X168.104 Y59.803 E3.71584
G1 X168.979 Y60.09 E3.74647
G1 X169.826 Y60.452 E3.7771
G1 X170.638 Y60.886 E3.80773
G1 X171.409 Y61.388 E3.83833
G1 X172.134 Y61.956 E3.86896
G1 X172.807 Y62.585 E3.8996
G1 X173.422 Y63.269 E3.93019
G1 X173.976 Y64.004 E3.96081
G1 X174.464 Y64.785 E3.99144
G1 X174.883 Y65.605 E4.02206
G1 X175.229 Y66.458 E4.05268
G1 X175.499 Y67.338 E4.08329
G1 X175.692 Y68.239 E4.11394
G1 X175.806 Y69.152 E4.14454
G1 X175.837 Y69.712 E4.1632
G1 X175.846 Y70.033 E4.17388
G1 X175.85 Y70.33 E4.18376
G1 X175.85 Y91.293 E4.88099
G1 X175.849 Y91.445 E4.88605
G1 X175.839 Y92.142 E4.90923
G1 X175.786 Y93.061 E4.93985
G1 X175.722 Y93.567 E4.95681
G1 X175.685 Y93.813 E4.96509
G1 X175.65 Y94.029 E4.97236
G1 X175.283 Y96.165 E5.04445
G1 X174.919 Y98.726 E5.13048
G1 X174.641 Y101.184 E5.21276
G1 X174.422 Y103.743 E5.29818
G1 X174.282 Y106.234 E5.38116
G1 X174.21 Y108.788 E5.46614
G1 X174.21 Y111.299 E5.54966
G1 X174.282 Y113.844 E5.63434
G1 X174.424 Y116.35 E5.71782
G1 X174.639 Y118.879 E5.80224
G1 X174.926 Y121.395 E5.88647
G1 X175.284 Y123.909 E5.97093
G1 X175.675 Y126.217 E6.04879
G1 X175.789 Y127.13 E6.07939
G1 X175.822 Y127.769 E6.10067
G1 X175.832 Y128.256 E6.11687
G1 X175.834 Y128.466 E6.12386
G1 X175.85 Y149.251 E6.81517
G1 X175.849 Y149.404 E6.82026
G1 X175.839 Y150.136 E6.8446
G1 X175.786 Y151.055 E6.87522
G1 X175.654 Y151.966 E6.90584
G1 X175.444 Y152.862 E6.93645
G1 X175.156 Y153.737 E6.96709
G1 X174.794 Y154.583 E6.99769
G1 X174.359 Y155.395 E7.02833
G1 X173.856 Y156.166 E7.05895
G1 X173.288 Y156.89 E7.08955
G1 X172.659 Y157.562 E7.12017
G1 X171.974 Y158.178 E7.15081
G1 X171.238 Y158.731 E7.18143
G1 X170.457 Y159.218 E7.21204
G1 X169.636 Y159.636 E7.24268
G1 X168.783 Y159.981 E7.27329
G1 X167.903 Y160.251 E7.3039
G1 X167.002 Y160.443 E7.33454
G1 X166.089 Y160.557 E7.36514
G1 X165.538 Y160.587 E7.3835
G1 X165.218 Y160.596 E7.39415
G1 X164.92 Y160.6 E7.40406
G1 X138.957 Y160.6 E8.26759
G1 X138.805 Y160.599 E8.27265
G1 X138.107 Y160.589 E8.29586
G1 X137.188 Y160.536 E8.32648
G1 X136.277 Y160.403 E8.3571
G1 X135.771 Y160.294 E8.37432
G1 X135.372 Y160.198 E8.38797
G1 X132.877 Y159.623 E8.47313
G1 X130.354 Y159.114 E8.55873
G1 X127.883 Y158.692 E8.64211
G1 X125.387 Y158.336 E8.72597
G1 X122.881 Y158.051 E8.80985
G1 X120.348 Y157.835 E8.89441
G1 X117.873 Y157.694 E8.97686
G1 X113.905 Y157.609 E9.10887
G1 X106.567 Y157.607 E9.35293
G1 X103.976 Y157.643 E9.43911
G1 X101.408 Y157.751 E9.5246
G1 X98.945 Y157.925 E9.60673
G1 X96.377 Y158.179 E9.69255
G1 X93.919 Y158.494 E9.77498
G1 X91.367 Y158.893 E9.86089
G1 X88.931 Y159.345 E9.94329
G1 X85.724 Y160.048 E10.05249
G1 X84.728 Y160.284 E10.08653
G1 X83.824 Y160.457 E10.11715
G1 X82.835 Y160.555 E10.1502
G1 X82.625 Y160.566 E10.1572
G1 X82.177 Y160.58 E10.1721
G1 X81.876 Y160.583 E10.18212
G1 X81.78 Y160.584 E10.18531
G1 X65.785 Y160.599 E10.71731
G1 X65.643 Y160.598 E10.72203
G1 X65.001 Y160.59 E10.74338
G1 X64.082 Y160.539 E10.774
G1 X63.17 Y160.408 E10.80464
G1 X62.274 Y160.198 E10.83525
G1 X61.399 Y159.912 E10.86587
G1 X60.552 Y159.55 E10.8965
G1 X59.74 Y159.117 E10.92711
G1 X58.969 Y158.614 E10.95773
G1 X58.244 Y158.047 E10.98834
G1 X57.571 Y157.419 E11.01896
G1 X56.955 Y156.734 E11.0496
G1 X56.4 Y155.999 E11.08023
G1 X55.912 Y155.219 E11.11083
G1 X55.493 Y154.399 E11.14146
G1 X55.147 Y153.546 E11.17208
G1 X54.876 Y152.666 E11.2027
G1 X54.683 Y151.766 E11.23332
G1 X54.563 Y150.783 E11.26625
G1 X54.54 Y150.476 E11.27649
G1 X54.51 Y149.684 E11.30285
G1 X54.509 Y70.674 E13.93074
G1 X54.51 Y70.531 E13.93549
G1 X54.519 Y69.866 E13.95761
G1 X54.571 Y68.946 E13.98826
G1 X54.703 Y68.035 E14.01888
G1 X54.914 Y67.139 E14.04949
G1 X55.201 Y66.264 E14.08012
G1 X55.564 Y65.418 E14.11074
G1 X55.998 Y64.606 E14.14136
G1 X56.501 Y63.835 E14.17198
G1 X57.07 Y63.111 E14.20261
G1 X57.698 Y62.439 E14.2332
G0 F6000 X58.09 Y62.617
G1 F1200 X58.771 Y62.024 E14.26323
G1 X59.503 Y61.494 E14.29329
G1 X60.278 Y61.031 E14.32332
G1 X61.091 Y60.638 E14.35335
G1 X61.936 Y60.318 E14.38341
G1 X62.805 Y60.075 E14.41342
G1 X63.693 Y59.909 E14.44346
G1 X64.831 Y59.813 E14.48145
G1 X65.151 Y59.804 E14.4921
G1 X65.438 Y59.8 E14.50164
G1 X81.543 Y59.8 E15.0373
G1 X81.689 Y59.801 E15.04215
G1 X82.387 Y59.811 E15.06537
G1 X83.289 Y59.864 E15.09542
G1 X84.182 Y59.996 E15.12545
G1 X84.635 Y60.095 E15.14087
G1 X84.941 Y60.169 E15.15134
G1 X87.56 Y60.772 E15.24073
G1 X90.071 Y61.279 E15.32593
G1 X92.559 Y61.704 E15.40988
G1 X95.083 Y62.063 E15.49467
G1 X97.576 Y62.347 E15.57813
G1 X100.129 Y62.565 E15.66335
G1 X102.598 Y62.705 E15.7456
G1 X106.586 Y62.791 E15.87827
G1 X113.886 Y62.793 E16.12107
G1 X116.494 Y62.757 E16.20782
G1 X119.05 Y62.649 E16.29291
G1 X121.534 Y62.473 E16.37574
G1 X124.094 Y62.22 E16.4613
G1 X126.64 Y61.895 E16.54666
G1 X129.11 Y61.508 E16.62982
G1 X131.615 Y61.044 E16.71455
G1 X134.812 Y60.343 E16.82341
G1 X135.859 Y60.094 E16.85921
G1 X136.746 Y59.925 E16.88924
G1 X137.909 Y59.823 E16.92807
G1 X138.504 Y59.805 E16.94787
G1 X138.812 Y59.8 E16.95811
G1 X164.543 Y59.8 E17.81393
G1 X164.675 Y59.801 E17.81832
G1 X165.373 Y59.81 E17.84154
G1 X166.274 Y59.861 E17.87155
G1 X167.168 Y59.993 E17.90161
G1 X168.046 Y60.202 E17.93163
G1 X168.903 Y60.489 E17.96169
G1 X169.73 Y60.85 E17.9917
G1 X170.523 Y61.283 E18.02175
G1 X171.274 Y61.784 E18.05178
G1 X171.978 Y62.35 E18.08182
G1 X172.629 Y62.976 E18.11186
G1 X173.222 Y63.657 E18.1419
G1 X173.752 Y64.388 E18.17193
G1 X174.216 Y65.163 E18.20197
G1 X174.61 Y65.976 E18.23202
G1 X174.93 Y66.82 E18.26204
G1 X175.174 Y67.69 E18.29209
G1 X175.34 Y68.578 E18.32214
G1 X175.437 Y69.723 E18.36036
G1 X175.446 Y70.044 E18.37104
G1 X175.45 Y70.33 E18.38055
G1 X175.45 Y91.293 E19.07779
G1 X175.449 Y91.439 E19.08264
G1 X175.439 Y92.136 E19.10583
G1 X175.386 Y93.038 E19.13588
G1 X175.327 Y93.507 E19.1516
G1 X175.29 Y93.753 E19.15987
G1 X175.256 Y93.961 E19.16688
G1 X174.881 Y96.146 E19.24062
G1 X174.529 Y98.621 E19.32377
G1 X174.239 Y101.176 E19.40929
G1 X174.025 Y103.688 E19.49314
G1 X173.882 Y106.234 E19.57796
G1 X173.81 Y108.777 E19.66257
G1 X173.81 Y111.31 E19.74682
G1 X173.882 Y113.844 E19.83114
G1 X174.027 Y116.406 E19.91648
G1 X174.241 Y118.922 E20.00047
G1 X174.527 Y121.43 E20.08443
G1 X174.886 Y123.955 E20.16925
G1 X175.281 Y126.284 E20.24782
G1 X175.392 Y127.18 E20.27785
G1 X175.422 Y127.778 E20.29777
G1 X175.432 Y128.265 E20.31397
G1 X175.434 Y128.466 E20.32065
G1 X175.45 Y149.251 E21.01196
G1 X175.449 Y149.398 E21.01685
G1 X175.439 Y150.13 E21.0412
G1 X175.387 Y151.032 E21.07125
G1 X175.255 Y151.925 E21.10128
G1 X175.045 Y152.804 E21.13134
G1 X174.757 Y153.66 E21.16137
G1 X174.396 Y154.487 E21.19139
G1 X173.962 Y155.279 E21.22142
G1 X173.46 Y156.03 E21.25147
G1 X172.894 Y156.734 E21.28151
G1 X172.267 Y157.384 E21.31155
G1 X171.586 Y157.977 E21.34159
G1 X170.854 Y158.507 E21.37164
G1 X170.079 Y158.97 E21.40167
G1 X169.266 Y159.363 E21.4317
G1 X168.421 Y159.682 E21.46174
G1 X167.552 Y159.926 E21.49177
G1 X166.664 Y160.091 E21.52181
G1 X165.527 Y160.187 E21.55976
G1 X165.207 Y160.196 E21.5704
G1 X164.92 Y160.2 E21.57995
G1 X138.957 Y160.2 E22.44348
G1 X138.811 Y160.199 E22.44834
G1 X138.113 Y160.189 E22.47156
G1 X137.211 Y160.136 E22.50161
G1 X136.318 Y160.004 E22.53163
G1 X135.865 Y159.905 E22.54706
G1 X135.559 Y159.831 E22.55753
G1 X132.94 Y159.228 E22.64692
G1 X130.429 Y158.721 E22.73212
G1 X127.941 Y158.296 E22.81607
G1 X125.417 Y157.937 E22.90086
G1 X122.924 Y157.653 E22.98431
G1 X120.371 Y157.435 E23.06954
G1 X117.902 Y157.295 E23.15179
G1 X113.914 Y157.209 E23.28446
G1 X106.562 Y157.207 E23.52899
G1 X103.953 Y157.243 E23.61577
G1 X101.399 Y157.351 E23.70079
G1 X98.914 Y157.527 E23.78365
G1 X96.354 Y157.78 E23.86921
G1 X93.808 Y158.105 E23.95458
G1 X91.338 Y158.492 E24.03774
G1 X88.833 Y158.956 E24.12247
G1 X85.614 Y159.662 E24.23208
G1 X84.636 Y159.894 E24.26551
G1 X83.749 Y160.064 E24.29555
G1 X82.815 Y160.156 E24.32676
G1 X82.605 Y160.167 E24.33376
G1 X82.173 Y160.18 E24.34813
G1 X81.872 Y160.183 E24.35815
G1 X81.78 Y160.184 E24.36121
G1 X65.785 Y160.199 E24.8932
G1 X65.648 Y160.198 E24.89776
G1 X65.006 Y160.19 E24.91911
G1 X64.104 Y160.139 E24.94916
G1 X63.211 Y160.008 E24.97918
G1 X62.332 Y159.799 E25.00923
G1 X61.476 Y159.513 E25.03925
G1 X60.648 Y159.152 E25.06929
G1 X59.855 Y158.719 E25.09934
G1 X59.104 Y158.218 E25.12937
G1 X58.4 Y157.653 E25.15939
G1 X57.748 Y157.027 E25.18946
G1 X57.155 Y156.346 E25.21949
G1 X56.624 Y155.616 E25.24951
G1 X56.16 Y154.841 E25.27956
G1 X55.766 Y154.028 E25.30961
G1 X55.446 Y153.184 E25.33963
G1 X55.201 Y152.314 E25.36969
G1 X55.035 Y151.427 E25.3997
G1 X54.962 Y150.753 E25.42225
G1 X54.939 Y150.446 E25.43249
G1 X54.91 Y149.684 E25.45785
G1 X54.909 Y70.674 E28.08574
G1 X54.91 Y70.536 E28.09033
G1 X54.919 Y69.871 E28.11245
G1 X54.971 Y68.969 E28.1425
G1 X55.103 Y68.076 E28.17252
G1 X55.313 Y67.198 E28.20255
G1 X55.6 Y66.341 E28.23261
G1 X55.962 Y65.514 E28.26263
G1 X56.395 Y64.722 E28.29265
G1 X56.897 Y63.971 E28.3227
G1 X57.464 Y63.267 E28.35276
G1 X58.09 Y62.617 E28.38278
G1 F1800 E25.38278
;MESH:stack_box_half.stl
G0 F6000 X65.529 Y69.335
G0 X65.529 Y70.42
G0 X66.292 Y148.818
G0 X81.852 Y148.984
;TYPE:WALL-INNER
G1 F1800 E28.38278
G1 F1200 X66.309 Y149 E28.89974
G1 X66.11 Y149 E28.90636
G1 X66.11 Y148.801 E28.91064
G1 X66.109 Y71.199 E31.4917
G1 X66.109 Y71 E31.49831
G1 X66.308 Y71 E31.5026
G1 X81.836 Y71 E32.01906
G1 X84.819 Y73.984 E32.1594
G1 X135.027 Y74 E33.82932
G1 X135.702 Y73.962 E33.85181
G1 X138.664 Y71 E33.99113
G1 X164.25 Y71 E34.84212
G1 X164.25 Y91.586 E35.52682
G1 X161.266 Y94.569 E35.66715
G1 X161.25 Y124.849 E36.67427
G1 X161.25 Y125.415 E36.69309
G1 X164.234 Y128.398 E36.83343
G1 X164.25 Y148.801 E37.51203
G1 X164.25 Y149 E37.51865
G1 X164.051 Y149 E37.52294
G1 X138.664 Y149 E38.36731
G1 X135.681 Y146.016 E38.50765
G1 X84.835 Y146 E40.19879
G1 X81.852 Y148.984 E40.33913
G0 F6000 X82.018 Y149.384
G1 F1200 X65.909 Y149.4 E40.87491
G1 X65.71 Y149.4 E40.88153
G1 X65.71 Y149.201 E40.88581
G1 X65.709 Y70.799 E43.49348
G1 X65.709 Y70.6 E43.50009
G1 X65.908 Y70.6 E43.50438
G1 X82.002 Y70.6 E44.03966
G1 X84.985 Y73.584 E44.18
G1 X135.016 Y73.6 E45.84404
G1 X135.527 Y73.571 E45.86106
G1 X138.498 Y70.6 E46.00081
G1 X164.65 Y70.6 E46.87063
G1 X164.65 Y91.752 E47.57414
G1 X161.666 Y94.735 E47.71448
G1 X161.65 Y124.849 E48.71608
G1 X161.65 Y125.249 E48.72938
G1 X164.634 Y128.232 E48.86971
G1 X164.65 Y149.201 E49.56715
G1 X164.65 Y149.4 E49.57376
G1 X164.451 Y149.4 E49.57805
G1 X138.498 Y149.4 E50.44125
G1 X135.515 Y146.416 E50.58158
G1 X85.001 Y146.4 E52.26168
G1 X82.018 Y149.384 E52.40202
G0 F6000 X82.184 Y149.784
;TYPE:WALL-OUTER
G1 F1200 X65.309 Y149.8 E52.96328
G1 X65.31 Y149.082 E52.98717
G1 X65.309 Y70.2 E55.61079
G1 X82.168 Y70.2 E56.17152
G1 X85.151 Y73.184 E56.31186
G1 X135.005 Y73.2 E57.97001
G1 X135.352 Y73.18 E57.98157
G1 X138.332 Y70.2 E58.12174
G1 X165.05 Y70.2 E59.01038
G1 X165.05 Y91.918 E59.73273
G1 X162.066 Y94.901 E59.87306
G1 X162.05 Y124.849 E60.86914
G1 X162.05 Y125.083 E60.87692
G1 X165.034 Y128.066 E61.01725
G1 X165.05 Y149.8 E61.74013
G1 X138.332 Y149.8 E62.62878
G1 X135.349 Y146.816 E62.76911
G1 X85.167 Y146.8 E64.43817
G1 X82.184 Y149.784 E64.5785
G0 F6000 X82.016 Y149.378
G0 X81.692 Y148.594
;TYPE:SKIN
G1 F1200 X66.5 Y148.61 E65.08379
G1 X66.499 Y71.39 E67.65214
G1 X81.676 Y71.39 E68.15693
G1 X84.657 Y74.374 E68.29722
G1 X135.038 Y74.39 E69.9729
G1 X135.872 Y74.343 E70.00068
G1 X138.824 Y71.39 E70.13956
G1 X163.86 Y71.39 E70.97226
G1 X163.86 Y91.426 E71.63866
G1 X160.876 Y94.407 E71.77894
G1 X160.86 Y124.849 E72.79145
G1 X160.86 Y125.577 E72.81566
G1 X163.844 Y128.558 E72.95595
G1 X163.86 Y148.61 E73.62288
G1 X138.824 Y148.61 E74.45558
G1 X135.843 Y145.626 E74.59587
G1 X84.673 Y145.61 E76.29779
G1 X81.692 Y148.594 E76.43808
G0 F6000 X81.888 Y148.791
G0 X66.989 Y148.89
G0 X66.989 Y148.448
G1 F1200 X66.658 Y148.117 E76.45365
G0 F6000 X66.658 Y147.551
G1 F1200 X67.554 Y148.447 E76.49579
G0 F6000 X68.119 Y148.447
G1 F1200 X66.658 Y146.986 E76.56452
G0 F6000 X66.658 Y146.42
G1 F1200 X68.684 Y148.446 E76.65981
G0 F6000 X69.25 Y148.446
G1 F1200 X66.658 Y145.854 E76.78173
G0 F6000 X66.658 Y145.289
G1 F1200 X69.815 Y148.445 E76.9302
G0 F6000 X70.38 Y148.445
G1 F1200 X66.658 Y144.723 E77.10528
G0 F6000 X66.658 Y144.157
G1 F1200 X70.945 Y148.444 E77.30692
G0 F6000 X71.51 Y148.443
G1 F1200 X66.658 Y143.592 E77.53512
G0 F6000 X66.658 Y143.026
G1 F1200 X72.075 Y148.442 E77.7899
G0 F6000 X72.64 Y148.442
G1 F1200 X66.658 Y142.46 E78.07127
G0 F6000 X66.658 Y141.895
G1 F1200 X73.205 Y148.441 E78.3792
G0 F6000 X73.771 Y148.441
G1 F1200 X66.658 Y141.329 E78.71375
G0 F6000 X66.658 Y140.763
G1 F1200 X74.336 Y148.44 E79.07488
G0 F6000 X74.9 Y148.44
G1 F1200 X66.658 Y140.198 E79.46256
G0 F6000 X66.658 Y139.632
G1 F1200 X75.465 Y148.439 E79.87681
G0 F6000 X76.03 Y148.438
G1 F1200 X66.658 Y139.066 E80.31764
G0 F6000 X66.658 Y138.501
G1 F1200 X76.595 Y148.437 E80.78502
G0 F6000 X77.16 Y148.437
G1 F1200 X66.658 Y137.935 E81.279
G0 F6000 X66.658 Y137.369
G1 F1200 X77.725 Y148.436 E81.79956
G0 F6000 X78.291 Y148.436
G1 F1200 X66.658 Y136.803 E82.34674
G0 F6000 X66.658 Y136.238
G1 F1200 X78.856 Y148.435 E82.92048
G0 F6000 X79.421 Y148.435
G1 F1200 X66.658 Y135.672 E83.52081
G0 F6000 X66.658 Y135.106
G1 F1200 X79.986 Y148.434 E84.14772
G0 F6000 X80.551 Y148.433
G1 F1200 X66.658 Y134.541 E84.80118
G0 F6000 X66.658 Y133.975
G1 F1200 X81.116 Y148.433 E85.48124
G0 F6000 X81.654 Y148.405
G1 F1200 X66.658 Y133.409 E86.1866
G0 F6000 X66.658 Y132.844
G1 F1200 X81.937 Y148.122 E86.90526
G0 F6000 X82.22 Y147.839
G1 F1200 X66.658 Y132.278 E87.63722
G0 F6000 X66.658 Y131.712
G1 F1200 X82.503 Y147.556 E88.3825
G0 F6000 X82.785 Y147.273
G1 F1200 X66.658 Y131.147 E89.14104
G0 F6000 X66.658 Y130.581
G1 F1200 X83.068 Y146.99 E89.91289
G0 F6000 X83.35 Y146.707
