;FLAVOR:Marlin
;TIME:9516
;Filament used: 10.0871m
;Layer height: 0.2
;MINX:53.25
;MINY:66.2
;MINZ:0.2
;MAXX:169.05
;MAXY:153.8
;MAXZ:47.92
;Generated with Cura_SteamEngine 4.5.0
M140 S50
M105
M190 S50
M104 S215
M105
M109 S215
M82 ;absolute extrusion mode
M201 X500.00 Y500.00 Z100.00 E5000.00 ;Setup machine max acceleration
M203 X500.00 Y500.00 Z10.00 E50.00 ;Setup machine max feedrate
M204 P500.00 R1000.00 T500.00 ;Setup Print/Retract/Travel acceleration
M205 X8.00 Y8.00 Z0.40 E5.00 ;Setup Jerk
M220 S100 ;Reset Feedrate
M221 S100 ;Reset Flowrate

G28 ;Home

G92 E0 ;Reset Extruder
G1 Z2.0 F3000 ;Move Z Axis up
G1 X10.1 Y20 Z0.28 F5000.0 ;Move to start position
G1 X10.1 Y200.0 Z0.28 F1500.0 E15 ;Draw the first line
G1 X10.4 Y200.0 Z0.28 F5000.0 ;Move to side a little
G1 X10.4 Y20 Z0.28 F1500.0 E30 ;Draw the second line
G92 E0 ;Reset Extruder
G1 Z2.0 F3000 ;Move Z Axis up

G92 E0
G92 E0
G1 F1800 E-4
;LAYER_COUNT:211
;LAYER:0
M107
G0 F9000 X62.661 Y67.094 Z0.2
;TYPE:SKIRT
G1 F1800 E0
G1 F3000 X63.107 Y66.77 E0.01834
G1 X63.595 Y66.515 E0.03665
G1 X64.115 Y66.332 E0.05498
G1 X64.656 Y66.227 E0.07331
G1 X65.109 Y66.2 E0.08841
G1 X82.25 Y66.2 E0.65852
G1 X82.8 Y66.24 E0.67686
G1 X83.338 Y66.359 E0.69519
G1 X83.853 Y66.555 E0.71351
G1 X84.334 Y66.823 E0.73183
G1 X84.937 Y67.313 E0.75767
G1 X86.809 Y69.185 E0.84572
G1 X133.677 Y69.2 E2.40456
G1 X135.563 Y67.313 E2.49329
G1 X135.979 Y66.953 E2.51159
G1 X136.444 Y66.657 E2.52993
G1 X136.946 Y66.431 E2.54824
G1 X137.476 Y66.28 E2.56657
G1 X138.25 Y66.2 E2.59245
G1 X165.25 Y66.2 E3.49047
G1 X165.8 Y66.24 E3.50881
G1 X166.338 Y66.359 E3.52714
G1 X166.853 Y66.555 E3.54547
G1 X167.334 Y66.823 E3.56378
G1 X167.772 Y67.157 E3.5821
G1 X168.156 Y67.552 E3.60042
G1 X168.48 Y67.998 E3.61876
G1 X168.735 Y68.486 E3.63707
G1 X168.918 Y69.006 E3.65541
G1 X169.023 Y69.547 E3.67374
G1 X169.05 Y70 E3.68883
G1 X169.05 Y92 E4.42055
G1 X169.01 Y92.55 E4.43889
G1 X168.891 Y93.088 E4.45722
G1 X168.695 Y93.603 E4.47555
G1 X168.427 Y94.084 E4.49386
G1 X167.937 Y94.687 E4.5197
G1 X166.065 Y96.559 E4.60776
G1 X166.051 Y123.427 E5.50139
G1 X167.921 Y125.297 E5.58935
G1 X168.281 Y125.714 E5.60767
G1 X168.578 Y126.178 E5.626
G1 X168.804 Y126.681 E5.64434
G1 X168.955 Y127.211 E5.66267
G1 X169.034 Y127.981 E5.68841
G1 X169.05 Y149.886 E6.41697
G1 X169.01 Y150.55 E6.4391
G1 X168.891 Y151.088 E6.45743
G1 X168.695 Y151.603 E6.47575
G1 X168.427 Y152.084 E6.49407
G1 X168.093 Y152.522 E6.51239
G1 X167.698 Y152.906 E6.53071
G1 X167.252 Y153.23 E6.54904
G1 X166.764 Y153.485 E6.56736
G1 X166.244 Y153.668 E6.58569
G1 X165.703 Y153.773 E6.60402
G1 X165.25 Y153.8 E6.61912
G1 X138.25 Y153.8 E7.51714
G1 X137.7 Y153.76 E7.53548
G1 X137.162 Y153.641 E7.55381
G1 X136.647 Y153.445 E7.57214
G1 X136.166 Y153.177 E7.59045
G1 X135.563 Y152.687 E7.61629
G1 X133.676 Y150.8 E7.70505
G1 X86.824 Y150.8 E9.26335
G1 X84.953 Y152.671 E9.35136
G1 X84.536 Y153.031 E9.36968
G1 X84.072 Y153.328 E9.38801
G1 X83.569 Y153.554 E9.40635
G1 X83.039 Y153.705 E9.42468
G1 X82.27 Y153.784 E9.45039
G1 X65.113 Y153.8 E10.02103
G1 X64.563 Y153.761 E10.03937
G1 X64.025 Y153.642 E10.0577
G1 X63.51 Y153.447 E10.07601
G1 X63.028 Y153.179 E10.09436
G1 X62.59 Y152.845 E10.11268
G1 X62.205 Y152.451 E10.131
G1 X61.881 Y152.005 E10.14933
G1 X61.625 Y151.517 E10.16766
G1 X61.442 Y150.997 E10.186
G1 X61.337 Y150.457 E10.2043
G1 X61.31 Y149.078 E10.25017
G1 X61.309 Y70 E12.88031
G1 X61.349 Y69.45 E12.89866
G1 X61.468 Y68.913 E12.91695
G1 X61.663 Y68.397 E12.9353
G1 X61.931 Y67.916 E12.95361
G1 X62.266 Y67.478 E12.97195
G1 X62.661 Y67.094 E12.99027
G0 F9000 X63.051 Y67.294
G1 F3000 X63.489 Y67.011 E13.00762
G1 X63.964 Y66.798 E13.02493
G1 X64.467 Y66.661 E13.04227
G1 X65.109 Y66.6 E13.06372
G1 X82.25 Y66.6 E13.63383
G1 X82.77 Y66.64 E13.65118
G1 X83.277 Y66.759 E13.6685
G1 X83.76 Y66.954 E13.68582
G1 X84.208 Y67.22 E13.70315
G1 X84.654 Y67.596 E13.72256
G1 X86.642 Y69.584 E13.81607
G1 X133.842 Y69.6 E15.38594
G1 X135.845 Y67.596 E15.48018
G1 X136.241 Y67.257 E15.49752
G1 X136.684 Y66.982 E15.51486
G1 X137.163 Y66.778 E15.53218
G1 X137.669 Y66.65 E15.54954
G1 X138.25 Y66.6 E15.56893
G1 X165.25 Y66.6 E16.46696
G1 X165.77 Y66.64 E16.4843
G1 X166.277 Y66.759 E16.50163
G1 X166.76 Y66.954 E16.51895
G1 X167.208 Y67.22 E16.53628
G1 X167.61 Y67.552 E16.55362
G1 X167.956 Y67.942 E16.57096
G1 X168.239 Y68.38 E16.5883
G1 X168.452 Y68.855 E16.60562
G1 X168.589 Y69.358 E16.62296
G1 X168.65 Y70 E16.64441
G1 X168.65 Y92 E17.37613
G1 X168.61 Y92.52 E17.39348
G1 X168.491 Y93.027 E17.4108
G1 X168.296 Y93.51 E17.42812
G1 X168.03 Y93.958 E17.44545
G1 X167.654 Y94.404 E17.46485
G1 X165.665 Y96.393 E17.55841
G1 X165.651 Y123.593 E18.46309
G1 X167.638 Y125.58 E18.55655
G1 X167.977 Y125.976 E18.57389
G1 X168.252 Y126.418 E18.5912
G1 X168.456 Y126.898 E18.60855
G1 X168.584 Y127.403 E18.62587
G1 X168.634 Y127.982 E18.6452
G1 X168.65 Y149.887 E19.37377
G1 X168.61 Y150.52 E19.39486
G1 X168.491 Y151.027 E19.41218
G1 X168.296 Y151.51 E19.42951
G1 X168.03 Y151.958 E19.44684
G1 X167.698 Y152.36 E19.46418
G1 X167.308 Y152.706 E19.48152
G1 X166.87 Y152.989 E19.49886
G1 X166.395 Y153.202 E19.51618
G1 X165.892 Y153.339 E19.53352
G1 X165.25 Y153.4 E19.55497
G1 X138.25 Y153.4 E20.45299
G1 X137.73 Y153.36 E20.47034
G1 X137.223 Y153.241 E20.48766
G1 X136.74 Y153.046 E20.50498
G1 X136.292 Y152.78 E20.52231
G1 X135.846 Y152.404 E20.54171
G1 X133.842 Y150.4 E20.63598
G1 X86.658 Y150.4 E22.20532
G1 X84.67 Y152.388 E22.29883
G1 X84.274 Y152.727 E22.31617
G1 X83.832 Y153.002 E22.33348
G1 X83.352 Y153.206 E22.35083
G1 X82.847 Y153.334 E22.36816
G1 X82.269 Y153.384 E22.38745
G1 X65.112 Y153.4 E22.9581
G1 X64.593 Y153.361 E22.97541
G1 X64.085 Y153.242 E22.99276
G1 X63.602 Y153.048 E23.01007
G1 X63.153 Y152.781 E23.02745
G1 X62.751 Y152.45 E23.04477
G1 X62.405 Y152.061 E23.06208
G1 X62.122 Y151.623 E23.07943
G1 X61.909 Y151.148 E23.09674
G1 X61.771 Y150.645 E23.11409
G1 X61.709 Y149.996 E23.13577
G1 X61.71 Y149.078 E23.16631
G1 X61.709 Y70 E25.79645
G1 X61.749 Y69.48 E25.8138
G1 X61.868 Y68.973 E25.83112
G1 X62.063 Y68.49 E25.84844
G1 X62.329 Y68.042 E25.86577
G1 X62.661 Y67.64 E25.88311
G1 X63.051 Y67.294 E25.90046
G0 F9000 X63.055 Y67.813
G1 F3000 X63.438 Y67.508 E25.91674
G1 X63.865 Y67.27 E25.933
G1 X64.326 Y67.104 E25.9493
G1 X65.109 Y67 E25.97557
G1 X82.25 Y67 E26.54568
G1 X83.213 Y67.159 E26.57814
G1 X83.662 Y67.353 E26.59441
G1 X84.074 Y67.618 E26.6107
G1 X86.476 Y69.984 E26.72284
G1 X134.008 Y70 E28.30376
G1 X136.128 Y67.879 E28.4035
G1 X136.501 Y67.562 E28.41979
G1 X136.921 Y67.31 E28.43608
G1 X137.376 Y67.13 E28.45235
G1 X137.855 Y67.026 E28.46865
G1 X138.25 Y67 E28.48182
G1 X165.25 Y67 E29.37984
G1 X165.738 Y67.04 E29.39613
G1 X166.213 Y67.159 E29.41242
G1 X166.662 Y67.353 E29.42868
G1 X167.074 Y67.618 E29.44498
G1 X167.437 Y67.946 E29.46125
G1 X167.742 Y68.329 E29.47753
G1 X167.98 Y68.757 E29.49382
G1 X168.146 Y69.217 E29.51009
G1 X168.25 Y70 E29.53636
G1 X168.25 Y92 E30.26808
G1 X168.21 Y92.488 E30.28437
G1 X168.091 Y92.963 E30.30065
G1 X167.897 Y93.412 E30.31692
G1 X167.632 Y93.824 E30.33322
G1 X165.265 Y96.227 E30.4454
G1 X165.251 Y123.759 E31.36112
G1 X167.355 Y125.863 E31.46009
G1 X167.672 Y126.236 E31.47637
G1 X167.924 Y126.656 E31.49266
G1 X168.104 Y127.111 E31.50893
G1 X168.208 Y127.589 E31.5252
G1 X168.234 Y127.982 E31.5383
G1 X168.25 Y149.887 E32.26687
G1 X168.21 Y150.488 E32.2869
G1 X168.091 Y150.963 E32.30319
G1 X167.897 Y151.412 E32.31945
G1 X167.632 Y151.824 E32.33575
G1 X167.304 Y152.187 E32.35202
G1 X166.921 Y152.492 E32.3683
G1 X166.493 Y152.73 E32.38459
G1 X166.033 Y152.896 E32.40086
G1 X165.25 Y153 E32.42713
G1 X138.25 Y153 E33.32515
G1 X137.762 Y152.96 E33.34144
G1 X137.287 Y152.841 E33.35772
G1 X136.838 Y152.647 E33.37399
G1 X136.426 Y152.382 E33.39029
G1 X134.008 Y150 E33.50318
G1 X86.492 Y150 E35.08357
G1 X84.387 Y152.105 E35.18258
G1 X84.014 Y152.422 E35.19886
G1 X83.594 Y152.674 E35.21515
G1 X83.139 Y152.854 E35.23142
G1 X82.661 Y152.958 E35.2477
G1 X82.269 Y152.984 E35.26076
G1 X65.112 Y153 E35.83141
G1 X64.624 Y152.961 E35.84769
G1 X64.149 Y152.842 E35.86398
G1 X63.7 Y152.648 E35.88024
G1 X63.288 Y152.384 E35.89652
G1 X62.924 Y152.056 E35.91282
G1 X62.619 Y151.673 E35.9291
G1 X62.38 Y151.246 E35.94538
G1 X62.214 Y150.786 E35.96164
G1 X62.124 Y150.304 E35.97795
G1 X62.11 Y149.079 E36.0187
G1 X62.109 Y70 E38.64887
G1 X62.149 Y69.512 E38.66516
G1 X62.268 Y69.037 E38.68145
G1 X62.462 Y68.588 E38.69771
G1 X62.727 Y68.176 E38.71401
G1 X63.055 Y67.813 E38.73028
G0 F9000 X63.447 Y68.001
G1 F3000 X63.822 Y67.741 E38.74546
G1 X64.236 Y67.551 E38.76061
G1 X64.677 Y67.436 E38.77577
G1 X65.109 Y67.4 E38.79018
G1 X82.25 Y67.4 E39.3603
G1 X83.144 Y67.558 E39.39049
G1 X83.556 Y67.752 E39.40564
G1 X84.088 Y68.162 E39.42798
G1 X86.31 Y70.384 E39.53249
G1 X134.174 Y70.4 E41.12446
G1 X136.411 Y68.162 E41.2297
G1 X136.76 Y67.869 E41.24486
G1 X137.155 Y67.642 E41.26001
G1 X137.584 Y67.487 E41.27518
G1 X138.25 Y67.4 E41.29752
G1 X165.25 Y67.4 E42.19554
G1 X165.704 Y67.44 E42.2107
G1 X166.144 Y67.558 E42.22585
G1 X166.556 Y67.752 E42.241
G1 X166.929 Y68.015 E42.25618
G1 X167.25 Y68.338 E42.27133
G1 X167.509 Y68.713 E42.28648
G1 X167.699 Y69.127 E42.30164
G1 X167.814 Y69.568 E42.31679
G1 X167.85 Y70 E42.33121
G1 X167.85 Y92 E43.06293
G1 X167.81 Y92.454 E43.07809
G1 X167.692 Y92.894 E43.09324
G1 X167.498 Y93.306 E43.10839
G1 X167.088 Y93.838 E43.13073
G1 X164.865 Y96.061 E43.23529
G1 X164.851 Y123.925 E44.16205
G1 X167.072 Y126.146 E44.26652
G1 X167.365 Y126.495 E44.28168
G1 X167.592 Y126.89 E44.29683
G1 X167.747 Y127.318 E44.31197
G1 X167.834 Y127.982 E44.33425
G1 X167.85 Y149.887 E45.06281
G1 X167.81 Y150.454 E45.08171
G1 X167.692 Y150.894 E45.09687
G1 X167.498 Y151.306 E45.11201
G1 X167.235 Y151.679 E45.12719
G1 X166.912 Y152 E45.14234
G1 X166.537 Y152.259 E45.1575
G1 X166.123 Y152.449 E45.17265
G1 X165.682 Y152.564 E45.18781
G1 X165.25 Y152.6 E45.20222
G1 X138.25 Y152.6 E46.10025
G1 X137.796 Y152.56 E46.11541
G1 X137.356 Y152.442 E46.13056
G1 X136.944 Y152.248 E46.1457
G1 X136.412 Y151.838 E46.16804
G1 X134.174 Y149.6 E46.27331
G1 X86.326 Y149.6 E47.86474
G1 X84.104 Y151.822 E47.96926
G1 X83.755 Y152.115 E47.98442
G1 X83.36 Y152.342 E47.99957
G1 X82.932 Y152.497 E48.01471
G1 X82.268 Y152.584 E48.03698
G1 X65.111 Y152.6 E48.60763
G1 X64.658 Y152.56 E48.62275
G1 X64.217 Y152.442 E48.63793
G1 X63.805 Y152.249 E48.65307
G1 X63.432 Y151.987 E48.66823
G1 X63.111 Y151.664 E48.68337
G1 X62.851 Y151.289 E48.69855
G1 X62.661 Y150.876 E48.71367
G1 X62.546 Y150.435 E48.72883
G1 X62.509 Y149.997 E48.74345
G1 X62.51 Y149.079 E48.77398
G1 X62.509 Y70 E51.40416
G1 X62.549 Y69.546 E51.41932
G1 X62.667 Y69.106 E51.43447
G1 X62.861 Y68.694 E51.44962
G1 X63.124 Y68.321 E51.4648
G1 X63.447 Y68.001 E51.47992
G0 F9000 X63.836 Y68.206
G1 F3000 X64.199 Y67.997 E51.49385
G1 X64.596 Y67.861 E51.50781
G1 X65.109 Y67.8 E51.52499
G1 X82.25 Y67.8 E52.0951
G1 X83.069 Y67.958 E52.12285
G1 X83.441 Y68.151 E52.13678
G1 X83.806 Y68.444 E52.15235
G1 X86.146 Y70.784 E52.26242
G1 X134.34 Y70.8 E53.86536
G1 X136.694 Y68.445 E53.97611
G1 X137.017 Y68.178 E53.99004
G1 X137.385 Y67.977 E54.00399
G1 X137.784 Y67.85 E54.01792
G1 X138.25 Y67.8 E54.03351
G1 X165.25 Y67.8 E54.93153
G1 X165.667 Y67.84 E54.94546
G1 X166.069 Y67.958 E54.9594
G1 X166.441 Y68.151 E54.97334
G1 X166.77 Y68.41 E54.98726
G1 X167.044 Y68.727 E55.0012
G1 X167.253 Y69.09 E55.01513
G1 X167.389 Y69.487 E55.02909
G1 X167.45 Y70 E55.04627
G1 X167.45 Y92 E55.77799
G1 X167.41 Y92.417 E55.79193
G1 X167.292 Y92.819 E55.80586
G1 X167.099 Y93.191 E55.8198
G1 X166.806 Y93.556 E55.83537
G1 X164.466 Y95.896 E55.94543
G1 X164.45 Y124.088 E56.8831
G1 X166.79 Y126.428 E56.99317
G1 X167.056 Y126.752 E57.00711
G1 X167.257 Y127.119 E57.02103
G1 X167.384 Y127.519 E57.03499
G1 X167.434 Y127.982 E57.05048
G1 X167.45 Y149.887 E57.77904
G1 X167.41 Y150.417 E57.79672
G1 X167.292 Y150.819 E57.81065
G1 X167.099 Y151.191 E57.82459
G1 X166.84 Y151.52 E57.83852
G1 X166.523 Y151.794 E57.85246
G1 X166.16 Y152.003 E57.86639
G1 X165.763 Y152.139 E57.88034
G1 X165.25 Y152.2 E57.89753
G1 X138.25 Y152.2 E58.79555
G1 X137.833 Y152.16 E58.80948
G1 X137.431 Y152.042 E58.82342
G1 X137.059 Y151.849 E58.83736
G1 X136.694 Y151.556 E58.85292
G1 X134.338 Y149.2 E58.96374
G1 X86.162 Y149.2 E60.56608
G1 X83.822 Y151.54 E60.67615
G1 X83.498 Y151.806 E60.69009
G1 X83.131 Y152.007 E60.70401
G1 X82.731 Y152.134 E60.71797
G1 X82.268 Y152.184 E60.73346
G1 X65.111 Y152.2 E61.3041
G1 X64.694 Y152.16 E61.31804
G1 X64.292 Y152.043 E61.33196
G1 X63.919 Y151.851 E61.34591
G1 X63.59 Y151.591 E61.35986
G1 X63.316 Y151.275 E61.37377
G1 X63.107 Y150.911 E61.38773
G1 X62.97 Y150.515 E61.40167
G1 X62.909 Y149.998 E61.41898
G1 X62.91 Y149.08 E61.44952
G1 X62.909 Y70 E64.07973
G1 X62.949 Y69.583 E64.09366
G1 X63.067 Y69.181 E64.1076
G1 X63.26 Y68.809 E64.12154
G1 X63.519 Y68.48 E64.13546
G1 X63.836 Y68.206 E64.1494
G0 F9000 X63.912 Y68.655
G1 F3000 X64.221 Y68.435 E64.16201
G1 X64.568 Y68.283 E64.17461
G1 X65.109 Y68.2 E64.19282
G1 X82.25 Y68.2 E64.76293
G1 X82.987 Y68.358 E64.788
G1 X83.314 Y68.548 E64.80058
G1 X85.98 Y71.184 E64.92528
G1 X134.505 Y71.2 E66.53922
G1 X136.977 Y68.727 E66.65552
G1 X137.272 Y68.489 E66.66813
G1 X137.61 Y68.318 E66.68073
G1 X137.976 Y68.221 E66.69332
G1 X165.25 Y68.2 E67.60046
G1 X165.627 Y68.24 E67.61307
G1 X165.987 Y68.358 E67.62567
G1 X166.314 Y68.548 E67.63825
G1 X166.595 Y68.803 E67.65087
G1 X166.815 Y69.112 E67.66348
G1 X166.967 Y69.459 E67.67608
G1 X167.05 Y70 E67.69429
G1 X167.05 Y92 E68.42601
G1 X167.01 Y92.377 E68.43862
G1 X166.892 Y92.737 E68.45122
G1 X166.702 Y93.064 E68.4638
G1 X164.066 Y95.73 E68.5885
G1 X164.05 Y124.254 E69.53721
G1 X166.507 Y126.711 E69.65278
G1 X166.745 Y127.006 E69.66539
G1 X166.916 Y127.344 E69.67798
G1 X167.013 Y127.71 E69.69058
G1 X167.05 Y149.888 E70.42822
G1 X167.01 Y150.377 E70.44454
G1 X166.892 Y150.737 E70.45714
G1 X166.702 Y151.064 E70.46972
G1 X166.447 Y151.345 E70.48234
G1 X166.138 Y151.565 E70.49496
G1 X165.791 Y151.717 E70.50756
G1 X165.25 Y151.8 E70.52576
G1 X138.25 Y151.8 E71.42378
G1 X137.873 Y151.76 E71.43639
G1 X137.513 Y151.642 E71.44899
G1 X137.186 Y151.452 E71.46157
G1 X134.504 Y148.8 E71.58702
G1 X85.996 Y148.8 E73.20041
G1 X83.539 Y151.257 E73.31598
G1 X83.244 Y151.495 E73.32858
G1 X82.906 Y151.666 E73.34118
G1 X82.54 Y151.763 E73.35377
G1 X65.111 Y151.8 E73.93347
G1 X64.734 Y151.76 E73.94608
G1 X64.374 Y151.643 E73.95867
G1 X64.046 Y151.453 E73.97127
G1 X63.765 Y151.198 E73.98389
G1 X63.544 Y150.89 E73.9965
G1 X63.393 Y150.543 E74.00909
G1 X63.309 Y149.998 E74.02743
G1 X63.31 Y149.08 E74.05796
G1 X63.309 Y70 E76.68817
G1 X63.349 Y69.623 E76.70078
G1 X63.467 Y69.263 E76.71338
G1 X63.657 Y68.936 E76.72596
G1 X63.912 Y68.655 E76.73858
G0 F9000 X64.302 Y68.856
G1 F3000 X64.596 Y68.697 E76.7497
G1 X65.109 Y68.6 E76.76707
G1 X82.25 Y68.6 E77.33718
G1 X82.894 Y68.757 E77.35922
G1 X83.24 Y69.01 E77.37348
G1 X85.814 Y71.584 E77.49455
G1 X134.671 Y71.6 E79.11954
G1 X137.26 Y69.01 E79.24135
G1 X137.523 Y68.804 E79.25246
G1 X137.827 Y68.666 E79.26356
G1 X138.25 Y68.6 E79.2778
G1 X165.25 Y68.6 E80.17582
G1 X165.582 Y68.64 E80.18695
G1 X165.894 Y68.757 E80.19803
G1 X166.171 Y68.945 E80.20916
G1 X166.394 Y69.193 E80.22026
G1 X166.553 Y69.487 E80.23137
G1 X166.65 Y70 E80.24874
G1 X166.65 Y92 E80.98046
G1 X166.61 Y92.332 E80.99158
G1 X166.493 Y92.644 E81.00267
G1 X166.24 Y92.99 E81.01692
G1 X163.666 Y95.564 E81.138
G1 X163.65 Y124.42 E82.09775
G1 X166.224 Y126.994 E82.21882
G1 X166.43 Y127.257 E82.22994
G1 X166.569 Y127.561 E82.24105
G1 X166.634 Y127.983 E82.25525
G1 X166.65 Y149.888 E82.98382
G1 X166.61 Y150.332 E82.99865
G1 X166.493 Y150.644 E83.00973
G1 X166.305 Y150.921 E83.02086
G1 X166.057 Y151.144 E83.03196
G1 X165.763 Y151.303 E83.04307
G1 X165.25 Y151.4 E83.06044
G1 X138.25 Y151.4 E83.95846
G1 X137.918 Y151.36 E83.96958
G1 X137.606 Y151.243 E83.98067
G1 X137.26 Y150.99 E83.99492
G1 X134.67 Y148.4 E84.11675
G1 X85.83 Y148.4 E85.74117
G1 X83.256 Y150.974 E85.86225
G1 X82.993 Y151.18 E85.87336
G1 X82.689 Y151.319 E85.88448
