;FLAVOR:Marlin
;TIME:11208
;Filament used: 12.0416m
;Layer height: 0.2
;MINX:53.25
;MINY:67.8
;MINZ:0.28
;MAXX:167.45
;MAXY:152.2
;MAXZ:47.8
;Generated with Cura_SteamEngine 4.5.0
M140 S110
M105
M190 S110
M104 S230
M105
M109 S230
M82 ;absolute extrusion mode
M201 X500.00 Y500.00 Z100.00 E5000.00 ;Setup machine max acceleration
M203 X500.00 Y500.00 Z10.00 E50.00 ;Setup machine max feedrate
M204 P500.00 R1000.00 T500.00 ;Setup Print/Retract/Travel acceleration
M205 X8.00 Y8.00 Z0.40 E5.00 ;Setup Jerk
M220 S100 ;Reset Feedrate
M221 S100 ;Reset Flowrate

G28 ;Home

G92 E0 ;Reset Extruder
G1 Z2.0 F3000 ;Move Z Axis up
G1 X10.1 Y20 Z0.28 F5000.0 ;Move to start position
G1 X10.1 Y200.0 Z0.28 F1500.0 E15 ;Draw the first line
G1 X10.4 Y200.0 Z0.28 F5000.0 ;Move to side a little
G1 X10.4 Y20 Z0.28 F1500.0 E30 ;Draw the second line
G92 E0 ;Reset Extruder
G1 Z2.0 F3000 ;Move Z Axis up

G92 E0
G92 E0
G1 F1800 E-3
;LAYER_COUNT:211
;LAYER:0
M107
G0 F9000 X63.463 Y68.48 Z0.28
;TYPE:SKIRT
G1 F1800 E0
G1 F3000 X63.78 Y68.206 E0.01951
G1 X64.143 Y67.997 E0.03901
G1 X64.54 Y67.861 E0.05856
G1 X65.053 Y67.8 E0.08261
G1 X82.25 Y67.8 E0.88338
G1 X83.069 Y67.958 E0.92221
G1 X83.441 Y68.151 E0.94173
G1 X83.806 Y68.444 E0.96352
G1 X86.14 Y70.778 E1.11722
G1 X134.34 Y70.8 E3.36162
G1 X136.694 Y68.445 E3.51666
G1 X137.017 Y68.178 E3.53618
G1 X137.385 Y67.977 E3.5557
G1 X137.784 Y67.85 E3.5752
G1 X138.25 Y67.8 E3.59702
G1 X165.25 Y67.8 E4.85426
G1 X165.667 Y67.84 E4.87376
G1 X166.069 Y67.958 E4.89327
G1 X166.441 Y68.151 E4.91279
G1 X166.77 Y68.41 E4.93228
G1 X167.044 Y68.727 E4.95179
G1 X167.253 Y69.09 E4.9713
G1 X167.389 Y69.487 E4.99084
G1 X167.45 Y70 E5.01489
G1 X167.45 Y92 E6.03931
G1 X167.41 Y92.417 E6.05881
G1 X167.292 Y92.819 E6.07832
G1 X167.099 Y93.191 E6.09784
G1 X166.806 Y93.556 E6.11963
G1 X164.471 Y95.891 E6.27339
G1 X164.451 Y124.089 E7.58641
G1 X166.784 Y126.422 E7.74004
G1 X167.05 Y126.746 E7.75956
G1 X167.251 Y127.113 E7.77905
G1 X167.378 Y127.513 E7.79859
G1 X167.428 Y127.976 E7.82027
G1 X167.45 Y149.843 E8.83849
G1 X167.41 Y150.417 E8.86529
G1 X167.292 Y150.819 E8.88479
G1 X167.099 Y151.191 E8.90431
G1 X166.84 Y151.52 E8.92381
G1 X166.523 Y151.794 E8.94332
G1 X166.16 Y152.003 E8.96282
G1 X165.763 Y152.139 E8.98236
G1 X165.25 Y152.2 E9.00642
G1 X138.25 Y152.2 E10.26365
G1 X137.833 Y152.16 E10.28316
G1 X137.431 Y152.042 E10.30267
G1 X137.059 Y151.849 E10.32218
G1 X136.694 Y151.556 E10.34397
G1 X134.36 Y149.222 E10.49767
G1 X86.162 Y149.2 E12.74197
G1 X83.828 Y151.534 E12.89567
G1 X83.504 Y151.8 E12.91519
G1 X83.137 Y152.001 E12.93468
G1 X82.737 Y152.128 E12.95422
G1 X82.275 Y152.178 E12.97586
G1 X65.056 Y152.2 E13.77764
G1 X64.639 Y152.161 E13.79715
G1 X64.236 Y152.043 E13.8167
G1 X63.864 Y151.851 E13.83619
G1 X63.535 Y151.592 E13.85569
G1 X63.26 Y151.275 E13.87523
G1 X63.051 Y150.912 E13.89474
G1 X62.914 Y150.516 E13.91425
G1 X62.853 Y149.998 E13.93853
G1 X62.854 Y148.712 E13.99842
G1 X62.853 Y70 E17.66358
G1 X62.893 Y69.583 E17.68308
G1 X63.011 Y69.181 E17.70259
G1 X63.204 Y68.809 E17.72211
G1 X63.463 Y68.48 E17.7416
G0 F9000 X63.856 Y68.655
G1 F3000 X64.165 Y68.435 E17.75927
G1 X64.512 Y68.283 E17.77691
G1 X65.053 Y68.2 E17.80239
G1 X82.25 Y68.2 E18.60316
G1 X82.987 Y68.358 E18.63825
G1 X83.314 Y68.548 E18.65586
G1 X85.974 Y71.178 E18.83004
G1 X134.505 Y71.2 E21.08985
G1 X136.977 Y68.727 E21.25267
G1 X137.272 Y68.489 E21.27032
G1 X137.61 Y68.318 E21.28796
G1 X137.976 Y68.221 E21.30559
G1 X165.25 Y68.2 E22.57558
G1 X165.627 Y68.24 E22.59323
G1 X165.987 Y68.358 E22.61087
G1 X166.314 Y68.548 E22.62848
G1 X166.595 Y68.803 E22.64615
G1 X166.815 Y69.112 E22.66382
G1 X166.967 Y69.459 E22.68146
G1 X167.05 Y70 E22.70694
G1 X167.05 Y92 E23.73135
G1 X167.01 Y92.377 E23.74901
G1 X166.892 Y92.737 E23.76665
G1 X166.702 Y93.064 E23.78426
G1 X164.071 Y95.725 E23.9585
G1 X164.05 Y124.254 E25.28693
G1 X166.501 Y126.705 E25.44834
G1 X166.739 Y127 E25.46599
G1 X166.91 Y127.338 E25.48362
G1 X167.007 Y127.704 E25.50126
G1 X167.05 Y149.843 E26.53214
G1 X167.01 Y150.377 E26.55708
G1 X166.892 Y150.737 E26.57472
G1 X166.702 Y151.064 E26.59233
G1 X166.447 Y151.345 E26.61
G1 X166.138 Y151.565 E26.62766
G1 X165.791 Y151.717 E26.6453
G1 X165.25 Y151.8 E26.67078
G1 X138.25 Y151.8 E27.92802
G1 X137.873 Y151.76 E27.94567
G1 X137.513 Y151.642 E27.96331
G1 X137.186 Y151.452 E27.98092
G1 X134.526 Y148.822 E28.1551
G1 X85.996 Y148.8 E30.41486
G1 X83.545 Y151.251 E30.57627
G1 X83.25 Y151.489 E30.59392
G1 X82.912 Y151.66 E30.61155
G1 X82.546 Y151.757 E30.62918
G1 X65.055 Y151.8 E31.44364
G1 X64.678 Y151.761 E31.46129
G1 X64.318 Y151.643 E31.47893
G1 X63.99 Y151.453 E31.49658
G1 X63.71 Y151.198 E31.51421
G1 X63.489 Y150.89 E31.53187
G1 X63.337 Y150.543 E31.54951
G1 X63.253 Y149.999 E31.57514
G1 X63.254 Y148.713 E31.63502
G1 X63.253 Y70 E35.30023
G1 X63.293 Y69.623 E35.31788
G1 X63.411 Y69.263 E35.33552
G1 X63.601 Y68.936 E35.35313
G1 X63.856 Y68.655 E35.3708
G0 F9000 X63.998 Y69.079
G1 F3000 X64.246 Y68.856 E35.38633
G1 X64.54 Y68.697 E35.40189
G1 X65.053 Y68.6 E35.4262
G1 X82.25 Y68.6 E36.22697
G1 X82.894 Y68.757 E36.25783
G1 X83.24 Y69.01 E36.27779
G1 X85.808 Y71.578 E36.4469
G1 X134.671 Y71.6 E38.72217
G1 X137.26 Y69.01 E38.89269
G1 X137.523 Y68.804 E38.90824
G1 X137.827 Y68.666 E38.92379
G1 X138.25 Y68.6 E38.94373
G1 X165.25 Y68.6 E40.20096
G1 X165.582 Y68.64 E40.21653
G1 X165.894 Y68.757 E40.23205
G1 X166.171 Y68.945 E40.24763
G1 X166.394 Y69.193 E40.26316
G1 X166.553 Y69.487 E40.27873
G1 X166.65 Y70 E40.30304
G1 X166.65 Y92 E41.32745
G1 X166.61 Y92.332 E41.34302
G1 X166.493 Y92.644 E41.35854
G1 X166.24 Y92.99 E41.3785
G1 X163.672 Y95.558 E41.5476
G1 X163.65 Y124.42 E42.89154
G1 X166.218 Y126.988 E43.06065
G1 X166.424 Y127.251 E43.0762
G1 X166.563 Y127.555 E43.09177
G1 X166.628 Y127.977 E43.11165
G1 X166.65 Y149.844 E44.12987
G1 X166.61 Y150.332 E44.15267
G1 X166.493 Y150.644 E44.16818
G1 X166.305 Y150.921 E44.18377
G1 X166.057 Y151.144 E44.1993
G1 X165.763 Y151.303 E44.21487
G1 X165.25 Y151.4 E44.23918
G1 X138.25 Y151.4 E45.49641
G1 X137.918 Y151.36 E45.51198
G1 X137.606 Y151.243 E45.5275
G1 X137.26 Y150.99 E45.54746
G1 X134.692 Y148.422 E45.71656
G1 X85.83 Y148.4 E47.99178
G1 X83.262 Y150.968 E48.16089
G1 X82.999 Y151.174 E48.17645
G1 X82.695 Y151.313 E48.19201
G1 X82.274 Y151.378 E48.21185
G1 X65.055 Y151.4 E49.01364
G1 X64.723 Y151.361 E49.0292
G1 X64.41 Y151.244 E49.04476
G1 X64.134 Y151.056 E49.06031
G1 X63.91 Y150.808 E49.07587
G1 X63.751 Y150.514 E49.09144
G1 X63.653 Y149.999 E49.11585
G1 X63.654 Y148.713 E49.17573
G1 X63.653 Y70 E52.84094
G1 X63.693 Y69.668 E52.85651
G1 X63.81 Y69.356 E52.87202
G1 X63.998 Y69.079 E52.88761
G0 F9000 X64.393 Y69.249
G1 F3000 X64.629 Y69.094 E52.90076
G1 X65.053 Y69 E52.92098
G1 X82.25 Y69 E53.72175
G1 X82.786 Y69.156 E53.74774
G1 X85.642 Y71.978 E53.9347
G1 X134.837 Y72 E56.22542
G1 X137.543 Y69.293 E56.40365
G1 X137.768 Y69.124 E56.41675
G1 X138.032 Y69.024 E56.4299
G1 X165.25 Y69 E57.69728
G1 X165.529 Y69.04 E57.71041
G1 X165.786 Y69.156 E57.72354
G1 X166.001 Y69.339 E57.73668
G1 X166.155 Y69.575 E57.7498
G1 X166.25 Y70 E57.77008
G1 X166.25 Y92 E58.79449
G1 X166.21 Y92.279 E58.80762
G1 X166.094 Y92.536 E58.82075
G1 X163.272 Y95.392 E59.00771
G1 X163.25 Y124.586 E60.3671
G1 X165.935 Y127.271 E60.54391
G1 X166.104 Y127.497 E60.55705
G1 X166.204 Y127.761 E60.5702
G1 X166.25 Y149.844 E61.59848
G1 X166.21 Y150.279 E61.61882
G1 X166.094 Y150.536 E61.63195
G1 X165.911 Y150.751 E61.64509
G1 X165.675 Y150.905 E61.65822
G1 X165.25 Y151 E61.67849
G1 X138.25 Y151 E62.93573
G1 X137.971 Y150.96 E62.94885
G1 X137.714 Y150.844 E62.96198
G1 X134.858 Y148.022 E63.14894
G1 X85.664 Y148 E65.43962
G1 X82.979 Y150.685 E65.61643
G1 X82.753 Y150.854 E65.62957
G1 X82.489 Y150.954 E65.64271
G1 X65.054 Y151 E66.45456
G1 X64.775 Y150.961 E66.46768
G1 X64.518 Y150.845 E66.48081
G1 X64.303 Y150.662 E66.49396
G1 X64.148 Y150.426 E66.5071
G1 X64.053 Y149.999 E66.52747
G1 X64.054 Y148.713 E66.58736
G1 X64.053 Y69.999 E70.25261
G1 X64.093 Y69.72 E70.26573
G1 X64.209 Y69.463 E70.27886
G1 X64.393 Y69.249 E70.292
G0 F9000 X64.607 Y69.599
G1 F3000 X64.78 Y69.466 E70.30217
G1 X65.053 Y69.4 E70.31524
G1 X82.25 Y69.4 E71.11601
G1 X82.674 Y69.576 E71.13738
G1 X85.476 Y72.378 E71.3219
G1 X134.883 Y72.4 E73.6225
G1 X135.01 Y72.393 E73.62842
G1 X137.826 Y69.576 E73.81389
G1 X138.005 Y69.452 E73.82403
G1 X138.25 Y69.4 E73.83569
G1 X165.25 Y69.4 E75.09293
G1 X165.465 Y69.44 E75.10311
G1 X165.651 Y69.553 E75.11324
G1 X165.784 Y69.726 E75.12341
G1 X165.85 Y70 E75.13653
G1 X165.85 Y92 E76.16094
G1 X165.81 Y92.215 E76.17112
G1 X165.674 Y92.424 E76.18274
G1 X162.872 Y95.226 E76.36725
G1 X162.85 Y124.752 E77.74211
G1 X165.652 Y127.554 E77.92662
G1 X165.776 Y127.733 E77.93676
G1 X165.828 Y127.977 E77.94838
G1 X165.85 Y149.844 E78.9666
G1 X165.811 Y150.214 E78.98392
G1 X165.697 Y150.4 E78.99408
G1 X165.524 Y150.534 E79.00427
G1 X165.25 Y150.6 E79.01739
G1 X138.25 Y150.6 E80.27463
G1 X138.035 Y150.56 E80.28481
G1 X137.826 Y150.424 E80.29642
G1 X135.024 Y147.622 E80.48094
G1 X85.498 Y147.6 E82.78708
G1 X82.696 Y150.402 E82.97159
G1 X82.517 Y150.526 E82.98173
G1 X82.273 Y150.578 E82.99335
G1 X65.054 Y150.6 E83.79514
G1 X64.839 Y150.561 E83.80531
G1 X64.653 Y150.447 E83.81547
G1 X64.519 Y150.274 E83.82566
G1 X64.453 Y150 E83.83878
G1 X64.454 Y148.714 E83.89867
G1 X64.453 Y70 E87.56392
G1 X64.493 Y69.785 E87.5741
G1 X64.607 Y69.599 E87.58426
G0 F9000 X64.892 Y69.881
G1 F3000 X65.053 Y69.8 E87.59265
G1 X82.25 Y69.8 E88.39342
G1 X82.391 Y69.859 E88.40053
G1 X85.31 Y72.778 E88.59276
G1 X134.888 Y72.8 E90.90132
G1 X135.186 Y72.783 E90.91521
G1 X138.109 Y69.859 E91.10773
G1 X138.25 Y69.8 E91.11485
G1 X165.25 Y69.8 E92.37208
G1 X165.369 Y69.839 E92.37791
G1 X165.45 Y70 E92.3863
G1 X165.45 Y92 E93.41072
G1 X165.391 Y92.141 E93.41783
G1 X162.472 Y95.06 E93.61006
G1 X162.45 Y124.789 E94.99436
G1 X162.45 Y124.918 E95.00037
G1 X165.369 Y127.837 E95.19259
G1 X165.428 Y127.978 E95.19971
G1 X165.45 Y149.845 E96.21793
G1 X165.411 Y150.118 E96.23077
G1 X165.25 Y150.2 E96.23918
G1 X138.25 Y150.2 E97.49641
G1 X138.109 Y150.141 E97.50353
G1 X135.19 Y147.222 E97.69575
G1 X85.332 Y147.2 E100.01735
G1 X82.413 Y150.119 E100.20957
G1 X82.272 Y150.178 E100.21669
G1 X65.053 Y150.2 E101.01848
G1 X64.935 Y150.161 E101.02426
G1 X64.853 Y150 E101.03268
G1 X64.854 Y148.714 E101.09256
G1 X64.853 Y70 E104.75781
G1 X64.892 Y69.881 E104.76364
G1 F1800 E101.76364
;MESH:Object 1
G0 F9000 X66.263 Y71.21
G0 X66.236 Y148.816
G0 X82.066 Y149.48
G0 X82.19 Y149.778
;TYPE:WALL-OUTER
G1 F1800 E104.76364
G1 F3000 X65.253 Y149.8 E105.5523
G1 X65.254 Y148.714 E105.60287
G1 X65.253 Y70.2 E109.25881
G1 X82.168 Y70.2 E110.04645
G1 X85.145 Y73.178 E110.24252
G1 X134.905 Y73.2 E112.55955
G1 X135.358 Y73.174 E112.58068
G1 X138.332 Y70.2 E112.77652
G1 X165.05 Y70.2 E114.02063
G1 X165.05 Y91.918 E115.03191
G1 X162.072 Y94.895 E115.22798
G1 X162.05 Y124.789 E116.61997
G1 X162.05 Y125.083 E116.63366
G1 X165.028 Y128.06 E116.82973
G1 X165.05 Y149.8 E117.84204
G1 X138.332 Y149.8 E119.08614
G1 X135.355 Y146.822 E119.28222
G1 X85.167 Y146.8 E121.61918
G1 X82.19 Y149.778 E121.81525
G0 F9000 X82.022 Y149.372
G0 X82.024 Y149.378
;TYPE:WALL-INNER
G1 F3000 X65.853 Y149.399 E122.56824
G1 X65.653 Y149.399 E122.57756
G1 X65.653 Y149.199 E122.58359
G1 X65.654 Y148.714 E122.60617
G1 X65.653 Y70.799 E126.23422
G1 X65.653 Y70.6 E126.24349
G1 X65.852 Y70.6 E126.24948
G1 X82.002 Y70.6 E127.00149
G1 X84.979 Y73.578 E127.19757
G1 X134.916 Y73.6 E129.52284
G1 X135.533 Y73.565 E129.55162
G1 X138.498 Y70.6 E129.74687
G1 X164.65 Y70.6 E130.96461
G1 X164.65 Y91.752 E131.94954
G1 X161.672 Y94.729 E132.14561
G1 X161.65 Y124.789 E133.54533
G1 X161.65 Y125.249 E133.56675
G1 X164.628 Y128.226 E133.76283
G1 X164.65 Y149.201 E134.73951
G1 X164.65 Y149.4 E134.74878
G1 X164.451 Y149.4 E134.75477
G1 X138.498 Y149.4 E135.96325
G1 X135.521 Y146.422 E136.15933
G1 X85.001 Y146.4 E138.51175
G1 X82.024 Y149.378 E138.70782
G0 F9000 X81.858 Y148.978
G1 F3000 X66.253 Y148.998 E139.43446
G1 X66.054 Y148.998 E139.44372
G1 X66.054 Y148.799 E139.44972
G1 X66.053 Y71.199 E143.0631
G1 X66.053 Y71 E143.07237
G1 X66.252 Y71 E143.07836
G1 X81.836 Y71 E143.80402
G1 X84.813 Y73.978 E144.00009
G1 X134.927 Y74 E146.33361
G1 X135.708 Y73.956 E146.37003
G1 X138.664 Y71 E146.56469
G1 X164.25 Y71 E147.75608
G1 X164.25 Y91.586 E148.71465
G1 X161.272 Y94.563 E148.91073
G1 X161.25 Y124.789 E150.31818
G1 X161.25 Y125.415 E150.34733
G1 X164.228 Y128.392 E150.5434
G1 X164.25 Y148.801 E151.49373
G1 X164.25 Y149 E151.50299
G1 X164.051 Y149 E151.50899
G1 X138.664 Y149 E152.69111
G1 X135.687 Y146.022 E152.88719
G1 X84.835 Y146 E155.25507
G1 X81.858 Y148.978 E155.45114
G0 F9000 X81.698 Y148.588
;TYPE:SKIN
G1 F3000 X66.444 Y148.608 E156.16143
G1 X66.443 Y71.39 E159.75703
G1 X81.676 Y71.39 E160.46634
G1 X84.651 Y74.368 E160.66235
G1 X134.938 Y74.39 E163.00392
G1 X135.878 Y74.337 E163.04776
G1 X138.824 Y71.39 E163.24179
G1 X163.86 Y71.39 E164.40757
G1 X163.86 Y91.426 E165.34054
G1 X160.882 Y94.401 E165.53654
G1 X160.86 Y124.789 E166.95154
G1 X160.86 Y125.577 E166.98823
G1 X163.838 Y128.552 E167.18424
G1 X163.86 Y148.61 E168.11822
G1 X138.824 Y148.61 E169.284
G1 X135.849 Y145.632 E169.48001
G1 X84.673 Y145.61 E171.86298
G1 X81.698 Y148.588 E172.05899
G0 F9000 X81.894 Y148.785
G0 X66.987 Y148.888
G0 X66.987 Y148.446
G1 F3000 X66.603 Y148.061 E172.08431
G0 F9000 X66.603 Y147.496
G1 F3000 X67.552 Y148.445 E172.1468
G0 F9000 X68.117 Y148.445
G1 F3000 X66.603 Y146.93 E172.24653
G0 F9000 X66.603 Y146.364
G1 F3000 X68.682 Y148.444 E172.38347
G0 F9000 X69.247 Y148.443
G1 F3000 X66.603 Y145.799 E172.55758
G0 F9000 X66.603 Y145.233
G1 F3000 X69.812 Y148.442 E172.7689
G0 F9000 X70.376 Y148.441
G1 F3000 X66.603 Y144.667 E173.01739
G0 F9000 X66.603 Y144.101
G1 F3000 X70.941 Y148.44 E173.30309
G0 F9000 X71.506 Y148.44
G1 F3000 X66.603 Y143.536 E173.62599
G0 F9000 X66.603 Y142.97
G1 F3000 X72.071 Y148.439 E173.9861
G0 F9000 X72.636 Y148.438
G1 F3000 X66.603 Y142.404 E174.38342
G0 F9000 X66.603 Y141.839
G1 F3000 X73.201 Y148.437 E174.81791
G0 F9000 X73.766 Y148.437
G1 F3000 X66.603 Y141.273 E175.28964
G0 F9000 X66.603 Y140.707
G1 F3000 X74.331 Y148.436 E175.79857
G0 F9000 X74.896 Y148.435
G1 F3000 X66.603 Y140.142 E176.34468
G0 F9000 X66.603 Y139.576
G1 F3000 X75.461 Y148.435 E176.92803
G0 F9000 X76.026 Y148.434
G1 F3000 X66.603 Y139.01 E177.54858
G0 F9000 X66.603 Y138.445
G1 F3000 X76.591 Y148.433 E178.20631
G0 F9000 X77.156 Y148.433
G1 F3000 X66.603 Y137.879 E178.90128
G0 F9000 X66.603 Y137.313
G1 F3000 X77.721 Y148.432 E179.63345
G0 F9000 X78.286 Y148.431
G1 F3000 X66.603 Y136.748 E180.40279
G0 F9000 X66.603 Y136.182
G1 F3000 X78.851 Y148.43 E181.20934
G0 F9000 X79.416 Y148.43
G1 F3000 X66.603 Y135.616 E182.05314
G0 F9000 X66.603 Y135.051
G1 F3000 X79.981 Y148.429 E182.9341
G0 F9000 X80.546 Y148.428
G1 F3000 X66.603 Y134.485 E183.85227
G0 F9000 X66.603 Y133.919
G1 F3000 X81.11 Y148.427 E184.80761
G0 F9000 X81.654 Y148.405
G1 F3000 X66.603 Y133.353 E185.79878
G0 F9000 X66.603 Y132.788
G1 F3000 X81.937 Y148.122 E186.80855
G0 F9000 X82.22 Y147.839
G1 F3000 X66.603 Y132.222 E187.83696
G0 F9000 X66.603 Y131.656
G1 F3000 X82.503 Y147.556 E188.884
G0 F9000 X82.785 Y147.273
G1 F3000 X66.603 Y131.091 E189.94961
G0 F9000 X66.603 Y130.525
G1 F3000 X83.068 Y146.99 E191.03386
G0 F9000 X83.35 Y146.707
G1 F3000 X66.603 Y129.959 E192.13671
G0 F9000 X66.603 Y129.394
G1 F3000 X83.633 Y146.424 E193.25817
G0 F9000 X83.915 Y146.141
G1 F3000 X66.603 Y128.828 E194.39822
G0 F9000 X66.603 Y128.262
G1 F3000 X84.198 Y145.858 E195.55692
G0 F9000 X84.481 Y145.575
G1 F3000 X66.603 Y127.697 E196.73421
G0 F9000 X66.603 Y127.131
G1 F3000 X84.921 Y145.449 E197.94049
G0 F9000 X85.487 Y145.449
G1 F3000 X66.603 Y126.565 E199.18403
G0 F9000 X66.603 Y126
G1 F3000 X86.052 Y145.449 E200.46478
G0 F9000 X86.619 Y145.45
G1 F3000 X66.603 Y125.434 E201.78287
G0 F9000 X66.603 Y124.868
G1 F3000 X87.184 Y145.45 E203.13819
G0 F9000 X87.75 Y145.45
G1 F3000 X66.603 Y124.303 E204.53076
G0 F9000 X66.603 Y123.737
