;FLAVOR:Marlin
;TIME:3305
;Filament used: 1.93485m
;Layer height: 0.16
;MINX:98.273
;MINY:98.275
;MINZ:0.24
;MAXX:121.726
;MAXY:121.725
;MAXZ:19.04
;Generated with Cura_SteamEngine 4.5.0
M140 S50
M105
M190 S50
M104 S200
M105
M109 S200
M82 ;absolute extrusion mode
M201 X500.00 Y500.00 Z100.00 E5000.00 ;Setup machine max acceleration
M203 X500.00 Y500.00 Z10.00 E50.00 ;Setup machine max feedrate
M204 P500.00 R1000.00 T500.00 ;Setup Print/Retract/Travel acceleration
M205 X8.00 Y8.00 Z0.40 E5.00 ;Setup Jerk
M220 S100 ;Reset Feedrate
M221 S100 ;Reset Flowrate

G28 ;Home

G92 E0 ;Reset Extruder
G1 Z2.0 F3000 ;Move Z Axis up
G1 X10.1 Y20 Z0.28 F5000.0 ;Move to start position
G1 X10.1 Y200.0 Z0.28 F1500.0 E15 ;Draw the first line
G1 X10.4 Y200.0 Z0.28 F5000.0 ;Move to side a little
G1 X10.4 Y20 Z0.28 F1500.0 E30 ;Draw the second line
G92 E0 ;Reset Extruder
G1 Z2.0 F3000 ;Move Z Axis up

G92 E0
G92 E0
G1 F1800 E-3
;LAYER_COUNT:131
;LAYER:0
M106 S191.3
M204 S500
M205 X6 Y6
G0 F9000 X99.034 Y98.919 Z0.24
;TYPE:SKIRT
G1 F1800 E0
G1 F3000 X99.358 Y98.653 E0.01673
G1 X99.725 Y98.452 E0.03343
G1 X100.125 Y98.325 E0.05018
G1 X100.59 Y98.275 E0.06885
G1 X119.407 Y98.275 E0.81988
G1 X120.226 Y98.433 E0.85317
G1 X120.598 Y98.626 E0.86989
G1 X121.073 Y99.029 E0.89476
G1 X121.341 Y99.351 E0.91148
G1 X121.543 Y99.718 E0.9282
G1 X121.672 Y100.116 E0.94489
G1 X121.724 Y100.591 E0.96397
G1 X121.726 Y119.408 E1.71499
G1 X121.686 Y119.825 E1.73171
G1 X121.568 Y120.227 E1.74843
G1 X121.376 Y120.599 E1.76514
G1 X120.965 Y121.081 E1.79042
G1 X120.641 Y121.347 E1.80716
G1 X120.274 Y121.548 E1.82386
G1 X119.874 Y121.675 E1.84061
G1 X119.409 Y121.725 E1.85927
G1 X100.593 Y121.725 E2.61026
G1 X100.176 Y121.685 E2.62698
G1 X99.774 Y121.567 E2.6437
G1 X99.402 Y121.374 E2.66043
G1 X98.92 Y120.964 E2.68568
G1 X98.654 Y120.64 E2.70242
G1 X98.453 Y120.273 E2.71912
G1 X98.326 Y119.873 E2.73587
G1 X98.276 Y119.408 E2.75453
G1 X98.273 Y100.592 E3.50552
G1 X98.313 Y100.175 E3.52224
G1 X98.431 Y99.773 E3.53896
G1 X98.623 Y99.401 E3.55567
G1 X99.034 Y98.919 E3.58095
G0 F9000 X99.317 Y99.202
G1 F3000 X99.612 Y98.964 E3.59608
G1 X99.95 Y98.793 E3.6112
G1 X100.316 Y98.696 E3.62631
G1 X119.407 Y98.675 E4.38827
G1 X120.144 Y98.833 E4.41836
G1 X120.471 Y99.023 E4.43345
G1 X120.791 Y99.313 E4.45069
G1 X121.031 Y99.606 E4.46581
G1 X121.204 Y99.944 E4.48096
G1 X121.302 Y100.31 E4.49608
G1 X121.326 Y119.408 E5.25833
G1 X121.286 Y119.785 E5.27346
G1 X121.168 Y120.145 E5.28858
G1 X120.978 Y120.472 E5.30367
G1 X120.682 Y120.798 E5.32125
G1 X120.387 Y121.036 E5.33637
G1 X120.049 Y121.207 E5.35149
G1 X119.683 Y121.304 E5.36661
G1 X100.593 Y121.325 E6.12853
G1 X100.216 Y121.285 E6.14366
G1 X99.856 Y121.167 E6.15878
G1 X99.529 Y120.977 E6.17388
G1 X99.203 Y120.681 E6.19145
G1 X98.965 Y120.386 E6.20658
G1 X98.794 Y120.048 E6.2217
G1 X98.697 Y119.682 E6.23681
G1 X98.673 Y100.592 E6.99873
G1 X98.713 Y100.215 E7.01386
G1 X98.831 Y99.855 E7.02898
G1 X99.021 Y99.528 E7.04408
G1 X99.317 Y99.202 E7.06165
G0 F9000 X99.6 Y99.485
G1 F3000 X99.863 Y99.279 E7.07499
G1 X100.167 Y99.14 E7.08833
G1 X100.59 Y99.075 E7.10541
G1 X119.407 Y99.075 E7.85644
G1 X120.051 Y99.232 E7.88289
G1 X120.51 Y99.597 E7.9063
G1 X120.717 Y99.859 E7.91963
G1 X120.857 Y100.162 E7.93295
G1 X120.924 Y100.591 E7.95028
G1 X120.926 Y119.408 E8.7013
G1 X120.886 Y119.74 E8.71465
G1 X120.769 Y120.052 E8.72795
G1 X120.399 Y120.515 E8.75161
G1 X120.136 Y120.721 E8.76494
G1 X119.832 Y120.86 E8.77828
G1 X119.409 Y120.925 E8.79536
G1 X100.593 Y120.925 E9.54635
G1 X100.261 Y120.885 E9.5597
G1 X99.949 Y120.768 E9.57299
G1 X99.486 Y120.398 E9.59665
G1 X99.28 Y120.135 E9.60998
G1 X99.141 Y119.831 E9.62333
G1 X99.076 Y119.408 E9.64041
G1 X99.073 Y100.592 E10.39139
G1 X99.113 Y100.261 E10.4047
G1 X99.23 Y99.948 E10.41804
G1 X99.6 Y99.485 E10.44169
G0 F9000 X99.883 Y99.768
G1 F3000 X100.109 Y99.599 E10.45296
G1 X100.373 Y99.499 E10.46422
G1 X119.407 Y99.475 E11.22391
G1 X119.943 Y99.631 E11.24619
G1 X120.228 Y99.881 E11.26132
G1 X120.398 Y100.106 E11.27258
G1 X120.499 Y100.369 E11.28382
G1 X120.526 Y119.408 E12.04371
G1 X120.486 Y119.687 E12.05496
G1 X120.37 Y119.944 E12.06621
G1 X120.116 Y120.232 E12.08154
G1 X119.89 Y120.401 E12.0928
G1 X119.626 Y120.501 E12.10407
G1 X100.593 Y120.525 E12.86372
G1 X100.314 Y120.485 E12.87497
G1 X100.057 Y120.369 E12.88622
G1 X99.769 Y120.115 E12.90155
G1 X99.6 Y119.889 E12.91281
G1 X99.5 Y119.625 E12.92408
G1 X99.473 Y100.592 E13.68373
G1 X99.513 Y100.313 E13.69498
G1 X99.629 Y100.056 E13.70623
G1 X99.883 Y99.768 E13.72156
G0 F9000 X100.166 Y100.051
G1 F3000 X100.345 Y99.927 E13.73025
G1 X100.59 Y99.875 E13.74025
G1 X119.407 Y99.875 E14.49127
G1 X119.622 Y99.915 E14.5
G1 X119.946 Y100.165 E14.51634
G1 X120.071 Y100.344 E14.52505
G1 X120.124 Y100.591 E14.53513
G1 X120.126 Y119.408 E15.28616
G1 X120.086 Y119.622 E15.29485
G1 X119.833 Y119.949 E15.31135
G1 X119.654 Y120.073 E15.32004
G1 X119.409 Y120.125 E15.33004
G1 X100.593 Y120.125 E16.08102
G1 X100.378 Y120.085 E16.08975
G1 X100.052 Y119.832 E16.10622
G1 X99.928 Y119.653 E16.11491
G1 X99.876 Y119.408 E16.12491
G1 X99.873 Y100.592 E16.8759
G1 X99.913 Y100.378 E16.88459
G1 X100.166 Y100.051 E16.90109
G0 F9000 X100.449 Y100.334
G1 F3000 X100.59 Y100.275 E16.90719
G1 X119.407 Y100.275 E17.65822
G1 X119.665 Y100.449 E17.67064
G1 X119.724 Y100.591 E17.67677
G1 X119.726 Y119.408 E18.4278
G1 X119.667 Y119.549 E18.4339
G1 X119.55 Y119.666 E18.44051
G1 X119.409 Y119.725 E18.44661
G1 X100.593 Y119.725 E19.19759
G1 X100.452 Y119.666 E19.20369
G1 X100.335 Y119.549 E19.2103
G1 X100.276 Y119.408 E19.2164
G1 X100.273 Y100.592 E19.96739
G1 X100.332 Y100.451 E19.97349
G1 X100.449 Y100.334 E19.98009
G1 F1800 E16.98009
G0 F9000 X100.12 Y100.005
G0 X99.843 Y100.286
G0 X99.81 Y111.131
G0 X104.589 Y111.13
;TYPE:SUPPORT-INTERFACE
G1 F1800 E19.98009
G1 F3000 X113.457 Y111.13 E20.33403
G1 X114.16 Y110.427 E20.37371
G1 X114.16 Y105.005 E20.59011
G1 X115.287 Y105.005 E20.6351
G1 X115.287 Y113.055 E20.95639
G1 X104.589 Y113.055 E21.38337
G1 X104.589 Y111.13 E21.4602
G0 F9000 X104.788 Y111.577
G1 F3000 X106.066 Y112.854 E21.53231
G0 F9000 X104.788 Y112.434
G1 F3000 X105.893 Y111.329 E21.59468
G0 F9000 X107.936 Y111.33
G1 F3000 X109.46 Y112.854 E21.6807
G0 F9000 X109.287 Y111.329
G1 F3000 X107.762 Y112.854 E21.76678
G0 F9000 X111.156 Y112.854
G1 F3000 X112.681 Y111.329 E21.85285
G0 F9000 X111.33 Y111.33
G1 F3000 X112.854 Y112.854 E21.93888
G0 F9000 X114.55 Y112.854
G1 F3000 X115.085 Y112.319 E21.96907
G0 F9000 X115.086 Y111.692
G1 F3000 X114.131 Y110.737 E22.02298
G0 F9000 X114.359 Y109.651
G1 F3000 X115.085 Y108.925 E22.06396
G0 F9000 X115.086 Y108.298
G1 F3000 X114.358 Y107.57 E22.10505
G0 F9000 X114.359 Y106.257
G1 F3000 X115.085 Y105.531 E22.14603
G1 F1800 E19.14603
;MESH:Object 1
G0 F9000 X116.687 Y105.531
G0 X117.88 Y113.792
G0 X117.869 Y115.637
G0 X102.058 Y115.637
G0 X102.058 Y117.943
G0 X119.056 Y119.025
G0 X119.326 Y119.325
;TYPE:WALL-OUTER
G1 F1800 E22.14603
G1 F3000 X100.676 Y119.325 E22.89039
G1 X100.673 Y100.675 E23.63475
G1 X119.325 Y100.675 E24.37919
G1 X119.328 Y101.004 E24.39232
G1 X119.326 Y119.325 E25.12355
G1 F1800 E22.12355
G0 F9000 X119.056 Y119.055
G0 X102.058 Y117.943
G0 X102.058 Y115.637
G0 X117.436 Y115.628
G0 X116.787 Y114.255
G0 X116.487 Y114.255
G1 F1800 E25.12355
G1 F3000 X116.487 Y103.805 E25.54064
G1 X112.96 Y103.805 E25.68141
G1 X112.96 Y109.93 E25.92587
G1 X103.389 Y109.93 E26.30787
G1 X103.389 Y114.255 E26.48049
G1 X116.487 Y114.255 E27.00326
G0 F9000 X116.887 Y114.655
;TYPE:WALL-INNER
G1 F3000 X116.887 Y103.405 E27.45227
G1 X112.56 Y103.405 E27.62497
G1 X112.56 Y109.53 E27.86943
G1 X102.989 Y109.53 E28.25143
G1 X102.989 Y114.655 E28.45598
G1 X116.887 Y114.655 E29.01068
G0 F9000 X117.287 Y115.055
G1 F3000 X117.287 Y103.005 E29.49162
G1 X112.16 Y103.005 E29.69625
G1 X112.16 Y109.13 E29.94071
G1 X102.589 Y109.13 E30.32271
G1 X102.589 Y115.055 E30.55919
G1 X117.287 Y115.055 E31.14582
G0 F9000 X117.687 Y115.455
G1 F3000 X117.687 Y102.605 E31.65869
G1 X111.76 Y102.605 E31.89525
G1 X111.76 Y108.73 E32.13971
G1 X102.189 Y108.73 E32.52171
G1 X102.189 Y115.455 E32.79012
G1 X117.687 Y115.455 E33.40868
G1 F1800 E30.40868
G0 F9000 X102.058 Y115.637
G0 X102.058 Y117.943
G0 X118.926 Y118.925
G1 F1800 E33.40868
G1 F3000 X101.076 Y118.925 E34.12111
G1 X101.073 Y101.274 E34.8256
G1 X101.073 Y101.075 E34.83354
G1 X101.272 Y101.075 E34.83868
G1 X118.729 Y101.075 E35.53543
G1 X118.928 Y101.075 E35.54337
G1 X118.928 Y101.274 E35.54851
G1 X118.926 Y118.925 E36.253
G0 F9000 X118.526 Y118.525
G1 F3000 X101.476 Y118.525 E36.9335
G1 X101.473 Y101.674 E37.60606
G1 X101.473 Y101.475 E37.61401
G1 X101.672 Y101.475 E37.61914
G1 X118.329 Y101.475 E38.28396
G1 X118.528 Y101.475 E38.2919
G1 X118.528 Y101.674 E38.29704
G1 X118.526 Y118.525 E38.9696
G0 F9000 X118.126 Y118.125
G1 F3000 X101.876 Y118.125 E39.61817
G1 X101.876 Y115.456 E39.7247
G1 X101.875 Y108.731 E39.9356
G1 X101.873 Y102.074 E40.2013
G1 X101.873 Y101.875 E40.20924
G1 X102.072 Y101.875 E40.21438
G1 X117.929 Y101.875 E40.84727
G1 X118.128 Y101.875 E40.85521
G1 X118.128 Y102.074 E40.86035
G1 X118.126 Y118.125 E41.50098
G0 F9000 X117.736 Y117.735
;TYPE:SKIN
G1 F3000 X102.266 Y117.735 E42.11842
G1 X102.266 Y115.845 E42.19385
G1 X117.736 Y115.845 E42.81129
G1 X117.736 Y117.735 E42.88673
G1 F1800 E39.88673
G0 F9000 X117.736 Y118.015
G0 X102.058 Y117.943
G0 X102.058 Y115.637
G0 X116.715 Y114.483
G0 X116.715 Y103.577
G0 X112.732 Y103.577
G0 X111.65 Y108.34
G0 X111.37 Y108.34
G1 F1800 E42.88673
G1 F3000 X102.264 Y108.34 E43.25017
G1 X102.263 Y102.265 E43.49263
G1 X111.37 Y102.265 E43.85611
G1 X111.37 Y108.34 E44.09858
G0 F9000 X111.65 Y108.34
G0 X111.65 Y102.724
G0 X111.209 Y102.724
G1 F3000 X110.91 Y102.425 E44.11546
G0 F9000 X110.344 Y102.425
G1 F3000 X111.209 Y103.289 E44.16425
G0 F9000 X111.209 Y103.855
G1 F3000 X109.779 Y102.425 E44.24497
G0 F9000 X109.213 Y102.425
G1 F3000 X111.209 Y104.421 E44.35763
G0 F9000 X111.209 Y104.986
G1 F3000 X108.647 Y102.425 E44.50221
G0 F9000 X108.081 Y102.425
G1 F3000 X111.209 Y105.552 E44.67874
G0 F9000 X111.209 Y106.118
G1 F3000 X107.516 Y102.425 E44.88719
G0 F9000 X106.95 Y102.425
G1 F3000 X111.209 Y106.684 E45.12759
G0 F9000 X111.209 Y107.249
G1 F3000 X106.384 Y102.425 E45.3999
G0 F9000 X105.819 Y102.425
G1 F3000 X111.209 Y107.815 E45.70414
G0 F9000 X111.007 Y108.179
G1 F3000 X105.253 Y102.425 E46.02892
G0 F9000 X104.687 Y102.425
G1 F3000 X110.442 Y108.179 E46.35373
G0 F9000 X109.876 Y108.179
G1 F3000 X104.122 Y102.425 E46.67851
G0 F9000 X103.556 Y102.425
G1 F3000 X109.31 Y108.179 E47.00329
G0 F9000 X108.745 Y108.179
G1 F3000 X102.99 Y102.425 E47.3281
G0 F9000 X102.425 Y102.425
G1 F3000 X108.179 Y108.179 E47.65288
G0 F9000 X107.613 Y108.179
G1 F3000 X102.423 Y102.988 E47.94585
G0 F9000 X102.423 Y103.554
G1 F3000 X107.048 Y108.179 E48.20691
G0 F9000 X106.482 Y108.179
G1 F3000 X102.423 Y104.12 E48.43602
G0 F9000 X102.423 Y104.685
G1 F3000 X105.916 Y108.179 E48.6332
G0 F9000 X105.351 Y108.179
G1 F3000 X102.423 Y105.251 E48.79847
G0 F9000 X102.423 Y105.817
G1 F3000 X104.785 Y108.179 E48.93179
G0 F9000 X104.219 Y108.179
G1 F3000 X102.423 Y106.382 E49.0332
G0 F9000 X102.423 Y106.948
G1 F3000 X103.654 Y108.179 E49.10268
G0 F9000 X103.088 Y108.179
G1 F3000 X102.423 Y107.514 E49.14022
G0 F9000 X102.423 Y108.079
G1 F3000 X102.522 Y108.179 E49.14583
G0 F9000 X102.522 Y108.62
G0 X102.428 Y115.565
G0 X102.428 Y116.005
G1 F3000 X103.997 Y117.574 E49.23439
G0 F9000 X103.432 Y117.574
G1 F3000 X102.426 Y116.568 E49.29118
G0 F9000 X102.426 Y117.134
G1 F3000 X102.866 Y117.574 E49.31601
G0 F9000 X102.866 Y118.015
G0 X102.058 Y117.943
G0 X102.058 Y115.637
G0 X102.994 Y115.565
G0 X102.994 Y116.005
G1 F3000 X104.563 Y117.574 E49.40457
G0 F9000 X105.129 Y117.574
G1 F3000 X103.56 Y116.005 E49.49313
G0 F9000 X104.125 Y116.005
G1 F3000 X105.694 Y117.574 E49.58169
G0 F9000 X106.26 Y117.574
G1 F3000 X104.691 Y116.005 E49.67026
G0 F9000 X105.257 Y116.005
G1 F3000 X106.826 Y117.574 E49.75882
G0 F9000 X107.391 Y117.574
G1 F3000 X105.822 Y116.005 E49.84738
G0 F9000 X106.388 Y116.005
G1 F3000 X107.957 Y117.574 E49.93594
G0 F9000 X108.523 Y117.574
G1 F3000 X106.954 Y116.005 E50.0245
G0 F9000 X107.519 Y116.005
G1 F3000 X109.088 Y117.574 E50.11306
G0 F9000 X109.654 Y117.574
G1 F3000 X108.085 Y116.005 E50.20162
G0 F9000 X108.651 Y116.005
G1 F3000 X110.22 Y117.574 E50.29018
G0 F9000 X110.785 Y117.574
G1 F3000 X109.216 Y116.005 E50.37875
G0 F9000 X109.782 Y116.005
G1 F3000 X111.351 Y117.574 E50.46731
G0 F9000 X111.917 Y117.574
G1 F3000 X110.348 Y116.005 E50.55587
G0 F9000 X110.913 Y116.005
G1 F3000 X112.483 Y117.574 E50.64446
G0 F9000 X113.048 Y117.574
G1 F3000 X111.479 Y116.005 E50.73302
G0 F9000 X112.045 Y116.005
G1 F3000 X113.614 Y117.574 E50.82158
G0 F9000 X114.18 Y117.574
G1 F3000 X112.61 Y116.005 E50.91017
G0 F9000 X113.176 Y116.005
G1 F3000 X114.745 Y117.574 E50.99873
G0 F9000 X115.311 Y117.574
G1 F3000 X113.742 Y116.005 E51.08729
G0 F9000 X114.308 Y116.005
G1 F3000 X115.877 Y117.574 E51.17585
G0 F9000 X116.442 Y117.574
G1 F3000 X114.873 Y116.005 E51.26441
G0 F9000 X115.439 Y116.005
G1 F3000 X117.008 Y117.574 E51.35297
G0 F9000 X117.574 Y117.574
G1 F3000 X116.005 Y116.005 E51.44154
G0 F9000 X116.57 Y116.005
G1 F3000 X117.574 Y117.009 E51.49821
G0 F9000 X117.574 Y116.443
G1 F3000 X117.136 Y116.005 E51.52293
G0 F9000 X117.845 Y115.582
;TYPE:SKIN
G1 F3000 X117.932 Y115.669 E51.52538
G0 F9000 X117.965 Y115.42
G1 F3000 X117.845 Y115.3 E51.52877
G0 F9000 X117.965 Y115.137
G1 F3000 X117.845 Y115.017 E51.53216
G0 F9000 X117.965 Y114.854
G1 F3000 X117.845 Y114.734 E51.53554
G0 F9000 X117.965 Y114.571
G1 F3000 X117.845 Y114.451 E51.53893
G0 F9000 X117.965 Y114.288
G1 F3000 X117.845 Y114.168 E51.54232
G0 F9000 X117.965 Y114.006
G1 F3000 X117.845 Y113.885 E51.54572
G0 F9000 X117.965 Y113.723
G1 F3000 X117.845 Y113.603 E51.5491
G0 F9000 X117.965 Y113.44
G1 F3000 X117.845 Y113.32 E51.55249
G0 F9000 X117.965 Y113.157
G1 F3000 X117.845 Y113.037 E51.55588
G0 F9000 X117.965 Y112.874
G1 F3000 X117.845 Y112.754 E51.55926
G0 F9000 X117.965 Y112.591
G1 F3000 X117.845 Y112.471 E51.56265
G0 F9000 X117.965 Y112.309
G1 F3000 X117.845 Y112.188 E51.56605
G0 F9000 X117.965 Y112.026
G1 F3000 X117.845 Y111.906 E51.56944
G0 F9000 X117.965 Y111.743
G1 F3000 X117.845 Y111.623 E51.57282
G0 F9000 X117.965 Y111.46
G1 F3000 X117.845 Y111.34 E51.57621
G0 F9000 X117.965 Y111.177
G1 F3000 X117.845 Y111.057 E51.5796
G0 F9000 X117.966 Y110.895
G1 F3000 X117.845 Y110.774 E51.58301
G0 F9000 X117.966 Y110.612
G1 F3000 X117.845 Y110.491 E51.58643
G0 F9000 X117.966 Y110.329
G1 F3000 X117.845 Y110.208 E51.58984
G0 F9000 X117.966 Y110.047
G1 F3000 X117.845 Y109.926 E51.59326
G0 F9000 X117.966 Y109.764
G1 F3000 X117.845 Y109.643 E51.59667
G0 F9000 X117.966 Y109.481
G1 F3000 X117.845 Y109.36 E51.60009
G0 F9000 X117.966 Y109.198
G1 F3000 X117.845 Y109.077 E51.6035
G0 F9000 X117.966 Y108.915
G1 F3000 X117.845 Y108.794 E51.60692
G0 F9000 X117.966 Y108.632
G1 F3000 X117.845 Y108.511 E51.61033
G0 F9000 X117.966 Y108.349
G1 F3000 X117.845 Y108.229 E51.61373
G0 F9000 X117.966 Y108.067
G1 F3000 X117.845 Y107.946 E51.61715
G0 F9000 X117.966 Y107.784
G1 F3000 X117.845 Y107.663 E51.62056
G0 F9000 X117.966 Y107.501
G1 F3000 X117.845 Y107.38 E51.62398
G0 F9000 X117.966 Y107.218
G1 F3000 X117.845 Y107.097 E51.62739
G0 F9000 X117.966 Y106.935
G1 F3000 X117.845 Y106.814 E51.63081
G0 F9000 X117.966 Y106.652
G1 F3000 X117.845 Y106.532 E51.63421
G0 F9000 X117.967 Y106.37
G1 F3000 X117.845 Y106.249 E51.63764
G0 F9000 X117.967 Y106.087
G1 F3000 X117.845 Y105.966 E51.64107
G0 F9000 X117.967 Y105.805
G1 F3000 X117.845 Y105.683 E51.64451
G0 F9000 X117.967 Y105.522
G1 F3000 X117.845 Y105.4 E51.64795
G0 F9000 X117.967 Y105.239
G1 F3000 X117.845 Y105.117 E51.6514
G0 F9000 X117.967 Y104.956
G1 F3000 X117.845 Y104.834 E51.65484
G0 F9000 X117.967 Y104.673
G1 F3000 X117.845 Y104.552 E51.65827
G0 F9000 X117.967 Y104.39
G1 F3000 X117.845 Y104.269 E51.6617
G0 F9000 X117.967 Y104.108
G1 F3000 X117.845 Y103.986 E51.66514
G0 F9000 X117.967 Y103.825
