;FLAVOR:Marlin
;TIME:3067
;Filament used: 1.54598m
;Layer height: 0.2
;MINX:89.554
;MINY:102.047
;MINZ:0.24
;MAXX:130.445
;MAXY:117.952
;MAXZ:40.37
;POSTPROCESSED
;Generated with Cura_SteamEngine 4.8.0
M82 ;absolute extrusion mode
M201 X500.00 Y500.00 Z100.00 E5000.00 ;Setup machine max acceleration
M203 X500.00 Y500.00 Z10.00 E50.00 ;Setup machine max feedrate
M204 P500.00 R1000.00 T500.00 ;Setup Print/Retract/Travel acceleration
M205 X8.00 Y8.00 Z0.40 E5.00 ;Setup Jerk
M220 S100 ;Reset Feedrate
M221 S100 ;Reset Flowrate

;*** Start Dual Nozzle/Bed Preheating ***
M140 S50 ; start preheating the bed
M104 S195 ﻿T0 ; start preheating hotend
G28 ; home
M190 S50 ; heat to Cura Bed setting and WAIT
M109 S195 ﻿T0 ; heat to Cura Hotend and WAIT
;*** End Preheating ***


G92 E0 ;Reset Extruder
G1 Z2.0 F3000 ;Move Z Axis up

;*** Single Print Start Tone
M300 S1000 P500 ; chirp to indicate starting to print
;*** End Single Start Tone

G1 X10.1 Y20 Z0.28 F5000.0 ;Move to start position
G1 X10.1 Y200.0 Z0.28 F1500.0 E15 ;Draw the first line
G1 X10.4 Y200.0 Z0.28 F5000.0 ;Move to side a little
G1 X10.4 Y20 Z0.28 F1500.0 E30 ;Draw the second line
G92 E0 ;Reset Extruder
G1 Z2.0 F3000 ;Move Z Axis up
G92 E0
G92 E0
G1 F2400 E-3.2
;LAYER_COUNT:185
;LAYER:-6
M117 distance (1.0/1.0)
M107
M204 S500
M205 X6 Y6
G0 F12000 X90.722 Y102.895 Z0.24
;TYPE:SUPPORT-INTERFACE
G1 F1440 E0
G1 F1687.5 X90.759 Y102.866 E0.00375
G1 X91.071 Y102.657 E0.03373
G1 X91.149 Y102.614 E0.04084
G1 X91.43 Y102.481 E0.06566
G1 X91.632 Y102.406 E0.08286
G1 X91.802 Y102.36 E0.09691
G1 X91.974 Y102.318 E0.11105
G1 X92.321 Y102.265 E0.13907
G1 X92.451 Y102.256 E0.14947
G1 X92.654 Y102.248 E0.16569
G1 X127.406 Y102.248 E2.93974
G1 X127.625 Y102.257 E2.95724
G1 X127.769 Y102.269 E2.96877
G1 X128.138 Y102.33 E2.99863
G1 X128.189 Y102.343 E3.00283
G1 X128.535 Y102.459 E3.03196
G1 X128.584 Y102.481 E3.03625
G1 X128.923 Y102.661 E3.06688
G1 X128.954 Y102.681 E3.06983
G1 X129.254 Y102.91 E3.09996
G1 X129.314 Y102.966 E3.10651
G1 X129.533 Y103.193 E3.13169
G1 X129.697 Y103.401 E3.15283
G1 X129.773 Y103.517 E3.1639
G1 X129.869 Y103.673 E3.17852
G1 X130.036 Y104.005 E3.20819
G1 X130.056 Y104.054 E3.21241
G1 X130.163 Y104.395 E3.24094
G1 X130.178 Y104.461 E3.24634
G1 X130.231 Y104.821 E3.27539
G1 X130.237 Y104.908 E3.28235
G1 X130.245 Y105.116 E3.29897
G1 X130.245 Y114.872 E4.07773
G1 X130.237 Y115.083 E4.09459
G1 X130.225 Y115.233 E4.1066
G1 X130.163 Y115.604 E4.13662
G1 X130.15 Y115.655 E4.14083
G1 X130.03 Y116.011 E4.17081
G1 X130.012 Y116.053 E4.17446
G1 X129.836 Y116.387 E4.2046
G1 X129.787 Y116.465 E4.21195
G1 X129.692 Y116.605 E4.22546
G1 X129.593 Y116.731 E4.23825
G1 X129.477 Y116.866 E4.25246
G1 X129.218 Y117.12 E4.28141
G1 X129.176 Y117.155 E4.28578
G1 X128.859 Y117.377 E4.31667
G1 X128.821 Y117.4 E4.32021
G1 X128.494 Y117.558 E4.3492
G1 X128.445 Y117.577 E4.3534
G1 X128.082 Y117.684 E4.38361
G1 X128.021 Y117.697 E4.38859
G1 X127.669 Y117.744 E4.41693
G1 X127.455 Y117.752 E4.43403
G1 X92.662 Y117.752 E7.21136
G1 X92.444 Y117.743 E7.22877
G1 X92.296 Y117.731 E7.24063
G1 X91.929 Y117.672 E7.2703
G1 X91.808 Y117.642 E7.28025
G1 X91.634 Y117.593 E7.29468
G1 X91.489 Y117.54 E7.307
G1 X91.343 Y117.479 E7.31963
G1 X91.005 Y117.304 E7.35002
G1 X90.954 Y117.272 E7.35482
G1 X90.657 Y117.05 E7.38442
G1 X90.634 Y117.029 E7.38691
G1 X90.364 Y116.75 E7.4179
G1 X90.329 Y116.707 E7.42232
G1 X90.126 Y116.413 E7.45084
G1 X90.098 Y116.365 E7.45528
G1 X89.939 Y116.027 E7.4851
G1 X89.923 Y115.984 E7.48876
G1 X89.818 Y115.617 E7.51923
G1 X89.804 Y115.543 E7.52524
G1 X89.761 Y115.206 E7.55236
G1 X89.755 Y115.02 E7.56722
G1 X89.755 Y105.034 E8.36434
G1 X89.763 Y104.823 E8.3812
G1 X89.776 Y104.671 E8.39337
G1 X89.837 Y104.302 E8.42323
G1 X89.85 Y104.251 E8.42743
G1 X89.966 Y103.905 E8.45656
G1 X89.988 Y103.856 E8.46085
G1 X90.168 Y103.517 E8.49149
G1 X90.188 Y103.486 E8.49443
G1 X90.417 Y103.186 E8.52456
G1 X90.449 Y103.152 E8.52828
G1 X90.48 Y103.123 E8.53167
G0 F1518.8 X90.722 Y102.895
G0 F12000 X91.2 Y102.589
G1 F1687.5 X91.2 Y117.404 E9.71427
G0 F12000 X92.8 Y117.752
G1 F1687.5 X92.8 Y102.248 E10.95187
G0 F12000 X94.4 Y102.248
G1 F1687.5 X94.4 Y117.752 E12.18946
G0 F12000 X96 Y117.752
G1 F1687.5 X96 Y102.248 E13.42706
G0 F12000 X97.6 Y102.248
G1 F1687.5 X97.6 Y117.752 E14.66466
G0 F12000 X99.2 Y117.752
G1 F1687.5 X99.2 Y102.248 E15.90225
G0 F12000 X100.8 Y102.248
G1 F1687.5 X100.8 Y117.752 E17.13985
G0 F12000 X102.4 Y117.752
G1 F1687.5 X102.4 Y102.248 E18.37744
G0 F12000 X104 Y102.248
G1 F1687.5 X104 Y117.752 E19.61504
G0 F12000 X105.6 Y117.752
G1 F1687.5 X105.6 Y102.248 E20.85264
G0 F12000 X107.2 Y102.248
G1 F1687.5 X107.2 Y117.752 E22.09023
G0 F12000 X108.8 Y117.752
G1 F1687.5 X108.8 Y102.248 E23.32783
G0 F12000 X110.4 Y102.248
G1 F1687.5 X110.4 Y117.752 E24.56543
G0 F12000 X112 Y117.752
G1 F1687.5 X112 Y102.248 E25.80302
G0 F12000 X113.6 Y102.248
G1 F1687.5 X113.6 Y117.752 E27.04062
G0 F12000 X115.2 Y117.752
G1 F1687.5 X115.2 Y102.248 E28.27822
G0 F12000 X116.8 Y102.248
G1 F1687.5 X116.8 Y117.752 E29.51581
G0 F12000 X118.4 Y117.752
G1 F1687.5 X118.4 Y102.248 E30.75341
G0 F12000 X120 Y102.248
G1 F1687.5 X120 Y117.752 E31.991
G0 F12000 X121.6 Y117.752
G1 F1687.5 X121.6 Y102.248 E33.2286
G0 F12000 X123.2 Y102.248
G1 F1687.5 X123.2 Y117.752 E34.4662
G0 F12000 X124.8 Y117.752
G1 F1687.5 X124.8 Y102.248 E35.70379
G0 F12000 X126.4 Y102.248
G1 F1687.5 X126.4 Y117.752 E36.94139
G0 F12000 X128 Y117.7
G1 F1687.5 X128 Y102.308 E38.17005
G0 F12000 X129.6 Y103.278
M104 S195
G1 F1687.5 X129.6 Y116.723 E39.24328
G0 F300 X129.6 Y116.723 Z0.54
G0 F12000 X130.176 Y104.46
;TIME_ELAPSED:25.871248
;LAYER:-5
M117 distance (1.0/1.0)
M140 S40
;TYPE:SUPPORT
G1 F1687.5 X130.162 Y104.395 E39.24992
G1 X130.055 Y104.053 E39.28567
G1 X130.034 Y104.004 E39.29099
G1 X129.868 Y103.673 E39.32794
G1 X129.771 Y103.516 E39.34636
G1 X129.696 Y103.4 E39.36014
G1 X129.532 Y103.193 E39.38649
G1 X129.312 Y102.966 E39.41803
G1 X129.253 Y102.909 E39.42622
G1 X128.952 Y102.681 E39.4639
G1 X128.922 Y102.66 E39.46755
G1 X128.583 Y102.48 E39.50585
G1 X128.534 Y102.459 E39.51117
G1 X128.187 Y102.343 E39.54767
G1 X128.137 Y102.329 E39.55285
G1 X127.768 Y102.268 E39.59017
G1 X127.721 Y102.265 E39.59487
G1 X130.222 Y104.766 E39.94779
G1 X130.229 Y104.82 E39.95322
G1 X130.236 Y104.907 E39.96193
G1 X130.244 Y105.116 E39.9828
G1 X130.244 Y106.202 E40.09116
G1 X126.289 Y102.247 E40.64926
G1 X124.875 Y102.247 E40.79035
G1 X130.244 Y107.616 E41.54797
G1 X130.244 Y109.03 E41.68906
G1 X123.46 Y102.247 E42.64628
G1 X122.046 Y102.247 E42.78737
G1 X130.244 Y110.445 E43.9442
G1 X130.244 Y111.859 E44.08529
G1 X120.632 Y102.247 E45.44165
G1 X119.218 Y102.247 E45.58274
G1 X130.244 Y113.273 E47.13862
G1 X130.244 Y114.687 E47.27971
G1 X117.803 Y102.247 E49.0352
G1 X116.389 Y102.247 E49.17629
G1 X130.06 Y115.918 E51.10542
G1 X130.029 Y116.011 E51.1152
G1 X130.011 Y116.053 E51.11976
G1 X129.834 Y116.386 E51.15739
G1 X129.786 Y116.464 E51.16653
G1 X129.691 Y116.605 E51.18349
G1 X129.592 Y116.731 E51.19948
G1 X129.53 Y116.802 E51.20889
G1 X114.975 Y102.247 E53.26275
G1 X113.561 Y102.247 E53.40384
G1 X128.747 Y117.434 E55.54682
G1 X128.493 Y117.558 E55.57502
G1 X128.443 Y117.577 E55.58036
G1 X128.081 Y117.683 E55.618
G1 X128.02 Y117.696 E55.62422
G1 X127.668 Y117.743 E55.65966
G1 X127.644 Y117.744 E55.66205
G1 X112.147 Y102.247 E57.84885
G1 X110.732 Y102.247 E57.99004
G1 X126.236 Y117.751 E60.17782
G1 X124.822 Y117.751 E60.31891
G1 X109.318 Y102.247 E62.50669
G1 X107.904 Y102.247 E62.64778
G1 X123.408 Y117.751 E64.83556
G1 X121.994 Y117.751 E64.97665
G1 X106.49 Y102.247 E67.16443
G1 X105.076 Y102.247 E67.30552
G1 X120.58 Y117.751 E69.4933
G1 X119.165 Y117.751 E69.63449
G1 X103.661 Y102.247 E71.82228
G1 X102.247 Y102.247 E71.96336
G1 X117.751 Y117.751 E74.15115
G1 X116.337 Y117.751 E74.29224
G1 X100.833 Y102.247 E76.48002
G1 X99.419 Y102.247 E76.62111
G1 X114.923 Y117.751 E78.80889
G1 X113.509 Y117.751 E78.94998
G1 X98.004 Y102.247 E81.13783
G1 X96.59 Y102.247 E81.27892
G1 X112.094 Y117.751 E83.4667
G1 X110.68 Y117.751 E83.60779
G1 X95.176 Y102.247 E85.79557
G1 X93.762 Y102.247 E85.93666
G1 X109.266 Y117.751 E88.12445
G1 X107.852 Y117.751 E88.26554
G1 X92.362 Y102.261 E90.45134
G1 X92.321 Y102.264 E90.45544
G1 X91.974 Y102.317 E90.49047
G1 X91.802 Y102.359 E90.50814
G1 X91.631 Y102.405 E90.5258
G1 X91.429 Y102.48 E90.5473
G1 X91.251 Y102.565 E90.56699
G1 X106.437 Y117.751 E92.70989
G1 X105.023 Y117.751 E92.85098
G1 X90.436 Y103.164 E94.90937
G1 X90.416 Y103.185 E94.91226
G1 X90.187 Y103.485 E94.94992
G1 X90.167 Y103.516 E94.9536
G1 X89.987 Y103.855 E94.9919
G1 X89.965 Y103.904 E94.99726
G1 X89.914 Y104.056 E95.01326
G1 X103.609 Y117.751 E96.94577
G1 X102.195 Y117.751 E97.08686
G1 X89.754 Y105.31 E98.84242
G1 X89.754 Y106.725 E98.98361
G1 X100.781 Y117.751 E100.53956
G1 X99.366 Y117.751 E100.68075
G1 X89.754 Y108.139 E102.03711
G1 X89.754 Y109.553 E102.1782
G1 X97.952 Y117.751 E103.33503
G1 X96.538 Y117.751 E103.47612
G1 X89.754 Y110.967 E104.43341
G1 X89.754 Y112.381 E104.5745
G1 X95.124 Y117.751 E105.33227
G1 X93.71 Y117.751 E105.47336
G1 X89.754 Y113.796 E106.03152
G1 X89.754 Y115.019 E106.15355
G1 X89.76 Y115.205 E106.17212
G1 X89.762 Y115.218 E106.17343
G1 X92.27 Y117.726 E106.52734
G1 X91.928 Y117.671 E106.5619
G1 X91.807 Y117.641 E106.57434
G1 X91.633 Y117.591 E106.59241
G1 X91.489 Y117.538 E106.60772
G1 X91.343 Y117.478 E106.62347
G1 X91.004 Y117.303 E106.66153
G1 X90.954 Y117.271 E106.66746
G1 X90.657 Y117.049 E106.70445
G1 X90.633 Y117.028 E106.70764
G1 X90.364 Y116.748 E106.74638
G1 X90.328 Y116.706 E106.7519
G1 X90.126 Y116.412 E106.78749
G1 X90.098 Y116.364 E106.79304
G1 X89.938 Y116.026 E106.83035
G1 X89.923 Y115.983 E106.83489
G1 X89.818 Y115.616 E106.87298
G1 X89.803 Y115.542 E106.88052
G0 F300 X89.803 Y115.542 Z0.74
G0 F12000 X91.254 Y117.658
;TIME_ELAPSED:52.936064
;LAYER:-4
M117 distance (1.0/1.0)
;TYPE:SUPPORT-INTERFACE
G1 F2250 X91.889 Y117.868 E106.90276
G1 X92.654 Y117.952 E106.92836
G1 X127.46 Y117.951 E108.08601
G1 X128.037 Y117.896 E108.10529
G1 X128.505 Y117.767 E108.12144
G1 X128.862 Y117.6 E108.13454
G1 X91.144 Y117.6 E109.38905
G1 X90.849 Y117.444 E109.40015
G1 X90.531 Y117.2 E109.41348
G1 X129.405 Y117.2 E110.70643
G1 X129.78 Y116.8 E110.72467
G1 X90.151 Y116.8 E112.04274
G1 X89.921 Y116.459 E112.05642
G1 X89.894 Y116.4 E112.05858
G1 X130.041 Y116.4 E113.39387
G1 X130.188 Y116.148 E113.40357
G1 X130.238 Y116 E113.40877
G1 X89.719 Y116 E114.75644
G1 X89.612 Y115.6 E114.77021
G1 X130.365 Y115.6 E116.12566
G1 X130.409 Y115.2 E116.13904
G1 X89.571 Y115.2 E117.49732
G1 X89.555 Y115.02 E117.50333
G1 X89.555 Y114.8 E117.51065
G1 X130.445 Y114.8 E118.87066
G1 X130.445 Y114.4 E118.88396
G1 X89.555 Y114.4 E120.24397
G1 X89.555 Y114 E120.25727
G1 X130.445 Y114 E121.61728
G1 X130.445 Y113.6 E121.63058
G1 X89.555 Y113.6 E122.99059
G1 X89.555 Y113.2 E123.00389
G1 X130.445 Y113.2 E124.3639
G1 X130.445 Y112.8 E124.3772
G1 X89.555 Y112.8 E125.73721
G1 X89.555 Y112.4 E125.75051
G1 X130.445 Y112.4 E127.11052
G1 X130.445 Y112 E127.12383
G1 X89.555 Y112 E128.48383
G1 X89.555 Y111.6 E128.49714
G1 X130.445 Y111.6 E129.85714
G1 X130.445 Y111.2 E129.87045
G1 X89.555 Y111.2 E131.23045
G1 X89.555 Y110.8 E131.24376
G1 X130.445 Y110.8 E132.60377
G1 X130.445 Y110.4 E132.61707
G1 X89.555 Y110.4 E133.97708
G1 X89.555 Y110 E133.99038
G1 X130.445 Y110 E135.35039
G1 X130.445 Y109.6 E135.36369
G1 X89.555 Y109.6 E136.7237
G1 X89.555 Y109.2 E136.737
G1 X130.445 Y109.2 E138.09701
G1 X130.445 Y108.8 E138.11031
G1 X89.555 Y108.8 E139.47032
G1 X89.555 Y108.4 E139.48362
G1 X130.445 Y108.4 E140.84363
G1 X130.445 Y108 E140.85693
G1 X89.555 Y108 E142.21694
G1 X89.555 Y107.6 E142.23025
G1 X130.445 Y107.6 E143.59025
G1 X130.445 Y107.2 E143.60356
G1 X89.555 Y107.2 E144.96356
G1 X89.555 Y106.8 E144.97687
G1 X130.445 Y106.8 E146.33687
G1 X130.445 Y106.4 E146.35018
G1 X89.555 Y106.4 E147.71019
G1 X89.555 Y106 E147.72349
G1 X130.445 Y106 E149.0835
G1 X130.445 Y105.6 E149.0968
G1 X89.555 Y105.6 E150.45681
G1 X89.555 Y105.2 E150.47011
G1 X130.445 Y105.2 E151.83012
G1 X130.445 Y105.1 E151.83344
G1 X130.414 Y104.8 E151.84348
G1 X89.58 Y104.8 E153.20162
G1 X89.624 Y104.4 E153.215
G1 X130.368 Y104.4 E154.57016
G1 X130.244 Y104 E154.58408
G1 X89.73 Y104 E155.93159
G1 X89.803 Y103.779 E155.93933
G1 X89.9 Y103.6 E155.9461
G1 X130.035 Y103.6 E157.28099
G1 X129.836 Y103.252 E157.29433
G1 X129.79 Y103.2 E157.29664
G1 X90.159 Y103.2 E158.61477
G1 X90.306 Y103.013 E158.62268
G1 X90.538 Y102.8 E158.63315
G1 X129.427 Y102.8 E159.92661
G1 X129.07 Y102.517 E159.94176
G1 X128.856 Y102.4 E159.94987
G1 X91.14 Y102.4 E161.20431
G1 X91.55 Y102.223 E161.21916
G1 X92.31 Y102.065 E161.24498
G1 X92.646 Y102.048 E161.25617
G1 X127.414 Y102.047 E162.41256
G1 X128.172 Y102.131 E162.43793
G1 X128.664 Y102.296 E162.45519
G1 F2400 E159.25519
G0 F300 X128.664 Y102.296 Z0.94
G0 F12000 X89.554 Y105.025
;TIME_ELAPSED:101.845807
;LAYER:-3
M117 distance (1.0/1.0)
;TYPE:SUPPORT-INTERFACE
G1 F1440 E162.45519
G1 F2250 X89.554 Y115.019 E162.78759
G1 X89.599 Y115.515 E162.80415
G1 X89.599 Y104.616 E163.16665
G1 X89.637 Y104.271 E163.1782
G1 X89.802 Y103.778 E163.19549
G1 X89.999 Y103.413 E163.20929
G1 X89.999 Y116.574 E163.64702
G1 X90.173 Y116.832 E163.65737
G1 X90.399 Y117.072 E163.66834
G1 X90.399 Y102.925 E164.13887
G1 X90.644 Y102.7 E164.14993
G1 X90.799 Y102.6 E164.15607
G1 X90.799 Y117.405 E164.64848
G1 X90.848 Y117.443 E164.65055
G1 X91.199 Y117.628 E164.66374
G1 X91.199 Y102.372 E165.17116
G1 X91.549 Y102.222 E165.18382
G1 X91.599 Y102.211 E165.18553
G1 X91.599 Y117.771 E165.70305
G1 X91.888 Y117.867 E165.71318
G1 X91.999 Y117.879 E165.7169
G1 X91.999 Y102.128 E166.24078
G1 X92.309 Y102.064 E166.2513
G1 X92.399 Y102.059 E166.2543
G1 X92.399 Y117.923 E166.78194
G1 X92.653 Y117.951 E166.79044
G1 X92.799 Y117.951 E166.7953
G1 X92.799 Y102.047 E167.32427
G1 X93.199 Y102.047 E167.33757
G1 X93.199 Y117.951 E167.86654
G1 X93.599 Y117.951 E167.87984
G1 X93.599 Y102.047 E168.40881
G1 X93.999 Y102.047 E168.42212
G1 X93.999 Y117.951 E168.95109
G1 X94.399 Y117.951 E168.96439
G1 X94.399 Y102.047 E169.49336
G1 X94.799 Y102.047 E169.50666
G1 X94.799 Y117.951 E170.03563
G1 X95.199 Y117.951 E170.04894
G1 X95.199 Y102.047 E170.57791
G1 X95.599 Y102.047 E170.59121
G1 X95.599 Y117.951 E171.12018
G1 X95.999 Y117.951 E171.13348
G1 X95.999 Y102.047 E171.66245
G1 X96.399 Y102.047 E171.67576
G1 X96.399 Y117.951 E172.20473
G1 X96.799 Y117.951 E172.21803
G1 X96.799 Y102.047 E172.747
G1 X97.199 Y102.047 E172.7603
G1 X97.199 Y117.951 E173.28927
G1 X97.599 Y117.951 E173.30258
G1 X97.599 Y102.047 E173.83155
G1 X97.999 Y102.047 E173.84485
G1 X97.999 Y117.951 E174.37382
G1 X98.399 Y117.951 E174.38712
G1 X98.399 Y102.047 E174.91609
G1 X98.799 Y102.047 E174.9294
G1 X98.799 Y117.951 E175.45836
G1 X99.199 Y117.951 E175.47167
G1 X99.199 Y102.047 E176.00064
G1 X99.599 Y102.047 E176.01394
G1 X99.599 Y117.951 E176.54291
G1 X99.999 Y117.951 E176.55622
G1 X99.999 Y102.047 E177.08518
G1 X100.399 Y102.047 E177.09849
G1 X100.399 Y117.951 E177.62746
G1 X100.799 Y117.951 E177.64076
G1 X100.799 Y102.047 E178.16973
G1 X101.199 Y102.047 E178.18304
G1 X101.199 Y117.951 E178.712
G1 X101.599 Y117.951 E178.72531
G1 X101.599 Y102.047 E179.25428
G1 X101.999 Y102.047 E179.26758
G1 X101.999 Y117.951 E179.79655
G1 X102.399 Y117.951 E179.80985
G1 X102.399 Y102.047 E180.33882
G1 X102.799 Y102.047 E180.35213
G1 X102.799 Y117.951 E180.8811
G1 X103.199 Y117.951 E180.8944
G1 X103.199 Y102.047 E181.42337
G1 X103.599 Y102.047 E181.43667
G1 X103.599 Y117.951 E181.96564
G1 X103.999 Y117.951 E181.97895
G1 X103.999 Y102.047 E182.50792
G1 X104.399 Y102.047 E182.52122
G1 X104.399 Y117.951 E183.05019
G1 X104.799 Y117.951 E183.06349
G1 X104.799 Y102.047 E183.59246
G1 X105.199 Y102.047 E183.60577
G1 X105.199 Y117.951 E184.13474
G1 X105.599 Y117.951 E184.14804
G1 X105.599 Y102.047 E184.67701
G1 X105.999 Y102.047 E184.69031
G1 X105.999 Y117.951 E185.21928
G1 X106.399 Y117.951 E185.23259
G1 X106.399 Y102.047 E185.76156
G1 X106.799 Y102.047 E185.77486
