;FLAVOR:Marlin
;TIME:1126
;Filament used: 0.558567m
;Layer height: 0.2
;MINX:101.635
;MINY:89.135
;MINZ:0.28
;MAXX:118.365
;MAXY:130.865
;MAXZ:32.08
;Generated with Cura_SteamEngine main
M140 S50
M105
M190 S50
M104 S210
M105
M109 S210
M82 ;absolute extrusion mode
M201 X500.00 Y500.00 Z100.00 E5000.00 ;Setup machine max acceleration
M203 X500.00 Y500.00 Z10.00 E50.00 ;Setup machine max feedrate
M204 P500.00 R1000.00 T500.00 ;Setup Print/Retract/Travel acceleration
M205 X8.00 Y8.00 Z0.40 E5.00 ;Setup Jerk
M220 S100 ;Reset Feedrate
M221 S100 ;Reset Flowrate

G28 ;Home

G92 E0 ;Reset Extruder
G1 Z2.0 F3000 ;Move Z Axis up
G1 X10.1 Y20 Z0.28 F5000.0 ;Move to start position
G1 X10.1 Y200.0 Z0.28 F1500.0 E15 ;Draw the first line
G1 X10.4 Y200.0 Z0.28 F5000.0 ;Move to side a little
G1 X10.4 Y20 Z0.28 F1500.0 E30 ;Draw the second line
G92 E0 ;Reset Extruder
G1 Z2.0 F3000 ;Move Z Axis up

G92 E0
G92 E0
G1 F2400 E-2
;LAYER_COUNT:160
;LAYER:0
M107
M204 S500
M205 X5 Y5
;MESH:Retraction.stl
G0 F7500 X103.4 Y90.9 Z0.28
M205 X8 Y8
;TYPE:WALL-INNER
G1 F1200 E0
G1 F1500 X103.4 Y97.5 E0.3467
G1 X103.4 Y129.1 E2.00665
G1 X116.6 Y129.1 E2.70005
G1 X116.6 Y90.9 E4.70671
G1 X103.4 Y90.9 E5.40011
M205 X5 Y5
G0 F7500 X102.925 Y90.425
M205 X8 Y8
;TYPE:WALL-OUTER
G1 F1500 X102.925 Y97.5 E5.73459
G1 X102.925 Y129.575 E7.25101
G1 X117.075 Y129.575 E7.91998
G1 X117.075 Y90.425 E9.77088
G1 X102.925 Y90.425 E10.43986
M205 X5 Y5
G0 F7500 X102.925 Y90.625
G0 X103.673 Y91.173
M205 X8 Y8
;TYPE:SKIN
G1 F1500 X103.673 Y97.5 E10.62598
G1 X103.673 Y128.827 E11.54752
G1 X116.327 Y128.827 E11.91976
G1 X116.327 Y91.173 E13.02743
G1 X103.673 Y91.173 E13.39967
M205 X5 Y5
G0 F7500 X103.813 Y91.56
M205 X8 Y8
G1 F1500 X116.187 Y91.56 E13.76368
M205 X5 Y5
G0 F7500 X116.187 Y91.84
M205 X8 Y8
G1 F1500 X103.813 Y91.84 E14.12768
M205 X5 Y5
G0 F7500 X103.813 Y92.12
M205 X8 Y8
G1 F1500 X116.187 Y92.12 E14.49169
M205 X5 Y5
G0 F7500 X116.187 Y92.4
M205 X8 Y8
G1 F1500 X103.813 Y92.4 E14.85569
M205 X5 Y5
G0 F7500 X103.813 Y92.68
M205 X8 Y8
G1 F1500 X116.187 Y92.68 E15.2197
M205 X5 Y5
G0 F7500 X116.187 Y92.96
M205 X8 Y8
G1 F1500 X103.813 Y92.96 E15.5837
M205 X5 Y5
G0 F7500 X103.813 Y93.24
M205 X8 Y8
G1 F1500 X116.187 Y93.24 E15.94771
M205 X5 Y5
G0 F7500 X116.187 Y93.52
M205 X8 Y8
G1 F1500 X103.813 Y93.52 E16.31171
M205 X5 Y5
G0 F7500 X103.813 Y93.8
M205 X8 Y8
G1 F1500 X116.187 Y93.8 E16.67572
M205 X5 Y5
G0 F7500 X116.187 Y94.08
M205 X8 Y8
G1 F1500 X103.813 Y94.08 E17.03972
M205 X5 Y5
G0 F7500 X103.813 Y94.36
M205 X8 Y8
G1 F1500 X116.187 Y94.36 E17.40373
M205 X5 Y5
G0 F7500 X116.187 Y94.64
M205 X8 Y8
G1 F1500 X103.813 Y94.64 E17.76773
M205 X5 Y5
G0 F7500 X103.813 Y94.92
M205 X8 Y8
G1 F1500 X116.187 Y94.92 E18.13174
M205 X5 Y5
G0 F7500 X116.187 Y95.2
M205 X8 Y8
G1 F1500 X103.813 Y95.2 E18.49574
M205 X5 Y5
G0 F7500 X103.813 Y95.48
M205 X8 Y8
G1 F1500 X116.187 Y95.48 E18.85975
M205 X5 Y5
G0 F7500 X116.187 Y95.76
M205 X8 Y8
G1 F1500 X103.813 Y95.76 E19.22375
M205 X5 Y5
G0 F7500 X103.813 Y96.04
M205 X8 Y8
G1 F1500 X116.187 Y96.04 E19.58776
M205 X5 Y5
G0 F7500 X116.187 Y96.32
M205 X8 Y8
G1 F1500 X103.813 Y96.32 E19.95176
M205 X5 Y5
G0 F7500 X103.813 Y96.6
M205 X8 Y8
G1 F1500 X116.187 Y96.6 E20.31577
M205 X5 Y5
G0 F7500 X116.187 Y96.88
M205 X8 Y8
G1 F1500 X103.813 Y96.88 E20.67977
M205 X5 Y5
G0 F7500 X103.813 Y97.16
M205 X8 Y8
G1 F1500 X116.187 Y97.16 E21.04378
M205 X5 Y5
G0 F7500 X116.187 Y97.44
M205 X8 Y8
G1 F1500 X103.813 Y97.44 E21.40778
M205 X5 Y5
G0 F7500 X103.813 Y97.72
M205 X8 Y8
G1 F1500 X116.187 Y97.72 E21.77179
M205 X5 Y5
G0 F7500 X116.187 Y98
M205 X8 Y8
G1 F1500 X103.813 Y98 E22.13579
M205 X5 Y5
G0 F7500 X103.813 Y98.28
M205 X8 Y8
G1 F1500 X116.187 Y98.28 E22.4998
M205 X5 Y5
G0 F7500 X116.187 Y98.56
M205 X8 Y8
G1 F1500 X103.813 Y98.56 E22.8638
M205 X5 Y5
G0 F7500 X103.813 Y98.84
M205 X8 Y8
G1 F1500 X116.187 Y98.84 E23.22781
M205 X5 Y5
G0 F7500 X116.187 Y99.12
M205 X8 Y8
G1 F1500 X103.813 Y99.12 E23.59181
M205 X5 Y5
G0 F7500 X103.813 Y99.4
M205 X8 Y8
G1 F1500 X116.187 Y99.4 E23.95582
M205 X5 Y5
G0 F7500 X116.187 Y99.68
M205 X8 Y8
G1 F1500 X103.813 Y99.68 E24.31982
M205 X5 Y5
G0 F7500 X103.813 Y99.96
M205 X8 Y8
G1 F1500 X116.187 Y99.96 E24.68383
M205 X5 Y5
G0 F7500 X116.187 Y100.24
M205 X8 Y8
G1 F1500 X103.813 Y100.24 E25.04783
M205 X5 Y5
G0 F7500 X103.813 Y100.52
M205 X8 Y8
G1 F1500 X116.187 Y100.52 E25.41184
M205 X5 Y5
G0 F7500 X116.187 Y100.8
M205 X8 Y8
G1 F1500 X103.813 Y100.8 E25.77584
M205 X5 Y5
G0 F7500 X103.813 Y101.08
M205 X8 Y8
G1 F1500 X116.187 Y101.08 E26.13985
M205 X5 Y5
G0 F7500 X116.187 Y101.36
M205 X8 Y8
G1 F1500 X103.813 Y101.36 E26.50385
M205 X5 Y5
G0 F7500 X103.813 Y101.64
M205 X8 Y8
G1 F1500 X116.187 Y101.64 E26.86786
M205 X5 Y5
G0 F7500 X116.187 Y101.92
M205 X8 Y8
G1 F1500 X103.813 Y101.92 E27.23186
M205 X5 Y5
G0 F7500 X103.813 Y102.2
M205 X8 Y8
G1 F1500 X116.187 Y102.2 E27.59587
M205 X5 Y5
G0 F7500 X116.187 Y102.48
M205 X8 Y8
G1 F1500 X103.813 Y102.48 E27.95987
M205 X5 Y5
G0 F7500 X103.813 Y102.76
M205 X8 Y8
G1 F1500 X116.187 Y102.76 E28.32388
M205 X5 Y5
G0 F7500 X116.187 Y103.04
M205 X8 Y8
G1 F1500 X103.813 Y103.04 E28.68788
M205 X5 Y5
G0 F7500 X103.813 Y103.32
M205 X8 Y8
G1 F1500 X116.187 Y103.32 E29.05189
M205 X5 Y5
G0 F7500 X116.187 Y103.6
M205 X8 Y8
G1 F1500 X103.813 Y103.6 E29.41589
M205 X5 Y5
G0 F7500 X103.813 Y103.88
M205 X8 Y8
G1 F1500 X116.187 Y103.88 E29.7799
M205 X5 Y5
G0 F7500 X116.187 Y104.16
M205 X8 Y8
G1 F1500 X103.813 Y104.16 E30.1439
M205 X5 Y5
G0 F7500 X103.813 Y104.44
M205 X8 Y8
G1 F1500 X116.187 Y104.44 E30.50791
M205 X5 Y5
G0 F7500 X116.187 Y104.72
M205 X8 Y8
G1 F1500 X103.813 Y104.72 E30.87191
M205 X5 Y5
G0 F7500 X103.813 Y105
M205 X8 Y8
G1 F1500 X116.187 Y105 E31.23592
M205 X5 Y5
G0 F7500 X116.187 Y105.28
M205 X8 Y8
G1 F1500 X103.813 Y105.28 E31.59992
M205 X5 Y5
G0 F7500 X103.813 Y105.56
M205 X8 Y8
G1 F1500 X116.187 Y105.56 E31.96393
M205 X5 Y5
G0 F7500 X116.187 Y105.84
M205 X8 Y8
G1 F1500 X103.813 Y105.84 E32.32793
M205 X5 Y5
G0 F7500 X103.813 Y106.12
M205 X8 Y8
G1 F1500 X116.187 Y106.12 E32.69194
M205 X5 Y5
G0 F7500 X116.187 Y106.4
M205 X8 Y8
G1 F1500 X103.813 Y106.4 E33.05594
M205 X5 Y5
G0 F7500 X103.813 Y106.68
M205 X8 Y8
G1 F1500 X116.187 Y106.68 E33.41995
M205 X5 Y5
G0 F7500 X116.187 Y106.96
M205 X8 Y8
G1 F1500 X103.813 Y106.96 E33.78395
M205 X5 Y5
G0 F7500 X103.813 Y107.24
M205 X8 Y8
G1 F1500 X116.187 Y107.24 E34.14796
M205 X5 Y5
G0 F7500 X116.187 Y107.52
M205 X8 Y8
G1 F1500 X103.813 Y107.52 E34.51196
M205 X5 Y5
G0 F7500 X103.813 Y107.8
M205 X8 Y8
G1 F1500 X116.187 Y107.8 E34.87597
M205 X5 Y5
G0 F7500 X116.187 Y108.08
M205 X8 Y8
G1 F1500 X103.813 Y108.08 E35.23997
M205 X5 Y5
G0 F7500 X103.813 Y108.36
M205 X8 Y8
G1 F1500 X116.187 Y108.36 E35.60398
M205 X5 Y5
G0 F7500 X116.187 Y108.64
M205 X8 Y8
G1 F1500 X103.813 Y108.64 E35.96798
M205 X5 Y5
G0 F7500 X103.813 Y108.92
M205 X8 Y8
G1 F1500 X116.187 Y108.92 E36.33199
M205 X5 Y5
G0 F7500 X116.187 Y109.2
M205 X8 Y8
G1 F1500 X103.813 Y109.2 E36.69599
M205 X5 Y5
G0 F7500 X103.813 Y109.48
M205 X8 Y8
G1 F1500 X116.187 Y109.48 E37.06
M205 X5 Y5
G0 F7500 X116.187 Y109.76
M205 X8 Y8
G1 F1500 X103.813 Y109.76 E37.424
M205 X5 Y5
G0 F7500 X103.813 Y110.04
M205 X8 Y8
G1 F1500 X116.187 Y110.04 E37.78801
M205 X5 Y5
G0 F7500 X116.187 Y110.32
M205 X8 Y8
G1 F1500 X103.813 Y110.32 E38.15201
M205 X5 Y5
G0 F7500 X103.813 Y110.6
M205 X8 Y8
G1 F1500 X116.187 Y110.6 E38.51602
M205 X5 Y5
G0 F7500 X116.187 Y110.88
M205 X8 Y8
G1 F1500 X103.813 Y110.88 E38.88002
M205 X5 Y5
G0 F7500 X103.813 Y111.16
M205 X8 Y8
G1 F1500 X116.187 Y111.16 E39.24403
M205 X5 Y5
G0 F7500 X116.187 Y111.44
M205 X8 Y8
G1 F1500 X103.813 Y111.44 E39.60803
M205 X5 Y5
G0 F7500 X103.813 Y111.72
M205 X8 Y8
G1 F1500 X116.187 Y111.72 E39.97204
M205 X5 Y5
G0 F7500 X116.187 Y112
M205 X8 Y8
G1 F1500 X103.813 Y112 E40.33604
M205 X5 Y5
G0 F7500 X103.813 Y112.28
M205 X8 Y8
G1 F1500 X116.187 Y112.28 E40.70005
M205 X5 Y5
G0 F7500 X116.187 Y112.56
M205 X8 Y8
G1 F1500 X103.813 Y112.56 E41.06405
M205 X5 Y5
G0 F7500 X103.813 Y112.84
M205 X8 Y8
G1 F1500 X116.187 Y112.84 E41.42806
M205 X5 Y5
G0 F7500 X116.187 Y113.12
M205 X8 Y8
G1 F1500 X103.813 Y113.12 E41.79206
M205 X5 Y5
G0 F7500 X103.813 Y113.4
M205 X8 Y8
G1 F1500 X116.187 Y113.4 E42.15607
M205 X5 Y5
G0 F7500 X116.187 Y113.68
M205 X8 Y8
G1 F1500 X103.813 Y113.68 E42.52007
M205 X5 Y5
G0 F7500 X103.813 Y113.96
M205 X8 Y8
G1 F1500 X116.187 Y113.96 E42.88408
M205 X5 Y5
G0 F7500 X116.187 Y114.24
M205 X8 Y8
G1 F1500 X103.813 Y114.24 E43.24808
M205 X5 Y5
G0 F7500 X103.813 Y114.52
M205 X8 Y8
G1 F1500 X116.187 Y114.52 E43.61209
M205 X5 Y5
G0 F7500 X116.187 Y114.8
M205 X8 Y8
G1 F1500 X103.813 Y114.8 E43.97609
M205 X5 Y5
G0 F7500 X103.813 Y115.08
M205 X8 Y8
G1 F1500 X116.187 Y115.08 E44.3401
M205 X5 Y5
G0 F7500 X116.187 Y115.36
M205 X8 Y8
G1 F1500 X103.813 Y115.36 E44.7041
M205 X5 Y5
G0 F7500 X103.813 Y115.64
M205 X8 Y8
G1 F1500 X116.187 Y115.64 E45.06811
M205 X5 Y5
G0 F7500 X116.187 Y115.92
M205 X8 Y8
G1 F1500 X103.813 Y115.92 E45.43211
M205 X5 Y5
G0 F7500 X103.813 Y116.2
M205 X8 Y8
G1 F1500 X116.187 Y116.2 E45.79612
M205 X5 Y5
G0 F7500 X116.187 Y116.48
M205 X8 Y8
G1 F1500 X103.813 Y116.48 E46.16012
M205 X5 Y5
G0 F7500 X103.813 Y116.76
M205 X8 Y8
G1 F1500 X116.187 Y116.76 E46.52413
M205 X5 Y5
G0 F7500 X116.187 Y117.04
M205 X8 Y8
G1 F1500 X103.813 Y117.04 E46.88813
M205 X5 Y5
G0 F7500 X103.813 Y117.32
M205 X8 Y8
G1 F1500 X116.187 Y117.32 E47.25214
M205 X5 Y5
G0 F7500 X116.187 Y117.6
M205 X8 Y8
G1 F1500 X103.813 Y117.6 E47.61615
M205 X5 Y5
G0 F7500 X103.813 Y117.88
M205 X8 Y8
G1 F1500 X116.187 Y117.88 E47.98015
M205 X5 Y5
G0 F7500 X116.187 Y118.16
M205 X8 Y8
G1 F1500 X103.813 Y118.16 E48.34416
M205 X5 Y5
G0 F7500 X103.813 Y118.44
M205 X8 Y8
G1 F1500 X116.187 Y118.44 E48.70816
M205 X5 Y5
G0 F7500 X116.187 Y118.72
M205 X8 Y8
G1 F1500 X103.813 Y118.72 E49.07217
M205 X5 Y5
G0 F7500 X103.812 Y119
M205 X8 Y8
G1 F1500 X116.186 Y119 E49.43617
M205 X5 Y5
G0 F7500 X116.186 Y119.28
M205 X8 Y8
G1 F1500 X103.812 Y119.28 E49.80018
M205 X5 Y5
G0 F7500 X103.812 Y119.56
M205 X8 Y8
G1 F1500 X116.186 Y119.56 E50.16418
M205 X5 Y5
G0 F7500 X116.186 Y119.84
M205 X8 Y8
G1 F1500 X103.812 Y119.84 E50.52819
M205 X5 Y5
G0 F7500 X103.812 Y120.12
M205 X8 Y8
G1 F1500 X116.186 Y120.12 E50.89219
M205 X5 Y5
G0 F7500 X116.186 Y120.4
M205 X8 Y8
G1 F1500 X103.812 Y120.4 E51.2562
M205 X5 Y5
G0 F7500 X103.812 Y120.68
M205 X8 Y8
G1 F1500 X116.186 Y120.68 E51.6202
M205 X5 Y5
G0 F7500 X116.186 Y120.96
M205 X8 Y8
G1 F1500 X103.812 Y120.96 E51.98421
M205 X5 Y5
G0 F7500 X103.812 Y121.24
M205 X8 Y8
G1 F1500 X116.186 Y121.24 E52.34821
M205 X5 Y5
G0 F7500 X116.186 Y121.52
M205 X8 Y8
G1 F1500 X103.812 Y121.52 E52.71222
M205 X5 Y5
G0 F7500 X103.812 Y121.8
M205 X8 Y8
G1 F1500 X116.186 Y121.8 E53.07622
M205 X5 Y5
G0 F7500 X116.186 Y122.08
M205 X8 Y8
G1 F1500 X103.812 Y122.08 E53.44023
M205 X5 Y5
G0 F7500 X103.812 Y122.36
M205 X8 Y8
G1 F1500 X116.186 Y122.36 E53.80423
M205 X5 Y5
G0 F7500 X116.186 Y122.64
M205 X8 Y8
G1 F1500 X103.812 Y122.64 E54.16824
M205 X5 Y5
G0 F7500 X103.812 Y122.92
M205 X8 Y8
G1 F1500 X116.186 Y122.92 E54.53224
M205 X5 Y5
G0 F7500 X116.186 Y123.2
M205 X8 Y8
G1 F1500 X103.812 Y123.2 E54.89625
M205 X5 Y5
G0 F7500 X103.812 Y123.48
M205 X8 Y8
G1 F1500 X116.186 Y123.48 E55.26025
M205 X5 Y5
G0 F7500 X116.186 Y123.76
M205 X8 Y8
G1 F1500 X103.812 Y123.76 E55.62426
M205 X5 Y5
G0 F7500 X103.812 Y124.04
M205 X8 Y8
G1 F1500 X116.186 Y124.04 E55.98826
M205 X5 Y5
G0 F7500 X116.186 Y124.32
M205 X8 Y8
G1 F1500 X103.812 Y124.32 E56.35227
M205 X5 Y5
G0 F7500 X103.812 Y124.6
M205 X8 Y8
G1 F1500 X116.186 Y124.6 E56.71627
M205 X5 Y5
G0 F7500 X116.186 Y124.88
M205 X8 Y8
G1 F1500 X103.812 Y124.88 E57.08028
M205 X5 Y5
G0 F7500 X103.812 Y125.16
M205 X8 Y8
G1 F1500 X116.186 Y125.16 E57.44428
M205 X5 Y5
G0 F7500 X116.186 Y125.44
M205 X8 Y8
G1 F1500 X103.812 Y125.44 E57.80829
M205 X5 Y5
G0 F7500 X103.812 Y125.72
M205 X8 Y8
G1 F1500 X116.186 Y125.72 E58.17229
M205 X5 Y5
G0 F7500 X116.186 Y126
M205 X8 Y8
G1 F1500 X103.812 Y126 E58.5363
M205 X5 Y5
G0 F7500 X103.812 Y126.28
M205 X8 Y8
G1 F1500 X116.186 Y126.28 E58.9003
M205 X5 Y5
G0 F7500 X116.186 Y126.56
M205 X8 Y8
G1 F1500 X103.812 Y126.56 E59.26431
M205 X5 Y5
G0 F7500 X103.812 Y126.84
M205 X8 Y8
G1 F1500 X116.186 Y126.84 E59.62831
M205 X5 Y5
G0 F7500 X116.186 Y127.12
M205 X8 Y8
G1 F1500 X103.812 Y127.12 E59.99232
M205 X5 Y5
G0 F7500 X103.812 Y127.4
M205 X8 Y8
G1 F1500 X116.186 Y127.4 E60.35632
M205 X5 Y5
G0 F7500 X116.186 Y127.68
M205 X8 Y8
G1 F1500 X103.812 Y127.68 E60.72033
M205 X5 Y5
G0 F7500 X103.812 Y127.96
M205 X8 Y8
G1 F1500 X116.186 Y127.96 E61.08433
M205 X5 Y5
G0 F7500 X116.186 Y128.24
M205 X8 Y8
G1 F1500 X103.812 Y128.24 E61.44834
M205 X5 Y5
G0 F7500 X103.812 Y128.52
M205 X8 Y8
G1 F1500 X116.186 Y128.52 E61.81234
M205 X5 Y5
G1 F2400 E59.81234
;MESH:NONMESH
G0 F600 X116.186 Y128.52 Z0.48
G0 F7500 X116.45 Y128.52
G0 X116.378 Y91.122
G0 X103.595 Y91.095
G1 F1200 E61.81234
G0 F7500 X103 Y90.5
;TIME_ELAPSED:94.285535
;LAYER:1
M140 S40
M106 S85
M205 X14 Y14
;TYPE:WALL-INNER
;MESH:Retraction.stl
G1 F2700 X103 Y129.5 E63.3527
G1 X117 Y129.5 E63.90565
G1 X117 Y90.5 E65.44601
G1 X103 Y90.5 E65.99896
M205 X12.5 Y12.5
G0 F8250 X102.525 Y90.04
M205 X14 Y14
;TYPE:WALL-OUTER
G1 F2250 X102.525 Y129.975 E67.41852
G1 X117.475 Y129.975 E67.94995
G1 X117.475 Y90.025 E69.37004
G1 X102.554 Y90.025 E69.90043
G1 X102.525 Y90.04 E69.90159
M205 X12.5 Y12.5
G0 F8250 X102.525 Y90.24
G0 X103.273 Y90.773
M205 X14 Y14
;TYPE:SKIN
G1 F2100 X103.273 Y129.227 E70.75212
G1 X116.727 Y129.227 E71.04969
G1 X116.727 Y90.773 E71.90022
G1 X103.273 Y90.773 E72.19779
M205 X12.5 Y12.5
G0 F8250 X103.15 Y90.773
G0 X116.48 Y90.65
G0 X116.48 Y90.913
M205 X14 Y14
G1 F2100 X116.48 Y129.087 E73.04213
M205 X12.5 Y12.5
G0 F8250 X116.2 Y129.087
M205 X14 Y14
G1 F2100 X116.2 Y90.913 E73.88646
M205 X12.5 Y12.5
G0 F8250 X115.92 Y90.913
M205 X14 Y14
G1 F2100 X115.92 Y129.087 E74.73079
M205 X12.5 Y12.5
G0 F8250 X115.64 Y129.087
M205 X14 Y14
G1 F2100 X115.64 Y90.913 E75.57512
M205 X12.5 Y12.5
G0 F8250 X115.36 Y90.913
M205 X14 Y14
G1 F2100 X115.36 Y129.087 E76.41946
M205 X12.5 Y12.5
G0 F8250 X115.08 Y129.087
M205 X14 Y14
G1 F2100 X115.08 Y90.913 E77.26379
M205 X12.5 Y12.5
G0 F8250 X114.8 Y90.913
M205 X14 Y14
G1 F2100 X114.8 Y129.087 E78.10812
M205 X12.5 Y12.5
G0 F8250 X114.52 Y129.087
M205 X14 Y14
G1 F2100 X114.52 Y90.913 E78.95245
M205 X12.5 Y12.5
G0 F8250 X114.24 Y90.913
M205 X14 Y14
G1 F2100 X114.24 Y129.087 E79.79678
M205 X12.5 Y12.5
G0 F8250 X113.96 Y129.087
M205 X14 Y14
G1 F2100 X113.96 Y90.913 E80.64112
M205 X12.5 Y12.5
G0 F8250 X113.68 Y90.913
M205 X14 Y14
G1 F2100 X113.68 Y129.087 E81.48545
M205 X12.5 Y12.5
G0 F8250 X113.4 Y129.087
M205 X14 Y14
G1 F2100 X113.4 Y90.913 E82.32978
M205 X12.5 Y12.5
G0 F8250 X113.12 Y90.913
M205 X14 Y14
G1 F2100 X113.12 Y129.087 E83.17411
M205 X12.5 Y12.5
G0 F8250 X112.84 Y129.087
M205 X14 Y14
G1 F2100 X112.84 Y90.913 E84.01844
M205 X12.5 Y12.5
G0 F8250 X112.56 Y90.913
M205 X14 Y14
G1 F2100 X112.56 Y129.087 E84.86278
M205 X12.5 Y12.5
G0 F8250 X112.28 Y129.087
M205 X14 Y14
G1 F2100 X112.28 Y90.913 E85.70711
M205 X12.5 Y12.5
G0 F8250 X112 Y90.913
M205 X14 Y14
G1 F2100 X112 Y129.087 E86.55144
M205 X12.5 Y12.5
G0 F8250 X111.72 Y129.087
M205 X14 Y14
G1 F2100 X111.72 Y90.913 E87.39577
M205 X12.5 Y12.5
G0 F8250 X111.44 Y90.913
M205 X14 Y14
G1 F2100 X111.44 Y129.087 E88.24011
M205 X12.5 Y12.5
G0 F8250 X111.16 Y129.087
M205 X14 Y14
G1 F2100 X111.16 Y90.913 E89.08444
M205 X12.5 Y12.5
G0 F8250 X110.88 Y90.913
M205 X14 Y14
G1 F2100 X110.88 Y129.087 E89.92877
M205 X12.5 Y12.5
G0 F8250 X110.6 Y129.087
M205 X14 Y14
G1 F2100 X110.6 Y90.913 E90.7731
M205 X12.5 Y12.5
G0 F8250 X110.32 Y90.913
M205 X14 Y14
G1 F2100 X110.32 Y129.087 E91.61743
M205 X12.5 Y12.5
G0 F8250 X110.04 Y129.087
M205 X14 Y14
G1 F2100 X110.04 Y90.913 E92.46177
M205 X12.5 Y12.5
G0 F8250 X109.76 Y90.913
M205 X14 Y14
G1 F2100 X109.76 Y129.087 E93.3061
M205 X12.5 Y12.5
G0 F8250 X109.48 Y129.087
M205 X14 Y14
G1 F2100 X109.48 Y90.913 E94.15043
M205 X12.5 Y12.5
G0 F8250 X109.2 Y90.913
M205 X14 Y14
G1 F2100 X109.2 Y129.087 E94.99476
M205 X12.5 Y12.5
