;FLAVOR:Marlin
;TIME:3929
;Filament used: 6.25899m
;Layer height: 0.28
;MINX:7.253
;MINY:86.654
;MINZ:0.28
;MAXX:207.468
;MAXY:133.346
;MAXZ:15.12
;Generated with Cura_SteamEngine main
M82 ;absolute extrusion mode
M201 X500.00 Y500.00 Z100.00 E5000.00 ;Setup machine max acceleration
M203 X500.00 Y500.00 Z10.00 E50.00 ;Setup machine max feedrate
M204 P500.00 R1000.00 T500.00 ;Setup Print/Retract/Travel acceleration
M205 X8.00 Y8.00 Z0.40 E5.00 ;Setup Jerk
M220 S100 ;Reset Feedrate
M221 S100 ;Reset Flowrate

;*** Start Dual Nozzle/Bed Preheating ***
M140 S60 ; start preheating the bed
M104 S200 ?T0 ; start preheating hotend
M190 S60 ; heat to Cura Bed setting and WAIT
M109 S200 ?T0 ; heat to Cura Hotend and WAIT
;*** End Preheating ***


;*** Single Print Start Tone
M300 S1000 P500 ; chirp to indicate starting to print
;*** End Single Start Tone

G28 ;Home

G92 E0 ;Reset Extruder
G1 Z2.0 F3000 ;Move Z Axis up
G1 X10.1 Y20 Z0.28 F5000.0 ;Move to start position
G1 X10.1 Y200.0 Z0.28 F1500.0 E15 ;Draw the first line
G1 X10.4 Y200.0 Z0.28 F5000.0 ;Move to side a little
G1 X10.4 Y20 Z0.28 F1500.0 E30 ;Draw the second line
G92 E0 ;Reset Extruder
G1 Z2.0 F3000 ;Move Z Axis up
G92 E0
G92 E0
G1 F2700 E-3.05
;LAYER_COUNT:54
;LAYER:0
M107
M204 S500
M205 X5 Y5
G0 F7500 X16.109 Y86.821 Z0.28
G0 X7.253 Y98.011
M205 X8 Y8
;TYPE:SKIRT
G1 F2700 E0
G1 F1500 X7.263 Y97.194 E0.03863
G1 X7.315 Y96.271 E0.08233
G1 X7.447 Y95.357 E0.12599
G1 X7.658 Y94.457 E0.1697
G1 X7.946 Y93.579 E0.21338
G1 X8.308 Y92.729 E0.25706
G1 X8.743 Y91.914 E0.30074
G1 X9.246 Y91.139 E0.34442
G1 X9.815 Y90.411 E0.3881
G1 X10.444 Y89.735 E0.43176
G1 X11.13 Y89.115 E0.47547
G1 X11.866 Y88.557 E0.51914
G1 X12.648 Y88.065 E0.56282
G1 X13.47 Y87.643 E0.6065
G1 X14.325 Y87.293 E0.65018
G1 X15.207 Y87.018 E0.69386
G1 X16.109 Y86.821 E0.7375
G1 X17.026 Y86.702 E0.78122
G1 X17.638 Y86.667 E0.8102
G1 X18.258 Y86.654 E0.83952
G1 X196.239 Y86.655 E9.25396
G1 X196.937 Y86.665 E9.28697
G1 X197.859 Y86.718 E9.33063
G1 X198.774 Y86.851 E9.37434
G1 X199.673 Y87.062 E9.418
G1 X200.551 Y87.351 E9.4617
G1 X201.4 Y87.714 E9.50535
G1 X202.215 Y88.149 E9.54903
G1 X202.99 Y88.653 E9.59273
G1 X203.717 Y89.222 E9.63638
G1 X204.393 Y89.852 E9.68007
G1 X205.012 Y90.538 E9.72375
G1 X205.569 Y91.275 E9.76743
G1 X206.061 Y92.057 E9.81111
G1 X206.483 Y92.879 E9.85479
G1 X206.832 Y93.735 E9.89849
G1 X207.106 Y94.617 E9.94216
G1 X207.303 Y95.52 E9.98585
G1 X207.421 Y96.436 E10.02952
G1 X207.455 Y97.039 E10.05807
G1 X207.468 Y97.659 E10.08739
G1 X207.467 Y100.115 E10.2035
G1 X207.451 Y101.258 E10.25754
G1 X207.451 Y103.875 E10.38127
G1 X207.466 Y104.704 E10.42047
G1 X207.467 Y107.442 E10.54991
G1 X207.451 Y108.585 E10.60396
G1 X207.451 Y111.202 E10.72768
G1 X207.466 Y112.031 E10.76688
G1 X207.467 Y114.768 E10.89628
G1 X207.451 Y115.911 E10.95032
G1 X207.451 Y118.528 E11.07405
G1 X207.464 Y119.138 E11.10289
G1 X207.468 Y121.927 E11.23475
G1 X207.458 Y122.794 E11.27574
G1 X207.407 Y123.717 E11.31944
G1 X207.276 Y124.631 E11.3631
G1 X207.066 Y125.531 E11.40679
G1 X206.78 Y126.409 E11.45044
G1 X206.418 Y127.26 E11.49417
G1 X205.985 Y128.075 E11.5378
G1 X205.482 Y128.851 E11.58152
G1 X204.914 Y129.58 E11.62521
G1 X204.286 Y130.257 E11.66887
G1 X203.601 Y130.877 E11.71255
G1 X202.865 Y131.436 E11.75624
G1 X202.084 Y131.929 E11.7999
G1 X201.263 Y132.352 E11.84357
G1 X200.408 Y132.703 E11.88726
G1 X199.526 Y132.979 E11.93096
G1 X198.624 Y133.177 E11.97462
G1 X197.708 Y133.297 E12.01829
G1 X197.083 Y133.333 E12.04789
G1 X196.463 Y133.346 E12.07721
G1 X18.497 Y133.345 E20.49094
G1 X17.799 Y133.336 E20.52394
G1 X16.877 Y133.284 E20.5676
G1 X15.962 Y133.153 E20.6113
G1 X15.063 Y132.943 E20.65495
G1 X14.185 Y132.656 E20.69862
G1 X13.334 Y132.294 E20.74234
G1 X12.519 Y131.86 E20.786
G1 X11.744 Y131.357 E20.82968
G1 X11.015 Y130.789 E20.87337
G1 X10.338 Y130.16 E20.91706
G1 X9.719 Y129.475 E20.9607
G1 X9.16 Y128.739 E21.0044
G1 X8.668 Y127.957 E21.04808
G1 X8.245 Y127.136 E21.09174
G1 X7.894 Y126.281 E21.13544
G1 X7.619 Y125.399 E21.17912
G1 X7.421 Y124.496 E21.22282
G1 X7.302 Y123.58 E21.26649
G1 X7.266 Y122.95 E21.29632
G1 X7.253 Y122.329 E21.32569
G1 X7.254 Y119.868 E21.44204
G1 X7.27 Y118.74 E21.49537
G1 X7.27 Y116.125 E21.619
G1 X7.255 Y115.296 E21.6582
G1 X7.254 Y112.542 E21.7884
G1 X7.27 Y111.414 E21.84174
G1 X7.27 Y108.799 E21.96537
G1 X7.255 Y107.97 E22.00457
G1 X7.254 Y105.215 E22.13482
G1 X7.27 Y104.087 E22.18815
G1 X7.27 Y101.472 E22.31178
G1 X7.257 Y100.862 E22.34063
G1 X7.253 Y98.011 E22.47541
M205 X5 Y5
G0 F7500 X7.703 Y98.011
M205 X8 Y8
G1 F1500 X7.713 Y97.2 E22.51376
G1 X7.765 Y96.297 E22.55652
G1 X7.897 Y95.402 E22.59929
G1 X8.107 Y94.523 E22.64202
G1 X8.394 Y93.666 E22.68474
G1 X8.756 Y92.837 E22.72751
G1 X9.19 Y92.043 E22.77029
G1 X9.692 Y91.291 E22.81304
G1 X10.258 Y90.586 E22.85578
G1 X10.884 Y89.934 E22.89851
G1 X11.566 Y89.34 E22.94127
G1 X12.298 Y88.809 E22.98402
G1 X13.073 Y88.344 E23.02675
G1 X13.887 Y87.949 E23.06953
G1 X14.732 Y87.628 E23.11226
G1 X15.602 Y87.383 E23.15499
G1 X16.491 Y87.216 E23.19776
G1 X17.65 Y87.117 E23.25275
G1 X18.258 Y87.104 E23.2815
G1 X196.232 Y87.105 E31.69562
G1 X196.93 Y87.115 E31.72862
G1 X197.833 Y87.168 E31.77138
G1 X198.728 Y87.3 E31.81416
G1 X199.607 Y87.511 E31.85689
G1 X200.464 Y87.799 E31.89964
G1 X201.292 Y88.162 E31.94238
G1 X202.086 Y88.596 E31.98516
G1 X202.837 Y89.098 E32.02786
G1 X203.542 Y89.665 E32.07064
G1 X204.193 Y90.292 E32.11337
G1 X204.787 Y90.974 E32.15613
G1 X205.318 Y91.706 E32.19888
G1 X205.782 Y92.482 E32.24162
G1 X206.176 Y93.296 E32.28438
G1 X206.496 Y94.142 E32.32714
G1 X206.741 Y95.012 E32.36987
G1 X206.907 Y95.901 E32.41263
G1 X207.005 Y97.052 E32.46724
G1 X207.018 Y97.659 E32.49595
G1 X207.017 Y100.109 E32.61177
G1 X207.001 Y101.252 E32.66582
G1 X207.001 Y103.884 E32.79025
G1 X207.014 Y104.494 E32.8191
G1 X207.018 Y107.285 E32.95105
G1 X207.001 Y108.579 E33.01223
G1 X207.001 Y111.211 E33.13666
G1 X207.014 Y111.821 E33.16551
G1 X207.018 Y114.611 E33.29741
G1 X207.001 Y115.905 E33.35859
G1 X207.001 Y118.537 E33.48303
G1 X207.014 Y119.147 E33.51187
G1 X207.018 Y121.927 E33.6433
G1 X207.008 Y122.789 E33.68406
G1 X206.957 Y123.691 E33.72677
G1 X206.826 Y124.586 E33.76954
G1 X206.617 Y125.466 E33.8123
G1 X206.331 Y126.323 E33.85501
G1 X205.97 Y127.153 E33.8978
G1 X205.538 Y127.947 E33.94054
G1 X205.036 Y128.699 E33.98328
G1 X204.471 Y129.405 E34.02603
G1 X203.845 Y130.057 E34.06877
G1 X203.164 Y130.652 E34.11152
G1 X202.433 Y131.185 E34.15429
G1 X201.658 Y131.65 E34.19702
G1 X200.845 Y132.046 E34.23977
G1 X200 Y132.368 E34.28252
G1 X199.13 Y132.614 E34.32527
G1 X198.242 Y132.783 E34.368
G1 X197.071 Y132.883 E34.42357
G1 X196.463 Y132.896 E34.45232
G1 X18.503 Y132.895 E42.86577
G1 X17.805 Y132.886 E42.89877
G1 X16.902 Y132.835 E42.94153
G1 X16.008 Y132.703 E42.98425
G1 X15.128 Y132.494 E43.02702
G1 X14.271 Y132.207 E43.06974
G1 X13.442 Y131.846 E43.11249
G1 X12.648 Y131.413 E43.15525
G1 X11.896 Y130.911 E43.19799
G1 X11.19 Y130.345 E43.24077
G1 X10.538 Y129.719 E43.28351
G1 X9.943 Y129.038 E43.32626
G1 X9.411 Y128.307 E43.369
G1 X8.946 Y127.532 E43.41173
G1 X8.551 Y126.718 E43.45451
G1 X8.229 Y125.873 E43.49726
G1 X7.984 Y125.003 E43.53999
G1 X7.816 Y124.115 E43.58272
G1 X7.716 Y122.938 E43.63856
G1 X7.703 Y122.329 E43.66736
G1 X7.704 Y119.874 E43.78343
G1 X7.72 Y118.746 E43.83676
G1 X7.72 Y116.116 E43.9611
G1 X7.705 Y115.296 E43.99987
G1 X7.704 Y112.548 E44.12979
G1 X7.72 Y111.42 E44.18312
G1 X7.72 Y108.79 E44.30746
G1 X7.705 Y107.97 E44.34624
G1 X7.704 Y105.221 E44.4762
G1 X7.72 Y104.093 E44.52954
G1 X7.72 Y101.463 E44.65388
G1 X7.707 Y100.853 E44.68272
G1 X7.703 Y98.011 E44.81708
M205 X5 Y5
G1 F2700 E41.76708
;MESH:incense_stick_dish.stl
G0 F7500 X17.263 Y98.011
G0 X18.373 Y98.011
G0 X18.808 Y98.21
G1 F2700 E44.81708
G0 F7500 X18.628 Y98.03
M205 X8 Y8
;TYPE:WALL-INNER
G1 F1500 X18.628 Y99.992 E44.92015
G1 X196.093 Y99.992 E54.24242
G1 X196.093 Y98.03 E54.34549
G1 X18.628 Y98.03 E63.66777
M205 X5 Y5
G0 F7500 X18.153 Y97.555
M205 X8 Y8
;TYPE:WALL-OUTER
G1 F1500 X18.153 Y100.467 E63.80544
G1 X196.568 Y100.467 E72.2404
G1 X196.568 Y97.555 E72.37807
G1 X18.153 Y97.555 E80.81303
M205 X5 Y5
G0 F7500 X18.153 Y97.755
G0 X18.823 Y98.224
G0 X18.96 Y98.362
M205 X8 Y8
;TYPE:SKIN
G1 F1500 X18.96 Y99.66 E80.8744
G1 X195.761 Y99.66 E89.23305
G1 X195.761 Y98.362 E89.29442
G1 X18.96 Y98.362 E97.65308
M205 X5 Y5
G0 F7500 X18.778 Y98.362
G0 X18.85 Y99.77
G0 X19.248 Y99.842
G0 X19.248 Y99.434
M205 X8 Y8
G1 F1500 X19.185 Y99.371 E97.65729
M205 X5 Y5
G0 F7500 X19.185 Y98.734
M205 X8 Y8
G1 F1500 X19.885 Y99.434 E97.70409
M205 X5 Y5
G0 F7500 X20.521 Y99.434
M205 X8 Y8
G1 F1500 X19.673 Y98.586 E97.76079
M205 X5 Y5
G0 F7500 X20.31 Y98.586
M205 X8 Y8
G1 F1500 X21.158 Y99.434 E97.81749
M205 X5 Y5
G0 F7500 X21.794 Y99.434
M205 X8 Y8
G1 F1500 X20.946 Y98.586 E97.87418
M205 X5 Y5
G0 F7500 X21.583 Y98.586
M205 X8 Y8
G1 F1500 X22.43 Y99.434 E97.93085
M205 X5 Y5
G0 F7500 X23.067 Y99.434
M205 X8 Y8
G1 F1500 X22.219 Y98.586 E97.98754
M205 X5 Y5
G0 F7500 X22.855 Y98.586
M205 X8 Y8
G1 F1500 X23.703 Y99.434 E98.04424
M205 X5 Y5
G0 F7500 X24.34 Y99.434
M205 X8 Y8
G1 F1500 X23.492 Y98.586 E98.10094
M205 X5 Y5
G0 F7500 X24.128 Y98.586
M205 X8 Y8
G1 F1500 X24.976 Y99.434 E98.15764
M205 X5 Y5
G0 F7500 X25.612 Y99.434
M205 X8 Y8
G1 F1500 X24.765 Y98.586 E98.2143
M205 X5 Y5
G0 F7500 X25.401 Y98.586
M205 X8 Y8
G1 F1500 X26.249 Y99.434 E98.271
M205 X5 Y5
G0 F7500 X26.885 Y99.434
M205 X8 Y8
G1 F1500 X26.037 Y98.586 E98.3277
M205 X5 Y5
G0 F7500 X26.674 Y98.586
M205 X8 Y8
G1 F1500 X27.522 Y99.434 E98.38439
M205 X5 Y5
G0 F7500 X28.158 Y99.434
M205 X8 Y8
G1 F1500 X27.31 Y98.586 E98.44109
M205 X5 Y5
G0 F7500 X27.946 Y98.586
M205 X8 Y8
G1 F1500 X28.794 Y99.434 E98.49779
M205 X5 Y5
G0 F7500 X29.431 Y99.434
M205 X8 Y8
G1 F1500 X28.583 Y98.586 E98.55448
M205 X5 Y5
G0 F7500 X29.219 Y98.586
M205 X8 Y8
G1 F1500 X30.067 Y99.434 E98.61118
M205 X5 Y5
G0 F7500 X30.703 Y99.434
M205 X8 Y8
G1 F1500 X29.856 Y98.586 E98.66785
M205 X5 Y5
G0 F7500 X30.492 Y98.586
M205 X8 Y8
G1 F1500 X31.34 Y99.434 E98.72454
M205 X5 Y5
G0 F7500 X31.976 Y99.434
M205 X8 Y8
G1 F1500 X31.128 Y98.586 E98.78124
M205 X5 Y5
G0 F7500 X31.765 Y98.586
M205 X8 Y8
G1 F1500 X32.613 Y99.434 E98.83794
M205 X5 Y5
G0 F7500 X33.249 Y99.434
M205 X8 Y8
G1 F1500 X32.401 Y98.586 E98.89464
M205 X5 Y5
G0 F7500 X33.038 Y98.586
M205 X8 Y8
G1 F1500 X33.885 Y99.434 E98.9513
M205 X5 Y5
G0 F7500 X34.522 Y99.434
M205 X8 Y8
G1 F1500 X33.674 Y98.586 E99.008
M205 X5 Y5
G0 F7500 X34.31 Y98.586
M205 X8 Y8
G1 F1500 X35.158 Y99.434 E99.06469
M205 X5 Y5
G0 F7500 X35.795 Y99.434
M205 X8 Y8
G1 F1500 X34.947 Y98.586 E99.12139
M205 X5 Y5
G0 F7500 X35.583 Y98.586
M205 X8 Y8
G1 F1500 X36.431 Y99.434 E99.17809
M205 X5 Y5
G0 F7500 X37.067 Y99.434
M205 X8 Y8
G1 F1500 X36.22 Y98.586 E99.23475
M205 X5 Y5
G0 F7500 X36.856 Y98.586
M205 X8 Y8
G1 F1500 X37.704 Y99.434 E99.29145
M205 X5 Y5
G0 F7500 X38.34 Y99.434
M205 X8 Y8
G1 F1500 X37.492 Y98.586 E99.34815
M205 X5 Y5
G0 F7500 X38.129 Y98.586
M205 X8 Y8
G1 F1500 X38.977 Y99.434 E99.40484
M205 X5 Y5
G0 F7500 X39.613 Y99.434
M205 X8 Y8
G1 F1500 X38.765 Y98.586 E99.46154
M205 X5 Y5
G0 F7500 X39.402 Y98.586
M205 X8 Y8
G1 F1500 X40.249 Y99.434 E99.51821
M205 X5 Y5
G0 F7500 X40.886 Y99.434
M205 X8 Y8
G1 F1500 X40.038 Y98.586 E99.5749
M205 X5 Y5
G0 F7500 X40.674 Y98.586
M205 X8 Y8
G1 F1500 X41.522 Y99.434 E99.6316
M205 X5 Y5
G0 F7500 X42.159 Y99.434
M205 X8 Y8
G1 F1500 X41.311 Y98.586 E99.6883
M205 X5 Y5
G0 F7500 X41.947 Y98.586
M205 X8 Y8
G1 F1500 X42.795 Y99.434 E99.74499
M205 X5 Y5
G0 F7500 X43.431 Y99.434
M205 X8 Y8
G1 F1500 X42.584 Y98.586 E99.80166
M205 X5 Y5
G0 F7500 X43.22 Y98.586
M205 X8 Y8
G1 F1500 X44.068 Y99.434 E99.85836
M205 X5 Y5
G0 F7500 X44.704 Y99.434
M205 X8 Y8
G1 F1500 X43.856 Y98.586 E99.91505
M205 X5 Y5
G0 F7500 X44.493 Y98.586
M205 X8 Y8
G1 F1500 X45.341 Y99.434 E99.97175
M205 X5 Y5
G0 F7500 X45.977 Y99.434
M205 X8 Y8
G1 F1500 X45.129 Y98.586 E100.02845
M205 X5 Y5
G0 F7500 X45.766 Y98.586
M205 X8 Y8
G1 F1500 X46.613 Y99.434 E100.08511
M205 X5 Y5
G0 F7500 X47.25 Y99.434
M205 X8 Y8
G1 F1500 X46.402 Y98.586 E100.14181
M205 X5 Y5
G0 F7500 X47.038 Y98.586
M205 X8 Y8
G1 F1500 X47.886 Y99.434 E100.19851
M205 X5 Y5
G0 F7500 X48.523 Y99.434
M205 X8 Y8
G1 F1500 X47.675 Y98.586 E100.2552
M205 X5 Y5
G0 F7500 X48.311 Y98.586
M205 X8 Y8
G1 F1500 X49.159 Y99.434 E100.3119
M205 X5 Y5
G0 F7500 X49.795 Y99.434
M205 X8 Y8
G1 F1500 X48.948 Y98.586 E100.36857
M205 X5 Y5
G0 F7500 X49.584 Y98.586
M205 X8 Y8
G1 F1500 X50.432 Y99.434 E100.42526
M205 X5 Y5
G0 F7500 X51.068 Y99.434
M205 X8 Y8
G1 F1500 X50.22 Y98.586 E100.48196
M205 X5 Y5
G0 F7500 X50.857 Y98.586
M205 X8 Y8
G1 F1500 X51.705 Y99.434 E100.53866
M205 X5 Y5
G0 F7500 X52.341 Y99.434
M205 X8 Y8
G1 F1500 X51.493 Y98.586 E100.59535
M205 X5 Y5
G0 F7500 X52.13 Y98.586
M205 X8 Y8
G1 F1500 X52.977 Y99.434 E100.65202
M205 X5 Y5
G0 F7500 X53.614 Y99.434
M205 X8 Y8
G1 F1500 X52.766 Y98.586 E100.70872
M205 X5 Y5
G0 F7500 X53.402 Y98.586
M205 X8 Y8
G1 F1500 X54.25 Y99.434 E100.76541
M205 X5 Y5
G0 F7500 X54.887 Y99.434
M205 X8 Y8
G1 F1500 X54.039 Y98.586 E100.82211
M205 X5 Y5
G0 F7500 X54.675 Y98.586
M205 X8 Y8
G1 F1500 X55.523 Y99.434 E100.87881
M205 X5 Y5
G0 F7500 X56.159 Y99.434
M205 X8 Y8
G1 F1500 X55.312 Y98.586 E100.93547
M205 X5 Y5
G0 F7500 X55.948 Y98.586
M205 X8 Y8
G1 F1500 X56.796 Y99.434 E100.99217
M205 X5 Y5
G0 F7500 X57.432 Y99.434
M205 X8 Y8
G1 F1500 X56.584 Y98.586 E101.04887
M205 X5 Y5
G0 F7500 X57.221 Y98.586
M205 X8 Y8
G1 F1500 X58.069 Y99.434 E101.10556
M205 X5 Y5
G0 F7500 X58.705 Y99.434
M205 X8 Y8
G1 F1500 X57.857 Y98.586 E101.16226
M205 X5 Y5
G0 F7500 X58.493 Y98.586
M205 X8 Y8
G1 F1500 X59.341 Y99.434 E101.21896
M205 X5 Y5
G0 F7500 X59.978 Y99.434
M205 X8 Y8
G1 F1500 X59.13 Y98.586 E101.27566
M205 X5 Y5
G0 F7500 X59.766 Y98.586
M205 X8 Y8
G1 F1500 X60.614 Y99.434 E101.33235
M205 X5 Y5
G0 F7500 X61.251 Y99.434
M205 X8 Y8
G1 F1500 X60.403 Y98.586 E101.38905
M205 X5 Y5
G0 F7500 X61.039 Y98.586
M205 X8 Y8
G1 F1500 X61.887 Y99.434 E101.44575
M205 X5 Y5
G0 F7500 X62.523 Y99.434
M205 X8 Y8
G1 F1500 X61.675 Y98.586 E101.50245
M205 X5 Y5
G0 F7500 X62.312 Y98.586
M205 X8 Y8
G1 F1500 X63.16 Y99.434 E101.55914
M205 X5 Y5
G0 F7500 X63.796 Y99.434
M205 X8 Y8
G1 F1500 X62.948 Y98.586 E101.61584
M205 X5 Y5
G0 F7500 X63.585 Y98.586
M205 X8 Y8
G1 F1500 X64.432 Y99.434 E101.6725
M205 X5 Y5
G0 F7500 X65.069 Y99.434
M205 X8 Y8
G1 F1500 X64.221 Y98.586 E101.7292
M205 X5 Y5
G0 F7500 X64.857 Y98.586
M205 X8 Y8
G1 F1500 X65.705 Y99.434 E101.7859
M205 X5 Y5
G0 F7500 X66.342 Y99.434
M205 X8 Y8
G1 F1500 X65.494 Y98.586 E101.8426
M205 X5 Y5
G0 F7500 X66.13 Y98.586
M205 X8 Y8
G1 F1500 X66.978 Y99.434 E101.89929
M205 X5 Y5
G0 F7500 X67.614 Y99.434
M205 X8 Y8
G1 F1500 X66.767 Y98.586 E101.95596
M205 X5 Y5
G0 F7500 X67.403 Y98.586
M205 X8 Y8
G1 F1500 X68.251 Y99.434 E102.01265
M205 X5 Y5
G0 F7500 X68.887 Y99.434
M205 X8 Y8
G1 F1500 X68.039 Y98.586 E102.06935
M205 X5 Y5
G0 F7500 X68.676 Y98.586
M205 X8 Y8
G1 F1500 X69.524 Y99.434 E102.12605
M205 X5 Y5
G0 F7500 X70.16 Y99.434
M205 X8 Y8
G1 F1500 X69.312 Y98.586 E102.18275
M205 X5 Y5
G0 F7500 X69.949 Y98.586
M205 X8 Y8
G1 F1500 X70.796 Y99.434 E102.23941
M205 X5 Y5
G0 F7500 X71.433 Y99.434
M205 X8 Y8
G1 F1500 X70.585 Y98.586 E102.29611
M205 X5 Y5
G0 F7500 X71.221 Y98.586
M205 X8 Y8
G1 F1500 X72.069 Y99.434 E102.3528
M205 X5 Y5
G0 F7500 X72.706 Y99.434
M205 X8 Y8
G1 F1500 X71.858 Y98.586 E102.4095
M205 X5 Y5
G0 F7500 X72.494 Y98.586
M205 X8 Y8
G1 F1500 X73.342 Y99.434 E102.4662
M205 X5 Y5
G0 F7500 X73.978 Y99.434
M205 X8 Y8
G1 F1500 X73.131 Y98.586 E102.52286
M205 X5 Y5
G0 F7500 X73.767 Y98.586
M205 X8 Y8
G1 F1500 X74.615 Y99.434 E102.57956
M205 X5 Y5
G0 F7500 X75.251 Y99.434
M205 X8 Y8
G1 F1500 X74.403 Y98.586 E102.63626
M205 X5 Y5
G0 F7500 X75.04 Y98.586
M205 X8 Y8
G1 F1500 X75.888 Y99.434 E102.69296
M205 X5 Y5
G0 F7500 X76.524 Y99.434
M205 X8 Y8
G1 F1500 X75.676 Y98.586 E102.74965
M205 X5 Y5
G0 F7500 X76.313 Y98.586
M205 X8 Y8
G1 F1500 X77.16 Y99.434 E102.80632
M205 X5 Y5
G0 F7500 X77.797 Y99.434
M205 X8 Y8
