;FLAVOR:Marlin
;TIME:68
;Filament used: 0.0128907m
;Layer height: 0.12
;MINX:106.167
;MINY:85.614
;MINZ:2.36
;MAXX:111.36
;MAXY:90.807
;MAXZ:4.68
;Generated with Cura_SteamEngine 4.10.0
M82 ;absolute extrusion mode
M201 X500.00 Y500.00 Z100.00 E5000.00 ;Setup machine max acceleration
M203 X500.00 Y500.00 Z10.00 E50.00 ;Setup machine max feedrate
M204 P500.00 R1000.00 T500.00 ;Setup Print/Retract/Travel acceleration
M205 X8.00 Y8.00 Z0.40 E5.00 ;Setup Jerk
M220 S100 ;Reset Feedrate
M221 S100 ;Reset Flowrate

;*** Start Dual Nozzle/Bed Preheating ***
M140 S50 ; start preheating the bed
M104 S195 ?T0 ; start preheating hotend
M190 S50 ; heat to Cura Bed setting and WAIT
M109 S195 ?T0 ; heat to Cura Hotend and WAIT
;*** End Preheating ***

;*** Single Print Start Tone
M300 S1000 P500 ; chirp to indicate starting to print
;*** End Single Start Tone

G28 ;Home

G92 E0 ;Reset Extruder
G1 Z2.0 F3000 ;Move Z Axis up

G1 X10.1 Y20 Z0.28 F5000.0 ;Move to start position
G1 X10.1 Y200.0 Z0.28 F1500.0 E15 ;Draw the first line
G1 X10.4 Y200.0 Z0.28 F5000.0 ;Move to side a little
G1 X10.4 Y20 Z0.28 F1500.0 E30 ;Draw the second line
G92 E0 ;Reset Extruder
G1 Z2.0 F3000 ;Move Z Axis up
G92 E0
G92 E0
G1 F2400 E-3.2
;LAYER_COUNT:20
;LAYER:0
M106 S63.8
M204 S500
M205 X6 Y6
;MESH:metal_shelve_endcap_small.stl
G0 F9000 X109.215 Y90.768 Z2.36
;TYPE:WALL-OUTER
G1 F1440 E0
G1 F600 X108.764 Y90.807 E0.01205
G1 X108.312 Y90.768 E0.02412
G1 X107.874 Y90.65 E0.03619
G1 X107.469 Y90.461 E0.04808
G1 X107.095 Y90.199 E0.06023
G1 X106.775 Y89.878 E0.07229
G1 X106.513 Y89.507 E0.08437
G1 X106.324 Y89.1 E0.09631
G1 X106.206 Y88.662 E0.10838
G1 X106.167 Y88.211 E0.12043
G1 X106.206 Y87.759 E0.1325
G1 X106.324 Y87.321 E0.14457
G1 X106.513 Y86.916 E0.15646
G1 X106.778 Y86.538 E0.16875
G1 X107.091 Y86.225 E0.18052
G1 X107.469 Y85.96 E0.19281
G1 X107.875 Y85.771 E0.20472
G1 X108.314 Y85.653 E0.21682
G1 X108.764 Y85.614 E0.22884
G1 X109.215 Y85.653 E0.24088
G1 X109.653 Y85.771 E0.25295
G1 X110.059 Y85.96 E0.26487
G1 X110.436 Y86.225 E0.27713
G1 X110.749 Y86.538 E0.28891
G1 X111.014 Y86.916 E0.30119
G1 X111.203 Y87.321 E0.31308
G1 X111.321 Y87.759 E0.32515
G1 X111.36 Y88.211 E0.33722
G1 X111.321 Y88.662 E0.34927
G1 X111.203 Y89.1 E0.36134
G1 X111.014 Y89.506 E0.37326
G1 X110.749 Y89.883 E0.38552
G1 X110.436 Y90.196 E0.3973
G1 X110.14 Y90.404 E0.40692
G0 F540 X110.059 Y90.461
G0 X109.653 Y90.65
G0 X109.215 Y90.768
G0 F9000 X109.149 Y90.372
;TYPE:WALL-INNER
G1 F600 X108.764 Y90.405 E0.4172
G1 X108.378 Y90.372 E0.42751
G1 X108.01 Y90.273 E0.43765
G1 X107.675 Y90.116 E0.4475
G1 X107.349 Y89.888 E0.45808
G1 X107.085 Y89.623 E0.46803
G1 X106.86 Y89.304 E0.47842
G1 X106.701 Y88.962 E0.48846
G1 X106.602 Y88.596 E0.49854
G1 X106.569 Y88.211 E0.50883
G1 X106.602 Y87.825 E0.51913
G1 X106.701 Y87.457 E0.52927
G1 X106.858 Y87.122 E0.53912
G1 X107.087 Y86.795 E0.54974
G1 X107.348 Y86.534 E0.55956
G1 X107.671 Y86.308 E0.57005
G1 X108.016 Y86.147 E0.58018
G1 X108.379 Y86.049 E0.59019
G1 X108.765 Y86.016 E0.60049
G1 X109.149 Y86.049 E0.61075
G1 X109.512 Y86.147 E0.62075
G1 X109.861 Y86.31 E0.631
G1 X110.176 Y86.531 E0.64124
G1 X110.44 Y86.795 E0.65118
G1 X110.669 Y87.122 E0.6618
G1 X110.826 Y87.457 E0.67164
G1 X110.925 Y87.825 E0.68178
G1 X110.958 Y88.211 E0.69209
G1 X110.925 Y88.596 E0.70237
G1 X110.827 Y88.959 E0.71238
G1 X110.664 Y89.308 E0.72263
G1 X110.443 Y89.623 E0.73286
G1 X110.176 Y89.89 E0.74291
G1 X110.049 Y89.979 E0.74704
G0 F540 X109.861 Y90.111
G0 X109.512 Y90.274
G0 X109.149 Y90.372
G0 F9000 X109.083 Y89.976
G1 F600 X108.764 Y90.003 E0.75556
G1 X108.444 Y89.976 E0.7641
G1 X108.149 Y89.896 E0.77223
G1 X107.876 Y89.769 E0.78025
G1 X107.605 Y89.579 E0.78905
G1 X107.395 Y89.369 E0.79695
G1 X107.208 Y89.103 E0.80561
G1 X107.077 Y88.821 E0.81388
G1 X106.998 Y88.53 E0.8219
G1 X106.971 Y88.211 E0.83042
G1 X106.998 Y87.891 E0.83897
G1 X107.078 Y87.596 E0.8471
G1 X107.205 Y87.324 E0.85509
G1 X107.394 Y87.054 E0.86386
G1 X107.607 Y86.841 E0.87187
G1 X107.874 Y86.654 E0.88054
G1 X108.152 Y86.524 E0.88871
G1 X108.445 Y86.445 E0.89678
G1 X108.765 Y86.418 E0.90533
G1 X109.083 Y86.445 E0.91382
G1 X109.376 Y86.524 E0.9219
G1 X109.659 Y86.656 E0.9302
G1 X109.916 Y86.837 E0.93857
G1 X110.133 Y87.054 E0.94673
G1 X110.322 Y87.324 E0.9555
G1 X110.449 Y87.596 E0.96349
G1 X110.529 Y87.891 E0.97162
G1 X110.556 Y88.211 E0.98017
G1 X110.529 Y88.53 E0.98869
G1 X110.45 Y88.823 E0.99676
G1 X110.318 Y89.106 E1.00507
G1 X110.137 Y89.363 E1.01343
G1 X109.916 Y89.584 E1.02175
G1 X109.816 Y89.654 E1.025
G0 F540 X109.659 Y89.765
G0 X109.376 Y89.897
G0 X109.083 Y89.976
G0 F9000 X109.238 Y89.531
;TYPE:SKIN
G1 F600 X108.764 Y89.613 E1.0378
G1 X108.281 Y89.528 E1.05085
G1 X107.848 Y89.272 E1.06423
G1 X107.543 Y88.901 E1.07701
G1 X107.383 Y88.461 E1.08947
G1 X107.383 Y87.96 E1.1028
G1 X107.543 Y87.523 E1.11518
G1 X107.851 Y87.147 E1.12811
G1 X108.29 Y86.89 E1.14165
G1 X108.765 Y86.808 E1.15448
G1 X109.238 Y86.89 E1.16725
G1 X109.668 Y87.139 E1.18047
G1 X109.984 Y87.523 E1.1937
G1 X110.144 Y87.96 E1.20609
G1 X110.144 Y88.462 E1.21944
G1 X109.978 Y88.911 E1.23218
G1 X109.743 Y89.193 E1.24195
G0 F540 X109.668 Y89.282
G0 X109.238 Y89.531
G0 F9000 X108.642 Y89.408
G1 F600 X107.562 Y88.328 E1.28259
G0 F9000 X107.623 Y87.824
G1 F600 X109.16 Y89.361 E1.34042
G0 F9000 X109.522 Y89.157
G1 F600 X107.825 Y87.46 E1.40428
G0 F9000 X108.125 Y87.195
G1 F600 X109.788 Y88.857 E1.46684
G0 F9000 X109.953 Y88.457
G1 F600 X108.528 Y87.032 E1.52046
G0 F9000 X109.113 Y87.051
G1 F600 X109.911 Y87.849 E1.55049
M104 S195
G0 F9000 X110.66 Y87.646
;MESH:NONMESH
G0 F300 X110.66 Y87.646 Z2.48
G0 F9000 X110.22 Y88.88
G0 X109.162 Y90.473
G0 X109.213 Y90.762
;TIME_ELAPSED:11.241184
;LAYER:1
M140 S40
M106 S127.5
;TYPE:WALL-OUTER
;MESH:metal_shelve_endcap_small.stl
G1 F600 X108.764 Y90.801 E1.55948
G1 X108.313 Y90.762 E1.56852
G1 X107.875 Y90.644 E1.57757
G1 X107.472 Y90.456 E1.58645
G1 X107.099 Y90.195 E1.59553
G1 X106.777 Y89.871 E1.60465
G1 X106.519 Y89.506 E1.61357
G1 X106.33 Y89.099 E1.62252
G1 X106.209 Y88.606 E1.63265
G1 X106.173 Y88.211 E1.64057
G1 X106.212 Y87.76 E1.6496
G1 X106.33 Y87.323 E1.65863
G1 X106.518 Y86.919 E1.66753
G1 X106.78 Y86.546 E1.67662
G1 X107.098 Y86.228 E1.6856
G1 X107.472 Y85.965 E1.69472
G1 X107.93 Y85.764 E1.7047
G1 X108.369 Y85.656 E1.71372
G1 X108.764 Y85.62 E1.72164
G1 X109.214 Y85.659 E1.73065
G1 X109.652 Y85.777 E1.73971
G1 X110.055 Y85.965 E1.74858
G1 X110.429 Y86.228 E1.75771
G1 X110.747 Y86.546 E1.76668
G1 X111.006 Y86.914 E1.77566
G1 X111.2 Y87.337 E1.78495
G1 X111.315 Y87.76 E1.79369
G1 X111.354 Y88.211 E1.80273
G1 X111.315 Y88.661 E1.81174
G1 X111.197 Y89.099 E1.82079
G1 X111.009 Y89.502 E1.82967
G1 X110.745 Y89.879 E1.83885
G1 X110.432 Y90.192 E1.84769
G1 X110.275 Y90.302 E1.85151
G0 F540 X110.055 Y90.456
G0 X109.597 Y90.657
G0 X109.213 Y90.762
G0 F10500 X109.138 Y90.367
;TYPE:WALL-INNER
G1 F600 X108.769 Y90.4 E1.85891
G1 X108.379 Y90.366 E1.86672
G1 X108.011 Y90.267 E1.87432
G1 X107.675 Y90.11 E1.88172
G1 X107.358 Y89.888 E1.88945
G1 X107.085 Y89.613 E1.89718
G1 X106.866 Y89.303 E1.90476
G1 X106.708 Y88.963 E1.91224
G1 X106.604 Y88.541 E1.92091
G1 X106.575 Y88.215 E1.92744
G1 X106.608 Y87.826 E1.93523
G1 X106.706 Y87.464 E1.94272
G1 X106.868 Y87.117 E1.95036
G1 X107.086 Y86.806 E1.95794
G1 X107.358 Y86.534 E1.96561
G1 X107.669 Y86.315 E1.97321
G1 X108.06 Y86.144 E1.98172
G1 X108.436 Y86.051 E1.98945
G1 X108.76 Y86.022 E1.99594
G1 X109.148 Y86.055 E2.00371
G1 X109.516 Y86.154 E2.01132
G1 X109.853 Y86.311 E2.01874
G1 X110.169 Y86.534 E2.02646
G1 X110.441 Y86.806 E2.03413
G1 X110.656 Y87.111 E2.04158
G1 X110.823 Y87.476 E2.04959
G1 X110.919 Y87.828 E2.05687
G1 X110.952 Y88.21 E2.06452
G1 X110.919 Y88.595 E2.07223
G1 X110.82 Y88.963 E2.07984
G1 X110.663 Y89.299 E2.08724
G1 X110.438 Y89.62 E2.09506
G1 X110.173 Y89.885 E2.10254
G1 X110.038 Y89.98 E2.10584
G0 F540 X109.857 Y90.106
G0 X109.466 Y90.278
G0 X109.138 Y90.367
G0 F10500 X109.065 Y89.972
G1 F600 X108.768 Y89.999 E2.11179
G1 X108.45 Y89.971 E2.11816
G1 X108.147 Y89.89 E2.12442
G1 X107.878 Y89.764 E2.13034
G1 X107.618 Y89.581 E2.13669
G1 X107.393 Y89.355 E2.14305
G1 X107.214 Y89.102 E2.14924
G1 X107.086 Y88.826 E2.15531
G1 X106.977 Y88.219 E2.16762
G1 X107.004 Y87.893 E2.17414
G1 X107.084 Y87.599 E2.18023
G1 X107.213 Y87.323 E2.18631
G1 X107.395 Y87.063 E2.19264
G1 X107.618 Y86.84 E2.19893
G1 X107.868 Y86.664 E2.20503
G1 X108.188 Y86.524 E2.212
G1 X108.756 Y86.424 E2.22351
G1 X109.082 Y86.451 E2.23004
G1 X109.375 Y86.53 E2.2361
G1 X109.652 Y86.659 E2.2422
G1 X109.911 Y86.842 E2.24852
G1 X110.135 Y87.066 E2.25485
G1 X110.307 Y87.31 E2.2608
G1 X110.446 Y87.613 E2.26746
G1 X110.523 Y87.896 E2.27331
G1 X110.55 Y88.21 E2.2796
G1 X110.523 Y88.529 E2.28599
G1 X110.443 Y88.827 E2.29214
G1 X110.319 Y89.093 E2.298
G1 X110.129 Y89.363 E2.30459
G1 X109.914 Y89.578 E2.31066
G1 X109.802 Y89.657 E2.31339
G0 F540 X109.659 Y89.756
G0 X109.065 Y89.972
G0 F10500 X108.977 Y89.588
;TYPE:SKIN
G1 F600 X108.522 Y89.587 E2.32247
G1 X108.073 Y89.424 E2.332
G1 X107.691 Y89.101 E2.34199
G1 X107.461 Y88.707 E2.35109
G1 X107.369 Y88.194 E2.36149
G1 X107.451 Y87.734 E2.37082
G1 X107.701 Y87.307 E2.38069
G1 X108.061 Y87.005 E2.39007
G1 X108.3 Y86.9 E2.39528
G1 X108.777 Y86.816 E2.40494
G1 X109.243 Y86.898 E2.41439
G1 X109.662 Y87.143 E2.42407
G1 X109.966 Y87.502 E2.43346
G1 X110.139 Y87.967 E2.44336
G1 X110.138 Y88.462 E2.45324
G1 X109.979 Y88.898 E2.4625
G1 X109.668 Y89.274 E2.47224
G1 X109.543 Y89.362 E2.47529
G0 F540 X109.479 Y89.406
G0 X108.977 Y89.588
G0 F10500 X109.262 Y89.293
G1 F600 X109.86 Y88.695 E2.49217
G0 F10500 X109.957 Y88.032
G1 F600 X108.582 Y89.407 E2.53097
G0 F10500 X108.16 Y89.263
G1 F600 X109.814 Y87.609 E2.57765
G0 F10500 X109.558 Y87.3
G1 F600 X107.853 Y89.004 E2.62576
G0 F10500 X107.638 Y88.654
G1 F600 X109.206 Y87.085 E2.67002
G0 F10500 X108.718 Y87.008
G1 F600 X107.555 Y88.171 E2.70284
G0 F10500 X106.794 Y88.107
;MESH:NONMESH
G0 F300 X106.794 Y88.107 Z2.64
G0 F10500 X107.522 Y89.242
G0 X107.647 Y89.348
G0 X109.158 Y90.467
G0 X109.21 Y90.741
;TIME_ELAPSED:18.272182
;LAYER:2
M106 S191.3
;TYPE:WALL-OUTER
;MESH:metal_shelve_endcap_small.stl
G1 F600 X108.764 Y90.78 E2.71476
G1 X108.317 Y90.741 E2.7267
G1 X107.885 Y90.625 E2.7386
G1 X107.478 Y90.435 E2.75055
G1 X107.11 Y90.178 E2.76249
G1 X106.798 Y89.866 E2.77423
G1 X106.537 Y89.492 E2.78637
G1 X106.35 Y89.091 E2.79814
G1 X106.233 Y88.657 E2.8101
G1 X106.194 Y88.211 E2.82201
G1 X106.233 Y87.764 E2.83395
G1 X106.35 Y87.331 E2.84589
G1 X106.538 Y86.927 E2.85774
G1 X106.793 Y86.561 E2.86961
G1 X107.112 Y86.245 E2.88156
G1 X107.481 Y85.985 E2.89357
G1 X107.885 Y85.796 E2.90544
G1 X108.317 Y85.68 E2.91734
G1 X108.764 Y85.641 E2.92928
G1 X109.21 Y85.68 E2.94119
G1 X109.644 Y85.797 E2.95315
G1 X110.045 Y85.984 E2.96493
G1 X110.415 Y86.244 E2.97696
G1 X110.73 Y86.559 E2.98881
G1 X110.99 Y86.93 E3.00087
G1 X111.177 Y87.331 E3.01264
G1 X111.294 Y87.764 E3.02457
G1 X111.333 Y88.211 E3.03651
G1 X111.294 Y88.657 E3.04843
G1 X111.177 Y89.091 E3.06039
G1 X110.99 Y89.492 E3.07216
G1 X110.731 Y89.862 E3.08418
G1 X110.415 Y90.177 E3.09605
G1 X110.134 Y90.375 E3.10519
G0 F540 X110.045 Y90.437
G0 X109.644 Y90.624
G0 X109.21 Y90.741
G0 F12000 X109.139 Y90.346
;TYPE:WALL-INNER
G1 F600 X108.764 Y90.379 E3.11521
G1 X108.388 Y90.346 E3.12525
G1 X108.021 Y90.248 E3.13536
G1 X107.681 Y90.089 E3.14535
G1 X107.369 Y89.871 E3.15548
G1 X107.105 Y89.607 E3.16541
G1 X106.886 Y89.293 E3.1756
G1 X106.726 Y88.95 E3.18567
G1 X106.628 Y88.586 E3.1957
G1 X106.595 Y88.211 E3.20571
G1 X106.628 Y87.835 E3.21576
G1 X106.726 Y87.472 E3.22576
G1 X106.887 Y87.125 E3.23594
G1 X107.1 Y86.82 E3.24584
G1 X107.372 Y86.551 E3.25602
G1 X107.684 Y86.331 E3.26618
G1 X108.021 Y86.173 E3.27608
G1 X108.388 Y86.075 E3.28619
G1 X108.764 Y86.042 E3.29623
G1 X109.139 Y86.075 E3.30625
G1 X109.503 Y86.173 E3.31628
G1 X109.847 Y86.333 E3.32637
G1 X110.155 Y86.55 E3.3364
G1 X110.421 Y86.816 E3.34641
G1 X110.642 Y87.132 E3.35667
G1 X110.801 Y87.472 E3.36665
G1 X110.899 Y87.835 E3.37666
G1 X110.932 Y88.211 E3.3867
G1 X110.899 Y88.586 E3.39672
G1 X110.801 Y88.95 E3.40675
G1 X110.641 Y89.293 E3.41682
G1 X110.422 Y89.606 E3.42698
G1 X110.158 Y89.869 E3.4369
G1 X110.029 Y89.96 E3.4411
G0 F540 X109.847 Y90.088
G0 X109.503 Y90.248
G0 X109.139 Y90.346
G0 F12000 X109.068 Y89.951
G1 F600 X108.764 Y89.978 E3.44922
G1 X108.457 Y89.951 E3.45742
G1 X108.158 Y89.871 E3.46566
G1 X107.884 Y89.743 E3.4737
G1 X107.628 Y89.564 E3.48201
G1 X107.412 Y89.348 E3.49014
G1 X107.235 Y89.094 E3.49838
G1 X107.102 Y88.809 E3.50675
G1 X107.023 Y88.515 E3.51485
G1 X106.996 Y88.211 E3.52297
G1 X107.023 Y87.906 E3.53112
G1 X107.103 Y87.611 E3.53925
G1 X107.235 Y87.325 E3.54763
G1 X107.409 Y87.077 E3.55569
G1 X107.626 Y86.862 E3.56382
G1 X107.888 Y86.677 E3.57235
G1 X108.161 Y86.549 E3.58038
G1 X108.457 Y86.47 E3.58853
G1 X108.764 Y86.443 E3.59673
G1 X109.068 Y86.47 E3.60485
G1 X109.362 Y86.549 E3.61295
G1 X109.649 Y86.682 E3.62137
G1 X109.895 Y86.856 E3.62938
G1 X110.114 Y87.075 E3.63762
G1 X110.296 Y87.335 E3.64607
G1 X110.424 Y87.608 E3.65409
G1 X110.504 Y87.906 E3.6623
G1 X110.531 Y88.211 E3.67045
G1 X110.504 Y88.515 E3.67857
G1 X110.425 Y88.809 E3.68667
G1 X110.292 Y89.094 E3.69504
G1 X110.113 Y89.35 E3.70335
G1 X109.901 Y89.561 E3.71131
G1 X109.793 Y89.637 E3.71482
G0 F540 X109.649 Y89.739
G0 X109.362 Y89.872
G0 X109.068 Y89.951
G0 F12000 X108.764 Y89.587
;TYPE:SKIN
G1 F600 X108.291 Y89.503 E3.72761
G1 X107.872 Y89.258 E3.74052
G1 X107.572 Y88.897 E3.75301
G1 X107.408 Y88.448 E3.76573
G1 X107.407 Y87.976 E3.77829
G1 X107.577 Y87.518 E3.79129
G1 X107.881 Y87.159 E3.8038
G1 X108.294 Y86.917 E3.81654
G1 X108.764 Y86.834 E3.82924
G1 X109.23 Y86.917 E3.84183
G1 X109.643 Y87.154 E3.8545
G1 X109.958 Y87.534 E3.86764
G1 X110.119 Y87.973 E3.88008
G1 X110.119 Y88.448 E3.89272
G1 X109.952 Y88.9 E3.90554
G1 X109.646 Y89.265 E3.91821
G1 X109.34 Y89.441 E3.92761
G0 F540 X109.23 Y89.504
G0 X108.764 Y89.587
G0 F12000 X108.609 Y89.376
G1 F600 X107.586 Y88.352 E3.96612
G0 F12000 X107.645 Y87.846
G1 F600 X109.135 Y89.336 E4.02219
G0 F12000 X109.503 Y89.139
G1 F600 X107.843 Y87.479 E4.08465
G0 F12000 X108.144 Y87.213
G1 F600 X109.769 Y88.838 E4.1458
G0 F12000 X109.931 Y88.435
G1 F600 X108.55 Y87.054 E4.19777
G0 F12000 X109.146 Y87.085
G1 F600 X109.864 Y87.802 E4.22477
G0 F12000 X110.572 Y87.471
;MESH:NONMESH
G0 F300 X110.572 Y87.471 Z2.8
G0 F12000 X110.264 Y88.751
G0 X110.185 Y88.888
G0 X109.157 Y90.446
G0 X109.203 Y90.709
;TIME_ELAPSED:25.216766
;LAYER:3
M106 S255
;TYPE:WALL-OUTER
;MESH:metal_shelve_endcap_small.stl
G1 F600 X108.764 Y90.747 E4.23649
G1 X108.324 Y90.709 E4.24824
G1 X107.897 Y90.595 E4.26
G1 X107.494 Y90.407 E4.27183
G1 X107.135 Y90.156 E4.28349
G1 X106.822 Y89.842 E4.29529
G1 X106.566 Y89.478 E4.30713
G1 X106.379 Y89.078 E4.31888
G1 X106.265 Y88.651 E4.33064
G1 X106.227 Y88.211 E4.34239
G1 X106.265 Y87.771 E4.35414
G1 X106.379 Y87.344 E4.3659
G1 X106.566 Y86.944 E4.37765
G1 X106.824 Y86.576 E4.38961
G1 X107.129 Y86.271 E4.40108
G1 X107.497 Y86.013 E4.41304
G1 X107.897 Y85.826 E4.42479
G1 X108.324 Y85.712 E4.43655
G1 X108.764 Y85.674 E4.4483
G1 X109.203 Y85.712 E4.46002
G1 X109.632 Y85.827 E4.47184
G1 X110.029 Y86.012 E4.4835
G1 X110.394 Y86.268 E4.49536
G1 X110.705 Y86.58 E4.50708
G1 X110.961 Y86.944 E4.51892
G1 X111.148 Y87.344 E4.53067
G1 X111.262 Y87.771 E4.54243
G1 X111.3 Y88.211 E4.55418
G1 X111.262 Y88.651 E4.56593
G1 X111.148 Y89.078 E4.57769
G1 X110.961 Y89.478 E4.58944
G1 X110.704 Y89.845 E4.60136
G1 X110.398 Y90.151 E4.61288
G1 X110.126 Y90.341 E4.62171
G0 F540 X110.029 Y90.409
G0 X109.632 Y90.594
G0 X109.203 Y90.709
G0 F12000 X109.137 Y90.313
;TYPE:WALL-INNER
G1 F600 X108.764 Y90.345 E4.63167
G1 X108.388 Y90.313 E4.64171
G1 X108.034 Y90.218 E4.65146
G1 X107.697 Y90.061 E4.66135
G1 X107.391 Y89.847 E4.67129
G1 X107.13 Y89.585 E4.68113
G1 X106.912 Y89.275 E4.69121
G1 X106.756 Y88.941 E4.70102
G1 X106.661 Y88.587 E4.71077
G1 X106.629 Y88.211 E4.72081
G1 X106.661 Y87.835 E4.73086
G1 X106.756 Y87.481 E4.74061
G1 X106.91 Y87.151 E4.7503
G1 X107.133 Y86.833 E4.76063
