;FLAVOR:Marlin
;TIME:296
;Filament used: 0.0963411m
;Layer height: 0.24
;MINX:105.203
;MINY:105.203
;MINZ:0.24
;MAXX:114.797
;MAXY:114.797
;MAXZ:10.8
;Generated with Cura_SteamEngine 4.10.0
M82 ;absolute extrusion mode
M201 X500.00 Y500.00 Z100.00 E5000.00 ;Setup machine max acceleration
M203 X500.00 Y500.00 Z10.00 E50.00 ;Setup machine max feedrate
M204 P500.00 R1000.00 T500.00 ;Setup Print/Retract/Travel acceleration
M205 X8.00 Y8.00 Z0.40 E5.00 ;Setup Jerk
M220 S100 ;Reset Feedrate
M221 S100 ;Reset Flowrate

;*** Start Dual Nozzle/Bed Preheating ***
M140 S50 ; start preheating the bed
M104 S195 ?T0 ; start preheating hotend
M190 S50 ; heat to Cura Bed setting and WAIT
M109 S195 ?T0 ; heat to Cura Hotend and WAIT
;*** End Preheating ***

;*** Single Print Start Tone
M300 S1000 P500 ; chirp to indicate starting to print
;*** End Single Start Tone

G28 ;Home

G92 E0 ;Reset Extruder
G1 Z2.0 F3000 ;Move Z Axis up

G1 X10.1 Y20 Z0.28 F5000.0 ;Move to start position
G1 X10.1 Y200.0 Z0.28 F1500.0 E15 ;Draw the first line
G1 X10.4 Y200.0 Z0.28 F5000.0 ;Move to side a little
G1 X10.4 Y20 Z0.28 F1500.0 E30 ;Draw the second line
G92 E0 ;Reset Extruder
G1 Z2.0 F3000 ;Move Z Axis up
G92 E0
G92 E0
G1 F2400 E-3.2
;LAYER_COUNT:43
;LAYER:0
M106 S63.8
M204 S500
M205 X6 Y6
;MESH:metal_shelve_endcap_large.stl
G0 F9000 X108.546 Y114.475 Z0.24
;TYPE:WALL-OUTER
G1 F1440 E0
G1 F600 X110 Y114.706 E0.05876
G1 X111.454 Y114.475 E0.11752
G1 X112.766 Y113.807 E0.17628
G1 X113.807 Y112.766 E0.23504
G1 X114.475 Y111.454 E0.2938
G1 X114.706 Y109.997 E0.35268
G1 X114.475 Y108.546 E0.41132
G1 X113.807 Y107.234 E0.47008
G1 X112.766 Y106.193 E0.52884
G1 X111.453 Y105.525 E0.58764
G1 X110 Y105.294 E0.64636
G1 X108.546 Y105.525 E0.70512
G1 X107.234 Y106.193 E0.76388
G1 X106.193 Y107.234 E0.82264
G1 X105.525 Y108.547 E0.88144
G1 X105.296 Y110 E0.94014
G1 X105.525 Y111.453 E0.99885
G1 X106.193 Y112.766 E1.05765
G1 X107.234 Y113.807 E1.11641
G1 X107.954 Y114.174 E1.14866
G0 F540 X108.546 Y114.475
G0 F9000 X111.483 Y114.562
G1 F600 X111.469 Y114.564 E1.14923
G1 X110.015 Y114.794 E1.1624
G1 X110 Y114.797 E1.16301
G1 X109.986 Y114.795 E1.16336
G1 X108.532 Y114.565 E1.17665
G1 X108.516 Y114.562 E1.17705
G1 X108.505 Y114.557 E1.17735
G1 X107.194 Y113.888 E1.19064
G1 X107.177 Y113.879 E1.19111
G1 X106.129 Y112.83 E1.20481
G1 X106.118 Y112.819 E1.20519
G1 X106.112 Y112.808 E1.2055
G1 X105.445 Y111.494 E1.21873
G1 X105.438 Y111.481 E1.21932
G1 X105.436 Y111.468 E1.21984
G1 X105.206 Y110.015 E1.23314
G1 X105.203 Y109.997 E1.23359
G1 X105.204 Y109.986 E1.23386
G1 X105.436 Y108.533 E1.2473
G1 X105.439 Y108.515 E1.24774
G1 X106.112 Y107.194 E1.26144
G1 X106.12 Y107.179 E1.26186
G1 X106.129 Y107.17 E1.26217
G1 X107.17 Y106.129 E1.27539
G1 X107.181 Y106.118 E1.27577
G1 X107.192 Y106.112 E1.27608
G1 X108.505 Y105.445 E1.2893
G1 X108.519 Y105.438 E1.28968
G1 X108.531 Y105.436 E1.29017
G1 X109.985 Y105.206 E1.30335
G1 X110 Y105.203 E1.30396
G1 X110.013 Y105.205 E1.30448
G1 X111.467 Y105.434 E1.31777
G1 X111.483 Y105.437 E1.31817
G1 X111.494 Y105.443 E1.31867
G1 X112.806 Y106.112 E1.33197
G1 X112.823 Y106.121 E1.33244
G1 X113.871 Y107.17 E1.34614
G1 X113.882 Y107.181 E1.34652
G1 X113.888 Y107.192 E1.34683
G1 X114.555 Y108.505 E1.36006
G1 X114.562 Y108.518 E1.36065
G1 X114.564 Y108.531 E1.36117
G1 X114.794 Y109.982 E1.37432
G1 X114.797 Y110 E1.37477
G1 X114.796 Y110.011 E1.37504
G1 X114.564 Y111.468 E1.38836
G1 X114.561 Y111.485 E1.38878
G1 X114.556 Y111.495 E1.38906
G1 X113.888 Y112.807 E1.40228
G1 X113.88 Y112.822 E1.40269
G1 X113.872 Y112.83 E1.40315
G1 X112.831 Y113.871 E1.41654
G1 X112.823 Y113.879 E1.41682
G1 X112.807 Y113.887 E1.41754
G1 X111.496 Y114.555 E1.43068
G1 X111.483 Y114.562 E1.43126
M104 S195
G0 F9000 X111.268 Y114.707
;MESH:NONMESH
G0 F300 X111.268 Y114.707 Z0.52
G0 F9000 X111.268 Y114.698
G0 X108.546 Y114.475
;TIME_ELAPSED:10.758827
;LAYER:1
M140 S40
M106 S127.5
;TYPE:WALL-OUTER
;MESH:metal_shelve_endcap_large.stl
G1 F600 X110 Y114.706 E1.49982
G1 X111.454 Y114.475 E1.56837
G1 X112.766 Y113.807 E1.63693
G1 X113.807 Y112.766 E1.70548
G1 X114.475 Y111.453 E1.77407
G1 X114.704 Y109.994 E1.84284
G1 X114.475 Y108.546 E1.91111
G1 X113.807 Y107.234 E1.97966
G1 X112.766 Y106.193 E2.04821
G1 X112.748 Y106.184 E2.04915
G1 X111.452 Y105.525 E2.11685
G1 X110 Y105.294 E2.18531
G1 X108.546 Y105.525 E2.25387
G1 X107.234 Y106.193 E2.32242
G1 X106.193 Y107.234 E2.39097
G1 X105.525 Y108.547 E2.45957
G1 X105.296 Y110 E2.52806
G1 X105.525 Y111.453 E2.59655
G1 X106.193 Y112.766 E2.66515
G1 X107.234 Y113.807 E2.7337
G1 X108.038 Y114.217 E2.77573
G0 F540 X108.546 Y114.475
G0 F10500 X111.484 Y114.562
G1 F600 X111.469 Y114.564 E2.77643
G1 X110.015 Y114.794 E2.7918
G1 X110 Y114.797 E2.79252
G1 X109.986 Y114.795 E2.79292
G1 X108.532 Y114.565 E2.80843
G1 X108.516 Y114.562 E2.8089
G1 X108.505 Y114.557 E2.80924
G1 X107.193 Y113.888 E2.82476
G1 X107.178 Y113.88 E2.82524
G1 X107.17 Y113.872 E2.82577
G1 X106.129 Y112.831 E2.8414
G1 X106.12 Y112.822 E2.84176
G1 X106.113 Y112.808 E2.84249
G1 X105.444 Y111.495 E2.85804
G1 X105.438 Y111.484 E2.85862
G1 X105.436 Y111.468 E2.85937
G1 X105.208 Y110.014 E2.8747
G1 X105.204 Y109.994 E2.87565
G1 X105.435 Y108.533 E2.89171
G1 X105.438 Y108.516 E2.89221
G1 X105.443 Y108.506 E2.89253
G1 X106.112 Y107.193 E2.90805
G1 X106.12 Y107.178 E2.90854
G1 X106.128 Y107.17 E2.90907
G1 X107.169 Y106.129 E2.9247
G1 X107.178 Y106.12 E2.92506
G1 X107.192 Y106.113 E2.92579
G1 X108.504 Y105.444 E2.94132
G1 X108.516 Y105.438 E2.94171
G1 X108.531 Y105.436 E2.94241
G1 X109.985 Y105.206 E2.95779
G1 X110 Y105.203 E2.9585
G1 X110.014 Y105.205 E2.9589
G1 X111.466 Y105.435 E2.97439
G1 X111.484 Y105.438 E2.97491
G1 X112.789 Y106.102 E2.99088
G1 X112.81 Y106.113 E2.99119
G1 X112.823 Y106.121 E2.99127
G1 X113.871 Y107.169 E3.00736
G1 X113.88 Y107.178 E3.00773
G1 X113.887 Y107.192 E3.00845
G1 X114.556 Y108.504 E3.02399
G1 X114.562 Y108.516 E3.02437
G1 X114.564 Y108.531 E3.02508
G1 X114.793 Y109.979 E3.0404
G1 X114.797 Y110 E3.04139
G1 X114.565 Y111.467 E3.05761
G1 X114.562 Y111.484 E3.0581
G1 X114.557 Y111.494 E3.05842
G1 X113.888 Y112.807 E3.07394
G1 X113.88 Y112.822 E3.07443
G1 X113.872 Y112.83 E3.07496
G1 X112.831 Y113.871 E3.09059
G1 X112.821 Y113.881 E3.09099
G1 X112.808 Y113.887 E3.09166
G1 X111.496 Y114.556 E3.10719
G1 X111.484 Y114.562 E3.10758
G0 F10500 X111.44 Y114.679
;MESH:NONMESH
G0 F300 X111.44 Y114.679 Z0.8
G0 F10500 X111.44 Y114.671
G0 X108.546 Y114.475
;TIME_ELAPSED:17.117411
;LAYER:2
M106 S191.3
;TYPE:WALL-OUTER
;MESH:metal_shelve_endcap_large.stl
G1 F600 X110 Y114.706 E3.17613
G1 X111.454 Y114.475 E3.24468
G1 X112.766 Y113.807 E3.31324
G1 X113.807 Y112.766 E3.38179
G1 X114.475 Y111.454 E3.45035
G1 X114.706 Y110 E3.5189
G1 X114.475 Y108.546 E3.58745
G1 X113.807 Y107.234 E3.65601
G1 X112.766 Y106.193 E3.72456
G1 X111.452 Y105.525 E3.7932
G1 X110 Y105.294 E3.86166
G1 X108.546 Y105.525 E3.93021
G1 X107.234 Y106.193 E3.99877
G1 X106.193 Y107.234 E4.06732
G1 X105.525 Y108.547 E4.13591
G1 X105.296 Y110 E4.20441
G1 X105.525 Y111.453 E4.2729
G1 X106.193 Y112.766 E4.3415
G1 X107.234 Y113.807 E4.41005
G1 X108.038 Y114.217 E4.45207
G0 F540 X108.546 Y114.475
G0 F12000 X111.484 Y114.562
G1 F600 X111.469 Y114.564 E4.45278
G1 X110.015 Y114.794 E4.46815
G1 X110 Y114.797 E4.46886
G1 X109.986 Y114.795 E4.46927
G1 X108.532 Y114.564 E4.48469
G1 X108.511 Y114.56 E4.4853
G1 X107.193 Y113.888 E4.50114
G1 X107.179 Y113.881 E4.50187
G1 X107.17 Y113.872 E4.50246
G1 X106.129 Y112.831 E4.51809
G1 X106.12 Y112.822 E4.51846
G1 X106.113 Y112.808 E4.51919
G1 X105.444 Y111.495 E4.53473
G1 X105.438 Y111.484 E4.53531
G1 X105.436 Y111.468 E4.53606
G1 X105.206 Y110.015 E4.55158
G1 X105.203 Y110 E4.55229
G1 X105.205 Y109.986 E4.5527
G1 X105.434 Y108.533 E4.56841
G1 X105.437 Y108.518 E4.56885
G1 X105.443 Y108.506 E4.56924
G1 X106.111 Y107.193 E4.58488
G1 X106.119 Y107.179 E4.58534
G1 X106.128 Y107.17 E4.58593
G1 X107.169 Y106.129 E4.60156
G1 X107.178 Y106.12 E4.60193
G1 X107.192 Y106.113 E4.60266
G1 X108.504 Y105.444 E4.61819
G1 X108.516 Y105.438 E4.61857
G1 X108.531 Y105.436 E4.61928
G1 X109.985 Y105.206 E4.63465
G1 X110 Y105.203 E4.63536
G1 X110.014 Y105.205 E4.63577
G1 X111.466 Y105.435 E4.65126
G1 X111.485 Y105.438 E4.65181
G1 X112.807 Y106.112 E4.66795
G1 X112.821 Y106.119 E4.66868
G1 X112.83 Y106.128 E4.66928
G1 X113.871 Y107.169 E4.68491
G1 X113.88 Y107.178 E4.68527
G1 X113.887 Y107.192 E4.686
G1 X114.556 Y108.504 E4.70153
G1 X114.562 Y108.516 E4.70192
G1 X114.564 Y108.531 E4.70262
G1 X114.794 Y109.985 E4.718
G1 X114.797 Y110 E4.71871
G1 X114.795 Y110.014 E4.71911
G1 X114.565 Y111.468 E4.73462
G1 X114.562 Y111.484 E4.73509
G1 X114.557 Y111.495 E4.73543
G1 X113.888 Y112.807 E4.75095
G1 X113.88 Y112.822 E4.75143
G1 X113.872 Y112.83 E4.75196
G1 X112.831 Y113.871 E4.76759
G1 X112.822 Y113.88 E4.76795
G1 X112.808 Y113.887 E4.76868
G1 X111.496 Y114.556 E4.78422
G1 X111.484 Y114.562 E4.7846
G0 F12000 X111.44 Y114.679
;MESH:NONMESH
G0 F300 X111.44 Y114.679 Z1.08
G0 F12000 X111.44 Y114.671
G0 X108.546 Y114.475
;TIME_ELAPSED:23.476657
;LAYER:3
M106 S255
;TYPE:WALL-OUTER
;MESH:metal_shelve_endcap_large.stl
G1 F600 X110 Y114.706 E4.85315
G1 X111.454 Y114.475 E4.92171
G1 X112.766 Y113.807 E4.99026
G1 X113.807 Y112.766 E5.05881
G1 X114.475 Y111.454 E5.12737
G1 X114.706 Y110 E5.19592
G1 X114.475 Y108.546 E5.26448
G1 X113.807 Y107.234 E5.33303
G1 X112.766 Y106.193 E5.40158
G1 X111.45 Y105.525 E5.4703
G1 X110 Y105.294 E5.53867
G1 X108.546 Y105.525 E5.60723
G1 X107.234 Y106.193 E5.67578
G1 X106.193 Y107.234 E5.74433
G1 X105.525 Y108.547 E5.81293
G1 X105.296 Y110 E5.88142
G1 X105.525 Y111.453 E5.94992
G1 X106.193 Y112.766 E6.01851
G1 X107.234 Y113.807 E6.08706
G1 X108.038 Y114.217 E6.12909
G0 F540 X108.546 Y114.475
G0 F12000 X111.484 Y114.562
G1 F600 X111.469 Y114.564 E6.12979
G1 X110.015 Y114.794 E6.14517
G1 X110 Y114.797 E6.14588
G1 X109.986 Y114.795 E6.14628
G1 X108.532 Y114.565 E6.16179
G1 X108.516 Y114.562 E6.16226
G1 X108.505 Y114.557 E6.1626
G1 X107.193 Y113.888 E6.17812
G1 X107.178 Y113.88 E6.1786
G1 X107.17 Y113.872 E6.17913
G1 X106.129 Y112.831 E6.19476
G1 X106.12 Y112.822 E6.19513
G1 X106.113 Y112.808 E6.19585
G1 X105.444 Y111.495 E6.2114
G1 X105.438 Y111.484 E6.21198
G1 X105.436 Y111.468 E6.21273
G1 X105.206 Y110.015 E6.22825
G1 X105.203 Y110 E6.22896
G1 X105.205 Y109.986 E6.22937
G1 X105.435 Y108.533 E6.24505
G1 X105.438 Y108.516 E6.24555
G1 X105.443 Y108.506 E6.24587
G1 X106.112 Y107.193 E6.26139
G1 X106.12 Y107.178 E6.26188
G1 X106.128 Y107.17 E6.2624
G1 X107.169 Y106.129 E6.27804
G1 X107.178 Y106.12 E6.2784
G1 X107.192 Y106.113 E6.27913
G1 X108.504 Y105.444 E6.29466
G1 X108.516 Y105.438 E6.29505
G1 X108.531 Y105.436 E6.29575
G1 X109.985 Y105.206 E6.31112
G1 X110 Y105.203 E6.31184
G1 X110.014 Y105.205 E6.31224
G1 X111.464 Y105.434 E6.32775
G1 X111.482 Y105.437 E6.32828
G1 X111.492 Y105.442 E6.3286
G1 X112.807 Y106.111 E6.34438
G1 X112.821 Y106.119 E6.34484
G1 X112.83 Y106.128 E6.34544
G1 X113.871 Y107.169 E6.36107
G1 X113.88 Y107.178 E6.36143
G1 X113.887 Y107.192 E6.36216
G1 X114.556 Y108.504 E6.37769
G1 X114.562 Y108.516 E6.37808
G1 X114.564 Y108.531 E6.37878
G1 X114.794 Y109.985 E6.39416
G1 X114.797 Y110 E6.39487
G1 X114.795 Y110.014 E6.39527
G1 X114.565 Y111.468 E6.41078
G1 X114.562 Y111.484 E6.41125
G1 X114.557 Y111.495 E6.41159
G1 X113.888 Y112.807 E6.42711
G1 X113.88 Y112.822 E6.42759
G1 X113.872 Y112.83 E6.42812
G1 X112.831 Y113.871 E6.44375
G1 X112.822 Y113.88 E6.44412
G1 X112.808 Y113.887 E6.44484
G1 X111.496 Y114.556 E6.46038
G1 X111.484 Y114.562 E6.46076
G0 F12000 X111.44 Y114.679
;MESH:NONMESH
G0 F300 X111.44 Y114.679 Z1.36
G0 F12000 X111.44 Y114.671
G0 X108.546 Y114.475
;TIME_ELAPSED:29.835871
;LAYER:4
;TYPE:WALL-OUTER
;MESH:metal_shelve_endcap_large.stl
G1 F600 X110 Y114.706 E6.52931
G1 X111.454 Y114.475 E6.59787
G1 X112.766 Y113.807 E6.66642
G1 X113.807 Y112.766 E6.73497
G1 X114.475 Y111.454 E6.80353
G1 X114.706 Y110 E6.87208
G1 X114.475 Y108.546 E6.94064
G1 X113.807 Y107.234 E7.00919
G1 X112.766 Y106.193 E7.07774
G1 X111.453 Y105.525 E7.14634
G1 X110 Y105.295 E7.21484
G1 X108.546 Y105.525 E7.28339
G1 X107.234 Y106.193 E7.35194
G1 X106.193 Y107.234 E7.42049
G1 X105.525 Y108.547 E7.48909
G1 X105.296 Y110 E7.55758
G1 X105.525 Y111.453 E7.62607
G1 X106.193 Y112.766 E7.69467
G1 X107.234 Y113.807 E7.76322
G1 X108.038 Y114.217 E7.80525
G0 F540 X108.546 Y114.475
G0 F12000 X111.484 Y114.562
G1 F600 X111.469 Y114.564 E7.80595
G1 X110.015 Y114.794 E7.82132
G1 X110 Y114.797 E7.82204
G1 X109.986 Y114.795 E7.82244
G1 X108.532 Y114.565 E7.83795
G1 X108.516 Y114.562 E7.83842
G1 X108.505 Y114.557 E7.83876
G1 X107.193 Y113.888 E7.85428
G1 X107.178 Y113.88 E7.85476
G1 X107.17 Y113.872 E7.85529
G1 X106.129 Y112.831 E7.87092
G1 X106.12 Y112.822 E7.87128
G1 X106.113 Y112.808 E7.87201
G1 X105.444 Y111.495 E7.88756
G1 X105.438 Y111.484 E7.88814
G1 X105.436 Y111.468 E7.88889
G1 X105.206 Y110.015 E7.90441
G1 X105.203 Y110 E7.90512
G1 X105.205 Y109.986 E7.90552
G1 X105.435 Y108.533 E7.92121
G1 X105.438 Y108.516 E7.92171
G1 X105.443 Y108.506 E7.92203
G1 X106.112 Y107.193 E7.93755
G1 X106.12 Y107.178 E7.93804
G1 X106.128 Y107.17 E7.93856
G1 X107.169 Y106.129 E7.95419
G1 X107.178 Y106.12 E7.95456
G1 X107.192 Y106.113 E7.95529
G1 X108.504 Y105.444 E7.97082
G1 X108.516 Y105.438 E7.9712
G1 X108.531 Y105.436 E7.97191
G1 X109.985 Y105.206 E7.98737
G1 X110 Y105.203 E7.98808
G1 X110.014 Y105.205 E7.98849
G1 X111.467 Y105.434 E8.00414
G1 X111.483 Y105.437 E8.0046
G1 X111.494 Y105.443 E8.00518
G1 X112.807 Y106.112 E8.02071
G1 X112.821 Y106.119 E8.02144
G1 X112.83 Y106.128 E8.02203
G1 X113.871 Y107.169 E8.03766
G1 X113.88 Y107.178 E8.03803
G1 X113.887 Y107.192 E8.03876
G1 X114.556 Y108.504 E8.05429
G1 X114.562 Y108.516 E8.05467
G1 X114.564 Y108.531 E8.05538
G1 X114.794 Y109.985 E8.07075
G1 X114.797 Y110 E8.07146
G1 X114.795 Y110.014 E8.07187
G1 X114.565 Y111.468 E8.08738
G1 X114.562 Y111.484 E8.08784
G1 X114.557 Y111.495 E8.08819
G1 X113.888 Y112.807 E8.1037
G1 X113.88 Y112.822 E8.10419
G1 X113.872 Y112.83 E8.10471
G1 X112.831 Y113.871 E8.12035
G1 X112.822 Y113.88 E8.12071
G1 X112.808 Y113.887 E8.12144
G1 X111.496 Y114.556 E8.13697
G1 X111.484 Y114.562 E8.13736
G0 F12000 X111.44 Y114.679
;MESH:NONMESH
G0 F300 X111.44 Y114.679 Z1.64
G0 F12000 X111.44 Y114.671
G0 X108.546 Y114.475
;TIME_ELAPSED:36.195092
;LAYER:5
;TYPE:WALL-OUTER
;MESH:metal_shelve_endcap_large.stl
G1 F600 X110 Y114.706 E8.20591
G1 X111.454 Y114.475 E8.27446
G1 X112.766 Y113.807 E8.34302
G1 X113.807 Y112.766 E8.41157
G1 X114.475 Y111.454 E8.48012
G1 X114.706 Y110 E8.54868
G1 X114.475 Y108.546 E8.61723
G1 X113.807 Y107.234 E8.68579
G1 X112.766 Y106.193 E8.75434
G1 X111.448 Y105.524 E8.82316
G1 X110 Y105.294 E8.89143
G1 X108.546 Y105.525 E8.95999
G1 X107.234 Y106.193 E9.02854
G1 X106.193 Y107.234 E9.09709
G1 X105.525 Y108.547 E9.16569
G1 X105.296 Y110 E9.23418
G1 X105.525 Y111.453 E9.30268
G1 X106.193 Y112.766 E9.37127
G1 X107.234 Y113.807 E9.43982
G1 X108.038 Y114.217 E9.48185
G0 F540 X108.546 Y114.475
G0 F12000 X111.484 Y114.562
G1 F600 X111.469 Y114.564 E9.48255
G1 X110.015 Y114.794 E9.49793
G1 X110 Y114.797 E9.49864
G1 X109.987 Y114.795 E9.49925
G1 X108.532 Y114.566 E9.51477
G1 X108.519 Y114.563 E9.51515
G1 X108.505 Y114.556 E9.5156
G1 X107.193 Y113.888 E9.53102
G1 X107.178 Y113.88 E9.53151
G1 X107.17 Y113.872 E9.53204
G1 X106.129 Y112.831 E9.54767
G1 X106.119 Y112.821 E9.54807
G1 X106.112 Y112.808 E9.54849
G1 X105.444 Y111.495 E9.56414
G1 X105.438 Y111.484 E9.56472
G1 X105.436 Y111.468 E9.56547
G1 X105.206 Y110.015 E9.58099
G1 X105.203 Y110 E9.5817
G1 X105.205 Y109.986 E9.5821
G1 X105.435 Y108.533 E9.59779
G1 X105.438 Y108.516 E9.59828
G1 X105.443 Y108.506 E9.5986
G1 X106.112 Y107.193 E9.61413
G1 X106.12 Y107.178 E9.61462
G1 X106.128 Y107.17 E9.61514
G1 X107.169 Y106.129 E9.63077
G1 X107.178 Y106.12 E9.63114
G1 X107.192 Y106.113 E9.63187
G1 X108.504 Y105.444 E9.6474
G1 X108.516 Y105.438 E9.64778
G1 X108.531 Y105.436 E9.64849
G1 X109.985 Y105.206 E9.66386
G1 X110 Y105.203 E9.66457
G1 X110.014 Y105.205 E9.66498
