;FLAVOR:Marlin
;TIME:967
;Filament used: 0.871914m
;Layer height: 0.2
;MINX:91.61
;MINY:86.165
;MINZ:0.28
;MAXX:127.96
;MAXY:133.849
;MAXZ:15.08
;Generated with Cura_SteamEngine main
M82 ;absolute extrusion mode
M201 X500.00 Y500.00 Z100.00 E5000.00 ;Setup machine max acceleration
M203 X500.00 Y500.00 Z10.00 E50.00 ;Setup machine max feedrate
M204 P500.00 R1000.00 T500.00 ;Setup Print/Retract/Travel acceleration
M205 X8.00 Y8.00 Z0.40 E5.00 ;Setup Jerk
M220 S100 ;Reset Feedrate
M221 S100 ;Reset Flowrate

;*** Start Dual Nozzle/Bed Preheating ***
M140 S50 ; start preheating the bed
M104 S200 ?T0 ; start preheating hotend
M190 S50 ; heat to Cura Bed setting and WAIT
M109 S200 ?T0 ; heat to Cura Hotend and WAIT
;*** End Preheating ***


;*** Single Print Start Tone
M300 S1000 P500 ; chirp to indicate starting to print
;*** End Single Start Tone

G28 ;Home

G92 E0 ;Reset Extruder
G1 Z2.0 F3000 ;Move Z Axis up
G1 X10.1 Y20 Z0.28 F5000.0 ;Move to start position
G1 X10.1 Y200.0 Z0.28 F1500.0 E15 ;Draw the first line
G1 X10.4 Y200.0 Z0.28 F5000.0 ;Move to side a little
G1 X10.4 Y20 Z0.28 F1500.0 E30 ;Draw the second line
G92 E0 ;Reset Extruder
G1 Z2.0 F3000 ;Move Z Axis up
G92 E0
G92 E0
G1 F1500 E-6
;LAYER_COUNT:75
;LAYER:0
M107
M204 S500
M205 X5 Y5
G0 F7500 X94.836 Y95.609 Z0.28
G0 X91.61 Y104.045
M205 X8 Y8
;TYPE:SKIRT
G1 F1500 E0
G1 X91.626 Y103.056 E0.04676
G1 X91.682 Y102.134 E0.09043
G1 X91.817 Y101.22 E0.13411
G1 X92.031 Y100.321 E0.1778
G1 X92.322 Y99.444 E0.22149
G1 X92.688 Y98.596 E0.26515
G1 X93.126 Y97.782 E0.30886
G1 X93.632 Y97.009 E0.35253
G1 X94.204 Y96.283 E0.39623
G1 X94.836 Y95.609 E0.43991
G1 X95.524 Y94.993 E0.48357
G1 X96.262 Y94.438 E0.52723
G1 X97.046 Y93.949 E0.57091
G1 X97.983 Y93.478 E0.62049
G1 X100.338 Y92.437 E0.74222
G1 X102.575 Y91.375 E0.85929
G1 X104.854 Y90.214 E0.98021
G1 X107.036 Y89.023 E1.09774
G1 X108.139 Y88.369 E1.15836
G1 X108.51 Y88.171 E1.17825
G1 X109.424 Y87.639 E1.22824
G1 X110.242 Y87.209 E1.27193
G1 X111.094 Y86.852 E1.31561
G1 X111.973 Y86.57 E1.35925
G1 X113.288 Y86.292 E1.42279
G1 X114.342 Y86.178 E1.47292
G1 X115.467 Y86.165 E1.52611
G1 X115.782 Y86.178 E1.54101
G1 X116.703 Y86.256 E1.58471
G1 X117.613 Y86.413 E1.62837
G1 X118.507 Y86.649 E1.67208
G1 X119.376 Y86.961 E1.71573
G1 X120.331 Y87.406 E1.76554
G1 X121.275 Y87.905 E1.81602
G1 X122.072 Y88.372 E1.8597
G1 X122.839 Y88.908 E1.90393
G1 X123.635 Y89.569 E1.95285
G1 X124.293 Y90.217 E1.99651
G1 X124.893 Y90.921 E2.04024
G1 X125.429 Y91.673 E2.0839
G1 X125.898 Y92.469 E2.12758
G1 X126.254 Y93.196 E2.16585
G1 X126.611 Y94.049 E2.20957
G1 X126.892 Y94.929 E2.25324
G1 X127.067 Y95.677 E2.28956
G1 X127.121 Y95.952 E2.30281
G1 X127.26 Y96.866 E2.34652
G1 X127.319 Y97.788 E2.3902
G1 X127.29 Y98.817 E2.43886
G1 X127.226 Y99.658 E2.47874
G1 X127.065 Y102.293 E2.60355
G1 X126.982 Y104.809 E2.72256
G1 X126.972 Y107.349 E2.84265
G1 X127.032 Y109.883 E2.96248
G1 X127.162 Y112.364 E3.07994
G1 X127.371 Y114.969 E3.20349
G1 X127.563 Y116.79 E3.29006
G1 X127.778 Y118.642 E3.3782
G1 X127.893 Y119.874 E3.4367
G1 X127.956 Y120.815 E3.48129
G1 X127.96 Y122.108 E3.54242
G1 X127.943 Y122.403 E3.55639
G1 X127.85 Y123.322 E3.60006
G1 X127.678 Y124.23 E3.64375
G1 X127.428 Y125.12 E3.68745
G1 X127.102 Y125.984 E3.73111
G1 X126.894 Y126.442 E3.75489
G1 X126.586 Y127.078 E3.7883
G1 X126.202 Y127.799 E3.82692
G1 X126.008 Y128.132 E3.84514
G1 X125.509 Y128.909 E3.8888
G1 X124.754 Y129.86 E3.94621
G1 X124.525 Y130.117 E3.96248
G1 X123.881 Y130.779 E4.00614
G1 X123.182 Y131.384 E4.04985
G1 X122.434 Y131.925 E4.09349
G1 X121.641 Y132.4 E4.1372
G1 X120.811 Y132.805 E4.18086
G1 X120.062 Y133.098 E4.21888
G1 X119.74 Y133.21 E4.235
G1 X118.855 Y133.475 E4.27868
G1 X118.153 Y133.628 E4.31264
G1 X117.896 Y133.675 E4.325
G1 X116.981 Y133.802 E4.36867
G1 X116.059 Y133.849 E4.41231
G1 X115.363 Y133.831 E4.44523
G1 X114.824 Y133.8 E4.47076
G1 X114.059 Y133.729 E4.50708
G1 X113.598 Y133.669 E4.52906
G1 X112.452 Y133.455 E4.58417
G1 X111.237 Y133.152 E4.64337
G1 X109.675 Y132.709 E4.72013
G1 X108.785 Y132.431 E4.76421
G1 X107.621 Y131.982 E4.8232
G1 X106.506 Y131.476 E4.88109
G1 X103.292 Y130.085 E5.04666
G1 X102.547 Y129.739 E5.08549
G1 X99.482 Y128.352 E5.24454
G1 X98.658 Y127.935 E5.2882
G1 X97.873 Y127.449 E5.33185
G1 X97.132 Y126.896 E5.37556
G1 X96.632 Y126.461 E5.4069
G1 X96.036 Y125.903 E5.4455
G1 X95.735 Y125.606 E5.46549
G1 X95.036 Y124.845 E5.51434
G1 X94.538 Y124.227 E5.55186
G1 X94.16 Y123.724 E5.58161
G1 X93.638 Y122.962 E5.62528
G1 X93.183 Y122.158 E5.66895
G1 X92.799 Y121.317 E5.71266
G1 X92.38 Y120.065 E5.77508
G1 X91.981 Y118.571 E5.84819
G1 X91.782 Y117.669 E5.89186
G1 X91.661 Y116.753 E5.93554
G1 X91.625 Y116.137 E5.96471
G1 X91.61 Y115.484 E5.99559
G1 X91.61 Y104.045 E6.53639
M205 X5 Y5
G0 F7500 X92.06 Y104.045
M205 X8 Y8
G1 F1500 X92.076 Y103.064 E6.58278
G1 X92.131 Y102.161 E6.62555
G1 X92.267 Y101.267 E6.6683
G1 X92.48 Y100.389 E6.71102
G1 X92.771 Y99.532 E6.7538
G1 X93.136 Y98.705 E6.79654
G1 X93.572 Y97.913 E6.83928
G1 X94.077 Y97.163 E6.88203
G1 X94.646 Y96.461 E6.92475
G1 X95.275 Y95.811 E6.96751
G1 X95.959 Y95.22 E7.01025
G1 X96.693 Y94.691 E7.05303
G1 X97.47 Y94.229 E7.09576
G1 X98.165 Y93.89 E7.13232
G1 X100.497 Y92.859 E7.25287
G1 X102.786 Y91.773 E7.37265
G1 X105.073 Y90.607 E7.49401
G1 X107.245 Y89.421 E7.61101
G1 X108.368 Y88.756 E7.67271
G1 X108.735 Y88.56 E7.69238
G1 X109.65 Y88.028 E7.74242
G1 X110.451 Y87.608 E7.78518
G1 X111.286 Y87.261 E7.82793
G1 X112.148 Y86.989 E7.87066
G1 X113.359 Y86.736 E7.92915
G1 X114.391 Y86.626 E7.97822
G1 X115.449 Y86.615 E8.02824
G1 X115.764 Y86.628 E8.04314
G1 X116.665 Y86.705 E8.0859
G1 X117.555 Y86.861 E8.12861
G1 X118.428 Y87.096 E8.17136
G1 X119.277 Y87.407 E8.2141
G1 X120.12 Y87.804 E8.25816
G1 X121.064 Y88.303 E8.30864
G1 X121.844 Y88.761 E8.3514
G1 X122.567 Y89.268 E8.39315
G1 X123.348 Y89.915 E8.4411
G1 X123.99 Y90.552 E8.48385
G1 X124.573 Y91.243 E8.5266
G1 X125.093 Y91.983 E8.56936
G1 X125.731 Y93.14 E8.63182
G1 X125.847 Y93.387 E8.64472
G1 X126.195 Y94.222 E8.68749
G1 X126.468 Y95.084 E8.73024
G1 X126.625 Y95.764 E8.76323
G1 X126.679 Y96.039 E8.77648
G1 X126.814 Y96.933 E8.81923
G1 X126.87 Y97.835 E8.86195
G1 X126.842 Y98.783 E8.90679
G1 X126.773 Y99.696 E8.95008
G1 X126.615 Y102.288 E9.07285
G1 X126.532 Y104.792 E9.19129
G1 X126.522 Y107.358 E9.31261
G1 X126.581 Y109.883 E9.43202
G1 X126.715 Y112.426 E9.55241
G1 X126.919 Y114.967 E9.67293
G1 X127.122 Y116.891 E9.76439
G1 X127.331 Y118.694 E9.8502
G1 X127.444 Y119.914 E9.90813
G1 X127.507 Y120.844 E9.9522
G1 X127.511 Y122.082 E10.01073
G1 X127.494 Y122.377 E10.0247
G1 X127.402 Y123.277 E10.06747
G1 X127.231 Y124.165 E10.11022
G1 X126.982 Y125.034 E10.15296
G1 X126.489 Y126.246 E10.21482
G1 X126.181 Y126.882 E10.24823
G1 X125.813 Y127.572 E10.2852
G1 X125.619 Y127.905 E10.30342
G1 X125.13 Y128.666 E10.34618
G1 X124.418 Y129.56 E10.40022
G1 X124.189 Y129.817 E10.41649
G1 X123.558 Y130.465 E10.45925
G1 X122.873 Y131.055 E10.50199
G1 X122.138 Y131.581 E10.54472
G1 X121.359 Y132.041 E10.58749
G1 X120.543 Y132.43 E10.63023
G1 X119.914 Y132.672 E10.66209
G1 X119.592 Y132.784 E10.67821
G1 X118.726 Y133.043 E10.72094
G1 X118.072 Y133.185 E10.75258
G1 X117.815 Y133.232 E10.76494
G1 X116.92 Y133.355 E10.80765
G1 X116.016 Y133.399 E10.85044
G1 X115.389 Y133.382 E10.88009
G1 X114.85 Y133.351 E10.90561
G1 X114.117 Y133.282 E10.94042
G1 X113.656 Y133.222 E10.9624
G1 X112.558 Y133.018 E11.0152
G1 X111.732 Y132.817 E11.05539
G1 X111.36 Y132.719 E11.07358
G1 X109.798 Y132.276 E11.15034
G1 X108.922 Y132.002 E11.19373
G1 X107.807 Y131.573 E11.25021
G1 X106.646 Y131.046 E11.31049
G1 X103.471 Y129.672 E11.47405
G1 X102.701 Y129.314 E11.51419
G1 X99.668 Y127.942 E11.67157
G1 X98.861 Y127.533 E11.71435
G1 X98.094 Y127.055 E11.75707
G1 X97.372 Y126.511 E11.79981
G1 X96.938 Y126.131 E11.82708
G1 X96.352 Y125.582 E11.86505
G1 X96.051 Y125.285 E11.88504
G1 X95.381 Y124.557 E11.93181
G1 X94.898 Y123.957 E11.96823
G1 X94.52 Y123.454 E11.99798
G1 X94.009 Y122.708 E12.04073
G1 X93.566 Y121.919 E12.08351
G1 X93.195 Y121.095 E12.12623
G1 X92.815 Y119.949 E12.18331
G1 X92.416 Y118.455 E12.25642
G1 X92.222 Y117.572 E12.29916
G1 X92.106 Y116.675 E12.34192
G1 X92.075 Y116.124 E12.36801
G1 X92.06 Y115.484 E12.39828
G1 X92.06 Y104.045 E12.93908
M205 X5 Y5
G1 F1500 E6.93908
G0 F7500 X102.96 Y103.74
M205 X8 Y8
G1 F1500 E12.93908
G1 X103.114 Y103.674 E12.947
G1 X103.237 Y103.678 E12.95282
G1 X103.183 Y106.753 E13.09822
G1 X103.019 Y109.067 E13.20789
G1 X103.203 Y112.031 E13.34829
G1 X103.642 Y114.144 E13.45032
G1 X103.626 Y114.645 E13.47402
G1 X103.736 Y115.139 E13.49795
G1 X102.96 Y115.139 E13.53463
G1 X102.96 Y103.74 E14.07355
M205 X5 Y5
G0 F7500 X102.512 Y103.39
M205 X8 Y8
G1 F1500 X102.76 Y103.335 E14.08556
G1 X103.02 Y103.221 E14.09898
G1 X103.694 Y103.243 E14.13086
G1 X103.633 Y106.771 E14.29768
G1 X103.471 Y109.079 E14.40706
G1 X103.649 Y111.957 E14.54339
G1 X104.094 Y114.105 E14.64709
G1 X104.078 Y114.605 E14.67075
G1 X104.296 Y115.589 E14.71839
G1 X102.51 Y115.589 E14.80283
G1 X102.512 Y103.39 E15.37957
M205 X5 Y5
G1 F1500 E9.37957
;MESH:ShelfBracket.stl
G0 F7500 X103.124 Y116.049
G0 X103.124 Y117.153
G0 X104.905 Y118.099
G1 F1500 E15.37957
G0 F7500 X105.592 Y118.581
M205 X8 Y8
;TYPE:WALL-INNER
G1 F1500 X105.275 Y118.278 E15.4026
G1 F1428.6 X104.428 Y117.428 E15.46879
G1 F1423.1 X103.674 Y117.427 E15.51053
G1 X103.757 Y117.534 E15.51803
G1 F1425.9 X104.283 Y118.021 E15.55764
G1 F1442.3 X104.558 Y118.118 E15.57358
G1 F1464.8 X104.833 Y118.215 E15.58926
G1 F1488.1 X105.108 Y118.313 E15.60472
G1 F1518.2 X105.35 Y118.447 E15.61908
G1 F1556 X105.592 Y118.581 E15.63308
M205 X5 Y5
G0 F7500 X104.905 Y118.099
G0 X107.424 Y119.532
G0 X108.843 Y120.144
G0 X111.543 Y121.061
G0 X110.965 Y120.916
M205 X8 Y8
G1 F1500 X111.553 Y121.238 E15.6683
G1 X112.291 Y121.616 E15.71186
G1 X113.631 Y122.023 E15.78542
G1 X115.019 Y122.39 E15.86084
G1 X115.496 Y122.454 E15.88612
G1 X115.931 Y122.48 E15.90901
G1 X116.176 Y122.427 E15.92218
G1 X116.436 Y121.965 E15.95003
G1 X116.618 Y121.599 E15.9715
G1 X116.526 Y120.41 E16.03415
G1 X116.411 Y119.284 E16.0936
G1 F1491.1 X116.296 Y118.692 E16.12547
G1 F1473.5 X116.181 Y118.1 E16.15772
G1 F1431.3 X116.118 Y117.832 E16.17288
G1 F1409.8 X116.09 Y117.664 E16.1824
G1 F1412.4 X116.004 Y117.236 E16.20675
G1 F1399.3 X115.917 Y116.808 E16.23135
G1 F1386.3 X115.83 Y116.38 E16.25617
G1 F1407.1 X115.785 Y116.091 E16.27255
G1 F1467.7 X115.739 Y115.802 E16.28826
G1 F1500 X115.55 Y114.466 E16.35914
G1 X115.352 Y113.202 E16.42635
G1 X114.602 Y110.661 E16.56552
G1 X114.396 Y108.849 E16.66132
G1 X113.936 Y107.355 E16.74343
G1 X113.876 Y106.96 E16.76442
G1 X113.834 Y106.502 E16.78858
G1 X113.819 Y105.886 E16.82095
G1 X113.833 Y105.653 E16.83321
G1 X113.859 Y104.543 E16.89153
G1 X114.021 Y103.385 E16.95296
G1 X114.205 Y102.363 E17.0075
G1 X114.468 Y101.529 E17.05344
G1 X114.749 Y100.77 E17.09596
G1 X115.577 Y98.994 E17.19889
G1 X115.81 Y98.392 E17.2328
G1 X115.942 Y97.948 E17.25713
G1 X115.786 Y97.868 E17.26634
G1 X115.465 Y97.797 E17.28361
G1 X115.112 Y97.521 E17.30715
G1 X115.019 Y97.528 E17.31205
G1 X114.578 Y97.926 E17.34325
G1 X114.32 Y98.249 E17.36497
G1 X114.063 Y98.606 E17.38808
G1 X113.812 Y99.018 E17.41342
G1 X113.607 Y99.396 E17.43601
G1 X113.468 Y99.783 E17.45761
G1 X113.356 Y100.173 E17.47892
G1 X113.094 Y101.853 E17.56824
G1 X112.849 Y102.852 E17.62227
G1 X112.798 Y103.106 E17.63588
G1 X112.602 Y103.603 E17.66395
G1 X112.589 Y104.146 E17.69248
G1 X112.614 Y104.941 E17.73426
G1 X112.485 Y105.35 E17.75679
G1 X112.487 Y105.649 E17.7725
G1 X112.533 Y106.219 E17.80254
G1 X112.505 Y106.78 E17.83204
G1 X112.452 Y107.48 E17.86892
G1 X112.443 Y107.959 E17.89409
G1 X112.641 Y109.14 E17.95699
G1 X112.978 Y110.515 E18.03136
G1 X113.033 Y111.256 E18.07039
G1 X113.084 Y111.665 E18.09204
G1 X113.156 Y112.076 E18.11396
G1 X113.44 Y112.879 E18.1587
G1 X113.756 Y113.689 E18.20437
G1 X114.143 Y114.534 E18.25319
G1 X114.242 Y114.813 E18.26875
G1 X114.381 Y114.963 E18.27949
G1 F1494 X114.561 Y115.253 E18.29749
G1 F1482.2 X114.741 Y115.544 E18.31568
G1 F1467.7 X114.921 Y115.835 E18.33405
G1 F1456.3 X115.102 Y116.126 E18.35259
G1 F1445.1 X115.282 Y116.417 E18.37125
G1 F1439.5 X115.598 Y117.895 E18.45398
G1 F1453.5 X115.523 Y118.169 E18.46938
G1 F1470.6 X115.448 Y118.443 E18.4846
G1 F1491.1 X115.372 Y118.717 E18.49963
G1 F1500 X115.367 Y118.818 E18.50494
G1 X115.273 Y119.193 E18.52525
G1 X115.054 Y119.502 E18.54514
G1 X114.236 Y120.296 E18.60502
G1 X113.968 Y120.458 E18.62148
G1 X112.718 Y120.872 E18.69065
G1 X112.503 Y120.906 E18.70208
G1 X110.965 Y120.916 E18.78287
M205 X5 Y5
G1 F1500 E12.78287
G0 F7500 X111.543 Y121.061
G0 X109.099 Y120.262
G0 X107.688 Y119.642
G0 X103.18 Y117.209
G1 F1500 E18.78287
G0 F7500 X102.91 Y116.939
M205 X8 Y8
;TYPE:WALL-OUTER
G1 F1500 X102.91 Y117.238 E18.79701
G1 X103.396 Y117.865 E18.83451
G1 X104.017 Y118.44 E18.87453
G1 X104.889 Y118.754 E18.91834
G1 X106.009 Y119.299 E18.97723
G1 F1273.6 X106.447 Y119.424 E19.00259
G1 F1126.9 X106.727 Y119.571 E19.02249
G1 F1165.8 X107.008 Y119.719 E19.04181
G1 F1207.5 X107.288 Y119.867 E19.06041
G1 F1218.4 X107.785 Y120.103 E19.09244
G1 F1216.2 X108.029 Y120.194 E19.10762
G1 F1234 X108.273 Y120.286 E19.12261
G1 F1252.3 X108.518 Y120.378 E19.13743
G1 F1271.2 X108.762 Y120.469 E19.15195
G1 F1290.6 X109.007 Y120.561 E19.16633
G1 F1273.6 X109.395 Y120.685 E19.18901
G1 F1220.6 X109.683 Y120.789 E19.2068
G1 F1169.8 X109.972 Y120.894 E19.22544
G1 F1216.2 X110.238 Y121.05 E19.24342
G1 F1391.8 X110.505 Y121.206 E19.25918
G1 F1500 X111.336 Y121.661 E19.30397
G1 X112.112 Y122.059 E19.3452
G1 X113.489 Y122.477 E19.41324
G1 X114.927 Y122.856 E19.48354
G1 X115.45 Y122.927 E19.5085
G1 X115.961 Y122.957 E19.5327
G1 X116.384 Y122.88 E19.55302
G1 X116.603 Y122.638 E19.56845
G1 X116.856 Y122.188 E19.59286
G1 X117.072 Y121.754 E19.61578
G1 X117.087 Y121.495 E19.62804
G1 X116.997 Y120.34 E19.68282
G1 X116.882 Y119.216 E19.73623
G1 X116.553 Y117.476 E19.81995
G1 X116.21 Y115.735 E19.90384
G1 X116.019 Y114.393 E19.96793
G1 X115.816 Y113.098 E20.0299
G1 X115.072 Y110.577 E20.15417
G1 X114.863 Y108.751 E20.24106
G1 X114.405 Y107.271 E20.3143
G1 X114.344 Y106.878 E20.33311
G1 X114.309 Y106.507 E20.35072
G1 X114.294 Y105.85 E20.38179
G1 X114.308 Y105.676 E20.39005
G1 X114.33 Y104.608 E20.44055
G1 X114.489 Y103.468 E20.49497
G1 X114.666 Y102.477 E20.54256
G1 X114.913 Y101.694 E20.58138
G1 X115.194 Y100.935 E20.61964
G1 X116.014 Y99.18 E20.71122
G1 X116.26 Y98.545 E20.74342
G1 X116.423 Y97.994 E20.77058
G1 X116.312 Y97.634 E20.78839
G1 X115.934 Y97.412 E20.80912
G1 X115.651 Y97.355 E20.82277
G1 X115.3 Y97.057 E20.84453
G1 X114.876 Y97.072 E20.86459
G1 X114.574 Y97.29 E20.8822
G1 X114.232 Y97.599 E20.90399
G1 X113.934 Y97.971 E20.92653
G1 X113.667 Y98.342 E20.94814
G1 X113.41 Y98.762 E20.97142
G1 X113.172 Y99.201 E20.99502
G1 X113.016 Y99.637 E21.01692
G1 X112.891 Y100.07 E21.03822
G1 X112.621 Y101.8 E21.121
G1 X112.382 Y102.762 E21.16787
G1 X112.363 Y102.903 E21.17459
G1 X112.203 Y103.32 E21.19571
G1 X112.126 Y103.61 E21.20989
G1 X112.114 Y104.16 E21.2359
G1 X112.131 Y104.898 E21.2708
G1 X112.009 Y105.277 E21.28963
G1 X112.012 Y105.669 E21.30816
G1 X112.057 Y106.231 E21.33481
G1 X112.03 Y106.676 E21.35589
G1 X112.032 Y106.744 E21.35911
G1 X111.977 Y107.458 E21.39296
G1 X111.968 Y107.994 E21.41831
G1 X112.175 Y109.236 E21.47784
G1 X112.51 Y110.612 E21.54479
G1 X112.561 Y111.314 E21.57807
G1 X112.619 Y111.767 E21.59966
G1 X112.695 Y112.197 E21.6203
G1 X112.997 Y113.051 E21.66313
G1 X113.319 Y113.875 E21.70495
G1 X113.688 Y114.675 E21.7466
G1 X113.829 Y115.068 E21.76634
G1 X114.003 Y115.251 E21.77828
G1 X114.804 Y116.559 E21.85079
G1 X115.095 Y117.91 E21.91613
G1 X114.901 Y118.641 E21.95189
G1 X114.872 Y118.869 E21.96275
G1 X114.723 Y119.161 E21.97825
G1 X113.868 Y119.991 E22.03459
G1 X112.536 Y120.431 E22.10091
G1 X110.931 Y120.441 E22.17679
G1 X110.771 Y120.404 E22.18455
G1 F1391.8 X110.46 Y120.369 E22.2005
G1 F1216.2 X110.149 Y120.334 E22.21875
G1 F1161.8 X109.907 Y120.269 E22.23404
