;FLAVOR:Marlin
;TIME:2236
;Filament used: 1.18686m
;Layer height: 0.16
;MINX:65.462
;MINY:82.429
;MINZ:0.24
;MAXX:154.534
;MAXY:137.577
;MAXZ:1.96
;Generated with Cura_SteamEngine 4.5.0
M140 S50
M105
M190 S50
M104 S215
M105
M109 S215
M82 ;absolute extrusion mode
M201 X500.00 Y500.00 Z100.00 E5000.00 ;Setup machine max acceleration
M203 X500.00 Y500.00 Z10.00 E50.00 ;Setup machine max feedrate
M204 P500.00 R1000.00 T500.00 ;Setup Print/Retract/Travel acceleration
M205 X8.00 Y8.00 Z0.40 E5.00 ;Setup Jerk
M220 S100 ;Reset Feedrate
M221 S100 ;Reset Flowrate

G28 ;Home

G92 E0 ;Reset Extruder
G1 Z2.0 F3000 ;Move Z Axis up
G1 X10.1 Y20 Z0.28 F5000.0 ;Move to start position
G1 X10.1 Y200.0 Z0.28 F1500.0 E15 ;Draw the first line
G1 X10.4 Y200.0 Z0.28 F5000.0 ;Move to side a little
G1 X10.4 Y20 Z0.28 F1500.0 E30 ;Draw the second line
G92 E0 ;Reset Extruder
G1 Z2.0 F3000 ;Move Z Axis up

G92 E0
G92 E0
G1 F1800 E-3
;LAYER_COUNT:11
;LAYER:0
M106 S63.8
M204 S500
M205 X6 Y6
G0 F9000 X103.415 Y115.561 Z0.24
;TYPE:SKIRT
G1 F1800 E0
G1 X103.415 Y117.58 E0.08058
G1 X103.375 Y117.912 E0.09393
G1 X103.261 Y118.215 E0.10685
G1 X103.737 Y118.255 E0.12592
G1 X104.049 Y118.372 E0.13921
G1 X104.326 Y118.56 E0.15258
G1 X104.549 Y118.808 E0.16589
G1 X104.708 Y119.102 E0.17923
G1 X104.805 Y119.63 E0.20065
G1 X104.784 Y121.642 E0.28096
G1 X104.724 Y122.016 E0.29608
G1 X105.262 Y122.168 E0.31839
G1 X105.919 Y122.476 E0.34735
G1 X106.529 Y122.919 E0.37744
G1 X107.041 Y123.459 E0.40714
G1 X107.454 Y124.07 E0.43658
G1 X107.545 Y124.236 E0.44413
G1 X107.548 Y122.997 E0.49359
G1 X107.157 Y122.87 E0.50999
G1 X106.88 Y122.682 E0.52336
G1 X106.657 Y122.434 E0.53667
G1 X106.498 Y122.14 E0.55001
G1 X106.401 Y121.627 E0.57084
G1 X106.401 Y119.615 E0.65115
G1 X106.441 Y119.283 E0.66449
G1 X106.558 Y118.971 E0.67779
G1 X106.746 Y118.694 E0.69116
G1 X106.994 Y118.471 E0.70447
G1 X107.288 Y118.312 E0.71781
G1 X107.801 Y118.215 E0.73864
G1 X110.829 Y118.215 E0.8595
G1 X110.673 Y117.757 E0.87881
G1 X110.66 Y115.566 E0.96626
G1 X110.678 Y115.419 E0.97217
G1 X110.169 Y115.267 E0.99337
G1 X109.54 Y114.968 E1.02117
G1 X108.886 Y114.5 E1.05327
G1 X108.369 Y113.952 E1.08334
G1 X107.955 Y113.338 E1.11289
G1 X107.628 Y112.666 E1.14272
G1 X107.592 Y112.574 E1.14666
G1 X107.379 Y113.171 E1.17196
G1 X106.934 Y113.962 E1.20818
G1 X106.728 Y114.225 E1.22152
G1 X106.305 Y114.65 E1.24545
G1 X106.019 Y114.871 E1.25988
G1 X105.531 Y115.156 E1.28243
G1 X104.695 Y115.453 E1.31784
G1 X103.815 Y115.567 E1.35326
G1 X103.415 Y115.561 E1.36922
G0 F9000 X103.777 Y115.168
G1 F1800 X103.074 Y115.145 E1.3973
G1 X103.015 Y115.138 E1.39967
G1 X103.015 Y117.58 E1.49713
G1 X102.975 Y117.859 E1.50838
G1 X102.859 Y118.116 E1.51964
G1 X102.676 Y118.331 E1.53091
G1 X102.44 Y118.485 E1.54215
G1 X102.015 Y118.58 E1.55953
G1 X97.797 Y118.58 E1.72788
G1 X97.518 Y118.54 E1.73913
G1 X97.261 Y118.424 E1.75039
G1 X97.046 Y118.241 E1.76166
G1 X96.892 Y118.005 E1.7729
G1 X96.797 Y117.58 E1.79028
G1 X96.797 Y115.63 E1.86811
G1 X96.862 Y115.272 E1.88264
G1 X97.035 Y114.963 E1.89677
G1 X96.378 Y114.963 E1.92299
G1 X96.378 Y115.963 E1.9629
G1 X96.338 Y116.242 E1.97415
G1 X96.222 Y116.499 E1.98541
G1 X96.039 Y116.714 E1.99668
G1 X95.803 Y116.868 E2.00792
G1 X95.378 Y116.963 E2.0253
G1 X93.34 Y116.963 E2.10665
G1 X93.061 Y116.923 E2.1179
G1 X92.804 Y116.807 E2.12915
G1 X92.589 Y116.624 E2.14042
G1 X92.435 Y116.388 E2.15167
G1 X92.204 Y115.457 E2.18995
G1 X91.986 Y114.867 E2.21505
G1 X91.819 Y114.711 E2.22418
G1 X91.222 Y114.666 E2.24807
G1 X90.944 Y114.617 E2.25934
G1 X90.722 Y114.506 E2.26924
G1 X90.335 Y114.779 E2.28815
G1 X89.868 Y114.979 E2.30842
G1 X89.103 Y115.135 E2.33958
G1 X88.341 Y115.149 E2.37
G1 X87.61 Y115.034 E2.39954
G1 X87.145 Y114.862 E2.41932
G1 X86.951 Y114.937 E2.42763
G1 X83.055 Y114.963 E2.58313
G1 X82.776 Y114.923 E2.59438
G1 X82.519 Y114.807 E2.60563
G1 X82.304 Y114.624 E2.6169
G1 X82.173 Y114.423 E2.62647
G1 X82.025 Y114.633 E2.63673
G1 X82.165 Y114.919 E2.64944
G1 X82.326 Y115.532 E2.67473
G1 X82.36 Y116.069 E2.69621
G1 X82.241 Y116.857 E2.72802
G1 X82.145 Y117.132 E2.73964
G1 X81.92 Y117.562 E2.75901
G1 X81.746 Y117.801 E2.77081
G1 X81.428 Y118.123 E2.78887
G1 X81.171 Y118.31 E2.80156
G1 X80.719 Y118.541 E2.82182
G1 X80.443 Y118.635 E2.83346
G1 X79.949 Y118.725 E2.8535
G1 X79.195 Y118.7 E2.88361
G1 X78.571 Y118.523 E2.9095
G1 X77.99 Y118.179 E2.93644
G1 X77.766 Y117.977 E2.94848
G1 X77.475 Y117.62 E2.96687
G1 X77.323 Y117.362 E2.97882
G1 X77.069 Y116.631 E3.0097
G1 X77.014 Y116.115 E3.03041
G1 X77.066 Y115.385 E3.05962
G1 X77.194 Y114.963 E3.07723
G1 X76.768 Y114.923 E3.0943
G1 X76.646 Y114.868 E3.09964
G1 X76.446 Y115.395 E3.12214
G1 X76.098 Y115.985 E3.14948
G1 X75.774 Y116.374 E3.16969
G1 X75.28 Y116.812 E3.19604
G1 X74.735 Y117.153 E3.2217
G1 X74.15 Y117.413 E3.24725
G1 X73.521 Y117.605 E3.27349
G1 X72.875 Y117.731 E3.29976
G1 X72.184 Y117.806 E3.32751
G1 X71.463 Y117.832 E3.3563
G1 X66.99 Y117.835 E3.53483
G1 X66.591 Y117.798 E3.55082
G1 X66.333 Y117.684 E3.56208
G1 X66.117 Y117.503 E3.57333
G1 X65.96 Y117.268 E3.58461
G1 X65.862 Y116.836 E3.60229
G1 X65.862 Y114.821 E3.68271
G1 X65.902 Y114.542 E3.69396
G1 X66.018 Y114.285 E3.70521
G1 X66.201 Y114.07 E3.71648
G1 X66.437 Y113.916 E3.72773
G1 X66.862 Y113.821 E3.74511
G1 X67.16 Y113.821 E3.757
G1 X67.161 Y107.179 E4.0221
G1 X66.56 Y107.124 E4.04619
G1 X66.306 Y107.002 E4.05743
G1 X66.096 Y106.814 E4.06868
G1 X65.947 Y106.574 E4.07996
G1 X65.862 Y106.171 E4.0964
G1 X65.862 Y104.157 E4.17678
G1 X65.902 Y103.878 E4.18803
G1 X66.018 Y103.621 E4.19928
G1 X66.201 Y103.406 E4.21055
G1 X66.437 Y103.252 E4.2218
G1 X66.862 Y103.157 E4.23918
G1 X71.841 Y103.157 E4.4379
G1 X72.533 Y103.181 E4.46554
G1 X73.204 Y103.252 E4.49247
G1 X73.882 Y103.388 E4.52007
G1 X74.488 Y103.576 E4.54539
G1 X75.076 Y103.84 E4.57112
G1 X75.638 Y104.198 E4.59771
G1 X76.051 Y104.56 E4.61963
G1 X76.084 Y103.886 E4.64657
G1 X76.198 Y103.628 E4.65782
G1 X76.38 Y103.412 E4.6691
G1 X76.614 Y103.255 E4.68034
G1 X77.047 Y103.157 E4.69806
G1 X82.455 Y103.157 E4.91391
G1 X82.73 Y103.196 E4.92499
G1 X82.974 Y103.157 E4.93486
G1 X88.603 Y103.157 E5.15952
G1 X88.882 Y103.197 E5.17077
G1 X89.139 Y103.313 E5.18202
G1 X89.354 Y103.496 E5.19329
G1 X89.508 Y103.732 E5.20454
G1 X89.603 Y104.157 E5.22192
G1 X89.603 Y106.171 E5.30231
G1 X89.563 Y106.45 E5.31355
G1 X89.447 Y106.707 E5.32481
G1 X89.264 Y106.922 E5.33608
G1 X89.028 Y107.076 E5.34732
G1 X88.603 Y107.171 E5.36471
G1 X88.192 Y107.171 E5.38111
G1 X88.192 Y109.142 E5.45978
G1 X88.79 Y109.147 E5.48364
G1 X89.532 Y109.272 E5.51368
G1 X90.264 Y109.575 E5.5453
G1 X90.509 Y109.734 E5.55695
G1 X90.937 Y110.112 E5.57974
G1 X91.279 Y110.596 E5.6034
G1 X91.279 Y107.223 E5.73802
G1 X91.351 Y106.092 E5.78325
G1 X91.537 Y105.296 E5.81588
G1 X91.848 Y104.594 E5.84652
G1 X92.318 Y103.963 E5.87793
G1 X92.928 Y103.477 E5.90906
G1 X93.609 Y103.177 E5.93876
G1 X94.274 Y103.031 E5.96593
G1 X95.052 Y103 E5.99701
G1 X95.746 Y103.061 E6.02481
G1 X96.32 Y103.159 E6.04805
G1 X96.928 Y103.333 E6.07329
G1 X97.176 Y103.406 E6.08361
G1 X97.412 Y103.252 E6.09486
G1 X97.837 Y103.157 E6.11224
G1 X107.422 Y103.157 E6.4948
G1 X107.701 Y103.197 E6.50605
G1 X107.958 Y103.313 E6.5173
G1 X108.173 Y103.496 E6.52857
G1 X108.327 Y103.732 E6.53982
G1 X108.41 Y104.002 E6.55109
G1 X108.414 Y104.284 E6.56235
G1 X108.248 Y104.831 E6.58516
G1 X108.341 Y104.908 E6.58998
G1 X108.686 Y104.406 E6.61429
G1 X109.155 Y103.915 E6.64139
G1 X109.702 Y103.521 E6.6683
G1 X110.339 Y103.23 E6.69625
G1 X111.025 Y103.057 E6.72449
G1 X111.872 Y102.999 E6.75837
G1 X112.631 Y103.089 E6.78888
G1 X113.3 Y103.295 E6.81682
G1 X113.464 Y103.371 E6.82403
G1 X113.643 Y103.257 E6.8325
G1 X114.051 Y103.167 E6.84918
G1 X117.59 Y103.146 E6.99043
G1 X117.87 Y103.184 E7.00171
G1 X118.127 Y103.299 E7.01294
G1 X118.343 Y103.481 E7.02422
G1 X118.499 Y103.716 E7.03548
G1 X118.585 Y104.014 E7.04786
G1 X118.912 Y103.71 E7.06568
G1 X119.365 Y103.418 E7.08719
G1 X120.072 Y103.141 E7.11749
G1 X120.775 Y103.021 E7.14596
G1 X121.522 Y103.026 E7.17577
G1 X122.188 Y103.143 E7.20276
G1 X122.673 Y103.334 E7.22356
G1 X123.016 Y103.191 E7.2384
G1 X126.638 Y103.157 E7.38296
G1 X126.917 Y103.195 E7.3942
G1 X127.091 Y103.272 E7.4018
G1 X126.891 Y103.169 E7.41078
G1 X126.687 Y102.975 E7.42201
G1 X126.545 Y102.731 E7.43328
G1 X126.472 Y102.355 E7.44857
G1 X126.472 Y100.328 E7.52947
G1 X126.544 Y99.951 E7.54479
G1 X126.671 Y99.699 E7.55605
G1 X126.864 Y99.493 E7.56732
G1 X127.107 Y99.349 E7.57859
G1 X127.491 Y99.272 E7.59422
G1 X128.239 Y99.272 E7.62408
G1 X128.896 Y99.292 E7.65031
G1 X129.57 Y99.365 E7.67737
G1 X130.178 Y99.479 E7.70206
G1 X130.784 Y99.674 E7.72747
G1 X131.386 Y99.985 E7.75451
G1 X131.928 Y100.402 E7.7818
G1 X132.386 Y100.913 E7.80919
G1 X132.756 Y101.477 E7.83612
G1 X133.073 Y102.085 E7.86348
G1 X133.347 Y102.759 E7.89252
G1 X133.591 Y103.452 E7.92184
G1 X135.695 Y110.04 E8.19787
G1 X135.861 Y110.58 E8.22042
G1 X135.983 Y110.953 E8.23608
G1 X136.439 Y111.01 E8.25442
G1 X136.691 Y111.136 E8.26567
G1 X136.899 Y111.328 E8.27697
G1 X137.044 Y111.57 E8.28823
G1 X137.123 Y111.952 E8.30379
G1 X137.138 Y113.956 E8.38378
G1 X137.1 Y114.235 E8.39502
G1 X136.986 Y114.493 E8.40628
G1 X136.804 Y114.709 E8.41755
G1 X136.569 Y114.865 E8.42881
G1 X136.138 Y114.963 E8.44645
G1 X127.103 Y114.963 E8.80706
G1 X126.824 Y114.923 E8.8183
G1 X126.567 Y114.807 E8.82956
G1 X126.352 Y114.624 E8.84083
G1 X126.198 Y114.388 E8.85207
G1 X126.103 Y113.963 E8.86946
G1 X126.103 Y113.436 E8.89049
G1 X125.87 Y113.792 E8.90747
G1 X125.391 Y114.271 E8.93451
G1 X124.879 Y114.612 E8.95906
G1 X124.115 Y114.934 E8.99215
G1 X123.28 Y115.112 E9.02623
G1 X122.415 Y115.17 E9.06083
G1 X121.701 Y115.146 E9.08934
G1 X121.044 Y115.067 E9.11575
G1 X120.39 Y114.913 E9.14257
G1 X119.753 Y114.665 E9.16985
G1 X119.144 Y114.287 E9.19846
G1 X118.607 Y113.748 E9.22883
G1 X118.283 Y113.234 E9.25308
G1 X118.075 Y112.636 E9.27835
G1 X117.999 Y112.028 E9.3028
G1 X118.09 Y111.229 E9.3349
G1 X118.285 Y110.705 E9.35721
G1 X118.584 Y110.266 E9.37841
G1 X118.277 Y109.941 E9.39626
G1 X117.946 Y109.45 E9.41989
G1 X117.692 Y108.898 E9.44414
G1 X117.533 Y108.349 E9.46696
G1 X117.439 Y107.729 E9.49198
G1 X117.426 Y107.159 E9.51474
G1 X117.398 Y107.159 E9.51586
G1 X117.398 Y117.568 E9.9313
G1 X117.358 Y117.847 E9.94255
G1 X117.242 Y118.104 E9.95381
G1 X117.059 Y118.319 E9.96507
G1 X116.823 Y118.473 E9.97632
G1 X116.398 Y118.568 E9.9937
G1 X112.06 Y118.568 E10.16684
G1 X111.781 Y118.528 E10.17809
G1 X111.524 Y118.412 E10.18935
G1 X111.309 Y118.229 E10.20061
G1 X111.155 Y117.993 E10.21186
G1 X111.06 Y117.568 E10.22924
G1 X111.06 Y115.566 E10.30915
G1 X111.1 Y115.287 E10.3204
G1 X111.171 Y115.111 E10.32797
G1 X110.542 Y114.977 E10.35364
G1 X109.712 Y114.607 E10.38991
G1 X109.132 Y114.185 E10.41854
G1 X108.668 Y113.687 E10.4457
G1 X108.291 Y113.122 E10.47281
G1 X107.99 Y112.497 E10.5005
G1 X107.762 Y111.82 E10.52901
G1 X107.598 Y111.085 E10.55907
G1 X107.498 Y110.306 E10.59042
G1 X107.474 Y109.934 E10.60529
G1 X107.453 Y111.074 E10.6508
G1 X107.387 Y111.684 E10.67529
G1 X107.266 Y112.27 E10.69917
G1 X107.002 Y113.037 E10.73155
G1 X106.591 Y113.755 E10.76457
G1 X106.022 Y114.367 E10.79792
G1 X105.329 Y114.811 E10.83077
G1 X104.576 Y115.071 E10.86256
G1 X103.777 Y115.168 E10.89469
G0 F9000 X103.739 Y114.77
G1 F1800 X103.093 Y114.745 E10.92049
G1 X102.615 Y114.66 E10.93987
G1 X102.615 Y117.58 E11.05641
G1 X102.575 Y117.795 E11.06514
G1 X102.462 Y117.981 E11.07382
G1 X102.289 Y118.114 E11.08253
G1 X102.015 Y118.18 E11.09378
G1 X97.797 Y118.18 E11.26213
G1 X97.582 Y118.14 E11.27086
G1 X97.396 Y118.027 E11.27955
G1 X97.263 Y117.854 E11.28826
G1 X97.197 Y117.58 E11.29951
G1 X97.197 Y115.63 E11.37733
G1 X97.243 Y115.394 E11.38693
G1 X97.346 Y115.202 E11.39563
G1 X97.511 Y115.059 E11.40434
G1 X97.814 Y114.977 E11.41687
G1 X98.342 Y114.977 E11.43794
G1 X98.346 Y106.773 E11.76538
G1 X97.8 Y106.762 E11.78718
G1 X97.768 Y106.893 E11.79256
G1 X97.644 Y107.072 E11.80125
G1 X97.464 Y107.196 E11.80998
G1 X97.133 Y107.242 E11.82331
G1 X96.535 Y107.154 E11.84744
G1 X96.027 Y107.055 E11.8681
G1 X95.999 Y107.054 E11.86921
G1 X95.978 Y111.105 E12.0309
G1 X97.157 Y111.105 E12.07796
G1 X97.372 Y111.145 E12.08668
G1 X97.558 Y111.258 E12.09537
G1 X97.691 Y111.431 E12.10408
G1 X97.757 Y111.705 E12.11533
G1 X97.757 Y113.963 E12.20545
G1 X97.717 Y114.178 E12.21418
G1 X97.604 Y114.364 E12.22287
G1 X97.431 Y114.497 E12.23158
G1 X97.157 Y114.563 E12.24282
G1 X95.978 Y114.563 E12.28988
G1 X95.978 Y115.963 E12.34576
G1 X95.938 Y116.178 E12.35449
G1 X95.825 Y116.364 E12.36317
G1 X95.652 Y116.497 E12.37188
G1 X95.378 Y116.563 E12.38313
G1 X93.34 Y116.563 E12.46447
G1 X93.125 Y116.523 E12.4732
G1 X92.939 Y116.41 E12.48189
G1 X92.806 Y116.237 E12.4906
G1 X92.592 Y115.357 E12.52674
G1 X92.45 Y114.902 E12.54577
G1 X92.321 Y114.644 E12.55728
G1 X92.158 Y114.454 E12.56727
G1 X91.978 Y114.338 E12.57582
G1 X91.768 Y114.286 E12.58445
G1 X91.236 Y114.267 E12.6057
G1 X91.023 Y114.219 E12.61441
G1 X90.841 Y114.099 E12.62311
G1 X90.737 Y113.954 E12.63024
G1 X90.335 Y114.312 E12.65172
G1 X89.71 Y114.612 E12.67939
G1 X89.037 Y114.741 E12.70674
G1 X88.341 Y114.749 E12.73452
G1 X87.681 Y114.641 E12.76121
G1 X87.113 Y114.411 E12.78567
G1 X86.881 Y114.542 E12.7963
G1 X83.055 Y114.563 E12.94901
G1 X82.84 Y114.523 E12.95774
G1 X82.654 Y114.41 E12.96643
G1 X82.521 Y114.237 E12.97514
G1 X82.459 Y114.028 E12.98384
G1 X82.488 Y113.768 E12.99428
G1 X82.715 Y113.108 E13.02213
G1 X82.474 Y112.988 E13.03288
G1 X82.338 Y112.818 E13.04157
G1 X82.273 Y112.61 E13.05027
G1 X82.286 Y112.392 E13.05898
G1 X82.376 Y112.193 E13.0677
G1 X83.221 Y111.493 E13.11149
G1 X83.482 Y111.373 E13.12296
G1 X83.483 Y106.901 E13.30145
G1 X83.474 Y106.772 E13.30661
G1 X82.973 Y106.771 E13.3266
G1 X82.72 Y106.707 E13.33702
G1 X82.455 Y106.771 E13.3479
G1 X81.895 Y106.771 E13.37025
G1 X81.895 Y113.963 E13.6573
G1 X81.855 Y114.178 E13.66603
G1 X81.742 Y114.364 E13.67471
G1 X81.569 Y114.497 E13.68342
G1 X81.485 Y114.517 E13.68687
G1 X81.783 Y115.038 E13.71083
G1 X81.927 Y115.557 E13.73232
G1 X81.961 Y116.094 E13.7538
G1 X81.848 Y116.781 E13.78159
G1 X81.566 Y117.376 E13.80787
G1 X81.143 Y117.842 E13.83299
G1 X80.537 Y118.185 E13.86078
G1 X79.878 Y118.331 E13.88772
G1 X79.225 Y118.301 E13.91381
G1 X78.698 Y118.144 E13.93576
G1 X78.21 Y117.846 E13.95858
G1 X77.785 Y117.367 E13.98413
G1 X77.507 Y116.75 E14.01114
G1 X77.411 Y116.073 E14.03844
G1 X77.464 Y115.426 E14.06435
G1 X77.696 Y114.789 E14.0914
G1 X77.845 Y114.563 E14.10221
G1 X77.047 Y114.563 E14.13406
G1 X76.832 Y114.523 E14.14279
G1 X76.646 Y114.41 E14.15147
G1 X76.513 Y114.237 E14.16018
G1 X76.439 Y113.985 E14.17066
G1 X76.339 Y114.515 E14.19219
G1 X76.137 Y115.109 E14.21723
G1 X75.855 Y115.636 E14.24109
G1 X75.467 Y116.118 E14.26578
G1 X75.022 Y116.507 E14.28937
G1 X74.53 Y116.809 E14.31241
G1 X73.992 Y117.046 E14.33588
G1 X73.409 Y117.221 E14.36017
G1 X72.802 Y117.338 E14.38485
G1 X72.143 Y117.408 E14.4113
G1 X71.449 Y117.433 E14.43901
G1 X66.987 Y117.435 E14.6171
G1 X66.652 Y117.398 E14.63055
G1 X66.465 Y117.286 E14.63925
G1 X66.33 Y117.114 E14.64798
G1 X66.262 Y116.836 E14.6594
G1 X66.262 Y114.821 E14.73983
G1 X66.302 Y114.606 E14.74855
G1 X66.415 Y114.42 E14.75724
G1 X66.588 Y114.287 E14.76595
G1 X66.862 Y114.221 E14.7772
G1 X67.56 Y114.221 E14.80506
G1 X67.561 Y106.87 E15.09845
G1 X67.558 Y106.788 E15.10173
G1 X66.848 Y106.771 E15.13007
G1 X66.634 Y106.726 E15.1388
G1 X66.451 Y106.608 E15.14749
G1 X66.322 Y106.432 E15.1562
G1 X66.262 Y106.171 E15.16689
G1 X66.262 Y104.157 E15.24727
G1 X66.302 Y103.942 E15.256
G1 X66.415 Y103.756 E15.26469
G1 X66.588 Y103.623 E15.2734
G1 X66.862 Y103.557 E15.28464
G1 X71.862 Y103.557 E15.48421
G1 X72.519 Y103.58 E15.51044
G1 X73.16 Y103.65 E15.53618
G1 X73.801 Y103.779 E15.56228
G1 X74.366 Y103.957 E15.58592
G1 X74.907 Y104.203 E15.60964
G1 X75.418 Y104.532 E15.6339
G1 X75.867 Y104.935 E15.65798
G1 X76.243 Y105.41 E15.68216
G1 X76.462 Y105.812 E15.70043
G1 X76.447 Y104.162 E15.76628
G1 X76.485 Y103.947 E15.775
G1 X76.597 Y103.76 E15.7837
