;FLAVOR:Marlin
;TIME:1428
;Filament used: 0.728893m
;Layer height: 0.16
;MINX:78.6
;MINY:93.603
;MINZ:0.24
;MAXX:141.4
;MAXY:126.389
;MAXZ:1.96
;Generated with Cura_SteamEngine 4.5.0
M140 S50
M105
M190 S50
M104 S215
M105
M109 S215
M82 ;absolute extrusion mode
M201 X500.00 Y500.00 Z100.00 E5000.00 ;Setup machine max acceleration
M203 X500.00 Y500.00 Z10.00 E50.00 ;Setup machine max feedrate
M204 P500.00 R1000.00 T500.00 ;Setup Print/Retract/Travel acceleration
M205 X8.00 Y8.00 Z0.40 E5.00 ;Setup Jerk
M220 S100 ;Reset Feedrate
M221 S100 ;Reset Flowrate

G28 ;Home

G92 E0 ;Reset Extruder
G1 Z2.0 F3000 ;Move Z Axis up
G1 X10.1 Y20 Z0.28 F5000.0 ;Move to start position
G1 X10.1 Y200.0 Z0.28 F1500.0 E15 ;Draw the first line
G1 X10.4 Y200.0 Z0.28 F5000.0 ;Move to side a little
G1 X10.4 Y20 Z0.28 F1500.0 E30 ;Draw the second line
G92 E0 ;Reset Extruder
G1 Z2.0 F3000 ;Move Z Axis up

G92 E0
G92 E0
G1 F1800 E-3
;LAYER_COUNT:11
;LAYER:0
M106 S63.8
M204 S500
M205 X6 Y6
G0 F9000 X79.193 Y94.019 Z0.24
;TYPE:SKIRT
G1 F1800 E0
G1 X79.487 Y93.86 E0.01334
G1 X80 Y93.763 E0.03418
G1 X89.006 Y93.763 E0.39363
G1 X89.442 Y93.842 E0.41131
G1 X89.885 Y93.763 E0.42927
G1 X95.293 Y93.763 E0.64512
G1 X95.625 Y93.803 E0.65846
G1 X95.937 Y93.92 E0.67176
G1 X96.214 Y94.108 E0.68512
G1 X96.437 Y94.356 E0.69844
G1 X96.596 Y94.65 E0.71178
G1 X96.664 Y94.911 E0.72254
G1 X97.258 Y94.448 E0.7526
G1 X97.936 Y94.076 E0.78347
G1 X98.657 Y93.815 E0.81407
G1 X99.402 Y93.661 E0.84443
G1 X100.169 Y93.603 E0.87513
G1 X100.947 Y93.635 E0.90621
G1 X101.685 Y93.754 E0.93605
G1 X102.423 Y93.979 E0.96684
G1 X103.106 Y94.306 E0.99706
G1 X103.76 Y94.762 E1.02888
G1 X103.891 Y94.876 E1.03582
G1 X104.015 Y94.508 E1.05132
G1 X104.203 Y94.231 E1.06468
G1 X104.451 Y94.008 E1.07799
G1 X104.745 Y93.849 E1.09133
G1 X105.258 Y93.752 E1.11217
G1 X108.74 Y93.752 E1.25114
G1 X109.072 Y93.792 E1.26449
G1 X109.402 Y93.921 E1.27863
G1 X110.039 Y93.714 E1.30536
G1 X110.901 Y93.606 E1.34003
G1 X111.897 Y93.678 E1.37989
G1 X112.622 Y93.865 E1.40977
G1 X113.294 Y94.178 E1.43936
G1 X113.908 Y94.62 E1.46956
G1 X113.962 Y94.67 E1.47249
G1 X114.019 Y94.519 E1.47894
G1 X114.207 Y94.242 E1.4923
G1 X114.455 Y94.019 E1.50561
G1 X114.749 Y93.86 E1.51895
G1 X115.262 Y93.763 E1.53979
G1 X120.67 Y93.763 E1.75563
G1 X121.001 Y93.776 E1.76885
G1 X126.428 Y93.763 E1.98546
G1 X130.775 Y93.763 E2.15896
G1 X131.107 Y93.803 E2.1723
G1 X131.419 Y93.92 E2.1856
G1 X131.696 Y94.108 E2.19896
G1 X131.973 Y94.457 E2.21675
G1 X132.556 Y94.061 E2.24488
G1 X133.039 Y93.852 E2.26588
G1 X133.813 Y93.662 E2.29769
G1 X134.689 Y93.62 E2.33269
G1 X135.431 Y93.708 E2.36251
G1 X135.993 Y93.891 E2.3861
G1 X136.392 Y93.773 E2.40271
G1 X140 Y93.763 E2.54672
G1 X140.332 Y93.803 E2.56006
G1 X140.644 Y93.92 E2.57336
G1 X140.921 Y94.108 E2.58672
G1 X141.144 Y94.356 E2.60003
G1 X141.303 Y94.65 E2.61337
G1 X141.4 Y95.163 E2.63421
G1 X141.4 Y97.177 E2.7146
G1 X141.36 Y97.509 E2.72794
G1 X141.243 Y97.821 E2.74124
G1 X141.055 Y98.098 E2.7546
G1 X140.807 Y98.321 E2.76791
G1 X140.522 Y98.475 E2.78084
G1 X140.521 Y101.755 E2.91176
G1 X140.496 Y102.448 E2.93943
G1 X140.407 Y103.106 E2.96593
G1 X140.15 Y103.982 E3.00237
G1 X139.703 Y104.822 E3.04035
G1 X139.227 Y105.391 E3.06996
G1 X138.973 Y105.609 E3.08332
G1 X138.467 Y105.947 E3.1076
G1 X137.615 Y106.313 E3.14461
G1 X136.714 Y106.51 E3.18142
G1 X135.794 Y106.575 E3.21823
G1 X135.056 Y106.554 E3.2477
G1 X134.338 Y106.466 E3.27657
G1 X133.649 Y106.306 E3.3048
G1 X132.959 Y106.041 E3.3343
G1 X132.29 Y105.635 E3.36554
G1 X132.029 Y105.414 E3.37919
G1 X131.671 Y105.027 E3.40023
G1 X131.289 Y104.43 E3.42852
G1 X131.051 Y103.768 E3.45659
G1 X130.991 Y103.429 E3.47034
G1 X130.732 Y104.171 E3.5017
G1 X130.296 Y104.954 E3.53747
G1 X130.08 Y105.231 E3.55149
G1 X129.654 Y105.655 E3.57548
G1 X129.382 Y105.866 E3.58922
G1 X128.898 Y106.154 E3.6117
G1 X128.048 Y106.459 E3.64774
G1 X127.165 Y106.572 E3.68327
G1 X126.374 Y106.54 E3.71487
G1 X125.704 Y106.415 E3.74207
G1 X125.386 Y106.334 E3.75517
G1 X125.077 Y106.369 E3.76758
G1 X121.27 Y106.369 E3.91953
G1 X120.905 Y106.317 E3.93424
G1 X120.969 Y106.827 E3.95476
G1 X120.97 Y107.169 E3.96841
G1 X120.904 Y107.717 E3.99044
G1 X120.797 Y108.11 E4.00669
G1 X120.457 Y108.816 E4.03797
G1 X120.102 Y109.249 E4.06031
G1 X119.765 Y109.542 E4.07814
G1 X119.443 Y109.751 E4.09346
G1 X118.825 Y110.004 E4.12011
G1 X128.968 Y110.004 E4.52494
G1 X129.3 Y110.044 E4.53829
G1 X129.612 Y110.161 E4.55159
G1 X129.889 Y110.349 E4.56495
G1 X130.168 Y110.701 E4.58288
G1 X130.75 Y110.304 E4.61099
G1 X131.229 Y110.096 E4.63184
G1 X132.01 Y109.904 E4.66394
G1 X132.892 Y109.862 E4.69918
G1 X133.629 Y109.949 E4.7288
G1 X134.211 Y110.139 E4.75323
G1 X134.742 Y110.022 E4.77494
G1 X138.108 Y110.004 E4.90928
G1 X138.534 Y110.044 E4.92636
G1 X138.846 Y110.161 E4.93966
G1 X139.123 Y110.349 E4.95302
G1 X139.346 Y110.597 E4.96633
G1 X139.505 Y110.891 E4.97967
G1 X139.602 Y111.404 E5.00051
G1 X139.602 Y113.428 E5.08129
G1 X139.562 Y113.76 E5.09464
G1 X139.445 Y114.072 E5.10794
G1 X139.257 Y114.349 E5.1213
G1 X139.009 Y114.572 E5.13461
G1 X138.723 Y114.727 E5.14759
G1 X138.723 Y118.007 E5.27851
G1 X138.698 Y118.696 E5.30602
G1 X138.611 Y119.344 E5.33212
G1 X138.351 Y120.232 E5.36905
G1 X137.905 Y121.072 E5.40701
G1 X137.42 Y121.649 E5.43709
G1 X137.167 Y121.865 E5.45037
G1 X136.659 Y122.203 E5.47472
G1 X135.807 Y122.567 E5.5117
G1 X134.903 Y122.764 E5.54863
G1 X133.99 Y122.827 E5.58515
G1 X133.251 Y122.805 E5.61466
G1 X132.538 Y122.718 E5.64333
G1 X131.846 Y122.558 E5.67168
G1 X131.154 Y122.292 E5.70127
G1 X130.478 Y121.879 E5.73289
G1 X130.216 Y121.657 E5.74659
G1 X129.862 Y121.272 E5.76747
G1 X129.487 Y120.685 E5.79527
G1 X129.245 Y120.015 E5.8237
G1 X129.182 Y119.65 E5.83848
G1 X129.06 Y120.079 E5.85628
G1 X128.801 Y120.683 E5.88251
G1 X128.457 Y121.253 E5.90909
G1 X127.84 Y121.91 E5.94506
G1 X127.575 Y122.115 E5.95843
G1 X127.086 Y122.407 E5.98116
G1 X126.779 Y122.543 E5.99456
G1 X126.226 Y122.713 E6.01766
G1 X125.353 Y122.824 E6.05278
G1 X124.566 Y122.792 E6.08422
G1 X123.892 Y122.666 E6.11158
G1 X123.573 Y122.587 E6.1247
G1 X123.27 Y122.62 E6.13686
G1 X119.455 Y122.62 E6.28913
G1 X119.091 Y122.568 E6.3038
G1 X119.154 Y123.075 E6.3242
G1 X119.156 Y123.411 E6.33761
G1 X119.093 Y123.952 E6.35934
G1 X118.859 Y124.669 E6.38945
G1 X118.421 Y125.349 E6.42173
G1 X118.121 Y125.653 E6.43878
G1 X117.774 Y125.911 E6.45604
G1 X117.455 Y126.089 E6.47062
G1 X116.734 Y126.327 E6.50092
G1 X116.237 Y126.389 E6.52091
G1 X115.89 Y126.389 E6.53476
G1 X115.394 Y126.327 E6.55471
G1 X115.038 Y126.234 E6.56939
G1 X114.659 Y126.079 E6.58574
G1 X114.337 Y125.894 E6.60056
G1 X113.998 Y125.634 E6.61761
G1 X113.697 Y125.317 E6.63506
G1 X113.432 Y124.932 E6.65371
G1 X113.251 Y124.562 E6.67015
G1 X113.098 Y124.081 E6.6903
G1 X113.034 Y123.738 E6.70422
G1 X113.003 Y123.204 E6.72557
G1 X113.076 Y122.569 E6.75108
G1 X112.718 Y122.412 E6.76669
G1 X111.948 Y122.698 E6.79947
G1 X111.414 Y122.787 E6.82108
G1 X110.58 Y122.806 E6.85437
G1 X109.776 Y122.684 E6.88683
G1 X109.357 Y122.542 E6.90449
G1 X108.981 Y122.606 E6.91971
G1 X105.299 Y122.62 E7.06667
G1 X104.967 Y122.581 E7.08001
G1 X104.654 Y122.465 E7.09333
G1 X104.377 Y122.278 E7.10667
G1 X104.153 Y122.031 E7.11998
G1 X103.993 Y121.738 E7.1333
G1 X103.908 Y121.415 E7.14663
G1 X103.443 Y121.861 E7.17235
G1 X102.931 Y122.202 E7.1969
G1 X102.084 Y122.565 E7.23368
G1 X101.185 Y122.761 E7.27041
G1 X100.265 Y122.827 E7.30722
G1 X99.515 Y122.804 E7.33717
G1 X98.819 Y122.721 E7.36514
G1 X98.123 Y122.56 E7.39366
G1 X97.433 Y122.296 E7.42314
G1 X96.758 Y121.885 E7.45468
G1 X96.562 Y121.72 E7.46491
G1 X96.631 Y122.131 E7.48154
G1 X96.631 Y124.093 E7.55985
G1 X96.591 Y124.425 E7.5732
G1 X96.474 Y124.737 E7.5865
G1 X96.286 Y125.014 E7.59986
G1 X96.038 Y125.237 E7.61317
G1 X95.744 Y125.396 E7.62651
G1 X95.231 Y125.493 E7.64735
G1 X90.441 Y125.493 E7.83853
G1 X90.109 Y125.453 E7.85187
G1 X89.797 Y125.336 E7.86517
G1 X89.52 Y125.148 E7.87853
G1 X89.297 Y124.9 E7.89185
G1 X89.081 Y124.427 E7.9126
G1 X88.55 Y122.267 E8.00138
G1 X88.039 Y124.252 E8.08319
G1 X87.868 Y124.753 E8.10431
G1 X87.677 Y125.027 E8.11764
G1 X87.426 Y125.248 E8.13099
G1 X87.13 Y125.402 E8.14431
G1 X86.634 Y125.493 E8.16444
G1 X81.789 Y125.493 E8.35781
G1 X81.457 Y125.453 E8.37116
G1 X81.145 Y125.336 E8.38446
G1 X80.868 Y125.148 E8.39782
G1 X80.645 Y124.9 E8.41113
G1 X80.486 Y124.606 E8.42447
G1 X80.389 Y124.093 E8.44531
G1 X80.389 Y122.081 E8.52561
G1 X80.429 Y121.749 E8.53896
G1 X80.546 Y121.437 E8.55226
G1 X80.734 Y121.16 E8.56562
G1 X80.982 Y120.937 E8.57893
G1 X81.276 Y120.778 E8.59227
G1 X81.679 Y120.689 E8.60874
G1 X81.679 Y114.815 E8.84319
G1 X81.453 Y114.787 E8.85228
G1 X81.14 Y114.669 E8.86563
G1 X80.865 Y114.48 E8.87894
G1 X80.642 Y114.231 E8.89229
G1 X80.484 Y113.936 E8.90564
G1 X80.389 Y113.428 E8.92627
G1 X80.389 Y111.404 E9.00705
G1 X80.429 Y111.072 E9.0204
G1 X80.546 Y110.76 E9.0337
G1 X80.734 Y110.483 E9.04706
G1 X80.982 Y110.26 E9.06037
G1 X81.276 Y110.101 E9.07371
G1 X81.789 Y110.004 E9.09455
G1 X86.226 Y110.004 E9.27164
G1 X86.694 Y110.095 E9.29067
G1 X87.188 Y110.004 E9.31072
G1 X88.847 Y110.004 E9.37693
G1 X89.306 Y110.092 E9.39558
G1 X89.784 Y110.004 E9.41498
G1 X95.221 Y110.004 E9.63198
G1 X95.553 Y110.044 E9.64533
G1 X95.865 Y110.161 E9.65863
G1 X96.142 Y110.349 E9.67199
G1 X96.426 Y110.71 E9.69032
G1 X97.016 Y110.307 E9.71884
G1 X97.505 Y110.094 E9.74013
G1 X98.285 Y109.904 E9.77217
G1 X99.158 Y109.861 E9.80706
G1 X99.91 Y109.952 E9.83729
G1 X100.483 Y110.139 E9.86135
G1 X101.015 Y110.022 E9.88309
G1 X104.38 Y110.004 E10.01739
G1 X104.853 Y110.062 E10.03641
G1 X105.214 Y110.004 E10.05101
G1 X110.85 Y110.004 E10.27595
G1 X111.182 Y110.044 E10.2893
G1 X111.494 Y110.161 E10.3026
G1 X111.771 Y110.349 E10.31596
G1 X111.994 Y110.597 E10.32927
G1 X112.149 Y110.883 E10.34225
G1 X112.383 Y110.483 E10.36075
G1 X112.631 Y110.26 E10.37406
G1 X112.925 Y110.101 E10.3874
G1 X113.438 Y110.004 E10.40824
G1 X116.952 Y110.004 E10.54849
G1 X116.532 Y109.85 E10.56635
G1 X116.161 Y109.646 E10.58324
G1 X115.819 Y109.383 E10.60046
G1 X115.52 Y109.068 E10.6178
G1 X115.257 Y108.687 E10.63627
G1 X115.075 Y108.318 E10.6527
G1 X114.921 Y107.836 E10.67289
G1 X114.857 Y107.489 E10.68698
G1 X114.827 Y106.956 E10.70828
G1 X114.901 Y106.318 E10.73392
G1 X114.618 Y106.212 E10.74598
G1 X114.341 Y106.024 E10.75934
G1 X114.118 Y105.776 E10.77265
G1 X113.965 Y105.493 E10.78549
G1 X113.549 Y105.823 E10.80668
G1 X112.898 Y106.185 E10.83641
G1 X112.23 Y106.415 E10.86461
G1 X111.224 Y106.547 E10.90511
G1 X110.896 Y106.545 E10.9182
G1 X110.896 Y108.574 E10.99918
G1 X110.856 Y108.906 E11.01253
G1 X110.739 Y109.218 E11.02583
G1 X110.551 Y109.495 E11.03919
G1 X110.303 Y109.718 E11.0525
G1 X110.009 Y109.877 E11.06584
G1 X109.496 Y109.974 E11.08668
G1 X105.258 Y109.974 E11.25583
G1 X104.926 Y109.934 E11.26917
G1 X104.614 Y109.817 E11.28247
G1 X104.337 Y109.629 E11.29583
G1 X104.114 Y109.381 E11.30914
G1 X103.955 Y109.087 E11.32248
G1 X103.858 Y108.574 E11.34332
G1 X103.858 Y106.572 E11.42323
G1 X103.898 Y106.24 E11.43657
G1 X104.015 Y105.928 E11.44987
G1 X104.203 Y105.651 E11.46323
G1 X104.451 Y105.428 E11.47655
G1 X104.745 Y105.269 E11.48989
G1 X105.015 Y105.199 E11.50102
G1 X105.016 Y103.737 E11.55937
G1 X104.762 Y104.21 E11.5808
G1 X104.436 Y104.678 E11.60356
G1 X103.896 Y105.258 E11.63519
G1 X103.286 Y105.735 E11.6661
G1 X102.607 Y106.108 E11.69702
G1 X101.89 Y106.367 E11.72744
G1 X101.14 Y106.52 E11.75799
G1 X100.372 Y106.577 E11.78873
G1 X99.599 Y106.543 E11.81961
G1 X98.848 Y106.419 E11.84999
G1 X98.146 Y106.207 E11.87926
G1 X97.429 Y105.864 E11.91098
G1 X96.8 Y105.425 E11.9416
G1 X96.236 Y104.874 E11.97307
G1 X95.747 Y104.202 E12.00624
G1 X95.534 Y103.801 E12.02436
G1 X95.533 Y108.586 E12.21534
G1 X95.493 Y108.918 E12.22869
G1 X95.376 Y109.231 E12.24202
G1 X95.188 Y109.507 E12.25535
G1 X94.939 Y109.73 E12.26869
G1 X94.645 Y109.889 E12.28203
G1 X94.133 Y109.986 E12.30283
G1 X89.885 Y109.986 E12.47238
G1 X89.553 Y109.946 E12.48573
G1 X89.241 Y109.829 E12.49903
G1 X88.964 Y109.641 E12.51239
G1 X88.741 Y109.393 E12.5257
G1 X88.659 Y109.241 E12.53259
G1 X80.3 Y109.241 E12.86622
G1 X79.968 Y109.201 E12.87956
G1 X79.656 Y109.084 E12.89286
G1 X79.379 Y108.896 E12.90623
G1 X79.156 Y108.648 E12.91954
G1 X78.997 Y108.354 E12.93288
G1 X78.9 Y107.841 E12.95371
G1 X78.9 Y103.351 E13.13292
G1 X78.94 Y103.019 E13.14627
G1 X79.057 Y102.707 E13.15957
G1 X79.245 Y102.43 E13.17293
G1 X79.493 Y102.207 E13.18624
G1 X79.787 Y102.048 E13.19958
G1 X80.3 Y101.951 E13.22042
G1 X81.304 Y101.951 E13.26049
G1 X78.775 Y97.385 E13.46881
G1 X78.649 Y97.076 E13.48213
G1 X78.6 Y96.707 E13.49699
G1 X78.6 Y95.163 E13.55861
G1 X78.64 Y94.831 E13.57196
G1 X78.757 Y94.519 E13.58526
G1 X78.945 Y94.242 E13.59862
G1 X79.193 Y94.019 E13.61193
G0 F9000 X79.339 Y94.412
G1 F1800 X79.575 Y94.258 E13.62318
G1 X80 Y94.163 E13.64056
G1 X89.006 Y94.163 E14.00001
G1 X89.285 Y94.203 E14.01126
G1 X89.46 Y94.258 E14.01858
G1 X89.885 Y94.163 E14.03596
G1 X95.293 Y94.163 E14.25181
G1 X95.572 Y94.203 E14.26306
G1 X95.829 Y94.319 E14.27431
G1 X96.044 Y94.502 E14.28558
G1 X96.198 Y94.738 E14.29683
G1 X96.293 Y95.171 E14.31452
G1 X96.286 Y95.953 E14.34573
G1 X96.556 Y95.592 E14.36373
G1 X96.95 Y95.191 E14.38616
G1 X97.497 Y94.769 E14.41374
G1 X98.12 Y94.431 E14.44203
G1 X98.785 Y94.194 E14.4702
G1 X99.477 Y94.054 E14.49838
G1 X100.193 Y94.003 E14.52703
G1 X100.926 Y94.034 E14.55631
G1 X101.616 Y94.148 E14.58423
G1 X102.3 Y94.36 E14.61281
G1 X102.926 Y94.663 E14.64056
G1 X103.524 Y95.085 E14.66978
G1 X104.03 Y95.586 E14.6982
G1 X104.264 Y95.897 E14.71373
G1 X104.258 Y95.215 E14.74095
G1 X104.298 Y94.873 E14.75469
G1 X104.414 Y94.616 E14.76595
G1 X104.597 Y94.401 E14.77722
G1 X104.833 Y94.247 E14.78846
G1 X105.258 Y94.152 E14.80585
G1 X108.74 Y94.152 E14.94482
G1 X109.019 Y94.192 E14.95607
G1 X109.361 Y94.38 E14.97165
G1 X109.637 Y94.253 E14.98377
G1 X110.155 Y94.097 E15.00536
G1 X110.938 Y94.004 E15.03683
G1 X111.858 Y94.076 E15.07367
G1 X112.509 Y94.249 E15.10055
G1 X113.114 Y94.535 E15.12726
G1 X113.664 Y94.937 E15.15445
G1 X114.127 Y95.429 E15.18141
G1 X114.266 Y95.619 E15.19081
G1 X114.262 Y95.163 E15.20901
G1 X114.302 Y94.884 E15.22026
G1 X114.418 Y94.627 E15.23151
G1 X114.601 Y94.412 E15.24278
G1 X114.837 Y94.258 E15.25403
G1 X115.262 Y94.163 E15.27141
G1 X120.67 Y94.163 E15.48726
G1 X120.946 Y94.203 E15.49839
G1 X121.19 Y94.163 E15.50826
G1 X130.775 Y94.163 E15.89081
G1 X131.054 Y94.203 E15.90206
G1 X131.311 Y94.319 E15.91332
G1 X131.526 Y94.502 E15.92459
G1 X131.68 Y94.738 E15.93583
G1 X131.763 Y95.008 E15.94711
G1 X131.766 Y95.213 E15.95529
G1 X132.059 Y94.897 E15.97249
G1 X132.499 Y94.556 E15.99471
G1 X133.198 Y94.219 E16.02568
G1 X133.894 Y94.054 E16.05423
G1 X134.697 Y94.02 E16.08631
G1 X135.374 Y94.104 E16.11353
G1 X136.021 Y94.332 E16.14091
G1 X136.377 Y94.18 E16.15636
G1 X140 Y94.163 E16.30097
G1 X140.279 Y94.203 E16.31222
G1 X140.536 Y94.319 E16.32347
G1 X140.751 Y94.502 E16.33474
G1 X140.905 Y94.738 E16.34599
G1 X141 Y95.163 E16.36337
G1 X141 Y97.177 E16.44375
G1 X140.96 Y97.456 E16.455
G1 X140.844 Y97.713 E16.46625
G1 X140.661 Y97.928 E16.47752
G1 X140.425 Y98.082 E16.48877
G1 X140.122 Y98.168 E16.50134
G1 X140.121 Y101.755 E16.6445
G1 X140.096 Y102.433 E16.67158
G1 X140.011 Y103.047 E16.69632
G1 X139.768 Y103.862 E16.73027
G1 X139.357 Y104.622 E16.76475
G1 X138.932 Y105.121 E16.79091
G1 X138.244 Y105.615 E16.82472
G1 X137.471 Y105.94 E16.85819
G1 X136.638 Y106.118 E16.89218
G1 X135.772 Y106.175 E16.92682
G1 X135.07 Y106.154 E16.95485
G1 X134.391 Y106.069 E16.98216
G1 X133.744 Y105.917 E17.00869
G1 X133.11 Y105.671 E17.03583
G1 X132.509 Y105.3 E17.06402
G1 X131.965 Y104.755 E17.09476
G1 X131.637 Y104.232 E17.1194
G1 X131.434 Y103.651 E17.14396
G1 X131.357 Y103.033 E17.16882
G1 X131.448 Y102.235 E17.20087
G1 X131.64 Y101.714 E17.22303
G1 X131.942 Y101.271 E17.24443
G1 X131.633 Y100.944 E17.26239
G1 X131.298 Y100.445 E17.28638
G1 X131.049 Y99.905 E17.31011
G1 X130.889 Y99.353 E17.33305
G1 X130.828 Y98.982 E17.34805
G1 X130.825 Y101.492 E17.44823
