;FLAVOR:Marlin
;TIME:5208
;Filament used: 10.2729m
;Layer height: 0.28
;MINX:69.925
;MINY:69.018
;MINZ:0.28
;MAXX:150.075
;MAXY:150.982
;MAXZ:31.64
;Generated with Cura_SteamEngine main
M82 ;absolute extrusion mode
M201 X500.00 Y500.00 Z100.00 E5000.00 ;Setup machine max acceleration
M203 X500.00 Y500.00 Z10.00 E50.00 ;Setup machine max feedrate
M204 P500.00 R1000.00 T500.00 ;Setup Print/Retract/Travel acceleration
M205 X8.00 Y8.00 Z0.40 E5.00 ;Setup Jerk
M220 S100 ;Reset Feedrate
M221 S100 ;Reset Flowrate

;*** Start Dual Nozzle/Bed Preheating ***
M140 S40 ; start preheating the bed
M104 S200 ?T0 ; start preheating hotend
M190 S40 ; heat to Cura Bed setting and WAIT
M109 S200 ?T0 ; heat to Cura Hotend and WAIT
;*** End Preheating ***


;*** Single Print Start Tone
M300 S1000 P500 ; chirp to indicate starting to print
;*** End Single Start Tone

G28 ;Home

G92 E0 ;Reset Extruder
G1 Z2.0 F3000 ;Move Z Axis up
G1 X10.1 Y20 Z0.28 F5000.0 ;Move to start position
G1 X10.1 Y200.0 Z0.28 F1500.0 E15 ;Draw the first line
G1 X10.4 Y200.0 Z0.28 F5000.0 ;Move to side a little
G1 X10.4 Y20 Z0.28 F1500.0 E30 ;Draw the second line
G92 E0 ;Reset Extruder
G1 Z2.0 F3000 ;Move Z Axis up
G92 E0
G92 E0
G1 F2700 E-3.05
;LAYER_COUNT:114
;LAYER:0
M107
M204 S500
M205 X5 Y5
G0 F7500 X73.106 Y71.848 Z0.28
G0 X69.926 Y79.779
M205 X8 Y8
;TYPE:SKIRT
G1 F2700 E0
G1 F1500 X69.935 Y79.114 E0.03144
G1 X69.987 Y78.211 E0.0742
G1 X70.119 Y77.316 E0.11698
G1 X70.329 Y76.437 E0.1597
G1 X70.616 Y75.58 E0.20243
G1 X70.978 Y74.751 E0.2452
G1 X71.412 Y73.957 E0.28798
G1 X71.914 Y73.205 E0.33072
G1 X72.48 Y72.5 E0.37346
G1 X73.106 Y71.848 E0.4162
G1 X73.788 Y71.254 E0.45896
G1 X74.52 Y70.723 E0.50171
G1 X75.295 Y70.258 E0.54444
G1 X76.109 Y69.863 E0.58721
G1 X76.954 Y69.542 E0.62995
G1 X77.824 Y69.297 E0.67268
G1 X78.713 Y69.13 E0.71544
G1 X79.872 Y69.031 E0.77044
G1 X80.48 Y69.018 E0.79919
G1 X139.289 Y69.019 E3.57951
G1 X139.987 Y69.029 E3.61252
G1 X140.89 Y69.082 E3.65528
G1 X141.785 Y69.214 E3.69805
G1 X142.664 Y69.425 E3.74079
G1 X143.521 Y69.713 E3.78353
G1 X144.349 Y70.076 E3.82627
G1 X145.143 Y70.51 E3.86905
G1 X145.894 Y71.012 E3.91176
G1 X146.599 Y71.579 E3.95453
G1 X147.25 Y72.206 E3.99726
G1 X147.844 Y72.888 E4.04002
G1 X148.375 Y73.62 E4.08278
G1 X148.839 Y74.396 E4.12552
G1 X149.233 Y75.21 E4.16828
G1 X149.553 Y76.056 E4.21104
G1 X149.798 Y76.926 E4.25377
G1 X149.964 Y77.815 E4.29653
G1 X150.062 Y78.966 E4.35114
G1 X150.075 Y79.573 E4.37984
G1 X150.074 Y140.148 E7.24366
G1 X150.065 Y140.875 E7.27803
G1 X150.014 Y141.777 E7.32074
G1 X149.883 Y142.672 E7.36351
G1 X149.674 Y143.552 E7.40627
G1 X149.388 Y144.409 E7.44898
G1 X149.027 Y145.239 E7.49177
G1 X148.595 Y146.033 E7.53451
G1 X148.093 Y146.785 E7.57725
G1 X147.528 Y147.491 E7.62
G1 X146.902 Y148.143 E7.66274
G1 X146.221 Y148.738 E7.70549
G1 X145.49 Y149.271 E7.74826
G1 X144.715 Y149.736 E7.79099
G1 X143.902 Y150.132 E7.83374
G1 X143.057 Y150.454 E7.87649
G1 X142.187 Y150.7 E7.91924
G1 X141.299 Y150.869 E7.96197
G1 X140.128 Y150.969 E8.01754
G1 X139.52 Y150.982 E8.04629
G1 X80.725 Y150.981 E10.82595
G1 X80.027 Y150.972 E10.85895
G1 X79.124 Y150.921 E10.90171
G1 X78.23 Y150.789 E10.94444
G1 X77.35 Y150.58 E10.9872
G1 X76.493 Y150.293 E11.02993
G1 X75.664 Y149.932 E11.07267
G1 X74.87 Y149.499 E11.11543
G1 X74.118 Y148.997 E11.15818
G1 X73.412 Y148.431 E11.20096
G1 X72.76 Y147.805 E11.24369
G1 X72.165 Y147.124 E11.28644
G1 X71.633 Y146.393 E11.32919
G1 X71.168 Y145.618 E11.37192
G1 X70.773 Y144.804 E11.41469
G1 X70.451 Y143.959 E11.45744
G1 X70.206 Y143.089 E11.50017
G1 X70.038 Y142.201 E11.5429
G1 X69.938 Y141.024 E11.59875
G1 X69.925 Y140.415 E11.62754
G1 X69.926 Y79.779 E14.49424
M205 X5 Y5
G1 F2700 E11.44424
;MESH:PhoneStandAdjustable_Stand.STL
G0 F7500 X79.485 Y79.779
G0 X80.595 Y79.779
G0 X81.35 Y80.443
M205 X8 Y8
;TYPE:WALL-INNER
G1 F2700 E14.49424
G1 F1500 X81.35 Y139.557 E17.59952
G1 X138.65 Y139.557 E20.6095
G1 X138.65 Y80.443 E23.71477
G1 X81.35 Y80.443 E26.72475
M205 X5 Y5
G0 F7500 X80.85 Y79.943
M205 X8 Y8
G1 F1500 X80.85 Y140.057 E29.88255
G1 X139.15 Y140.057 E32.94507
G1 X139.15 Y79.943 E36.10287
G1 X80.85 Y79.943 E39.16538
M205 X5 Y5
G0 F7500 X80.375 Y79.468
M205 X8 Y8
;TYPE:WALL-OUTER
G1 F1500 X80.375 Y140.532 E42.05232
G1 X139.625 Y140.532 E44.85349
G1 X139.625 Y79.468 E47.74043
G1 X80.375 Y79.468 E50.5416
M205 X5 Y5
G0 F7500 X80.375 Y79.668
G0 X81.045 Y80.138
G0 X81.5 Y80.775
G0 X81.682 Y80.775
M205 X8 Y8
;TYPE:SKIN
G1 F1500 X81.682 Y139.225 E53.30495
G1 X138.318 Y139.225 E55.98254
G1 X138.318 Y80.775 E58.7459
G1 X81.682 Y80.775 E61.42349
M205 X5 Y5
G1 F2700 E58.37349
G0 F7500 X81.5 Y80.775
G0 X138.428 Y80.665
G0 X138.5 Y81.453
G1 F2700 E61.42349
G0 F7500 X138.093 Y81.453
M205 X8 Y8
G1 F1500 X137.639 Y81 E61.45381
M205 X5 Y5
G0 F7500 X137.003 Y81
M205 X8 Y8
G1 F1500 X138.093 Y82.09 E61.52669
M205 X5 Y5
G0 F7500 X138.093 Y82.726
M205 X8 Y8
G1 F1500 X136.366 Y81 E61.64212
M205 X5 Y5
G0 F7500 X135.73 Y81
M205 X8 Y8
G1 F1500 X138.093 Y83.362 E61.80008
M205 X5 Y5
G0 F7500 X138.093 Y83.999
M205 X8 Y8
G1 F1500 X135.094 Y81 E62.00059
M205 X5 Y5
G0 F7500 X134.457 Y81
M205 X8 Y8
G1 F1500 X138.093 Y84.635 E62.24366
M205 X5 Y5
G0 F7500 X138.093 Y85.272
M205 X8 Y8
G1 F1500 X133.821 Y81 E62.52929
M205 X5 Y5
G0 F7500 X133.184 Y81
M205 X8 Y8
G1 F1500 X138.093 Y85.908 E62.85747
M205 X5 Y5
G0 F7500 X138.093 Y86.544
M205 X8 Y8
G1 F1500 X132.548 Y81 E63.22817
M205 X5 Y5
G0 F7500 X131.912 Y81
M205 X8 Y8
G1 F1500 X138.093 Y87.181 E63.64144
M205 X5 Y5
G0 F7500 X138.093 Y87.817
M205 X8 Y8
G1 F1500 X131.275 Y81 E64.09726
M205 X5 Y5
G0 F7500 X130.639 Y81
M205 X8 Y8
G1 F1500 X138.093 Y88.454 E64.59563
M205 X5 Y5
G0 F7500 X138.093 Y89.09
M205 X8 Y8
G1 F1500 X130.002 Y81 E65.13656
M205 X5 Y5
G0 F7500 X129.366 Y81
M205 X8 Y8
G1 F1500 X138.093 Y89.726 E65.72002
M205 X5 Y5
G0 F7500 X138.093 Y90.363
M205 X8 Y8
G1 F1500 X128.73 Y81 E66.34603
M205 X5 Y5
G0 F7500 X128.093 Y81
M205 X8 Y8
G1 F1500 X138.093 Y90.999 E67.01459
M205 X5 Y5
G0 F7500 X138.093 Y91.636
M205 X8 Y8
G1 F1500 X127.457 Y81 E67.72572
M205 X5 Y5
G0 F7500 X126.821 Y81
M205 X8 Y8
G1 F1500 X138.093 Y92.272 E68.47936
M205 X5 Y5
G0 F7500 X138.093 Y92.908
M205 X8 Y8
G1 F1500 X126.184 Y81 E69.27557
M205 X5 Y5
G0 F7500 X125.548 Y81
M205 X8 Y8
G1 F1500 X138.093 Y93.545 E70.11433
M205 X5 Y5
G0 F7500 X138.093 Y94.181
M205 X8 Y8
G1 F1500 X124.911 Y81 E70.99564
M205 X5 Y5
G0 F7500 X124.275 Y81
M205 X8 Y8
G1 F1500 X138.093 Y94.818 E71.91951
M205 X5 Y5
G0 F7500 X138.093 Y95.454
M205 X8 Y8
G1 F1500 X123.639 Y81 E72.88591
M205 X5 Y5
G0 F7500 X123.002 Y81
M205 X8 Y8
G1 F1500 X138.093 Y96.09 E73.89486
M205 X5 Y5
G0 F7500 X138.093 Y96.727
M205 X8 Y8
G1 F1500 X122.366 Y81 E74.94637
M205 X5 Y5
G0 F7500 X121.729 Y81
M205 X8 Y8
G1 F1500 X138.093 Y97.363 E76.04043
M205 X5 Y5
G0 F7500 X138.093 Y98
M205 X8 Y8
G1 F1500 X121.093 Y81 E77.17706
M205 X5 Y5
G0 F7500 X120.457 Y81
M205 X8 Y8
G1 F1500 X138.093 Y98.636 E78.3562
M205 X5 Y5
G0 F7500 X138.093 Y99.272
M205 X8 Y8
G1 F1500 X119.82 Y81 E79.5779
M205 X5 Y5
G0 F7500 X119.184 Y81
M205 X8 Y8
G1 F1500 X138.093 Y99.909 E80.84216
M205 X5 Y5
G0 F7500 X138.093 Y100.545
M205 X8 Y8
G1 F1500 X118.547 Y81 E82.14897
M205 X5 Y5
G0 F7500 X117.911 Y81
M205 X8 Y8
G1 F1500 X138.093 Y101.182 E83.49834
M205 X5 Y5
G0 F7500 X138.093 Y101.818
M205 X8 Y8
G1 F1500 X117.275 Y81 E84.89023
M205 X5 Y5
G0 F7500 X116.638 Y81
M205 X8 Y8
G1 F1500 X138.093 Y102.454 E86.32468
M205 X5 Y5
G0 F7500 X138.093 Y103.091
M205 X8 Y8
G1 F1500 X116.002 Y81 E87.80169
M205 X5 Y5
G0 F7500 X115.365 Y81
M205 X8 Y8
G1 F1500 X138.093 Y103.727 E89.32125
M205 X5 Y5
G0 F7500 X138.093 Y104.364
M205 X8 Y8
G1 F1500 X114.729 Y81 E90.88337
M205 X5 Y5
G0 F7500 X114.093 Y81
M205 X8 Y8
G1 F1500 X138.093 Y105 E92.48801
M205 X5 Y5
G0 F7500 X138.093 Y105.636
M205 X8 Y8
G1 F1500 X113.456 Y81 E94.13521
M205 X5 Y5
G0 F7500 X112.82 Y81
M205 X8 Y8
G1 F1500 X138.093 Y106.273 E95.82496
M205 X5 Y5
G0 F7500 X138.093 Y106.909
M205 X8 Y8
G1 F1500 X112.183 Y81 E97.55727
M205 X5 Y5
G0 F7500 X111.547 Y81
M205 X8 Y8
G1 F1500 X138.093 Y107.545 E99.33211
M205 X5 Y5
G0 F7500 X138.093 Y108.182
M205 X8 Y8
G1 F1500 X110.911 Y81 E101.1495
M205 X5 Y5
G0 F7500 X110.274 Y81
M205 X8 Y8
G1 F1500 X138.093 Y108.818 E103.00944
M205 X5 Y5
G0 F7500 X138.093 Y109.455
M205 X8 Y8
G1 F1500 X109.638 Y81 E104.91195
M205 X5 Y5
G0 F7500 X109.001 Y81
M205 X8 Y8
G1 F1500 X138.093 Y110.091 E106.85701
M205 X5 Y5
G0 F7500 X138.093 Y110.727
M205 X8 Y8
G1 F1500 X108.365 Y81 E108.84459
M205 X5 Y5
G0 F7500 X107.729 Y81
M205 X8 Y8
G1 F1500 X138.093 Y111.364 E110.87473
M205 X5 Y5
G0 F7500 X138.093 Y112
M205 X8 Y8
G1 F1500 X107.092 Y81 E112.94742
M205 X5 Y5
G0 F7500 X106.456 Y81
M205 X8 Y8
G1 F1500 X138.093 Y112.637 E115.06267
M205 X5 Y5
G0 F7500 X138.093 Y113.273
M205 X8 Y8
G1 F1500 X105.819 Y81 E117.22048
M205 X5 Y5
G0 F7500 X105.183 Y81
M205 X8 Y8
G1 F1500 X138.093 Y113.909 E119.42081
M205 X5 Y5
G0 F7500 X138.093 Y114.546
M205 X8 Y8
G1 F1500 X104.547 Y81 E121.6637
M205 X5 Y5
G0 F7500 X103.91 Y81
M205 X8 Y8
G1 F1500 X138.093 Y115.182 E123.94915
M205 X5 Y5
G0 F7500 X138.093 Y115.819
M205 X8 Y8
G1 F1500 X103.274 Y81 E126.27715
M205 X5 Y5
G0 F7500 X102.637 Y81
M205 X8 Y8
G1 F1500 X138.093 Y116.455 E128.6477
M205 X5 Y5
G0 F7500 X138.093 Y117.091
M205 X8 Y8
G1 F1500 X102.001 Y81 E131.06078
M205 X5 Y5
G0 F7500 X101.365 Y81
M205 X8 Y8
G1 F1500 X138.093 Y117.728 E133.51642
M205 X5 Y5
G0 F7500 X138.093 Y118.364
M205 X8 Y8
G1 F1500 X100.728 Y81 E136.01461
M205 X5 Y5
G0 F7500 X100.092 Y81
M205 X8 Y8
G1 F1500 X138.093 Y119.001 E138.55536
M205 X5 Y5
G0 F7500 X138.093 Y119.637
M205 X8 Y8
G1 F1500 X99.455 Y81 E141.13867
M205 X5 Y5
G0 F7500 X98.819 Y81
M205 X8 Y8
G1 F1500 X138.093 Y120.273 E143.7645
M205 X5 Y5
G0 F7500 X138.093 Y120.91
M205 X8 Y8
G1 F1500 X98.183 Y81 E146.43288
M205 X5 Y5
G0 F7500 X97.546 Y81
M205 X8 Y8
G1 F1500 X138.093 Y121.546 E149.14382
M205 X5 Y5
G0 F7500 X138.093 Y122.183
M205 X8 Y8
G1 F1500 X96.91 Y81 E151.89732
M205 X5 Y5
G0 F7500 X96.274 Y81
M205 X8 Y8
G1 F1500 X138.093 Y122.819 E154.69334
M205 X5 Y5
G0 F7500 X138.093 Y123.455
M205 X8 Y8
G1 F1500 X95.637 Y81 E157.53192
M205 X5 Y5
G0 F7500 X95.001 Y81
M205 X8 Y8
G1 F1500 X138.093 Y124.092 E160.41305
M205 X5 Y5
G0 F7500 X138.093 Y124.728
M205 X8 Y8
G1 F1500 X94.364 Y81 E163.33674
M205 X5 Y5
G0 F7500 X93.728 Y81
M205 X8 Y8
G1 F1500 X138.093 Y125.365 E166.30299
M205 X5 Y5
G0 F7500 X138.093 Y126.001
M205 X8 Y8
G1 F1500 X93.092 Y81 E169.31176
M205 X5 Y5
G0 F7500 X92.455 Y81
M205 X8 Y8
G1 F1500 X138.093 Y126.637 E172.36308
M205 X5 Y5
G0 F7500 X138.093 Y127.274
M205 X8 Y8
G1 F1500 X91.819 Y81 E175.45697
M205 X5 Y5
G0 F7500 X91.182 Y81
M205 X8 Y8
G1 F1500 X138.093 Y127.91 E178.59341
M205 X5 Y5
G0 F7500 X138.093 Y128.547
M205 X8 Y8
G1 F1500 X90.546 Y81 E181.7724
M205 X5 Y5
G0 F7500 X89.91 Y81
M205 X8 Y8
G1 F1500 X138.093 Y129.183 E184.99392
M205 X5 Y5
G0 F7500 X138.093 Y129.819
M205 X8 Y8
G1 F1500 X89.273 Y81 E188.25799
M205 X5 Y5
G0 F7500 X88.637 Y81
M205 X8 Y8
G1 F1500 X138.093 Y130.456 E191.56463
M205 X5 Y5
G0 F7500 X138.093 Y131.092
M205 X8 Y8
G1 F1500 X88 Y81 E194.91381
M205 X5 Y5
G0 F7500 X87.364 Y81
M205 X8 Y8
G1 F1500 X138.093 Y131.729 E198.30556
M205 X5 Y5
G0 F7500 X138.093 Y132.365
M205 X8 Y8
G1 F1500 X86.728 Y81 E201.73982
M205 X5 Y5
G0 F7500 X86.091 Y81
M205 X8 Y8
G1 F1500 X138.093 Y133.001 E205.21665
M205 X5 Y5
G0 F7500 X138.093 Y133.638
M205 X8 Y8
G1 F1500 X85.455 Y81 E208.73603
M205 X5 Y5
G0 F7500 X84.818 Y81
M205 X8 Y8
G1 F1500 X138.093 Y134.274 E212.29796
M205 X5 Y5
G0 F7500 X138.093 Y134.911
M205 X8 Y8
G1 F1500 X84.182 Y81 E215.90246
M205 X5 Y5
G0 F7500 X83.546 Y81
M205 X8 Y8
G1 F1500 X138.093 Y135.547 E219.54947
M205 X5 Y5
G0 F7500 X138.093 Y136.183
M205 X8 Y8
G1 F1500 X82.909 Y81 E223.23905
M205 X5 Y5
G0 F7500 X82.273 Y81
M205 X8 Y8
G1 F1500 X138.093 Y136.82 E226.97117
M205 X5 Y5
G0 F7500 X138.093 Y137.456
M205 X8 Y8
G1 F1500 X81.906 Y81.269 E230.72784
M205 X5 Y5
G0 F7500 X81.906 Y81.906
M205 X8 Y8
G1 F1500 X138.093 Y138.093 E234.48451
M205 X5 Y5
G0 F7500 X138.093 Y138.729
M205 X8 Y8
G1 F1500 X81.906 Y82.542 E238.24117
M205 X5 Y5
G0 F7500 X81.906 Y83.179
M205 X8 Y8
G1 F1500 X137.726 Y138.998 E241.97327
M205 X5 Y5
G0 F7500 X137.089 Y138.998
M205 X8 Y8
G1 F1500 X81.906 Y83.815 E245.66281
M205 X5 Y5
G0 F7500 X81.906 Y84.451
M205 X8 Y8
G1 F1500 X136.453 Y138.998 E249.30982
M205 X5 Y5
G0 F7500 X135.816 Y138.998
M205 X8 Y8
G1 F1500 X81.906 Y85.088 E252.91425
M205 X5 Y5
G0 F7500 X81.906 Y85.724
M205 X8 Y8
G1 F1500 X135.18 Y138.998 E256.47615
M205 X5 Y5
G0 F7500 X134.544 Y138.998
M205 X8 Y8
G1 F1500 X81.906 Y86.361 E259.9955
M205 X5 Y5
G0 F7500 X81.906 Y86.997
M205 X8 Y8
G1 F1500 X133.907 Y138.998 E263.47229
M205 X5 Y5
G0 F7500 X133.271 Y138.998
M205 X8 Y8
G1 F1500 X81.906 Y87.633 E266.90656
M205 X5 Y5
G0 F7500 X81.906 Y88.27
M205 X8 Y8
G1 F1500 X132.634 Y138.998 E270.29823
M205 X5 Y5
G0 F7500 X131.998 Y138.998
M205 X8 Y8
G1 F1500 X81.906 Y88.906 E273.64739
M205 X5 Y5
G0 F7500 X81.906 Y89.543
M205 X8 Y8
G1 F1500 X131.362 Y138.998 E276.95398
M205 X5 Y5
G0 F7500 X130.725 Y138.998
M205 X8 Y8
G1 F1500 X81.906 Y90.179 E280.21803
M205 X5 Y5
G0 F7500 X81.906 Y90.815
M205 X8 Y8
G1 F1500 X130.089 Y138.998 E283.43954
M205 X5 Y5
G0 F7500 X129.452 Y138.998
M205 X8 Y8
G1 F1500 X81.906 Y91.452 E286.61847
M205 X5 Y5
G0 F7500 X81.906 Y92.088
M205 X8 Y8
G1 F1500 X128.816 Y138.998 E289.75488
M205 X5 Y5
G0 F7500 X128.18 Y138.998
M205 X8 Y8
G1 F1500 X81.906 Y92.725 E292.84873
M205 X5 Y5
G0 F7500 X81.906 Y93.361
M205 X8 Y8
G1 F1500 X127.543 Y138.998 E295.90002
M205 X5 Y5
G0 F7500 X126.907 Y138.998
M205 X8 Y8
G1 F1500 X81.906 Y93.997 E298.90879
M205 X5 Y5
G0 F7500 X81.906 Y94.634
M205 X8 Y8
G1 F1500 X126.27 Y138.998 E301.87497
M205 X5 Y5
G0 F7500 X125.634 Y138.998
M205 X8 Y8
G1 F1500 X81.906 Y95.27 E304.79863
M205 X5 Y5
G0 F7500 X81.906 Y95.907
M205 X8 Y8
G1 F1500 X124.998 Y138.998 E307.67973
M205 X5 Y5
G0 F7500 X124.361 Y138.998
M205 X8 Y8
G1 F1500 X81.906 Y96.543 E310.51827
M205 X5 Y5
G0 F7500 X81.906 Y97.179
M205 X8 Y8
G1 F1500 X123.725 Y138.998 E313.31429
M205 X5 Y5
G0 F7500 X123.088 Y138.998
M205 X8 Y8
G1 F1500 X81.906 Y97.816 E316.06772
M205 X5 Y5
G0 F7500 X81.906 Y98.452
M205 X8 Y8
G1 F1500 X122.452 Y138.998 E318.77863
M205 X5 Y5
G0 F7500 X121.816 Y138.998
M205 X8 Y8
G1 F1500 X81.906 Y99.088 E321.44702
M205 X5 Y5
G0 F7500 X81.906 Y99.725
M205 X8 Y8
G1 F1500 X121.179 Y138.998 E324.07281
M205 X5 Y5
G0 F7500 X120.543 Y138.998
M205 X8 Y8
G1 F1500 X81.906 Y100.361 E326.65608
M205 X5 Y5
G0 F7500 X81.906 Y100.998
M205 X8 Y8
G1 F1500 X119.906 Y138.998 E329.19677
M205 X5 Y5
G0 F7500 X119.27 Y138.998
M205 X8 Y8
G1 F1500 X81.906 Y101.634 E331.69493
M205 X5 Y5
G0 F7500 X81.906 Y102.27
M205 X8 Y8
G1 F1500 X118.634 Y138.998 E334.15056
M205 X5 Y5
G0 F7500 X117.997 Y138.998
M205 X8 Y8
G1 F1500 X81.906 Y102.907 E336.56361
M205 X5 Y5
G0 F7500 X81.906 Y103.543
M205 X8 Y8
G1 F1500 X117.361 Y138.998 E338.93413
M205 X5 Y5
G0 F7500 X116.724 Y138.998
M205 X8 Y8
G1 F1500 X81.906 Y104.18 E341.26207
M205 X5 Y5
G0 F7500 X81.906 Y104.816
M205 X8 Y8
G1 F1500 X116.088 Y138.998 E343.54748
M205 X5 Y5
G0 F7500 X115.452 Y138.998
M205 X8 Y8
G1 F1500 X81.906 Y105.452 E345.79036
M205 X5 Y5
G0 F7500 X81.906 Y106.089
M205 X8 Y8
G1 F1500 X114.815 Y138.998 E347.99066
M205 X5 Y5
G0 F7500 X114.179 Y138.998
M205 X8 Y8
G1 F1500 X81.906 Y106.725 E350.14844
M205 X5 Y5
G0 F7500 X81.906 Y107.362
M205 X8 Y8
G1 F1500 X113.542 Y138.998 E352.26362
M205 X5 Y5
G0 F7500 X112.906 Y138.998
M205 X8 Y8
G1 F1500 X81.906 Y107.998 E354.33628
M205 X5 Y5
G0 F7500 X81.906 Y108.634
M205 X8 Y8
G1 F1500 X112.27 Y138.998 E356.36642
M205 X5 Y5
G0 F7500 X111.633 Y138.998
M205 X8 Y8
G1 F1500 X81.906 Y109.271 E358.35397
M205 X5 Y5
G0 F7500 X81.906 Y109.907
M205 X8 Y8
G1 F1500 X110.997 Y138.998 E360.299
M205 X5 Y5
G0 F7500 X110.36 Y138.998
M205 X8 Y8
G1 F1500 X81.906 Y110.544 E362.20143
M205 X5 Y5
G0 F7500 X81.906 Y111.18
M205 X8 Y8
G1 F1500 X109.724 Y138.998 E364.06135
M205 X5 Y5
G0 F7500 X109.088 Y138.998
M205 X8 Y8
G1 F1500 X81.906 Y111.816 E365.87874
M205 X5 Y5
G0 F7500 X81.906 Y112.453
M205 X8 Y8
G1 F1500 X108.451 Y138.998 E367.65354
