
;FLAVOR:Marlin
;TIME:0
;Filament used: 0m
;Layer height: 0
;MINX:0
;MINY:0
;MINZ:0
;MAXX:220
;MAXY:220
;MAXZ:250

;Time to print!!!!!
;GCode created with FullControl - tell us what you're printing!
;info@fullcontrol.xyz or tag FullControlXYZ on Twitter/Instagram 

G28 ; home axes
M140 S50 ; set bed temp and continue
M105
M104 S200 ; set hotend temp and continue
M190 S50 ; set bed temp and wait
M105
M109 S200  ; set hotend temp and wait
G90 ; absolute coordinates
G21 ; set units to millimeters
M83 ; relative extrusion
M106 S255 ; set fan speed
M220 S100 ; set speed factor override percentage
M221 S100 ; set extrude factor override percentage
G0 F8000 X0.0 Y0.0 Z10.0
G1 F250 E20.7876
G0 F250 Z30.0
G0 F8000 X10.0 Y10.0 Z0.3
;-----
; END OF STARTING PROCEDURE
;-----

;-----
; START OF PRIMER PROCEDURE
;-----
G0 F8000 Y14.0 Z0.32
G1 F500 X110.0 E13.3041
G1 Y12.0 E0.266081
G1 X10.0 E13.3041
G1 Y14.0 E0.266081
G1 Y16.0 E0.266081
G1 X25.5 E2.06213
G1 Y25.5 E1.26389
;-----
; END OF PRIMER PROCEDURE
;-----

G1 X96.9029 Y96.9029 E13.4343
G1 X97.6917 Y95.8319 E0.176961
G1 X97.8639 Y94.2358 E0.213572
G1 X97.6246 Y92.3835 E0.248489
G1 X97.8583 Y91.0059 E0.185882
G1 X99.1245 Y90.4154 E0.185882
G1 X100.974 Y90.155 E0.248489
G1 X102.467 Y89.5658 E0.213572
G1 X103.291 Y88.5213 E0.176961
G1 X103.767 Y87.2795 E0.176961
G1 X103.51 Y85.6949 E0.213572
G1 X102.789 Y83.9722 E0.248489
G1 X102.649 Y82.5821 E0.185882
G1 X103.713 Y81.677 E0.185882
G1 X105.427 Y80.9355 E0.248489
G1 X106.711 Y79.9714 E0.213572
G1 X107.228 Y78.746 E0.176961
G1 X107.358 Y77.4222 E0.176961
G1 X106.69 Y75.9625 E0.213572
G1 X105.537 Y74.4929 E0.248489
G1 X105.034 Y73.1896 E0.185882
G1 X105.82 Y72.0347 E0.185882
G1 X107.277 Y70.8653 E0.248489
G1 X108.259 Y69.5954 E0.213572
G1 X108.432 Y68.2766 E0.176961
G1 X108.207 Y66.9657 E0.176961
G1 X107.176 Y65.7354 E0.213572
G1 X105.675 Y64.624 E0.248489
G1 X104.844 Y63.5009 E0.185882
G1 X105.296 Y62.1788 E0.185882
G1 X106.39 Y60.6651 E0.248489
G1 X107.0 Y59.1802 E0.213572
G1 X106.818 Y57.8626 E0.176961
G1 X106.253 Y56.6584 E0.176961
G1 X104.933 Y55.7455 E0.213572
G1 X103.19 Y55.0719 E0.248489
G1 X102.091 Y54.2093 E0.185882
G1 X102.177 Y52.8147 E0.185882
G1 X102.83 Y51.065 E0.248489
G1 X103.025 Y49.4716 E0.213572
G1 X102.5 Y48.2494 E0.176961
G1 X101.636 Y47.2381 E0.176961
G1 X100.121 Y46.7079 E0.213572
G1 X98.0759 Y46.7221 E0.272065
G1 X99.1198 Y43.6589 E0.430548
G1 X98.4246 Y42.7325 E0.154089
G1 X97.6025 Y41.9414 E0.151785
G1 X96.6867 Y41.0901 E0.166353
G1 X95.7218 Y40.1966 E0.174956
G1 X94.7554 Y39.3047 E0.174956
G1 X93.8348 Y38.4586 E0.166353
G1 X92.9816 Y37.7011 E0.151785
G1 X92.0036 Y37.0807 E0.154089
G1 X89.0764 Y38.4024 E0.427291
G1 X88.1252 Y37.6103 E0.164669
G1 X87.5491 Y36.5067 E0.165637
G1 X87.199 Y35.3187 E0.164765
G1 X87.0888 Y34.0916 E0.163913
G1 X87.223 Y32.872 E0.163235
G1 X87.5965 Y31.7064 E0.162834
G1 X88.1951 Y30.6396 E0.162752
G1 X88.9958 Y29.7125 E0.162976
G1 X89.9677 Y28.9609 E0.163451
G1 X91.0732 Y28.4141 E0.164092
G1 X92.2698 Y28.0934 E0.164809
G1 X93.5112 Y28.0115 E0.165509
G1 X94.7494 Y28.1719 E0.166111
G1 X95.9367 Y28.5687 E0.16655
G1 X97.0274 Y29.1868 E0.166781
G1 X97.8311 Y30.8345 E0.243907
G1 X98.1441 Y33.0013 E0.29126
G1 X98.8632 Y34.5453 E0.226601
G1 X99.9575 Y35.6145 E0.203536
G1 X101.109 Y36.6215 E0.203536
G1 X102.705 Y37.2172 E0.226601
G1 X104.89 Y37.3593 E0.29126
G1 X106.595 Y38.0312 E0.243907
G1 X106.933 Y39.8331 E0.243907
G1 X106.661 Y42.0053 E0.29126
G1 X106.945 Y43.6847 E0.226601
G1 X107.716 Y45.0058 E0.203536
G1 X108.56 Y46.2821 E0.203536
G1 X109.94 Y47.2796 E0.226601
G1 X112.009 Y47.9958 E0.29126
G1 X113.476 Y49.0959 E0.243907
G1 X113.324 Y50.923 E0.243907
G1 X112.485 Y52.9451 E0.29126
G1 X112.314 Y54.6397 E0.226601
G1 X112.707 Y56.1181 E0.203536
G1 X113.182 Y57.5724 E0.203536
G1 X114.249 Y58.9002 E0.226601
G1 X116.054 Y60.1393 E0.29126
G1 X117.176 Y61.5889 E0.243907
G1 X116.546 Y63.3103 E0.243907
G1 X115.201 Y65.0377 E0.29126
G1 X114.586 Y66.6262 E0.226601
G1 X114.574 Y68.156 E0.203536
G1 X114.646 Y69.6842 E0.203536
G1 X115.323 Y71.2473 E0.226601
G1 X116.734 Y72.9206 E0.29126
G1 X117.432 Y74.6159 E0.243907
G1 X116.368 Y76.1085 E0.243907
G1 X114.613 Y77.4175 E0.29126
G1 X113.599 Y78.7862 E0.226601
G1 X113.182 Y80.258 E0.203536
G1 X112.846 Y81.7506 E0.203536
G1 X113.084 Y83.4372 E0.226601
G1 X114.001 Y85.4249 E0.29126
G1 X114.225 Y87.2445 E0.243907
G1 X112.803 Y88.4014 E0.243907
G1 X110.764 Y89.1983 E0.29126
G1 X109.423 Y90.2492 E0.226601
G1 X108.63 Y91.5577 E0.203536
G1 X107.911 Y92.908 E0.203536
G1 X107.693 Y94.5972 E0.226601
G1 X108.051 Y96.7571 E0.29126
G1 X107.784 Y98.5708 E0.243907
G1 X106.106 Y99.3092 E0.243907
G1 X103.929 Y99.537 E0.29126
G1 X102.358 Y100.195 E0.226601
G1 X101.246 Y101.246 E0.203536
G1 X100.195 Y102.358 E0.203536
G1 X99.537 Y103.929 E0.226601
G1 X99.3092 Y106.106 E0.29126
G1 X98.5708 Y107.784 E0.243907
G1 X96.7571 Y108.051 E0.243907
G1 X94.5972 Y107.693 E0.29126
G1 X92.908 Y107.911 E0.226601
G1 X91.5577 Y108.63 E0.203536
G1 X90.2492 Y109.423 E0.203536
G1 X89.1983 Y110.764 E0.226601
G1 X88.4014 Y112.803 E0.29126
G1 X87.2445 Y114.225 E0.243907
G1 X85.4249 Y114.001 E0.243907
G1 X83.4372 Y113.084 E0.29126
G1 X81.7506 Y112.846 E0.226601
G1 X80.258 Y113.182 E0.203536
G1 X78.7862 Y113.599 E0.203536
G1 X77.4175 Y114.613 E0.226601
G1 X76.1085 Y116.368 E0.29126
G1 X74.6159 Y117.432 E0.243907
G1 X72.9206 Y116.734 E0.243907
G1 X71.2473 Y115.323 E0.29126
G1 X69.6842 Y114.646 E0.226601
G1 X68.156 Y114.574 E0.203536
G1 X66.6262 Y114.586 E0.203536
G1 X65.0377 Y115.201 E0.226601
G1 X63.3103 Y116.546 E0.29126
G1 X61.5889 Y117.176 E0.243907
G1 X60.1393 Y116.054 E0.243907
G1 X58.9002 Y114.249 E0.29126
G1 X57.5724 Y113.182 E0.226601
G1 X56.1181 Y112.707 E0.203536
G1 X54.6397 Y112.314 E0.203536
G1 X52.9451 Y112.485 E0.226601
G1 X50.923 Y113.324 E0.29126
G1 X49.0959 Y113.476 E0.243907
G1 X47.9958 Y112.009 E0.243907
G1 X47.2796 Y109.94 E0.29126
G1 X46.2821 Y108.56 E0.226601
G1 X45.0058 Y107.716 E0.203536
G1 X43.6847 Y106.945 E0.203536
G1 X42.0053 Y106.661 E0.226601
G1 X39.8331 Y106.933 E0.29126
G1 X38.0312 Y106.595 E0.243907
G1 X37.3593 Y104.89 E0.243907
G1 X37.2172 Y102.705 E0.29126
G1 X36.6215 Y101.109 E0.226601
G1 X35.6145 Y99.9575 E0.203536
G1 X34.5453 Y98.8632 E0.203536
G1 X33.0013 Y98.1441 E0.226601
G1 X30.8345 Y97.8311 E0.29126
G1 X29.1868 Y97.0274 E0.243907
G1 X28.5687 Y95.9367 E0.166781
G1 X28.1719 Y94.7494 E0.16655
G1 X28.0115 Y93.5112 E0.166111
G1 X28.0934 Y92.2698 E0.165509
G1 X28.4141 Y91.0732 E0.164809
G1 X28.9609 Y89.9677 E0.164092
G1 X29.7125 Y88.9958 E0.163451
G1 X30.6396 Y88.1951 E0.162976
G1 X31.7064 Y87.5965 E0.162752
G1 X32.872 Y87.223 E0.162834
G1 X34.0916 Y87.0888 E0.163235
G1 X35.3187 Y87.199 E0.163913
G1 X36.5067 Y87.5491 E0.164765
G1 X37.6103 Y88.1252 E0.165637
G1 X38.4024 Y89.0764 E0.164669
G1 X37.0807 Y92.0036 E0.427291
G1 X37.7011 Y92.9816 E0.154089
G1 X38.4586 Y93.8348 E0.151785
G1 X39.3047 Y94.7554 E0.166353
G1 X40.1966 Y95.7218 E0.174956
G1 X41.0901 Y96.6867 E0.174956
G1 X41.9414 Y97.6025 E0.166353
G1 X42.7325 Y98.4246 E0.151785
G1 X43.6589 Y99.1198 E0.154089
G1 X46.7221 Y98.0759 E0.430548
G1 X46.7079 Y100.121 E0.272065
G1 X47.2381 Y101.636 E0.213572
G1 X48.2494 Y102.5 E0.176961
G1 X49.4716 Y103.025 E0.176961
G1 X51.065 Y102.83 E0.213572
G1 X52.8147 Y102.177 E0.248489
G1 X54.2093 Y102.091 E0.185882
G1 X55.0719 Y103.19 E0.185882
G1 X55.7455 Y104.933 E0.248489
G1 X56.6584 Y106.253 E0.213572
G1 X57.8626 Y106.818 E0.176961
G1 X59.1802 Y107.0 E0.176961
G1 X60.6651 Y106.39 E0.213572
G1 X62.1788 Y105.296 E0.248489
G1 X63.5009 Y104.844 E0.185882
G1 X64.624 Y105.675 E0.185882
G1 X65.7354 Y107.176 E0.248489
G1 X66.9657 Y108.207 E0.213572
G1 X68.2766 Y108.432 E0.176961
G1 X69.5954 Y108.259 E0.176961
G1 X70.8653 Y107.277 E0.213572
G1 X72.0347 Y105.82 E0.248489
G1 X73.1896 Y105.034 E0.185882
G1 X74.4929 Y105.537 E0.185882
G1 X75.9625 Y106.69 E0.248489
G1 X77.4222 Y107.358 E0.213572
G1 X78.746 Y107.228 E0.176961
G1 X79.9714 Y106.711 E0.176961
G1 X80.9355 Y105.427 E0.213572
G1 X81.677 Y103.713 E0.248489
G1 X82.5821 Y102.649 E0.185882
G1 X83.9722 Y102.789 E0.185882
G1 X85.6949 Y103.51 E0.248489
G1 X87.2795 Y103.767 E0.213572
G1 X88.5213 Y103.291 E0.176961
G1 X89.5658 Y102.467 E0.176961
G1 X90.155 Y100.974 E0.213572
G1 X90.4154 Y99.1245 E0.248489
G1 X91.0059 Y97.8583 E0.185882
G1 X92.3835 Y97.6246 E0.185882
G1 X94.2358 Y97.8639 E0.248489
G1 X95.8319 Y97.6917 E0.213572
G1 X96.9029 Y96.9029 E0.176961
G1 X97.3166 Y97.3166 E0.0778287
G1 X98.3042 Y96.4047 E0.17884
G1 X99.6389 Y95.7874 E0.195645
G1 X101.301 Y95.3857 E0.227513
G1 X102.589 Y94.6111 E0.199882
G1 X102.994 Y93.1644 E0.199882
G1 X102.941 Y91.4552 E0.227513
G1 X103.182 Y90.0045 E0.195645
G1 X103.799 Y88.8105 E0.17884
G1 X104.51 Y87.6693 E0.17884
G1 X105.633 Y86.7203 E0.195645
G1 X107.129 Y85.8922 E0.227513
G1 X108.165 Y84.804 E0.199882
G1 X108.173 Y83.3016 E0.199882
G1 X107.668 Y81.6677 E0.227513
G1 X107.516 Y80.205 E0.195645
G1 X107.795 Y78.89 E0.17884
G1 X108.178 Y77.6013 E0.17884
G1 X109.009 Y76.3883 E0.195645
G1 X110.232 Y75.1932 E0.227513
G1 X110.942 Y73.8693 E0.199882
G1 X110.551 Y72.4187 E0.199882
G1 X109.631 Y70.9771 E0.227513
G1 X109.097 Y69.607 E0.195645
G1 X109.017 Y68.2651 E0.17884
G1 X109.044 Y66.9212 E0.17884
G1 X109.525 Y65.5312 E0.195645
G1 X110.387 Y64.0545 E0.227513
G1 X110.721 Y62.5897 E0.199882
G1 X109.959 Y61.2947 E0.199882
G1 X108.69 Y60.1485 E0.227513
G1 X107.812 Y58.9692 E0.195645
G1 X107.379 Y57.6965 E0.17884
G1 X107.049 Y56.3934 E0.17884
G1 X107.143 Y54.9259 E0.195645
G1 X107.583 Y53.2734 E0.227513
G1 X107.517 Y51.7724 E0.199882
G1 X106.439 Y50.7258 E0.199882
G1 X104.911 Y49.9571 E0.227513
G1 X103.752 Y49.0529 E0.195645
G1 X102.997 Y47.9405 E0.17884
G1 X102.333 Y46.7716 E0.17884
G1 X102.035 Y45.3316 E0.195645
G1 X102.021 Y43.6215 E0.227513
G1 X101.559 Y42.1919 E0.199882
G1 X100.242 Y41.4685 E0.199882
G1 X98.5657 Y41.1323 E0.227513
G1 X97.2077 Y40.5679 E0.195645
G1 X96.1851 Y39.6955 E0.17884
G1 X95.6117 Y38.3084 E0.199672
G1 X95.534 Y36.2353 E0.275999
G1 X93.4912 Y36.597 E0.275999
G1 X92.0144 Y36.3294 E0.199672
G1 X91.6348 Y36.0048 E0.0664464
G1 X91.3246 Y35.6147 E0.0663122
G1 X91.0956 Y35.1741 E0.0660674
G1 X90.9567 Y34.6998 E0.0657543
G1 X90.9133 Y34.2099 E0.0654262
G1 X90.9672 Y33.7233 E0.0651374
G1 X91.1162 Y33.2585 E0.0649337
G1 X91.3547 Y32.8334 E0.0648453
G1 X91.6735 Y32.4644 E0.0648822
G1 X92.0604 Y32.1656 E0.0650346
G1 X92.5004 Y31.9485 E0.0652763
G1 X92.9767 Y31.8216 E0.0655696
G1 X93.4708 Y31.7898 E0.0658717
G1 X93.9637 Y31.8544 E0.0661413
G1 X94.4365 Y32.0129 E0.0663426
G1 X94.871 Y32.2593 E0.06645
G1 X95.6979 Y33.6669 E0.217197
G1 X95.9014 Y35.7801 E0.282439
G1 X98.0099 Y35.5329 E0.282439
G1 X99.5604 Y36.044 E0.217197
G1 X100.597 Y37.1399 E0.200658
G1 X101.231 Y38.6117 E0.213199
G1 X101.476 Y40.3775 E0.237183
G1 X102.01 Y41.8193 E0.204548
G1 X103.325 Y42.6157 E0.204548
G1 X105.013 Y43.1901 E0.237183
G1 X106.339 Y44.0902 E0.213199
G1 X107.22 Y45.3147 E0.200658
G1 X107.928 Y46.6461 E0.200658
G1 X108.149 Y48.2333 E0.213199
G1 X107.918 Y50.001 E0.237183
G1 X108.05 Y51.5328 E0.204548
G1 X109.107 Y52.6494 E0.204548
G1 X110.582 Y53.6507 E0.237183
G1 X111.622 Y54.8701 E0.213199
G1 X112.147 Y56.2842 E0.200658
G1 X112.477 Y57.7559 E0.200658
G1 X112.269 Y59.3448 E0.213199
G1 X111.577 Y60.988 E0.237183
G1 X111.299 Y62.5001 E0.204548
G1 X112.022 Y63.8569 E0.204548
G1 X113.179 Y65.2135 E0.237183
G1 X113.858 Y66.665 E0.213199
G1 X113.989 Y68.1675 E0.200658
G1 X113.917 Y69.6741 E0.200658
G1 X113.295 Y71.1511 E0.213199
G1 X112.193 Y72.552 E0.237183
G1 X111.524 Y73.9362 E0.204548
G1 X111.861 Y75.4362 E0.204548
G1 X112.617 Y77.0509 E0.237183
G1 X112.887 Y78.6305 E0.213199
G1 X112.615 Y80.114 E0.200658
G1 X112.146 Y81.5476 E0.200658
G1 X111.155 Y82.8069 E0.213199
G1 X109.72 Y83.8653 E0.237183
G1 X108.708 Y85.0226 E0.204548
G1 X108.636 Y86.5584 E0.204548
G1 X108.936 Y88.3156 E0.237183
G1 X108.778 Y89.9103 E0.213199
G1 X108.122 Y91.2685 E0.200658
G1 X107.29 Y92.5266 E0.200658
G1 X106.001 Y93.4781 E0.213199
G1 X104.337 Y94.1182 E0.237183
G1 X103.054 Y94.9657 E0.204548
G1 X102.577 Y96.4273 E0.204548
G1 X102.401 Y98.2014 E0.237183
G1 X101.825 Y99.697 E0.213199
G1 X100.833 Y100.833 E0.200658
G1 X99.697 Y101.825 E0.200658
G1 X98.2014 Y102.401 E0.213199
G1 X96.4273 Y102.577 E0.237183
G1 X94.9657 Y103.054 E0.204548
G1 X94.1182 Y104.337 E0.204548
G1 X93.4781 Y106.001 E0.237183
G1 X92.5266 Y107.29 E0.213199
G1 X91.2685 Y108.122 E0.200658
G1 X89.9103 Y108.778 E0.200658
G1 X88.3156 Y108.936 E0.213199
G1 X86.5584 Y108.636 E0.237183
G1 X85.0226 Y108.708 E0.204548
G1 X83.8653 Y109.72 E0.204548
G1 X82.8069 Y111.155 E0.237183
G1 X81.5476 Y112.146 E0.213199
G1 X80.114 Y112.615 E0.200658
G1 X78.6305 Y112.887 E0.200658
G1 X77.0509 Y112.617 E0.213199
G1 X75.4362 Y111.861 E0.237183
G1 X73.9362 Y111.524 E0.204548
G1 X72.552 Y112.193 E0.204548
G1 X71.1511 Y113.295 E0.237183
G1 X69.6741 Y113.917 E0.213199
G1 X68.1675 Y113.989 E0.200658
G1 X66.665 Y113.858 E0.200658
G1 X65.2135 Y113.179 E0.213199
G1 X63.8569 Y112.022 E0.237183
G1 X62.5001 Y111.299 E0.204548
G1 X60.988 Y111.577 E0.204548
G1 X59.3448 Y112.269 E0.237183
G1 X57.7559 Y112.477 E0.213199
G1 X56.2842 Y112.147 E0.200658
G1 X54.8701 Y111.622 E0.200658
G1 X53.6507 Y110.582 E0.213199
G1 X52.6494 Y109.107 E0.237183
G1 X51.5328 Y108.05 E0.204548
G1 X50.001 Y107.918 E0.204548
G1 X48.2333 Y108.149 E0.237183
G1 X46.6461 Y107.928 E0.213199
G1 X45.3147 Y107.22 E0.200658
G1 X44.0902 Y106.339 E0.200658
G1 X43.1901 Y105.013 E0.213199
G1 X42.6157 Y103.325 E0.237183
G1 X41.8193 Y102.01 E0.204548
G1 X40.3775 Y101.476 E0.204548
G1 X38.6117 Y101.231 E0.237183
G1 X37.1399 Y100.597 E0.213199
G1 X36.044 Y99.5604 E0.200658
G1 X35.5329 Y98.0099 E0.217197
G1 X35.7801 Y95.9014 E0.282439
G1 X33.6669 Y95.6979 E0.282439
G1 X32.2593 Y94.871 E0.217197
G1 X32.0129 Y94.4365 E0.06645
G1 X31.8544 Y93.9637 E0.0663426
G1 X31.7898 Y93.4708 E0.0661413
G1 X31.8216 Y92.9767 E0.0658717
G1 X31.9485 Y92.5004 E0.0655696
G1 X32.1656 Y92.0604 E0.0652763
G1 X32.4644 Y91.6735 E0.0650346
G1 X32.8334 Y91.3547 E0.0648822
G1 X33.2585 Y91.1162 E0.0648453
G1 X33.7233 Y90.9672 E0.0649337
G1 X34.2099 Y90.9133 E0.0651374
G1 X34.6998 Y90.9567 E0.0654262
G1 X35.1741 Y91.0956 E0.0657543
G1 X35.6147 Y91.3246 E0.0660674
G1 X36.0048 Y91.6348 E0.0663122
G1 X36.3294 Y92.0144 E0.0664464
G1 X36.597 Y93.4912 E0.199672
G1 X36.2353 Y95.534 E0.275999
G1 X38.3084 Y95.6117 E0.275999
G1 X39.6955 Y96.1851 E0.199672
G1 X40.5679 Y97.2077 E0.17884
G1 X41.1323 Y98.5657 E0.195645
G1 X41.4685 Y100.242 E0.227513
G1 X42.1919 Y101.559 E0.199882
G1 X43.6215 Y102.021 E0.199882
G1 X45.3316 Y102.035 E0.227513
G1 X46.7716 Y102.333 E0.195645
G1 X47.9405 Y102.997 E0.17884
G1 X49.0529 Y103.752 E0.17884
G1 X49.9571 Y104.911 E0.195645
G1 X50.7258 Y106.439 E0.227513
G1 X51.7724 Y107.517 E0.199882
G1 X53.2734 Y107.583 E0.199882
G1 X54.9259 Y107.143 E0.227513
G1 X56.3934 Y107.049 E0.195645
G1 X57.6965 Y107.379 E0.17884
G1 X58.9692 Y107.812 E0.17884
G1 X60.1485 Y108.69 E0.195645
G1 X61.2947 Y109.959 E0.227513
G1 X62.5897 Y110.721 E0.199882
G1 X64.0545 Y110.387 E0.199882
G1 X65.5312 Y109.525 E0.227513
G1 X66.9212 Y109.044 E0.195645
G1 X68.2651 Y109.017 E0.17884
G1 X69.607 Y109.097 E0.17884
G1 X70.9771 Y109.631 E0.195645
G1 X72.4187 Y110.551 E0.227513
G1 X73.8693 Y110.942 E0.199882
G1 X75.1932 Y110.232 E0.199882
G1 X76.3883 Y109.009 E0.227513
G1 X77.6013 Y108.178 E0.195645
G1 X78.89 Y107.795 E0.17884
G1 X80.205 Y107.516 E0.17884
G1 X81.6677 Y107.668 E0.195645
G1 X83.3016 Y108.173 E0.227513
G1 X84.804 Y108.165 E0.199882
G1 X85.8922 Y107.129 E0.199882
G1 X86.7203 Y105.633 E0.227513
G1 X87.6693 Y104.51 E0.195645
G1 X88.8105 Y103.799 E0.17884
G1 X90.0045 Y103.182 E0.17884
G1 X91.4552 Y102.941 E0.195645
G1 X93.1644 Y102.994 E0.227513
G1 X94.6111 Y102.589 E0.199882
G1 X95.3857 Y101.301 E0.199882
G1 X95.7937 Y99.6462 Z0.42 E0.227167
G1 X96.4219 Y98.3226 Z0.52 E0.195365
G1 X97.3442 Y97.3442 Z0.62 E0.179382
G1 F500 X96.9484 Y96.9484 Z0.72 E0.0756475
G1 X97.7413 Y95.8783 E0.177188
G1 X97.93 Y94.2936 E0.212324
G1 X97.715 Y92.4572 E0.245981
