;FLAVOR:Marlin
;TIME:1995
;Filament used: 2.30771m
;Layer height: 0.28
;MINX:89.481
;MINY:83.435
;MINZ:0.28
;MAXX:140.565
;MAXY:136.565
;MAXZ:15.68
;Generated with Cura_SteamEngine main
M82 ;absolute extrusion mode
M201 X500.00 Y500.00 Z100.00 E5000.00 ;Setup machine max acceleration
M203 X500.00 Y500.00 Z10.00 E50.00 ;Setup machine max feedrate
M204 P500.00 R1000.00 T500.00 ;Setup Print/Retract/Travel acceleration
M205 X8.00 Y8.00 Z0.40 E5.00 ;Setup Jerk
M220 S100 ;Reset Feedrate
M221 S100 ;Reset Flowrate

;*** Start Dual Nozzle/Bed Preheating ***
M140 S60 ; start preheating the bed
M104 S210 ?T0 ; start preheating hotend
M190 S60 ; heat to Cura Bed setting and WAIT
M109 S210 ?T0 ; heat to Cura Hotend and WAIT
;*** End Preheating ***


;*** Single Print Start Tone
M300 S1000 P500 ; chirp to indicate starting to print
;*** End Single Start Tone

G28 ;Home

G92 E0 ;Reset Extruder
G1 Z2.0 F3000 ;Move Z Axis up
G1 X10.1 Y20 Z0.28 F5000.0 ;Move to start position
G1 X10.1 Y200.0 Z0.28 F1500.0 E15 ;Draw the first line
G1 X10.4 Y200.0 Z0.28 F5000.0 ;Move to side a little
G1 X10.4 Y20 Z0.28 F1500.0 E30 ;Draw the second line
G92 E0 ;Reset Extruder
G1 Z2.0 F3000 ;Move Z Axis up
G92 E0
G92 E0
G1 F2700 E-2.5
;LAYER_COUNT:56
;LAYER:0
M107
M204 S500
M205 X5 Y5
G0 F7500 X92.672 Y86.516 Z0.28
G0 X89.482 Y94.64
M205 X8 Y8
;TYPE:SKIRT
G1 F2700 E0
G1 F1500 X89.491 Y93.975 E0.03144
G1 X89.543 Y93.052 E0.07515
G1 X89.675 Y92.138 E0.11881
G1 X89.886 Y91.238 E0.16251
G1 X90.174 Y90.36 E0.2062
G1 X90.536 Y89.51 E0.24987
G1 X90.971 Y88.695 E0.29355
G1 X91.474 Y87.92 E0.33723
G1 X92.043 Y87.192 E0.38091
G1 X92.672 Y86.516 E0.42457
G1 X93.358 Y85.896 E0.46828
G1 X94.094 Y85.338 E0.51195
G1 X94.876 Y84.846 E0.55563
G1 X95.698 Y84.424 E0.59931
G1 X96.553 Y84.074 E0.64299
G1 X97.435 Y83.799 E0.68667
G1 X98.337 Y83.602 E0.73032
G1 X99.254 Y83.483 E0.77404
G1 X99.866 Y83.448 E0.80302
G1 X100.486 Y83.435 E0.83233
G1 X119.304 Y83.436 E1.722
G1 X120.009 Y83.447 E1.75533
G1 X120.931 Y83.502 E1.799
G1 X121.845 Y83.636 E1.84267
G1 X122.744 Y83.848 E1.88634
G1 X123.622 Y84.137 E1.93004
G1 X124.471 Y84.502 E1.97373
G1 X125.285 Y84.938 E2.01739
G1 X125.682 Y85.185 E2.03949
G1 X126.34 Y85.615 E2.07665
G1 X127.375 Y86.313 E2.13567
G1 X129.488 Y87.655 E2.25402
G1 X131.663 Y88.95 E2.37369
G1 X133.907 Y90.204 E2.49522
G1 X134.956 Y90.771 E2.5516
G1 X135.749 Y91.245 E2.59527
G1 X136.498 Y91.786 E2.63896
G1 X137.198 Y92.39 E2.68267
G1 X137.842 Y93.052 E2.72633
G1 X138.427 Y93.767 E2.77001
G1 X138.948 Y94.529 E2.81365
G1 X139.402 Y95.335 E2.85738
G1 X139.783 Y96.176 E2.90103
G1 X140.091 Y97.047 E2.94471
G1 X140.322 Y97.942 E2.98841
G1 X140.475 Y98.853 E3.03208
G1 X140.552 Y99.866 E3.08011
G1 X140.565 Y100.486 E3.10943
G1 X140.564 Y119.254 E3.99673
G1 X140.554 Y119.985 E4.03129
G1 X140.501 Y120.907 E4.07495
G1 X140.369 Y121.822 E4.11866
G1 X140.158 Y122.721 E4.16232
G1 X139.871 Y123.599 E4.20599
G1 X139.508 Y124.449 E4.24968
G1 X139.074 Y125.264 E4.29334
G1 X138.57 Y126.039 E4.33704
G1 X138.001 Y126.767 E4.38073
G1 X137.372 Y127.443 E4.42438
G1 X136.686 Y128.063 E4.4681
G1 X135.95 Y128.621 E4.51176
G1 X134.961 Y129.227 E4.5666
G1 X132.772 Y130.412 E4.68428
G1 X130.567 Y131.686 E4.80467
G1 X128.419 Y133.01 E4.92397
G1 X125.805 Y134.731 E5.07193
G1 X125.018 Y135.214 E5.11559
G1 X124.191 Y135.627 E5.15929
G1 X123.332 Y135.967 E5.20296
G1 X122.447 Y136.231 E5.24663
G1 X121.542 Y136.418 E5.29032
G1 X120.166 Y136.55 E5.35567
G1 X119.514 Y136.565 E5.3865
G1 X100.712 Y136.565 E6.27541
G1 X100.013 Y136.555 E6.30846
G1 X99.091 Y136.502 E6.35212
G1 X98.177 Y136.369 E6.39579
G1 X97.277 Y136.158 E6.43949
G1 X96.399 Y135.869 E6.48319
G1 X95.55 Y135.506 E6.52684
G1 X94.735 Y135.071 E6.57052
G1 X93.961 Y134.567 E6.61418
G1 X93.233 Y133.998 E6.65787
G1 X92.557 Y133.368 E6.70155
G1 X91.938 Y132.682 E6.74524
G1 X91.381 Y131.945 E6.78891
G1 X90.889 Y131.163 E6.83259
G1 X90.467 Y130.341 E6.87628
G1 X90.118 Y129.486 E6.91994
G1 X89.844 Y128.603 E6.96365
G1 X89.647 Y127.701 E7.0073
G1 X89.529 Y126.784 E7.05101
G1 X89.495 Y126.18 E7.07961
G1 X89.481 Y125.524 E7.11063
G1 X89.482 Y121.657 E7.29345
G1 X89.496 Y120.78 E7.33492
G1 X89.572 Y118.094 E7.46195
G1 X89.572 Y115.603 E7.57972
G1 X89.522 Y114.179 E7.64708
G1 X89.526 Y113.708 E7.66935
G1 X89.485 Y112.287 E7.73656
G1 X89.482 Y108.157 E7.93182
G1 X89.496 Y107.28 E7.97328
G1 X89.572 Y104.594 E8.10032
G1 X89.572 Y102.111 E8.21771
G1 X89.521 Y100.685 E8.28517
G1 X89.525 Y100.181 E8.309
G1 X89.485 Y98.787 E8.37493
G1 X89.482 Y94.64 E8.57099
M205 X5 Y5
G1 F2700 E6.07099
G0 F7500 X89.931 Y98.482
M205 X8 Y8
G1 F2700 E8.57099
G1 F1500 X89.932 Y94.646 E8.75235
G1 X89.941 Y93.981 E8.78379
G1 X89.993 Y93.078 E8.82655
G1 X90.125 Y92.183 E8.86932
G1 X90.335 Y91.304 E8.91205
G1 X90.622 Y90.447 E8.95477
G1 X90.984 Y89.618 E8.99754
G1 X91.418 Y88.824 E9.04032
G1 X91.92 Y88.072 E9.08307
G1 X92.486 Y87.367 E9.12581
G1 X93.112 Y86.715 E9.16854
G1 X93.794 Y86.121 E9.2113
G1 X94.526 Y85.59 E9.25405
G1 X95.301 Y85.125 E9.29678
G1 X96.115 Y84.73 E9.33956
G1 X96.96 Y84.409 E9.38229
G1 X97.83 Y84.164 E9.42502
G1 X98.719 Y83.997 E9.46779
G1 X99.878 Y83.898 E9.52278
G1 X100.486 Y83.885 E9.55153
G1 X119.297 Y83.886 E10.44087
G1 X120.002 Y83.897 E10.4742
G1 X120.904 Y83.951 E10.51692
G1 X121.798 Y84.085 E10.55966
G1 X122.677 Y84.297 E10.60241
G1 X123.534 Y84.586 E10.64516
G1 X124.362 Y84.949 E10.68791
G1 X125.436 Y85.562 E10.74637
G1 X126.226 Y86.079 E10.79101
G1 X127.148 Y86.702 E10.84361
G1 X129.233 Y88.026 E10.96038
G1 X131.456 Y89.35 E11.08271
G1 X133.705 Y90.606 E11.20449
G1 X134.742 Y91.167 E11.26023
G1 X135.518 Y91.632 E11.303
G1 X136.249 Y92.163 E11.34572
G1 X136.931 Y92.757 E11.38848
G1 X137.558 Y93.409 E11.43124
G1 X138.125 Y94.114 E11.47401
G1 X138.627 Y94.866 E11.51676
G1 X139.061 Y95.659 E11.5595
G1 X139.423 Y96.487 E11.60222
G1 X139.71 Y97.345 E11.64499
G1 X139.92 Y98.224 E11.68772
G1 X140.053 Y99.119 E11.7305
G1 X140.102 Y99.878 E11.76646
G1 X140.115 Y100.486 E11.79521
G1 X140.114 Y119.248 E12.68222
G1 X140.104 Y119.979 E12.71679
G1 X140.052 Y120.882 E12.75955
G1 X139.92 Y121.776 E12.80227
G1 X139.709 Y122.655 E12.84501
G1 X139.422 Y123.513 E12.88778
G1 X139.06 Y124.342 E12.93055
G1 X138.627 Y125.135 E12.97326
G1 X138.125 Y125.887 E13.01601
G1 X137.558 Y126.592 E13.05878
G1 X136.931 Y127.244 E13.10155
G1 X136.25 Y127.838 E13.14427
G1 X135.518 Y128.369 E13.18702
G1 X134.747 Y128.832 E13.22954
G1 X132.505 Y130.045 E13.35006
G1 X130.362 Y131.283 E13.46706
G1 X128.178 Y132.63 E13.58837
G1 X125.935 Y134.101 E13.71519
G1 X125.554 Y134.358 E13.73692
G1 X124.782 Y134.83 E13.77969
G1 X123.972 Y135.232 E13.82245
G1 X123.13 Y135.561 E13.86518
G1 X122.262 Y135.814 E13.90793
G1 X121.375 Y135.989 E13.95067
G1 X120.152 Y136.1 E14.00873
G1 X119.514 Y136.115 E14.0389
G1 X100.719 Y136.115 E14.92748
G1 X100.02 Y136.105 E14.96053
G1 X99.117 Y136.052 E15.00329
G1 X98.223 Y135.92 E15.04601
G1 X97.343 Y135.709 E15.0888
G1 X96.486 Y135.421 E15.13154
G1 X95.658 Y135.058 E15.17428
G1 X94.865 Y134.624 E15.21702
G1 X94.113 Y134.122 E15.25977
G1 X93.409 Y133.555 E15.3025
G1 X92.757 Y132.928 E15.34527
G1 X92.163 Y132.246 E15.38803
G1 X91.632 Y131.514 E15.43078
G1 X91.168 Y130.738 E15.47353
G1 X90.774 Y129.924 E15.51628
G1 X90.454 Y129.078 E15.55904
G1 X90.209 Y128.208 E15.60177
G1 X90.043 Y127.319 E15.64453
G1 X89.945 Y126.167 E15.69919
G1 X89.931 Y125.524 E15.7296
G1 X89.932 Y121.664 E15.91209
G1 X89.946 Y120.793 E15.95327
G1 X90.022 Y118.107 E16.08031
G1 X90.022 Y115.615 E16.19812
G1 X89.971 Y114.163 E16.26681
G1 X89.976 Y113.697 E16.28884
G1 X89.931 Y111.982 E16.36995
G1 X89.932 Y108.164 E16.55046
G1 X89.946 Y107.293 E16.59164
G1 X90.022 Y104.607 E16.71868
G1 X90.022 Y102.095 E16.83744
G1 X89.971 Y100.669 E16.9049
G1 X89.975 Y100.17 E16.92849
G1 X89.931 Y98.482 E17.00832
M205 X5 Y5
G1 F2700 E14.50832
;MESH:Bowden_Holder.stl(1)
G0 F7500 X99.491 Y98.452
G0 X100.595 Y98.452
G0 X101.036 Y94.99
G1 F2700 E17.00832
G0 F7500 X100.856 Y94.81
M205 X8 Y8
;TYPE:WALL-INNER
G1 F1500 X100.856 Y98.191 E17.18592
G1 X119.144 Y98.19 E18.1466
G1 X119.144 Y94.81 E18.32415
G1 X100.856 Y94.81 E19.28482
M205 X5 Y5
G0 F7500 X100.381 Y94.335
M205 X8 Y8
;TYPE:WALL-OUTER
G1 F1500 X100.381 Y98.666 E19.48958
G1 X119.619 Y98.665 E20.3991
G1 X119.619 Y94.335 E20.60381
G1 X100.381 Y94.335 E21.51333
M205 X5 Y5
G0 F7500 X100.381 Y94.535
G0 X101.051 Y95.005
G0 X101.188 Y95.142
M205 X8 Y8
;TYPE:SKIN
G1 F1500 X101.188 Y97.859 E21.64178
G1 X118.812 Y97.858 E22.47499
G1 X118.812 Y95.142 E22.6034
G1 X101.188 Y95.142 E23.43661
M205 X5 Y5
G0 F7500 X101.006 Y95.142
G0 X101.078 Y97.969
G0 X102.087 Y98.041
G0 X102.087 Y97.633
M205 X8 Y8
G1 F1500 X101.412 Y96.957 E23.48178
M205 X5 Y5
G0 F7500 X101.412 Y96.321
M205 X8 Y8
G1 F1500 X102.724 Y97.633 E23.5695
M205 X5 Y5
G0 F7500 X103.36 Y97.633
M205 X8 Y8
G1 F1500 X101.412 Y95.684 E23.69977
M205 X5 Y5
G0 F7500 X101.73 Y95.366
M205 X8 Y8
G1 F1500 X103.997 Y97.633 E23.85134
M205 X5 Y5
G0 F7500 X104.633 Y97.633
M205 X8 Y8
G1 F1500 X102.367 Y95.366 E24.00288
M205 X5 Y5
G0 F7500 X103.003 Y95.366
M205 X8 Y8
G1 F1500 X105.269 Y97.633 E24.15442
M205 X5 Y5
G0 F7500 X105.906 Y97.633
M205 X8 Y8
G1 F1500 X103.639 Y95.366 E24.30599
M205 X5 Y5
G0 F7500 X104.276 Y95.366
M205 X8 Y8
G1 F1500 X106.542 Y97.633 E24.45753
M205 X5 Y5
G0 F7500 X107.179 Y97.633
M205 X8 Y8
G1 F1500 X104.912 Y95.366 E24.6091
M205 X5 Y5
G0 F7500 X105.549 Y95.366
M205 X8 Y8
G1 F1500 X107.815 Y97.633 E24.76064
M205 X5 Y5
G0 F7500 X108.451 Y97.633
M205 X8 Y8
G1 F1500 X106.185 Y95.366 E24.91218
M205 X5 Y5
G0 F7500 X106.821 Y95.366
M205 X8 Y8
G1 F1500 X109.088 Y97.633 E25.06375
M205 X5 Y5
G0 F7500 X109.724 Y97.633
M205 X8 Y8
G1 F1500 X107.458 Y95.366 E25.21529
M205 X5 Y5
G0 F7500 X108.094 Y95.366
M205 X8 Y8
G1 F1500 X110.36 Y97.633 E25.36683
M205 X5 Y5
G0 F7500 X110.997 Y97.633
M205 X8 Y8
G1 F1500 X108.731 Y95.366 E25.51837
M205 X5 Y5
G0 F7500 X109.367 Y95.366
M205 X8 Y8
G1 F1500 X111.633 Y97.633 E25.66991
M205 X5 Y5
G0 F7500 X112.27 Y97.633
M205 X8 Y8
G1 F1500 X110.003 Y95.366 E25.82148
M205 X5 Y5
G0 F7500 X110.64 Y95.366
M205 X8 Y8
G1 F1500 X112.906 Y97.633 E25.97302
M205 X5 Y5
G0 F7500 X113.542 Y97.633
M205 X8 Y8
G1 F1500 X111.276 Y95.366 E26.12455
M205 X5 Y5
G0 F7500 X111.913 Y95.366
M205 X8 Y8
G1 F1500 X114.179 Y97.633 E26.27609
M205 X5 Y5
G0 F7500 X114.815 Y97.633
M205 X8 Y8
G1 F1500 X112.549 Y95.366 E26.42763
M205 X5 Y5
G0 F7500 X113.185 Y95.366
M205 X8 Y8
G1 F1500 X115.452 Y97.633 E26.5792
M205 X5 Y5
G0 F7500 X116.088 Y97.633
M205 X8 Y8
G1 F1500 X113.822 Y95.366 E26.73074
M205 X5 Y5
G0 F7500 X114.458 Y95.366
M205 X8 Y8
G1 F1500 X116.724 Y97.633 E26.88228
M205 X5 Y5
G0 F7500 X117.361 Y97.633
M205 X8 Y8
G1 F1500 X115.095 Y95.366 E27.03382
M205 X5 Y5
G0 F7500 X115.731 Y95.366
M205 X8 Y8
G1 F1500 X117.997 Y97.633 E27.18536
M205 X5 Y5
G0 F7500 X118.586 Y97.585
M205 X8 Y8
G1 F1500 X116.367 Y95.366 E27.33372
M205 X5 Y5
G0 F7500 X117.004 Y95.366
M205 X8 Y8
G1 F1500 X118.586 Y96.949 E27.43952
M205 X5 Y5
G0 F7500 X118.586 Y96.312
M205 X8 Y8
G1 F1500 X117.64 Y95.366 E27.50277
M205 X5 Y5
G0 F7500 X118.277 Y95.366
M205 X8 Y8
G1 F1500 X118.586 Y95.676 E27.52347
M205 X5 Y5
G1 F2700 E25.02347
;MESH:Bowden_Holder.stl
G0 F7500 X118.994 Y95.676
G0 X118.922 Y97.968
G0 X101.036 Y98.465
G0 X101.037 Y99.555
G0 X101.036 Y106.945
G0 X101.036 Y108.055
G0 X101.036 Y108.49
G1 F2700 E27.52347
G0 F7500 X100.856 Y108.31
M205 X8 Y8
;TYPE:WALL-INNER
G1 F1500 X100.856 Y111.691 E27.70107
G1 X119.144 Y111.69 E28.66174
G1 X119.144 Y108.31 E28.8393
G1 X100.856 Y108.31 E29.79997
M205 X5 Y5
G0 F7500 X100.381 Y107.835
M205 X8 Y8
;TYPE:WALL-OUTER
G1 F1500 X100.381 Y112.166 E30.00473
G1 X119.619 Y112.165 E30.91425
G1 X119.619 Y107.835 E31.11896
G1 X100.381 Y107.835 E32.02847
M205 X5 Y5
G0 F7500 X100.381 Y108.035
G0 X101.051 Y108.505
G0 X101.188 Y108.642
M205 X8 Y8
;TYPE:SKIN
G1 F1500 X101.188 Y111.359 E32.15693
G1 X118.812 Y111.358 E32.99014
G1 X118.812 Y108.642 E33.11855
G1 X101.188 Y108.642 E33.95176
M205 X5 Y5
G0 F7500 X101.006 Y108.642
G0 X101.078 Y111.469
G0 X101.587 Y111.541
G0 X101.587 Y111.133
M205 X8 Y8
G1 F1500 X101.413 Y110.959 E33.96339
M205 X5 Y5
G0 F7500 X101.413 Y110.322
M205 X8 Y8
G1 F1500 X102.223 Y111.133 E34.01758
M205 X5 Y5
G0 F7500 X102.859 Y111.133
M205 X8 Y8
G1 F1500 X101.413 Y109.686 E34.1143
M205 X5 Y5
G0 F7500 X101.413 Y109.05
M205 X8 Y8
G1 F1500 X103.496 Y111.133 E34.25356
M205 X5 Y5
G0 F7500 X104.132 Y111.133
M205 X8 Y8
G1 F1500 X101.866 Y108.866 E34.4051
M205 X5 Y5
G0 F7500 X102.502 Y108.866
M205 X8 Y8
G1 F1500 X104.769 Y111.133 E34.55668
M205 X5 Y5
G0 F7500 X105.405 Y111.133
M205 X8 Y8
G1 F1500 X103.139 Y108.866 E34.70821
M205 X5 Y5
G0 F7500 X103.775 Y108.866
M205 X8 Y8
G1 F1500 X106.041 Y111.133 E34.85975
M205 X5 Y5
G0 F7500 X106.678 Y111.133
M205 X8 Y8
G1 F1500 X104.412 Y108.866 E35.01129
M205 X5 Y5
G0 F7500 X105.048 Y108.866
M205 X8 Y8
G1 F1500 X107.314 Y111.133 E35.16283
M205 X5 Y5
G0 F7500 X107.951 Y111.133
M205 X8 Y8
G1 F1500 X105.684 Y108.866 E35.3144
M205 X5 Y5
G0 F7500 X106.321 Y108.866
M205 X8 Y8
G1 F1500 X108.587 Y111.133 E35.46594
M205 X5 Y5
G0 F7500 X109.223 Y111.133
M205 X8 Y8
G1 F1500 X106.957 Y108.866 E35.61748
M205 X5 Y5
G0 F7500 X107.594 Y108.866
M205 X8 Y8
G1 F1500 X109.86 Y111.133 E35.76902
M205 X5 Y5
G0 F7500 X110.496 Y111.133
M205 X8 Y8
G1 F1500 X108.23 Y108.866 E35.92055
M205 X5 Y5
G0 F7500 X108.866 Y108.866
M205 X8 Y8
G1 F1500 X111.133 Y111.133 E36.07213
M205 X5 Y5
G0 F7500 X111.769 Y111.133
M205 X8 Y8
G1 F1500 X109.503 Y108.866 E36.22366
M205 X5 Y5
G0 F7500 X110.139 Y108.866
M205 X8 Y8
G1 F1500 X112.405 Y111.133 E36.3752
M205 X5 Y5
G0 F7500 X113.042 Y111.133
M205 X8 Y8
G1 F1500 X110.776 Y108.866 E36.52674
M205 X5 Y5
G0 F7500 X111.412 Y108.866
M205 X8 Y8
G1 F1500 X113.678 Y111.133 E36.67828
M205 X5 Y5
G0 F7500 X114.315 Y111.133
M205 X8 Y8
G1 F1500 X112.048 Y108.866 E36.82985
M205 X5 Y5
G0 F7500 X112.685 Y108.866
M205 X8 Y8
G1 F1500 X114.951 Y111.133 E36.98139
M205 X5 Y5
G0 F7500 X115.587 Y111.133
M205 X8 Y8
G1 F1500 X113.321 Y108.866 E37.13293
M205 X5 Y5
G0 F7500 X113.958 Y108.866
M205 X8 Y8
G1 F1500 X116.224 Y111.133 E37.28447
M205 X5 Y5
G0 F7500 X116.86 Y111.133
M205 X8 Y8
G1 F1500 X114.594 Y108.866 E37.436
M205 X5 Y5
G0 F7500 X115.23 Y108.866
M205 X8 Y8
G1 F1500 X117.497 Y111.133 E37.58758
M205 X5 Y5
G0 F7500 X118.133 Y111.133
M205 X8 Y8
G1 F1500 X115.867 Y108.866 E37.73911
M205 X5 Y5
G0 F7500 X116.503 Y108.866
M205 X8 Y8
G1 F1500 X118.586 Y110.95 E37.87842
M205 X5 Y5
G0 F7500 X118.586 Y110.313
M205 X8 Y8
G1 F1500 X117.14 Y108.866 E37.97513
M205 X5 Y5
G0 F7500 X117.776 Y108.866
M205 X8 Y8
G1 F1500 X118.586 Y109.677 E38.02932
M205 X5 Y5
G0 F7500 X118.586 Y109.04
M205 X8 Y8
G1 F1500 X118.412 Y108.866 E38.04095
M205 X5 Y5
G1 F2700 E35.54095
;MESH:Bowden_Holder.stl(2)
G0 F7500 X118.412 Y108.46
G0 X118.922 Y108.532
G0 X118.922 Y111.468
G0 X101.036 Y111.965
G0 X101.037 Y113.055
G0 X101.036 Y120.445
G0 X101.036 Y121.555
G0 X101.036 Y121.99
G1 F2700 E38.04095
G0 F7500 X100.856 Y121.81
M205 X8 Y8
;TYPE:WALL-INNER
G1 F1500 X100.856 Y125.191 E38.21856
G1 X119.144 Y125.19 E39.17923
G1 X119.144 Y121.81 E39.35678
G1 X100.856 Y121.81 E40.31746
M205 X5 Y5
G0 F7500 X100.381 Y121.335
M205 X8 Y8
;TYPE:WALL-OUTER
G1 F1500 X100.381 Y125.666 E40.52221
G1 X119.619 Y125.665 E41.43173
G1 X119.619 Y121.335 E41.63644
G1 X100.381 Y121.335 E42.54596
M205 X5 Y5
G0 F7500 X100.381 Y121.535
G0 X101.051 Y122.005
G0 X101.188 Y122.142
M205 X8 Y8
;TYPE:SKIN
G1 F1500 X101.188 Y123.5 E42.61016
G1 X101.188 Y124.859 E42.67441
G1 X118.812 Y124.858 E43.50763
G1 X118.812 Y122.142 E43.63603
G1 X101.188 Y122.142 E44.46925
M205 X5 Y5
G0 F7500 X101.006 Y122.142
G0 X101.078 Y124.969
G0 X101.722 Y125.041
G0 X101.722 Y124.632
M205 X8 Y8
G1 F1500 X101.413 Y124.323 E44.48991
M205 X5 Y5
G0 F7500 X101.413 Y123.687
M205 X8 Y8
G1 F1500 X102.358 Y124.632 E44.55309
M205 X5 Y5
G0 F7500 X102.995 Y124.632
M205 X8 Y8
G1 F1500 X101.413 Y123.05 E44.65886
M205 X5 Y5
G0 F7500 X101.413 Y122.414
M205 X8 Y8
G1 F1500 X103.631 Y124.632 E44.80716
M205 X5 Y5
G0 F7500 X104.267 Y124.632
M205 X8 Y8
G1 F1500 X102.001 Y122.366 E44.95866
M205 X5 Y5
