;FLAVOR:Marlin
;TIME:3073
;Filament used: 4.0459m
;Layer height: 0.28
;MINX:56.975
;MINY:81.466
;MINZ:0.28
;MAXX:152.926
;MAXY:124.525
;MAXZ:38.92
;Generated with Cura_SteamEngine main
M82 ;absolute extrusion mode
M201 X500.00 Y500.00 Z100.00 E5000.00 ;Setup machine max acceleration
M203 X500.00 Y500.00 Z10.00 E50.00 ;Setup machine max feedrate
M204 P500.00 R1000.00 T500.00 ;Setup Print/Retract/Travel acceleration
M205 X8.00 Y8.00 Z0.40 E5.00 ;Setup Jerk
M220 S100 ;Reset Feedrate
M221 S100 ;Reset Flowrate

;*** Start Dual Nozzle/Bed Preheating ***
M140 S60 ; start preheating the bed
M104 S210 ?T0 ; start preheating hotend
M190 S60 ; heat to Cura Bed setting and WAIT
M109 S210 ?T0 ; heat to Cura Hotend and WAIT
;*** End Preheating ***


;*** Single Print Start Tone
M300 S1000 P500 ; chirp to indicate starting to print
;*** End Single Start Tone

G28 ;Home

G92 E0 ;Reset Extruder
G1 Z2.0 F3000 ;Move Z Axis up
G1 X10.1 Y20 Z0.28 F5000.0 ;Move to start position
G1 X10.1 Y200.0 Z0.28 F1500.0 E15 ;Draw the first line
G1 X10.4 Y200.0 Z0.28 F5000.0 ;Move to side a little
G1 X10.4 Y20 Z0.28 F1500.0 E30 ;Draw the second line
G92 E0 ;Reset Extruder
G1 Z2.0 F3000 ;Move Z Axis up
G92 E0
G92 E0
G1 F2700 E-2.5
;LAYER_COUNT:139
;LAYER:0
M107
M204 S500
M205 X5 Y5
G0 F7500 X61.936 Y90.144 Z0.28
G0 X56.976 Y99.705
M205 X8 Y8
;TYPE:SKIRT
G1 F2700 E0
G1 F1500 X56.986 Y99.003 E0.03319
G1 X57.039 Y98.081 E0.07685
G1 X57.172 Y97.166 E0.12057
G1 X57.383 Y96.267 E0.16422
G1 X57.671 Y95.389 E0.20791
G1 X58.034 Y94.539 E0.25161
G1 X58.47 Y93.724 E0.2953
G1 X58.974 Y92.95 E0.33897
G1 X59.543 Y92.222 E0.38265
G1 X60.172 Y91.546 E0.42631
G1 X60.858 Y90.927 E0.46999
G1 X61.936 Y90.144 E0.53298
G1 X62.731 Y89.639 E0.57751
G1 X63.418 Y89.216 E0.61565
G1 X65.52 Y87.839 E0.73445
G1 X67.643 Y86.36 E0.85678
G1 X69.341 Y85.111 E0.95643
G1 X70.731 Y84.067 E1.03862
G1 X71.564 Y83.474 E1.08696
G1 X72.341 Y82.974 E1.13064
G1 X73.158 Y82.544 E1.17429
G1 X74.01 Y82.186 E1.21798
G1 X74.89 Y81.903 E1.26169
G1 X75.79 Y81.697 E1.30534
G1 X76.705 Y81.569 E1.34902
G1 X77.513 Y81.523 E1.38728
G1 X78.524 Y81.505 E1.43508
G1 X81.3 Y81.498 E1.56633
G1 X82.425 Y81.51 E1.61952
G1 X85.221 Y81.486 E1.75171
G1 X85.526 Y81.497 E1.76614
G1 X87.197 Y81.473 E1.84514
G1 X90.594 Y81.466 E2.00575
G1 X93.492 Y81.496 E2.14276
G1 X97.929 Y81.506 E2.35253
G1 X100.018 Y81.54 E2.45131
G1 X101.616 Y81.554 E2.52686
G1 X105.996 Y81.555 E2.73393
G1 X106.7 Y81.565 E2.76722
G1 X107.622 Y81.618 E2.81088
G1 X108.536 Y81.751 E2.85455
G1 X109.436 Y81.962 E2.89825
G1 X110.314 Y82.25 E2.94194
G1 X111.163 Y82.613 E2.98559
G1 X111.615 Y82.843 E3.00957
G1 X112.682 Y83.419 E3.06689
G1 X114.967 Y84.611 E3.18874
G1 X117.235 Y85.713 E3.30795
G1 X119.545 Y86.756 E3.42777
G1 X121.879 Y87.731 E3.54736
G1 X124.226 Y88.636 E3.66628
G1 X126.625 Y89.482 E3.78655
G1 X129.018 Y90.252 E3.90539
G1 X131.436 Y90.954 E4.02443
G1 X133.888 Y91.592 E4.14421
G1 X136.366 Y92.162 E4.26443
G1 X137.24 Y92.34 E4.30659
G1 X137.901 Y92.485 E4.33859
G1 X138.794 Y92.723 E4.38228
G1 X139.662 Y93.037 E4.42592
G1 X140.501 Y93.425 E4.46962
G1 X141.303 Y93.884 E4.51331
G1 X141.801 Y94.219 E4.54168
G1 X142.902 Y95.01 E4.60578
G1 X143.752 Y95.655 E4.65622
G1 X144.463 Y96.245 E4.6999
G1 X145.121 Y96.894 E4.7436
G1 X145.719 Y97.598 E4.78727
G1 X146.255 Y98.35 E4.83093
G1 X146.724 Y99.146 E4.8746
G1 X147.122 Y99.98 E4.91829
G1 X147.418 Y100.758 E4.95765
G1 X147.779 Y101.832 E5.01121
G1 X148.063 Y102.738 E5.0561
G1 X148.298 Y103.631 E5.09976
G1 X148.456 Y104.542 E5.14347
G1 X148.534 Y105.462 E5.18712
G1 X148.532 Y106.386 E5.23081
G1 X148.45 Y107.307 E5.27452
G1 X148.289 Y108.216 E5.31816
G1 X148.077 Y109.024 E5.35766
G1 X147.72 Y110.176 E5.41468
G1 X147.415 Y111.079 E5.45974
G1 X147.081 Y111.941 E5.50344
G1 X146.675 Y112.77 E5.54708
G1 X146.198 Y113.562 E5.59079
G1 X145.655 Y114.309 E5.63445
G1 X145.049 Y115.006 E5.67812
G1 X144.385 Y115.649 E5.72182
G1 X143.727 Y116.187 E5.762
G1 X142.864 Y116.834 E5.81299
G1 X142.01 Y117.444 E5.86261
G1 X141.235 Y117.948 E5.90632
G1 X140.42 Y118.383 E5.94999
G1 X139.571 Y118.746 E5.99365
G1 X138.693 Y119.034 E6.03733
G1 X137.794 Y119.245 E6.08099
G1 X136.879 Y119.378 E6.1247
G1 X136.317 Y119.42 E6.15135
G1 X135.074 Y119.48 E6.21018
G1 X132.441 Y119.643 E6.3349
G1 X129.96 Y119.868 E6.45268
G1 X127.425 Y120.171 E6.57338
G1 X124.971 Y120.535 E6.69066
G1 X122.42 Y120.986 E6.81314
G1 X120.019 Y121.481 E6.92904
G1 X117.519 Y122.072 E7.05049
G1 X115.099 Y122.717 E7.16889
G1 X111.723 Y123.736 E7.33561
G1 X110.905 Y124 E7.37625
G1 X110.015 Y124.245 E7.41989
G1 X109.106 Y124.412 E7.46359
G1 X107.903 Y124.512 E7.52066
G1 X107.239 Y124.525 E7.55206
G1 X68.219 Y124.524 E9.39681
G1 X67.521 Y124.515 E9.42981
G1 X66.599 Y124.463 E9.47347
G1 X65.684 Y124.332 E9.51717
G1 X64.785 Y124.122 E9.56082
G1 X63.907 Y123.835 E9.60449
G1 X63.056 Y123.473 E9.64821
G1 X62.241 Y123.039 E9.69186
G1 X61.466 Y122.536 E9.73555
G1 X60.737 Y121.968 E9.77924
G1 X60.06 Y121.339 E9.82293
G1 X59.441 Y120.654 E9.86657
G1 X58.882 Y119.918 E9.91027
G1 X58.39 Y119.136 E9.95395
G1 X57.967 Y118.315 E9.99761
G1 X57.616 Y117.46 E10.04131
G1 X57.341 Y116.578 E10.08499
G1 X57.143 Y115.675 E10.12869
G1 X57.024 Y114.759 E10.17236
G1 X56.988 Y114.129 E10.20219
G1 X56.975 Y113.508 E10.23156
G1 X56.976 Y99.705 E10.88413
M205 X5 Y5
G0 F7500 X57.426 Y99.711
M205 X8 Y8
G1 F1500 X57.436 Y99.009 E10.91732
G1 X57.489 Y98.107 E10.96004
G1 X57.621 Y97.212 E11.00281
G1 X57.832 Y96.333 E11.04554
G1 X58.12 Y95.476 E11.08829
G1 X58.482 Y94.647 E11.13105
G1 X58.916 Y93.854 E11.17379
G1 X59.419 Y93.102 E11.21657
G1 X59.986 Y92.398 E11.2593
G1 X60.613 Y91.746 E11.30207
G1 X61.295 Y91.153 E11.34479
G1 X62.177 Y90.524 E11.39601
G1 X62.972 Y90.019 E11.44054
G1 X63.659 Y89.595 E11.4787
G1 X65.79 Y88.199 E11.59914
G1 X67.89 Y86.737 E11.72012
G1 X69.662 Y85.434 E11.8241
G1 X71.249 Y84.246 E11.91783
G1 X71.823 Y83.841 E11.95104
G1 X72.584 Y83.353 E11.99378
G1 X73.386 Y82.934 E12.03656
G1 X74.221 Y82.588 E12.07929
G1 X75.083 Y82.316 E12.12202
G1 X75.966 Y82.122 E12.16476
G1 X76.863 Y82.007 E12.20752
G1 X77.522 Y81.973 E12.23871
G1 X78.525 Y81.955 E12.28614
G1 X81.301 Y81.948 E12.41738
G1 X82.424 Y81.96 E12.47048
G1 X85.225 Y81.936 E12.60291
G1 X85.52 Y81.947 E12.61686
G1 X87.198 Y81.923 E12.6962
G1 X90.595 Y81.916 E12.8568
G1 X93.491 Y81.946 E12.99373
G1 X97.921 Y81.956 E13.20316
G1 X100.006 Y81.99 E13.30175
G1 X101.612 Y82.004 E13.37768
G1 X105.989 Y82.005 E13.58461
G1 X106.693 Y82.015 E13.6179
G1 X107.596 Y82.068 E13.66066
G1 X108.49 Y82.2 E13.70339
G1 X109.37 Y82.411 E13.74617
G1 X110.227 Y82.699 E13.78891
G1 X111.401 Y83.239 E13.85001
G1 X112.461 Y83.811 E13.90695
G1 X114.749 Y85.005 E14.02897
G1 X117.055 Y86.125 E14.15017
G1 X119.36 Y87.166 E14.26974
G1 X121.729 Y88.156 E14.39112
G1 X124.088 Y89.065 E14.51064
G1 X126.447 Y89.897 E14.6289
G1 X128.896 Y90.685 E14.75053
G1 X131.306 Y91.385 E14.86918
G1 X133.775 Y92.027 E14.98979
G1 X136.293 Y92.607 E15.11195
G1 X137.15 Y92.781 E15.15329
G1 X137.804 Y92.924 E15.18494
G1 X138.677 Y93.158 E15.22767
G1 X139.527 Y93.468 E15.27045
G1 X140.346 Y93.851 E15.31319
G1 X141.127 Y94.306 E15.35592
G1 X141.54 Y94.585 E15.37949
G1 X142.388 Y95.19 E15.42874
G1 X143.48 Y96.014 E15.49341
G1 X144.175 Y96.592 E15.53615
G1 X144.817 Y97.229 E15.57891
G1 X145.4 Y97.92 E15.62165
G1 X145.919 Y98.66 E15.66438
G1 X146.371 Y99.443 E15.70712
G1 X146.753 Y100.263 E15.74989
G1 X146.991 Y100.901 E15.78208
G1 X147.352 Y101.975 E15.83565
G1 X147.633 Y102.871 E15.88005
G1 X147.863 Y103.746 E15.92282
G1 X148.014 Y104.637 E15.96554
G1 X148.087 Y105.539 E16.00833
G1 X148.079 Y106.443 E16.05107
G1 X147.991 Y107.343 E16.09382
G1 X147.824 Y108.232 E16.13658
G1 X147.646 Y108.892 E16.1689
G1 X147.293 Y110.032 E16.22532
G1 X146.988 Y110.935 E16.27038
G1 X146.661 Y111.778 E16.31313
G1 X146.261 Y112.589 E16.35588
G1 X145.791 Y113.361 E16.39861
G1 X145.254 Y114.089 E16.44138
G1 X144.656 Y114.767 E16.48412
G1 X143.999 Y115.389 E16.52689
G1 X143.456 Y115.828 E16.55991
G1 X142.814 Y116.312 E16.59792
G1 X141.748 Y117.077 E16.65995
G1 X140.99 Y117.57 E16.7027
G1 X140.191 Y117.994 E16.74546
G1 X139.358 Y118.345 E16.7882
G1 X138.497 Y118.621 E16.83094
G1 X137.615 Y118.821 E16.8737
G1 X136.296 Y118.97 E16.93646
G1 X135.022 Y119.031 E16.99676
G1 X132.441 Y119.191 E17.11901
G1 X129.904 Y119.422 E17.23945
G1 X127.374 Y119.723 E17.35991
G1 X124.86 Y120.097 E17.48007
G1 X122.394 Y120.533 E17.59846
G1 X119.901 Y121.047 E17.7188
G1 X117.401 Y121.638 E17.84025
G1 X114.977 Y122.283 E17.95884
G1 X111.613 Y123.299 E18.12498
G1 X110.767 Y123.572 E18.16701
G1 X109.895 Y123.811 E18.20975
G1 X109.005 Y123.972 E18.25251
G1 X107.891 Y124.062 E18.30535
G1 X107.239 Y124.075 E18.33618
G1 X68.225 Y124.074 E20.18065
G1 X67.527 Y124.065 E20.21366
G1 X66.624 Y124.014 E20.25641
G1 X65.73 Y123.882 E20.29914
G1 X64.85 Y123.673 E20.3419
G1 X63.993 Y123.386 E20.38463
G1 X63.164 Y123.025 E20.42738
G1 X62.37 Y122.592 E20.47013
G1 X61.618 Y122.09 E20.51288
G1 X60.912 Y121.524 E20.55566
G1 X60.26 Y120.898 E20.59839
G1 X59.665 Y120.217 E20.64114
G1 X59.133 Y119.486 E20.68389
G1 X58.668 Y118.711 E20.72662
G1 X58.273 Y117.897 E20.76939
G1 X57.951 Y117.052 E20.81214
G1 X57.706 Y116.182 E20.85487
G1 X57.538 Y115.294 E20.8976
G1 X57.438 Y114.117 E20.95345
G1 X57.425 Y113.508 E20.98225
G1 X57.426 Y99.711 E21.63453
M205 X5 Y5
G1 F2700 E19.13453
G0 F7500 X66.997 Y98.497
G0 X108.003 Y98.497
G0 X131.915 Y105.867
M205 X8 Y8
G1 F2700 E21.63453
G1 F1500 X132.535 Y105.816 E21.66394
G1 X134.657 Y105.826 E21.76426
G1 X134.688 Y105.849 E21.76609
G1 X131.915 Y105.867 E21.89719
M205 X5 Y5
G1 F2700 E19.39719
G0 F7500 X126.861 Y105.597
M205 X8 Y8
G1 F2700 E21.89719
G1 F1500 X127.287 Y105.469 E21.91822
G1 X127.335 Y105.442 E21.92082
G1 X129.475 Y105.589 E22.02224
G1 X129.848 Y105.587 E22.03987
G1 X132.524 Y105.366 E22.16681
G1 X134.806 Y105.377 E22.2747
G1 X135.199 Y105.669 E22.29785
G1 X135.279 Y105.913 E22.30999
G1 X135.203 Y106.145 E22.32153
G1 X134.995 Y106.297 E22.33371
G1 X131.24 Y106.322 E22.51124
G1 X130.326 Y106.35 E22.55447
G1 X127.306 Y106.157 E22.69754
G1 X126.862 Y106.169 E22.71854
G1 X126.427 Y106.259 E22.73954
G1 X126.257 Y106.328 E22.74821
G1 X124.885 Y106.174 E22.81349
G1 X124.619 Y106.158 E22.82608
G1 X121.87 Y106.146 E22.95605
G1 X121.622 Y105.998 E22.9697
G1 X121.206 Y105.841 E22.99073
G1 X120.619 Y105.753 E23.01879
G1 X117.465 Y105.662 E23.16796
G1 X116.269 Y105.583 E23.22463
G1 X115.865 Y105.337 E23.24699
G1 X115.449 Y105.181 E23.268
G1 X115.012 Y105.101 E23.289
G1 X114.776 Y105.091 E23.30017
G1 X114.584 Y104.951 E23.3114
G1 X114.203 Y104.723 E23.33239
G1 X113.787 Y104.567 E23.3534
G1 X113.349 Y104.487 E23.37445
G1 X113.01 Y104.477 E23.39048
G1 X111.35 Y103.42 E23.48352
G1 X111.377 Y103.264 E23.49101
G1 X111.479 Y103.19 E23.49696
G1 X111.706 Y103.19 E23.5077
G1 X113.568 Y104.337 E23.61109
G1 X113.966 Y104.535 E23.6321
G1 X114.393 Y104.659 E23.65312
G1 X114.898 Y104.705 E23.6771
G1 X115.019 Y104.793 E23.68417
G1 X115.401 Y105.021 E23.7052
G1 X115.817 Y105.178 E23.72623
G1 X116.419 Y105.266 E23.75499
G1 X120.452 Y105.36 E23.94571
G1 X120.757 Y105.384 E23.96017
G1 X124.616 Y105.399 E24.14262
G1 X125.976 Y105.616 E24.20773
G1 X126.419 Y105.646 E24.22872
G1 X126.861 Y105.597 E24.24974
M205 X5 Y5
G0 F7500 X124.649 Y104.949
M205 X8 Y8
G1 F1500 X126.046 Y105.172 E24.31663
G1 X126.448 Y105.195 E24.33566
G1 X126.846 Y105.139 E24.35467
G1 X127.275 Y104.987 E24.37618
G1 X129.506 Y105.14 E24.48191
G1 X129.811 Y105.138 E24.49633
G1 X132.5 Y104.915 E24.62389
G1 X134.957 Y104.928 E24.74005
G1 X135.583 Y105.393 E24.77692
G1 X135.752 Y105.913 E24.80277
G1 X135.586 Y106.422 E24.82808
G1 X135.142 Y106.746 E24.85407
G1 X131.254 Y106.772 E25.03788
G1 X130.322 Y106.801 E25.08197
G1 X127.277 Y106.606 E25.22622
G1 X126.876 Y106.62 E25.24519
G1 X126.485 Y106.714 E25.2642
G1 X126.339 Y106.79 E25.27199
G1 X124.723 Y106.608 E25.34887
G1 X121.747 Y106.596 E25.48957
G1 X121.392 Y106.387 E25.50904
G1 X121.012 Y106.256 E25.52805
G1 X120.606 Y106.203 E25.5474
G1 X117.451 Y106.111 E25.69663
G1 X116.111 Y106.023 E25.76011
G1 X115.981 Y105.929 E25.7677
G1 X115.635 Y105.726 E25.78666
G1 X115.254 Y105.595 E25.80571
G1 X114.789 Y105.541 E25.82784
G1 X114.629 Y105.541 E25.83541
G1 X114.319 Y105.315 E25.85354
G1 X113.972 Y105.112 E25.87255
G1 X113.592 Y104.981 E25.89155
G1 X113.127 Y104.927 E25.91369
G1 X112.879 Y104.927 E25.92541
G1 X110.972 Y103.713 E26.03229
G1 X110.865 Y103.383 E26.04869
G1 X110.994 Y102.986 E26.06842
G1 X111.332 Y102.74 E26.08819
G1 X111.834 Y102.74 E26.11192
G1 X113.804 Y103.954 E26.22132
G1 X114.165 Y104.13 E26.24031
G1 X114.554 Y104.231 E26.25931
G1 X114.866 Y104.255 E26.2741
G1 X115.045 Y104.255 E26.28256
G1 X115.284 Y104.429 E26.29654
G1 X115.631 Y104.632 E26.31555
G1 X116.011 Y104.763 E26.33455
G1 X116.429 Y104.816 E26.35447
G1 X120.588 Y104.912 E26.55115
G1 X120.759 Y104.934 E26.5593
G1 X124.649 Y104.949 E26.74321
M205 X5 Y5
G1 F2700 E24.24321
G0 F7500 X120.538 Y104.462
M205 X8 Y8
G1 F2700 E26.74321
G1 F1500 X120.761 Y104.484 E26.7538
G1 X124.69 Y104.5 E26.93956
G1 X126.117 Y104.727 E27.00787
G1 X126.471 Y104.743 E27.02462
G1 X126.82 Y104.68 E27.04139
G1 X127.13 Y104.526 E27.05775
G1 X129.66 Y104.699 E27.17764
G1 X132.488 Y104.465 E27.3118
G1 X135.107 Y104.478 E27.43562
G1 X135.966 Y105.117 E27.48624
G1 X136.226 Y105.913 E27.52583
G1 X135.969 Y106.7 E27.56497
G1 X135.29 Y107.195 E27.60469
G1 X131.268 Y107.222 E27.79485
G1 X130.318 Y107.252 E27.83978
G1 X127.249 Y107.055 E27.98517
G1 X126.895 Y107.073 E28.00193
G1 X126.554 Y107.169 E28.01868
G1 X126.406 Y107.251 E28.02668
G1 X124.699 Y107.058 E28.1079
G1 X121.599 Y107.045 E28.25446
G1 X121.474 Y106.954 E28.26177
G1 X121.166 Y106.779 E28.27851
G1 X120.762 Y106.658 E28.29845
G1 X117.435 Y106.561 E28.45581
G1 X115.951 Y106.464 E28.52612
G1 X115.716 Y106.293 E28.53986
G1 X115.408 Y106.118 E28.55661
G1 X115.069 Y106.016 E28.57334
G1 X114.789 Y105.991 E28.58663
G1 X114.482 Y105.991 E28.60115
G1 X114.054 Y105.679 E28.62619
G1 X113.746 Y105.504 E28.64294
G1 X113.407 Y105.402 E28.65967
G1 X113.127 Y105.377 E28.67296
G1 X112.747 Y105.377 E28.69093
G1 X110.594 Y104.006 E28.8116
G1 X110.391 Y103.383 E28.84258
G1 X110.611 Y102.708 E28.87614
G1 X111.185 Y102.29 E28.90971
G1 X111.961 Y102.29 E28.9464
G1 X114.04 Y103.571 E29.06185
G1 X114.361 Y103.722 E29.07862
G1 X114.866 Y103.805 E29.10282
G1 X115.192 Y103.805 E29.11823
G1 X115.549 Y104.065 E29.13911
G1 X115.857 Y104.24 E29.15586
G1 X116.267 Y104.363 E29.17609
G1 X120.538 Y104.462 E29.37807
M205 X5 Y5
G1 F2700 E26.87807
G0 F7500 X115.484 Y102.905
M205 X8 Y8
G1 F2700 E29.37807
G1 F1500 X116.079 Y103.338 E29.41286
G1 X116.335 Y103.464 E29.42635
G1 X120.632 Y103.564 E29.62955
G1 X120.764 Y103.584 E29.63587
G1 X124.758 Y103.6 E29.82469
G1 X126.259 Y103.839 E29.89655
G1 X126.49 Y103.835 E29.90747
G1 X126.763 Y103.717 E29.92153
G1 X126.911 Y103.609 E29.9302
G1 X129.654 Y103.797 E30.06018
G1 X132.453 Y103.565 E30.19296
G1 X135.406 Y103.58 E30.33257
G1 X136.733 Y104.566 E30.41073
G1 X137.172 Y105.913 E30.47771
G1 X136.734 Y107.256 E30.5445
G1 X135.585 Y108.093 E30.6117
G1 X131.296 Y108.121 E30.81448
G1 X130.299 Y108.152 E30.86164
G1 X127.191 Y107.953 E31.00888
G1 X126.961 Y107.978 E31.01982
G1 X126.616 Y108.18 E31.03872
G1 X124.684 Y107.962 E31.13064
G1 X121.305 Y107.944 E31.29039
G1 X120.944 Y107.681 E31.3115
G1 X120.689 Y107.556 E31.32493
G1 X117.377 Y107.459 E31.48158
G1 X115.632 Y107.345 E31.56425
G1 X115.186 Y107.02 E31.59034
G1 X114.924 Y106.891 E31.60415
G1 X114.19 Y106.891 E31.63885
G1 X113.524 Y106.406 E31.6778
G1 X113.262 Y106.277 E31.69161
G1 X112.486 Y106.277 E31.7283
G1 X109.838 Y104.591 E31.87671
G1 X109.445 Y103.383 E31.93677
G1 X109.845 Y102.153 E31.99791
G1 X110.893 Y101.39 E32.0592
G1 X112.215 Y101.39 E32.1217
G1 X114.512 Y102.805 E32.24925
G1 X114.762 Y102.905 E32.26198
G1 X115.484 Y102.905 E32.29611
M205 X5 Y5
G1 F2700 E29.79611
G0 F7500 X109.918 Y103.383
M205 X8 Y8
G1 F2700 E32.29611
G1 F1500 X110.228 Y102.43 E32.34349
G1 X111.038 Y101.84 E32.39087
G1 X112.088 Y101.84 E32.44051
G1 X114.276 Y103.188 E32.56201
