;FLAVOR:Marlin
;TIME:1283
;Filament used: 1.31371m
;Layer height: 0.28
;MINX:69.749
;MINY:88.475
;MINZ:0.28
;MAXX:147.399
;MAXY:132.627
;MAXZ:21.84
;Generated with Cura_SteamEngine main
M82 ;absolute extrusion mode
M201 X500.00 Y500.00 Z100.00 E5000.00 ;Setup machine max acceleration
M203 X500.00 Y500.00 Z10.00 E50.00 ;Setup machine max feedrate
M204 P500.00 R1000.00 T500.00 ;Setup Print/Retract/Travel acceleration
M205 X8.00 Y8.00 Z0.40 E5.00 ;Setup Jerk
M220 S100 ;Reset Feedrate
M221 S100 ;Reset Flowrate

;*** Start Dual Nozzle/Bed Preheating ***
M140 S60 ; start preheating the bed
M104 S210 ?T0 ; start preheating hotend
M190 S60 ; heat to Cura Bed setting and WAIT
M109 S210 ?T0 ; heat to Cura Hotend and WAIT
;*** End Preheating ***


;*** Single Print Start Tone
M300 S1000 P500 ; chirp to indicate starting to print
;*** End Single Start Tone

G28 ;Home

G92 E0 ;Reset Extruder
G1 Z2.0 F3000 ;Move Z Axis up
G1 X10.1 Y20 Z0.28 F5000.0 ;Move to start position
G1 X10.1 Y200.0 Z0.28 F1500.0 E15 ;Draw the first line
G1 X10.4 Y200.0 Z0.28 F5000.0 ;Move to side a little
G1 X10.4 Y20 Z0.28 F1500.0 E30 ;Draw the second line
G92 E0 ;Reset Extruder
G1 Z2.0 F3000 ;Move Z Axis up
G92 E0
G92 E0
G1 F2700 E-2.5
;LAYER_COUNT:78
;LAYER:0
M107
M204 S500
M205 X5 Y5
G0 F7500 X73.639 Y90.926 Z0.28
G0 X69.75 Y99.663
M205 X8 Y8
;TYPE:SKIRT
G1 F2700 E0
G1 F1500 X69.76 Y98.998 E0.03144
G1 X69.814 Y98.076 E0.07511
G1 X69.947 Y97.162 E0.11877
G1 X70.159 Y96.263 E0.16244
G1 X70.448 Y95.385 E0.20614
G1 X70.812 Y94.536 E0.24981
G1 X71.248 Y93.721 E0.29351
G1 X71.752 Y92.947 E0.33718
G1 X72.322 Y92.22 E0.38085
G1 X72.952 Y91.544 E0.42454
G1 X73.639 Y90.926 E0.46823
G1 X74.376 Y90.369 E0.5119
G1 X75.159 Y89.878 E0.5556
G1 X75.981 Y89.457 E0.59926
G1 X76.837 Y89.108 E0.64296
G1 X77.719 Y88.835 E0.68661
G1 X78.622 Y88.639 E0.7303
G1 X79.539 Y88.522 E0.774
G1 X80.134 Y88.488 E0.80218
G1 X80.754 Y88.475 E0.8315
G1 X84.252 Y88.475 E0.99687
G1 X85.702 Y88.495 E1.06543
G1 X87.446 Y88.545 E1.14792
G1 X90.009 Y88.547 E1.26909
G1 X92.948 Y88.475 E1.40808
G1 X96.854 Y88.476 E1.59274
G1 X97.552 Y88.486 E1.62575
G1 X98.445 Y88.536 E1.66803
G1 X99.717 Y88.661 E1.72846
G1 X102.303 Y88.881 E1.85116
G1 X104.82 Y89.023 E1.97034
G1 X107.353 Y89.094 E2.09014
G1 X109.861 Y89.094 E2.20871
G1 X112.409 Y89.021 E2.32923
G1 X114.905 Y88.88 E2.44742
G1 X117.886 Y88.62 E2.58889
G1 X118.605 Y88.545 E2.62306
G1 X119.541 Y88.489 E2.66739
G1 X120.37 Y88.476 E2.70659
G1 X123.97 Y88.476 E2.87679
G1 X125.311 Y88.496 E2.94019
G1 X127.027 Y88.545 E3.02136
G1 X129.518 Y88.545 E3.13912
G1 X130.063 Y88.528 E3.1649
G1 X133.081 Y88.475 E3.30761
G1 X136.17 Y88.476 E3.45365
G1 X136.868 Y88.486 E3.48665
G1 X137.79 Y88.539 E3.53031
G1 X138.705 Y88.672 E3.57402
G1 X139.604 Y88.883 E3.61768
G1 X140.482 Y89.172 E3.66138
G1 X141.331 Y89.535 E3.70503
G1 X142.146 Y89.97 E3.74871
G1 X142.921 Y90.474 E3.79242
G1 X143.648 Y91.043 E3.83606
G1 X144.324 Y91.673 E3.87975
G1 X144.943 Y92.359 E3.92343
G1 X145.5 Y93.096 E3.96711
G1 X145.992 Y93.878 E4.01079
G1 X146.414 Y94.7 E4.05447
G1 X146.763 Y95.556 E4.09817
G1 X147.037 Y96.438 E4.14184
G1 X147.234 Y97.341 E4.18553
G1 X147.352 Y98.257 E4.2292
G1 X147.386 Y98.86 E4.25775
G1 X147.399 Y99.48 E4.28707
G1 X147.398 Y116.477 E5.09064
G1 X147.387 Y117.206 E5.12511
G1 X147.333 Y118.128 E5.16877
G1 X147.199 Y119.043 E5.21249
G1 X146.987 Y119.942 E5.25616
G1 X146.698 Y120.819 E5.29982
G1 X146.335 Y121.669 E5.34351
G1 X145.899 Y122.483 E5.38717
G1 X145.394 Y123.257 E5.43086
G1 X144.825 Y123.985 E5.47455
G1 X144.194 Y124.66 E5.51823
G1 X143.508 Y125.278 E5.56188
G1 X142.77 Y125.835 E5.60559
G1 X141.988 Y126.326 E5.64925
G1 X141.165 Y126.747 E5.69295
G1 X140.31 Y127.096 E5.73661
G1 X139.114 Y127.446 E5.79553
G1 X137.97 Y127.71 E5.85103
G1 X135.784 Y128.239 E5.95737
G1 X133.31 Y128.908 E6.07853
G1 X130.915 Y129.63 E6.19679
G1 X128.533 Y130.421 E6.31545
G1 X125.705 Y131.456 E6.45783
G1 X124.997 Y131.728 E6.49368
G1 X124.052 Y132.041 E6.54075
G1 X123.535 Y132.186 E6.56613
G1 X122.635 Y132.397 E6.60984
G1 X121.673 Y132.534 E6.65578
G1 X121.215 Y132.578 E6.67753
G1 X120.292 Y132.627 E6.72123
G1 X119.393 Y132.597 E6.76375
G1 X118.875 Y132.558 E6.78831
G1 X117.957 Y132.449 E6.83202
G1 X116.984 Y132.243 E6.87904
G1 X116.512 Y132.12 E6.9021
G1 X115.629 Y131.849 E6.94576
G1 X114.696 Y131.466 E6.99345
G1 X114.198 Y131.234 E7.01942
G1 X113.265 Y130.742 E7.06929
G1 X112.606 Y130.351 E7.10551
G1 X110.377 Y129.072 E7.22701
G1 X108.121 Y127.86 E7.34809
G1 X105.842 Y126.719 E7.46858
G1 X103.595 Y125.673 E7.58576
G1 X101.238 Y124.654 E7.70716
G1 X98.939 Y123.737 E7.82418
G1 X96.533 Y122.855 E7.94533
G1 X94.127 Y122.05 E8.06527
G1 X91.727 Y121.322 E8.18384
G1 X89.306 Y120.661 E8.30249
G1 X86.838 Y120.063 E8.42255
G1 X83.362 Y119.34 E8.5904
G1 X82.704 Y119.21 E8.62211
G1 X81.928 Y119.037 E8.6597
G1 X80.61 Y118.653 E8.7246
G1 X80.012 Y118.436 E8.75468
G1 X79.164 Y118.086 E8.79805
G1 X78.433 Y117.728 E8.83653
G1 X78.036 Y117.516 E8.85781
G1 X77.349 Y117.117 E8.89537
G1 X77.136 Y116.982 E8.90729
G1 X76.538 Y116.573 E8.94154
G1 X76.133 Y116.276 E8.96528
G1 X75.603 Y115.861 E8.99711
G1 X75.239 Y115.557 E9.01953
G1 X74.556 Y114.935 E9.0632
G1 X74.146 Y114.504 E9.09133
G1 X73.644 Y113.946 E9.12681
G1 X73.056 Y113.233 E9.17051
G1 X72.757 Y112.815 E9.1948
G1 X72.443 Y112.354 E9.22117
G1 X72.063 Y111.754 E9.25475
G1 X71.862 Y111.412 E9.2735
G1 X71.495 Y110.734 E9.30995
G1 X71.364 Y110.469 E9.32393
G1 X71.079 Y109.84 E9.35658
G1 X70.905 Y109.422 E9.37798
G1 X70.64 Y108.717 E9.41359
G1 X70.496 Y108.288 E9.43498
G1 X70.24 Y107.4 E9.47867
G1 X70.135 Y106.918 E9.502
G1 X70.023 Y106.339 E9.52988
G1 X69.903 Y105.569 E9.56672
G1 X69.852 Y105.139 E9.58719
G1 X69.781 Y104.119 E9.63553
G1 X69.749 Y102.574 E9.70859
G1 X69.75 Y99.663 E9.84621
M205 X5 Y5
G0 F7500 X70.199 Y102.574
M205 X8 Y8
G1 F1500 X70.2 Y99.67 E9.98351
G1 X70.21 Y99.005 E10.01495
G1 X70.264 Y98.103 E10.05767
G1 X70.397 Y97.208 E10.10045
G1 X70.608 Y96.329 E10.14319
G1 X70.897 Y95.472 E10.18594
G1 X71.26 Y94.644 E10.22869
G1 X71.695 Y93.851 E10.27145
G1 X72.198 Y93.1 E10.31418
G1 X72.765 Y92.396 E10.35692
G1 X73.393 Y91.745 E10.39968
G1 X74.075 Y91.152 E10.44241
G1 X74.807 Y90.621 E10.48516
G1 X75.584 Y90.158 E10.52792
G1 X76.398 Y89.764 E10.57068
G1 X77.244 Y89.444 E10.61344
G1 X78.114 Y89.201 E10.65614
G1 X79.003 Y89.035 E10.6989
G1 X80.147 Y88.938 E10.75318
G1 X80.754 Y88.925 E10.78188
G1 X84.252 Y88.925 E10.94726
G1 X85.689 Y88.945 E11.0152
G1 X87.433 Y88.995 E11.09769
G1 X89.973 Y88.997 E11.21777
G1 X91.435 Y88.965 E11.28691
G1 X92.646 Y88.929 E11.34419
G1 X96.847 Y88.926 E11.5428
G1 X97.545 Y88.936 E11.5758
G1 X98.401 Y88.984 E11.61633
G1 X99.709 Y89.113 E11.67847
G1 X102.241 Y89.328 E11.79861
G1 X104.815 Y89.473 E11.92049
G1 X107.341 Y89.544 E12.03996
G1 X109.874 Y89.544 E12.15972
G1 X112.413 Y89.471 E12.2798
G1 X114.968 Y89.326 E12.40079
G1 X117.909 Y89.07 E12.54036
G1 X118.651 Y88.993 E12.57563
G1 X119.548 Y88.939 E12.61811
G1 X120.377 Y88.926 E12.65731
G1 X123.963 Y88.926 E12.82684
G1 X125.298 Y88.946 E12.88997
G1 X127.014 Y88.995 E12.97113
G1 X129.532 Y88.995 E13.09017
G1 X130.213 Y88.975 E13.12238
G1 X133.081 Y88.925 E13.25799
G1 X136.163 Y88.926 E13.4037
G1 X136.861 Y88.936 E13.4367
G1 X137.764 Y88.989 E13.47947
G1 X138.659 Y89.121 E13.52224
G1 X139.538 Y89.332 E13.56498
G1 X140.395 Y89.62 E13.60772
G1 X141.223 Y89.983 E13.65046
G1 X142.017 Y90.417 E13.69324
G1 X142.768 Y90.919 E13.73595
G1 X143.473 Y91.486 E13.77872
G1 X144.124 Y92.113 E13.82145
G1 X144.718 Y92.795 E13.86421
G1 X145.249 Y93.527 E13.90696
G1 X145.713 Y94.303 E13.94971
G1 X146.107 Y95.117 E13.99246
G1 X146.427 Y95.963 E14.03523
G1 X146.672 Y96.833 E14.07796
G1 X146.838 Y97.722 E14.12071
G1 X146.936 Y98.873 E14.17533
G1 X146.949 Y99.48 E14.20403
G1 X146.948 Y116.47 E15.00727
G1 X146.937 Y117.199 E15.04174
G1 X146.883 Y118.102 E15.08451
G1 X146.75 Y118.996 E15.12724
G1 X146.538 Y119.875 E15.16998
G1 X146.25 Y120.732 E15.21273
G1 X145.887 Y121.56 E15.25547
G1 X145.452 Y122.353 E15.29823
G1 X144.949 Y123.105 E15.341
G1 X144.382 Y123.808 E15.3837
G1 X143.754 Y124.46 E15.4265
G1 X143.071 Y125.053 E15.46926
G1 X142.339 Y125.583 E15.51199
G1 X141.563 Y126.047 E15.55473
G1 X140.749 Y126.44 E15.59747
G1 X139.903 Y126.76 E15.64023
G1 X139.013 Y127.008 E15.68391
G1 X137.817 Y127.284 E15.74194
G1 X135.629 Y127.814 E15.84837
G1 X133.205 Y128.47 E15.9671
G1 X130.797 Y129.195 E16.08599
G1 X128.37 Y130.001 E16.20689
G1 X125.568 Y131.027 E16.34796
G1 X124.836 Y131.308 E16.38503
G1 X123.93 Y131.608 E16.43015
G1 X123.413 Y131.753 E16.45554
G1 X122.533 Y131.959 E16.49827
G1 X121.63 Y132.086 E16.54138
G1 X121.172 Y132.13 E16.56313
G1 X120.269 Y132.177 E16.60588
G1 X119.426 Y132.148 E16.64576
G1 X118.908 Y132.109 E16.67032
G1 X118.011 Y132.001 E16.71303
G1 X117.098 Y131.808 E16.75715
G1 X116.626 Y131.685 E16.78021
G1 X115.761 Y131.418 E16.82301
G1 X114.886 Y131.059 E16.86772
G1 X114.388 Y130.827 E16.8937
G1 X113.494 Y130.355 E16.94149
G1 X112.805 Y129.947 E16.97935
G1 X110.571 Y128.665 E17.10112
G1 X108.335 Y127.463 E17.22114
G1 X106.075 Y126.333 E17.3406
G1 X103.761 Y125.254 E17.4613
G1 X101.409 Y124.239 E17.58241
G1 X99.076 Y123.307 E17.70119
G1 X96.688 Y122.433 E17.82141
G1 X94.3 Y121.633 E17.94047
G1 X91.833 Y120.884 E18.06236
G1 X89.388 Y120.217 E18.18218
G1 X86.941 Y119.624 E18.30121
G1 X83.438 Y118.896 E18.47037
G1 X82.802 Y118.771 E18.50101
G1 X82.026 Y118.598 E18.5386
G1 X80.763 Y118.23 E18.60079
G1 X80.165 Y118.013 E18.63087
G1 X79.353 Y117.678 E18.67239
G1 X78.645 Y117.332 E18.70965
G1 X78.248 Y117.12 E18.73093
G1 X77.59 Y116.736 E18.76695
G1 X77.377 Y116.601 E18.77887
G1 X76.804 Y116.21 E18.81166
G1 X76.399 Y115.913 E18.83541
G1 X75.892 Y115.516 E18.86585
G1 X75.528 Y115.212 E18.88827
G1 X74.86 Y114.602 E18.93104
G1 X74.48 Y114.203 E18.95709
G1 X73.978 Y113.645 E18.99257
G1 X73.404 Y112.946 E19.03534
G1 X73.129 Y112.562 E19.05767
G1 X72.815 Y112.101 E19.08404
G1 X72.451 Y111.526 E19.11621
G1 X72.25 Y111.184 E19.13496
G1 X71.899 Y110.534 E19.16989
G1 X71.768 Y110.269 E19.18386
G1 X71.494 Y109.667 E19.21513
G1 X71.32 Y109.249 E19.23654
G1 X71.067 Y108.574 E19.27062
G1 X70.923 Y108.145 E19.29201
G1 X70.673 Y107.276 E19.33476
G1 X70.577 Y106.833 E19.35619
G1 X70.465 Y106.254 E19.38408
G1 X70.35 Y105.516 E19.41939
G1 X70.299 Y105.086 E19.43986
G1 X70.231 Y104.109 E19.48616
G1 X70.199 Y102.574 E19.55875
M205 X5 Y5
G1 F2700 E17.05875
G0 F7500 X83.363 Y109.01
G0 X84.03 Y109.223
G0 X119.87 Y118.88
G0 X119.788 Y119.058
M205 X8 Y8
G1 F2700 E19.55875
G1 F1500 X119.87 Y118.88 E19.56801
G1 X119.967 Y118.797 E19.57405
G1 X120.149 Y118.748 E19.58296
G1 X120.272 Y118.77 E19.58887
G1 X120.428 Y118.878 E19.59784
G1 X120.515 Y119.114 E19.60973
G1 X120.466 Y119.296 E19.61864
G1 X120.271 Y119.458 E19.63062
G1 X120.091 Y119.475 E19.63917
G1 X119.874 Y119.354 E19.65092
G1 X119.804 Y119.232 E19.65757
G1 X119.788 Y119.058 E19.66583
M205 X5 Y5
G0 F7500 X119.343 Y118.976
M205 X8 Y8
G1 F1500 X119.441 Y118.707 E19.67936
G1 X119.625 Y118.487 E19.69292
G1 X119.865 Y118.348 E19.70603
G1 X120.01 Y118.309 E19.71313
G1 X120.364 Y118.309 E19.72987
G1 X120.737 Y118.526 E19.75027
G1 X120.954 Y118.899 E19.77067
G1 X120.954 Y119.253 E19.78741
G1 X120.915 Y119.398 E19.79451
G1 X120.776 Y119.638 E19.80762
G1 X120.556 Y119.822 E19.82118
G1 X120.287 Y119.92 E19.83471
G1 X120.015 Y119.92 E19.84757
G1 X119.741 Y119.821 E19.86135
G1 X119.526 Y119.642 E19.87457
G1 X119.442 Y119.522 E19.8815
G1 X119.343 Y119.248 E19.89527
G1 X119.343 Y118.976 E19.90813
M205 X5 Y5
G0 F7500 X118.899 Y118.894
M205 X8 Y8
G1 F1500 X118.955 Y118.685 E19.91836
G1 X119.178 Y118.298 E19.93948
G1 X119.516 Y118.014 E19.96035
G1 X119.712 Y117.923 E19.97057
G1 X120.149 Y117.845 E19.99155
G1 X120.577 Y117.92 E20.0121
G1 X120.784 Y118.017 E20.0229
G1 X121.118 Y118.296 E20.04348
G1 X121.343 Y118.686 E20.06476
G1 X121.418 Y119.114 E20.08531
G1 X121.34 Y119.551 E20.10629
G1 X121.249 Y119.747 E20.11651
G1 X120.965 Y120.085 E20.13738
G1 X120.578 Y120.308 E20.1585
G1 X120.369 Y120.364 E20.16873
G1 X119.932 Y120.364 E20.18939
G1 X119.517 Y120.213 E20.21027
G1 X119.18 Y119.932 E20.23101
G1 X119.05 Y119.746 E20.24174
G1 X118.899 Y119.331 E20.26262
G1 X118.899 Y118.894 E20.28328
M205 X5 Y5
G0 F7500 X118.428 Y119.114
M205 X8 Y8
G1 F1500 X118.454 Y118.818 E20.29733
G1 X118.533 Y118.526 E20.31163
G1 X118.661 Y118.251 E20.32597
G1 X118.829 Y118.01 E20.33986
G1 X119.046 Y117.794 E20.35433
G1 X119.285 Y117.626 E20.36814
G1 X119.563 Y117.497 E20.38263
G1 X119.848 Y117.421 E20.39658
G1 X120.149 Y117.394 E20.41087
G1 X120.452 Y117.421 E20.42525
G1 X120.733 Y117.496 E20.439
G1 X121.008 Y117.625 E20.45336
G1 X121.262 Y117.802 E20.46799
G1 X121.461 Y118.001 E20.4813
G1 X121.638 Y118.255 E20.49594
G1 X121.767 Y118.53 E20.5103
G1 X121.842 Y118.811 E20.52405
G1 X121.869 Y119.114 E20.53843
G1 X121.842 Y119.415 E20.55272
G1 X121.766 Y119.7 E20.56666
G1 X121.637 Y119.978 E20.58115
G1 X121.469 Y120.217 E20.59496
G1 X121.253 Y120.434 E20.60944
G1 X121.012 Y120.602 E20.62333
G1 X120.737 Y120.73 E20.63767
G1 X120.445 Y120.809 E20.65197
G1 X120.149 Y120.835 E20.66601
G1 X119.85 Y120.808 E20.68021
G1 X119.564 Y120.732 E20.6942
G1 X119.291 Y120.604 E20.70845
G1 X119.036 Y120.426 E20.72316
G1 X118.837 Y120.227 E20.73646
G1 X118.659 Y119.972 E20.75116
G1 X118.531 Y119.699 E20.76542
G1 X118.455 Y119.413 E20.77941
G1 X118.428 Y119.114 E20.7936
M205 X5 Y5
G0 F7500 X117.975 Y119.114
M205 X8 Y8
G1 F1500 X118.009 Y118.742 E20.81126
G1 X118.108 Y118.37 E20.82946
G1 X118.268 Y118.029 E20.84727
G1 X118.483 Y117.72 E20.86507
G1 X118.755 Y117.448 E20.88325
G1 X119.064 Y117.232 E20.90108
G1 X119.407 Y117.072 E20.91897
G1 X119.773 Y116.975 E20.93687
G1 X120.149 Y116.941 E20.95472
G1 X120.526 Y116.975 E20.97262
G1 X120.89 Y117.072 E20.99043
G1 X121.233 Y117.232 E21.00832
G1 X121.549 Y117.453 E21.02655
G1 X121.81 Y117.714 E21.044
G1 X122.031 Y118.03 E21.06223
G1 X122.191 Y118.373 E21.08012
G1 X122.288 Y118.737 E21.09793
G1 X122.322 Y119.114 E21.11583
G1 X122.288 Y119.491 E21.13373
G1 X122.191 Y119.856 E21.15158
G1 X122.031 Y120.199 E21.16947
G1 X121.815 Y120.508 E21.1873
G1 X121.543 Y120.78 E21.20548
G1 X121.234 Y120.995 E21.22328
G1 X120.893 Y121.155 E21.24109
G1 X120.521 Y121.254 E21.25929
G1 X120.149 Y121.288 E21.27695
G1 X119.778 Y121.254 E21.29456
G1 X119.409 Y121.155 E21.31262
G1 X119.062 Y120.993 E21.33073
G1 X118.749 Y120.775 E21.34876
G1 X118.488 Y120.514 E21.36621
G1 X118.27 Y120.201 E21.38425
G1 X118.108 Y119.854 E21.40235
G1 X118.009 Y119.485 E21.42041
G1 X117.975 Y119.114 E21.43803
M205 X5 Y5
G0 F7500 X117.524 Y119.114
M205 X8 Y8
G1 F1500 X117.564 Y118.66 E21.45957
G1 X117.682 Y118.22 E21.48111
G1 X117.878 Y117.8 E21.50302
G1 X118.137 Y117.429 E21.52441
G1 X118.464 Y117.102 E21.54628
G1 X118.837 Y116.841 E21.5678
G1 X119.253 Y116.647 E21.5895
G1 X119.692 Y116.53 E21.61098
G1 X120.149 Y116.49 E21.63267
G1 X120.606 Y116.53 E21.65436
G1 X121.042 Y116.646 E21.67569
G1 X121.463 Y116.843 E21.69766
G1 X121.837 Y117.105 E21.71925
G1 X122.158 Y117.426 E21.74071
G1 X122.42 Y117.8 E21.7623
G1 X122.617 Y118.221 E21.78428
G1 X122.733 Y118.657 E21.80561
G1 X122.773 Y119.114 E21.82729
G1 X122.733 Y119.571 E21.84898
G1 X122.616 Y120.01 E21.87046
G1 X122.422 Y120.426 E21.89216
G1 X122.161 Y120.799 E21.91369
G1 X121.834 Y121.126 E21.93555
G1 X121.463 Y121.385 E21.95694
G1 X121.043 Y121.581 E21.97885
G1 X120.603 Y121.699 E22.00039
G1 X120.149 Y121.739 E22.02194
G1 X119.695 Y121.699 E22.04348
G1 X119.257 Y121.581 E22.06493
G1 X118.838 Y121.386 E22.08678
G1 X118.459 Y121.121 E22.10864
G1 X118.142 Y120.804 E22.12984
G1 X117.877 Y120.425 E22.1517
G1 X117.682 Y120.006 E22.17355
G1 X117.564 Y119.568 E22.19499
G1 X117.524 Y119.114 E22.21654
M205 X5 Y5
G1 F2700 E19.71654
;MESH:HotEnd_Mount_New.stl
G0 F7500 X128.737 Y117.079
G0 X128.915 Y115.991
G0 X135.844 Y116.159
G1 F2700 E22.21654
G0 F7500 X136.024 Y116.342
M205 X8 Y8
;TYPE:WALL-INNER
G1 F1500 X136.024 Y99.85 E23.08287
G1 X133.66 Y99.85 E23.20705
G1 X133.724 Y100.201 E23.22579
G1 X133.724 Y102.935 E23.36941
G1 X133.706 Y103.318 E23.38955
