;FLAVOR:Marlin
;TIME:3140
;Filament used: 1.82918m
;Layer height: 0.16
;MINX:88.047
;MINY:55.042
;MINZ:0.24
;MAXX:131.953
;MAXY:163.324
;MAXZ:15.52
;Generated with Cura_SteamEngine 4.7.1
M140 S50
M105
M190 S50
M104 S215
M105
M109 S215
M82 ;absolute extrusion mode
M201 X500.00 Y500.00 Z100.00 E5000.00 ;Setup machine max acceleration
M203 X500.00 Y500.00 Z10.00 E50.00 ;Setup machine max feedrate
M204 P500.00 R1000.00 T500.00 ;Setup Print/Retract/Travel acceleration
M205 X8.00 Y8.00 Z0.40 E5.00 ;Setup Jerk
M220 S100 ;Reset Feedrate
M221 S100 ;Reset Flowrate

G28 ;Home

G92 E0 ;Reset Extruder
G1 Z2.0 F3000 ;Move Z Axis up
G1 X10.1 Y20 Z0.28 F5000.0 ;Move to start position
G1 X10.1 Y200.0 Z0.28 F1500.0 E15 ;Draw the first line
G1 X10.4 Y200.0 Z0.28 F5000.0 ;Move to side a little
G1 X10.4 Y20 Z0.28 F1500.0 E30 ;Draw the second line
G92 E0 ;Reset Extruder
G1 Z2.0 F3000 ;Move Z Axis up

G92 E0
G92 E0
G1 F2400 E-3
;LAYER_COUNT:96
;LAYER:0
M106 S63.8
M204 S500
M205 X6 Y6
G1 F300 Z0.44
G0 F9000 X89.959 Y60.115 Z0.44
;TYPE:SKIRT
G1 F300 Z0.24
G1 F2400 E0
G1 F1800 X90.494 Y59.366 E0.03674
G1 X91.2 Y58.55 E0.0798
G1 X91.343 Y58.401 E0.08805
G1 X92.009 Y57.765 E0.1248
G1 X92.727 Y57.19 E0.16151
G1 X93.493 Y56.678 E0.19829
G1 X94.3 Y56.235 E0.23503
G1 X95.143 Y55.864 E0.27179
G1 X96.014 Y55.568 E0.30851
G1 X96.597 Y55.415 E0.33256
G1 X97.122 Y55.298 E0.35403
G1 X97.326 Y55.257 E0.36234
G1 X98.236 Y55.115 E0.3991
G1 X99.49 Y55.049 E0.44922
G1 X100.711 Y55.058 E0.49795
G1 X100.959 Y55.057 E0.50785
G1 X101.764 Y55.063 E0.53998
G1 X102.918 Y55.067 E0.58604
G1 X116.612 Y55.068 E1.13259
G1 X117.91 Y55.064 E1.1844
G1 X118.959 Y55.05 E1.22627
G1 X119.137 Y55.055 E1.23338
G1 X120.394 Y55.042 E1.28355
G1 X121.314 Y55.072 E1.32029
G1 X122.51 Y55.232 E1.36845
G1 X122.962 Y55.319 E1.38682
G1 X123.858 Y55.532 E1.42358
G1 X124.732 Y55.822 E1.46033
G1 X125.577 Y56.187 E1.49707
G1 X126.388 Y56.624 E1.53384
G1 X127.157 Y57.129 E1.57056
G1 X127.732 Y57.57 E1.59948
G1 X128.427 Y58.173 E1.6362
G1 X129.068 Y58.835 E1.67298
G1 X129.649 Y59.549 E1.70972
G1 X130.166 Y60.311 E1.74648
G1 X130.614 Y61.115 E1.78321
G1 X130.992 Y61.954 E1.81994
G1 X131.209 Y62.552 E1.84533
G1 X131.308 Y62.852 E1.85794
G1 X131.622 Y64.025 E1.9064
G1 X131.687 Y64.339 E1.9192
G1 X131.834 Y65.248 E1.95595
G1 X131.896 Y66.007 E1.98635
G1 X131.932 Y66.799 E2.01799
G1 X131.942 Y67.123 E2.03093
G1 X131.952 Y67.799 E2.05791
G1 X131.953 Y68.458 E2.08421
G1 X131.946 Y69.723 E2.1347
G1 X131.947 Y69.847 E2.13965
G1 X131.898 Y76.553 E2.40731
G1 X131.893 Y77.538 E2.44662
G1 X131.844 Y84.384 E2.71987
G1 X131.837 Y86.079 E2.78752
G1 X131.82 Y88.396 E2.88
G1 X131.806 Y91.537 E3.00537
G1 X131.798 Y92.467 E3.04249
G1 X131.794 Y93.594 E3.08747
G1 X131.786 Y94.745 E3.13341
G1 X131.784 Y95.431 E3.16079
G1 X131.769 Y96.318 E3.19619
G1 X131.713 Y97.237 E3.23294
G1 X131.548 Y98.29 E3.27548
G1 X131.518 Y98.434 E3.28135
G1 X131.356 Y99.101 E3.30875
G1 X131.261 Y99.444 E3.32295
G1 X130.895 Y100.535 E3.36888
G1 X130.375 Y101.839 E3.42491
G1 X130.195 Y102.289 E3.44426
G1 X129.296 Y104.673 E3.54595
G1 X128.473 Y107.053 E3.64646
G1 X127.715 Y109.466 E3.74741
G1 X127.025 Y111.902 E3.84846
G1 X126.414 Y114.315 E3.9478
G1 X125.859 Y116.804 E4.04959
G1 X125.37 Y119.329 E4.15224
G1 X124.966 Y121.788 E4.2517
G1 X124.622 Y124.323 E4.3538
G1 X124.357 Y126.809 E4.45358
G1 X124.16 Y129.338 E4.55483
G1 X124.034 Y131.86 E4.65561
G1 X123.98 Y134.401 E4.75705
G1 X123.997 Y136.959 E4.85915
G1 X124.016 Y137.568 E4.88347
G1 X124.034 Y138.771 E4.93149
G1 X124.035 Y141.431 E5.03765
G1 X124.037 Y141.549 E5.04236
G1 X124.031 Y142.06 E5.06276
G1 X124.041 Y143.299 E5.11221
G1 X124.049 Y143.847 E5.13409
G1 X124.05 Y144.07 E5.14299
G1 X124.045 Y144.851 E5.17416
G1 X124.047 Y146.265 E5.2306
G1 X124.061 Y147.752 E5.28995
G1 X124.06 Y148.018 E5.30056
G1 X124.066 Y148.541 E5.32144
G1 X124.076 Y149.095 E5.34355
G1 X124.07 Y149.253 E5.34987
G1 X124.072 Y150.414 E5.3962
G1 X124.081 Y151.318 E5.43229
G1 X124.078 Y151.722 E5.44841
G1 X124.031 Y152.641 E5.48514
G1 X123.963 Y153.199 E5.50757
G1 X123.861 Y153.859 E5.53423
G1 X123.806 Y154.169 E5.54679
G1 X123.606 Y155.067 E5.58351
G1 X123.329 Y155.945 E5.62026
G1 X122.976 Y156.796 E5.65703
G1 X122.551 Y157.613 E5.69379
G1 X122.057 Y158.389 E5.7305
G1 X121.703 Y158.867 E5.75424
G1 X121.413 Y159.236 E5.77297
G1 X120.813 Y159.934 E5.80971
G1 X120.155 Y160.578 E5.84646
G1 X119.444 Y161.162 E5.88318
G1 X118.684 Y161.683 E5.91996
G1 X117.882 Y162.135 E5.9567
G1 X117.408 Y162.362 E5.97768
G1 X117.37 Y162.379 E5.97934
G1 X116.514 Y162.718 E6.01608
G1 X115.632 Y162.982 E6.05283
G1 X114.73 Y163.168 E6.08959
G1 X113.816 Y163.275 E6.12632
G1 X113.259 Y163.301 E6.14857
G1 X112.238 Y163.322 E6.18933
G1 X112.022 Y163.324 E6.19795
G1 X107.557 Y163.324 E6.37616
G1 X106.862 Y163.314 E6.4039
G1 X105.943 Y163.261 E6.44064
G1 X105.032 Y163.128 E6.47739
G1 X103.775 Y162.808 E6.52916
G1 X103.694 Y162.782 E6.53255
G1 X102.831 Y162.463 E6.56928
G1 X101.998 Y162.07 E6.60604
G1 X101.203 Y161.606 E6.64278
G1 X100.451 Y161.075 E6.67952
G1 X99.747 Y160.481 E6.71628
G1 X99.149 Y159.883 E6.75004
G1 X98.954 Y159.672 E6.7615
G1 X98.359 Y158.97 E6.79823
G1 X97.828 Y158.218 E6.83497
G1 X97.453 Y157.59 E6.86417
G1 X97.333 Y157.372 E6.8741
G1 X96.924 Y156.547 E6.91085
G1 X96.589 Y155.689 E6.94761
G1 X96.329 Y154.806 E6.98435
G1 X96.181 Y154.108 E7.01283
G1 X96.044 Y153.264 E7.04696
G1 X95.944 Y152.349 E7.08369
G1 X95.922 Y151.776 E7.10658
G1 X95.92 Y151.367 E7.1229
G1 X95.927 Y150.699 E7.14957
G1 X95.932 Y149.295 E7.2056
G1 X95.927 Y148.761 E7.22692
G1 X95.93 Y148.649 E7.23139
G1 X95.943 Y147.646 E7.27142
G1 X95.95 Y145.845 E7.34331
G1 X95.946 Y145.11 E7.37264
G1 X95.962 Y143.417 E7.44022
G1 X95.96 Y142.793 E7.46512
G1 X95.968 Y141.148 E7.53078
G1 X95.962 Y140.49 E7.55704
G1 X95.964 Y140.055 E7.5744
G1 X95.959 Y139.336 E7.6031
G1 X95.961 Y139.064 E7.61396
G1 X96.003 Y136.765 E7.70573
G1 X96.011 Y136.401 E7.72026
G1 X96.015 Y133.861 E7.82164
G1 X95.947 Y131.352 E7.92182
G1 X95.807 Y128.809 E8.02347
G1 X95.597 Y126.298 E8.12404
G1 X95.314 Y123.778 E8.22525
G1 X94.963 Y121.287 E8.32565
G1 X94.537 Y118.783 E8.42703
G1 X94.043 Y116.301 E8.52803
G1 X93.474 Y113.818 E8.6297
G1 X92.849 Y111.4 E8.72938
G1 X92.142 Y108.957 E8.83089
G1 X91.374 Y106.557 E8.93146
G1 X90.54 Y104.182 E9.03193
G1 X89.403 Y101.246 E9.15759
G1 X89.19 Y100.723 E9.18013
G1 X88.868 Y99.817 E9.21851
G1 X88.708 Y99.292 E9.24041
G1 X88.479 Y98.401 E9.27713
G1 X88.31 Y97.348 E9.31969
G1 X88.284 Y97.109 E9.32929
G1 X88.223 Y96.093 E9.36991
G1 X88.217 Y95.594 E9.38983
G1 X88.214 Y94.796 E9.42168
G1 X88.187 Y90.114 E9.60855
G1 X88.178 Y88.161 E9.6865
G1 X88.162 Y85.775 E9.78173
G1 X88.154 Y84.206 E9.84436
G1 X88.071 Y72.149 E10.32559
G1 X88.052 Y69.601 E10.42729
G1 X88.047 Y68.476 E10.47219
G1 X88.049 Y67.868 E10.49646
G1 X88.069 Y66.832 E10.53781
G1 X88.103 Y66.048 E10.56913
G1 X88.142 Y65.503 E10.59094
G1 X88.254 Y64.589 E10.62769
G1 X88.514 Y63.432 E10.67502
G1 X88.677 Y62.889 E10.69765
G1 X88.771 Y62.601 E10.70974
G1 X89.095 Y61.739 E10.7465
G1 X89.492 Y60.908 E10.78326
G1 X89.959 Y60.115 E10.81999
G0 F9000 X90.323 Y60.29
G1 F1800 X90.852 Y59.558 E10.85603
G1 X91.489 Y58.827 E10.89473
G1 X91.632 Y58.678 E10.90297
G1 X92.285 Y58.055 E10.939
G1 X92.992 Y57.492 E10.97507
G1 X93.745 Y56.994 E11.0111
G1 X94.539 Y56.564 E11.04714
G1 X95.368 Y56.206 E11.08318
G1 X96.226 Y55.923 E11.11924
G1 X96.908 Y55.753 E11.14729
G1 X97.405 Y55.649 E11.16756
G1 X98.298 Y55.51 E11.20363
G1 X99.487 Y55.449 E11.25115
G1 X100.71 Y55.458 E11.29996
G1 X100.956 Y55.457 E11.30978
G1 X101.761 Y55.463 E11.34191
G1 X102.917 Y55.467 E11.38805
G1 X116.612 Y55.468 E11.93464
G1 X117.915 Y55.464 E11.98665
G1 X118.964 Y55.45 E12.02852
G1 X119.139 Y55.455 E12.03551
G1 X120.398 Y55.442 E12.08576
G1 X121.301 Y55.472 E12.12182
G1 X122.435 Y55.625 E12.16749
G1 X122.887 Y55.712 E12.18586
G1 X123.765 Y55.922 E12.2219
G1 X124.622 Y56.208 E12.25795
G1 X125.449 Y56.57 E12.29399
G1 X126.242 Y57.003 E12.33005
G1 X127.299 Y57.738 E12.38143
G1 X127.483 Y57.884 E12.39081
G1 X128.165 Y58.476 E12.42685
G1 X128.792 Y59.126 E12.4629
G1 X129.359 Y59.829 E12.49894
G1 X129.861 Y60.579 E12.53496
G1 X130.295 Y61.371 E12.57101
G1 X130.658 Y62.199 E12.60709
G1 X130.829 Y62.678 E12.62739
G1 X130.928 Y62.978 E12.64
G1 X131.23 Y64.106 E12.68661
G1 X131.295 Y64.42 E12.69941
G1 X131.439 Y65.312 E12.73547
G1 X131.496 Y66.025 E12.76402
G1 X131.532 Y66.817 E12.79566
G1 X131.542 Y67.129 E12.80812
G1 X131.552 Y67.805 E12.8351
G1 X131.553 Y68.456 E12.86108
G1 X131.546 Y69.723 E12.91165
G1 X131.547 Y69.845 E12.91652
G1 X131.498 Y76.551 E13.18418
G1 X131.493 Y77.535 E13.22346
G1 X131.444 Y84.381 E13.4967
G1 X131.437 Y86.076 E13.56435
G1 X131.42 Y88.393 E13.65683
G1 X131.406 Y91.534 E13.7822
G1 X131.398 Y92.464 E13.81932
G1 X131.394 Y93.591 E13.8643
G1 X131.386 Y94.742 E13.91024
G1 X131.384 Y95.43 E13.9377
G1 X131.369 Y96.311 E13.97287
G1 X131.313 Y97.212 E14.0089
G1 X131.157 Y98.208 E14.04913
G1 X131.127 Y98.352 E14.055
G1 X130.971 Y98.995 E14.08141
G1 X130.876 Y99.338 E14.09562
G1 X130.523 Y100.387 E14.13979
G1 X130.004 Y101.691 E14.19581
G1 X129.817 Y102.157 E14.21585
G1 X128.92 Y104.537 E14.31736
G1 X128.1 Y106.908 E14.41749
G1 X127.325 Y109.375 E14.5207
G1 X126.638 Y111.801 E14.62134
G1 X126.029 Y114.202 E14.7202
G1 X125.462 Y116.746 E14.82423
G1 X124.976 Y119.254 E14.92619
G1 X124.567 Y121.746 E15.02698
G1 X124.227 Y124.26 E15.12823
G1 X123.959 Y126.772 E15.22906
G1 X123.76 Y129.323 E15.33119
G1 X123.634 Y131.832 E15.43145
G1 X123.58 Y134.395 E15.53377
G1 X123.597 Y136.937 E15.63523
G1 X123.616 Y137.574 E15.66067
G1 X123.634 Y138.777 E15.70868
G1 X123.635 Y141.431 E15.81461
G1 X123.637 Y141.545 E15.81916
G1 X123.631 Y142.06 E15.83972
G1 X123.642 Y143.357 E15.89149
G1 X123.65 Y144.067 E15.91983
G1 X123.645 Y144.848 E15.951
G1 X123.647 Y146.18 E16.00416
G1 X123.661 Y147.619 E16.0616
G1 X123.665 Y148.469 E16.09552
G1 X123.676 Y149.097 E16.12059
G1 X123.67 Y149.252 E16.12678
G1 X123.672 Y150.42 E16.1734
G1 X123.681 Y151.315 E16.20912
G1 X123.678 Y151.719 E16.22525
G1 X123.631 Y152.621 E16.2613
G1 X123.568 Y153.14 E16.28216
G1 X123.467 Y153.789 E16.30838
G1 X123.412 Y154.099 E16.32095
G1 X123.215 Y154.98 E16.35698
G1 X122.941 Y155.841 E16.39304
G1 X122.592 Y156.674 E16.42909
G1 X122.17 Y157.472 E16.46511
G1 X121.68 Y158.231 E16.50117
G1 X121.099 Y158.989 E16.53929
G1 X120.51 Y159.673 E16.57532
G1 X119.863 Y160.303 E16.61136
G1 X119.162 Y160.873 E16.64742
G1 X118.414 Y161.379 E16.68346
G1 X117.244 Y161.997 E16.73628
G1 X117.206 Y162.014 E16.73794
G1 X116.366 Y162.346 E16.77399
G1 X115.5 Y162.602 E16.81003
G1 X114.615 Y162.781 E16.84607
G1 X113.718 Y162.881 E16.88209
G1 X113.251 Y162.901 E16.90075
G1 X112.23 Y162.922 E16.9415
G1 X112.022 Y162.924 E16.94981
G1 X107.563 Y162.924 E17.12778
G1 X106.868 Y162.914 E17.15552
G1 X105.967 Y162.861 E17.19154
G1 X105.073 Y162.728 E17.22761
G1 X103.898 Y162.427 E17.27603
G1 X103.817 Y162.401 E17.27942
G1 X102.97 Y162.087 E17.31547
G1 X102.154 Y161.7 E17.35152
G1 X101.376 Y161.242 E17.38755
G1 X100.641 Y160.716 E17.42363
G1 X99.956 Y160.128 E17.45966
G1 X99.443 Y159.612 E17.4887
G1 X99.248 Y159.401 E17.50017
G1 X98.665 Y158.711 E17.53622
G1 X98.145 Y157.973 E17.57225
G1 X97.803 Y157.397 E17.59899
G1 X97.683 Y157.179 E17.60892
G1 X97.283 Y156.369 E17.64498
G1 X96.956 Y155.527 E17.68103
G1 X96.705 Y154.66 E17.71705
G1 X96.575 Y154.039 E17.74237
G1 X96.44 Y153.203 E17.77617
G1 X96.342 Y152.305 E17.81223
G1 X96.322 Y151.771 E17.83356
G1 X96.32 Y151.371 E17.84952
G1 X96.327 Y150.701 E17.87626
G1 X96.332 Y149.351 E17.93014
G1 X96.327 Y148.762 E17.95365
G1 X96.33 Y148.655 E17.95793
G1 X96.343 Y147.654 E17.99788
G1 X96.35 Y145.842 E18.0702
G1 X96.346 Y145.114 E18.09926
G1 X96.362 Y143.421 E18.16683
G1 X96.36 Y142.795 E18.19182
G1 X96.368 Y141.147 E18.25759
G1 X96.362 Y140.487 E18.28394
G1 X96.364 Y140.056 E18.30114
G1 X96.359 Y139.333 E18.33
G1 X96.361 Y139.072 E18.34041
G1 X96.403 Y136.773 E18.43219
G1 X96.411 Y136.413 E18.44656
G1 X96.415 Y133.85 E18.54886
G1 X96.347 Y131.32 E18.64987
G1 X96.207 Y128.789 E18.75104
G1 X95.998 Y126.288 E18.85121
G1 X95.709 Y123.714 E18.95459
G1 X95.359 Y121.235 E19.05451
G1 X94.93 Y118.709 E19.15677
G1 X94.437 Y116.231 E19.25762
G1 X93.857 Y113.699 E19.36129
G1 X93.237 Y111.303 E19.46007
G1 X92.521 Y108.829 E19.56286
G1 X91.75 Y106.419 E19.66386
G1 X90.917 Y104.049 E19.76412
G1 X89.787 Y101.129 E19.88909
G1 X89.56 Y100.572 E19.91309
G1 X89.251 Y99.701 E19.94998
G1 X89.091 Y99.176 E19.97188
G1 X88.866 Y98.301 E20.00794
G1 X88.708 Y97.305 E20.04819
G1 X88.682 Y97.066 E20.05779
G1 X88.623 Y96.088 E20.09689
G1 X88.617 Y95.592 E20.11669
G1 X88.614 Y94.794 E20.14854
G1 X88.587 Y90.112 E20.33541
G1 X88.578 Y88.159 E20.41336
G1 X88.562 Y85.773 E20.50859
G1 X88.554 Y84.204 E20.57122
G1 X88.471 Y72.146 E21.05249
G1 X88.452 Y69.599 E21.15415
G1 X88.447 Y68.474 E21.19905
G1 X88.449 Y67.876 E21.22292
G1 X88.469 Y66.84 E21.26427
G1 X88.503 Y66.068 E21.29512
G1 X88.541 Y65.534 E21.31648
G1 X88.651 Y64.638 E21.35251
G1 X88.899 Y63.542 E21.39736
G1 X89.057 Y63.013 E21.4194
G1 X89.151 Y62.725 E21.43149
G1 X89.469 Y61.88 E21.46752
G1 X89.861 Y61.066 E21.50358
G1 X90.323 Y60.29 E21.53963
G1 F2400 E18.53963
G1 F300 Z0.44
G0 F9000 X109.208 Y149.379 Z0.44
G1 F300 Z0.24
G1 F2400 E21.53963
G1 F1800 X110.798 Y149.378 E21.60309
G1 X110.83 Y149.591 E21.61169
G1 X110.776 Y150.124 E21.63307
G1 X109.226 Y150.125 E21.69493
G1 X109.171 Y149.597 E21.71612
G1 X109.208 Y149.379 E21.72495
G0 F9000 X108.821 Y149.259
G1 F1800 X108.81 Y148.979 E21.73613
G1 X111.185 Y148.978 E21.83092
G1 X111.174 Y149.228 E21.84091
G1 X111.233 Y149.601 E21.85598
G1 X111.167 Y150.283 E21.88333
G1 X111.208 Y150.524 E21.89309
G1 X108.801 Y150.525 E21.98915
G1 X108.822 Y150.416 E21.99358
G1 X108.807 Y149.856 E22.01594
G1 X108.766 Y149.596 E22.02645
G1 X108.821 Y149.259 E22.04008
G0 F9000 X108.423 Y149.198
G1 F1800 X108.367 Y148.579 E22.06488
G1 X111.63 Y148.578 E22.19512
G1 X111.575 Y149.244 E22.22179
G1 X111.637 Y149.602 E22.23629
G1 X111.569 Y150.305 E22.26448
G1 X111.641 Y150.707 E22.28078
G1 X111.608 Y150.924 E22.28954
G1 X108.391 Y150.925 E22.41794
G1 X108.358 Y150.707 E22.42674
G1 X108.427 Y150.34 E22.44164
G1 X108.361 Y149.597 E22.47141
G1 X108.423 Y149.198 E22.48753
G0 F9000 X108.025 Y149.141
G1 F1800 X107.956 Y148.531 E22.51203
G1 X108.024 Y148.179 E22.52634
G1 X111.974 Y148.178 E22.68399
G1 X112.043 Y148.514 E22.69768
G1 X111.978 Y149.256 E22.72741
G1 X112.046 Y149.582 E22.7407
G1 X111.971 Y150.321 E22.77035
G1 X112.049 Y150.684 E22.78517
G1 X111.982 Y151.324 E22.81085
G1 X108.022 Y151.325 E22.9689
G1 X107.95 Y150.679 E22.99485
G1 X108.031 Y150.268 E23.01157
G1 X107.953 Y149.576 E23.03936
G1 X108.025 Y149.141 E23.05696
G0 F9000 X107.593 Y149.371
G1 F1800 X107.615 Y148.981 E23.07255
G1 X107.548 Y148.504 E23.09177
G1 X107.6 Y148.32 E23.0994
G1 X107.61 Y147.779 E23.121
G1 X112.394 Y147.778 E23.31194
G1 X112.4 Y148.298 E23.3327
G1 X112.45 Y148.49 E23.34062
G1 X112.381 Y148.978 E23.36029
G1 X112.406 Y149.38 E23.37636
G1 X112.454 Y149.559 E23.38376
G1 X112.378 Y150.049 E23.40355
G1 X112.41 Y150.497 E23.42148
G1 X112.459 Y150.656 E23.42812
G1 X112.387 Y151.124 E23.44701
G1 X112.417 Y151.562 E23.46454
G1 X112.463 Y151.724 E23.47126
G1 X107.537 Y151.725 E23.66787
G1 X107.623 Y151.267 E23.68647
G1 X107.54 Y150.653 E23.71119
G1 X107.633 Y150.204 E23.72949
G1 X107.545 Y149.556 E23.7556
G1 X107.593 Y149.371 E23.76322
G0 F9000 X107.206 Y149.271
G1 F1800 X107.219 Y149.037 E23.77258
G1 X107.14 Y148.475 E23.79523
G1 X107.215 Y148.211 E23.80618
G1 X107.232 Y147.963 E23.8161
G1 X107.149 Y147.384 E23.83945
G1 X107.15 Y147.379 E23.83965
G1 X112.848 Y147.378 E24.06707
G1 X112.852 Y147.391 E24.06762
G1 X112.773 Y147.961 E24.09058
G1 X112.787 Y148.196 E24.09998
G1 X112.858 Y148.465 E24.11108
G1 X112.777 Y149.035 E24.13406
G1 X112.792 Y149.276 E24.1437
G1 X112.862 Y149.536 E24.15445
G1 X112.773 Y150.111 E24.17767
G1 X112.793 Y150.379 E24.18839
G1 X112.868 Y150.624 E24.19862
G1 X112.782 Y151.185 E24.22127
G1 X112.8 Y151.447 E24.23175
