;FLAVOR:Marlin
;TIME:3680
;Filament used: 2.20276m
;Layer height: 0.16
;MINX:88.003
;MINY:55.039
;MINZ:0.24
;MAXX:131.953
;MAXY:163.324
;MAXZ:15.48
;Generated with Cura_SteamEngine 4.7.1
M140 S50
M105
M190 S50
M104 S215
M105
M109 S215
M82 ;absolute extrusion mode
M201 X500.00 Y500.00 Z100.00 E5000.00 ;Setup machine max acceleration
M203 X500.00 Y500.00 Z10.00 E50.00 ;Setup machine max feedrate
M204 P500.00 R1000.00 T500.00 ;Setup Print/Retract/Travel acceleration
M205 X8.00 Y8.00 Z0.40 E5.00 ;Setup Jerk
M220 S100 ;Reset Feedrate
M221 S100 ;Reset Flowrate

G28 ;Home

G92 E0 ;Reset Extruder
G1 Z2.0 F3000 ;Move Z Axis up
G1 X10.1 Y20 Z0.28 F5000.0 ;Move to start position
G1 X10.1 Y200.0 Z0.28 F1500.0 E15 ;Draw the first line
G1 X10.4 Y200.0 Z0.28 F5000.0 ;Move to side a little
G1 X10.4 Y20 Z0.28 F1500.0 E30 ;Draw the second line
G92 E0 ;Reset Extruder
G1 Z2.0 F3000 ;Move Z Axis up

G92 E0
G92 E0
G1 F2400 E-3
;LAYER_COUNT:96
;LAYER:0
M106 S63.8
M204 S500
M205 X6 Y6
G1 F300 Z0.44
G0 F9000 X90.101 Y59.918 Z0.44
;TYPE:SKIRT
G1 F300 Z0.24
G1 F2400 E0
G1 F1800 X90.652 Y59.18 E0.03676
G1 X91.264 Y58.493 E0.07348
G1 X91.771 Y58.003 E0.10162
G1 X92.47 Y57.403 E0.13839
G1 X93.217 Y56.866 E0.17511
G1 X94.009 Y56.396 E0.21187
G1 X94.838 Y55.996 E0.2486
G1 X95.699 Y55.67 E0.28535
G1 X96.659 Y55.402 E0.32513
G1 X96.764 Y55.378 E0.32943
G1 X97.278 Y55.274 E0.35036
G1 X97.679 Y55.203 E0.36661
G1 X98.592 Y55.082 E0.40337
G1 X99.421 Y55.042 E0.4365
G1 X99.98 Y55.039 E0.45881
G1 X101.242 Y55.057 E0.50918
G1 X102.115 Y55.064 E0.54403
G1 X105.289 Y55.068 E0.67071
G1 X116.603 Y55.068 E1.12227
G1 X117.909 Y55.064 E1.1744
G1 X118.959 Y55.05 E1.21631
G1 X119.137 Y55.055 E1.22342
G1 X120.393 Y55.042 E1.27355
G1 X121.313 Y55.072 E1.31029
G1 X122.505 Y55.231 E1.35829
G1 X122.958 Y55.318 E1.3767
G1 X123.854 Y55.531 E1.41345
G1 X124.728 Y55.821 E1.45021
G1 X125.573 Y56.185 E1.48693
G1 X126.384 Y56.621 E1.52368
G1 X127.154 Y57.127 E1.56045
G1 X127.732 Y57.57 E1.58952
G1 X128.427 Y58.173 E1.62624
G1 X129.068 Y58.835 E1.66302
G1 X129.649 Y59.549 E1.69976
G1 X130.166 Y60.311 E1.73651
G1 X130.614 Y61.115 E1.77325
G1 X130.992 Y61.954 E1.80998
G1 X131.209 Y62.552 E1.83537
G1 X131.308 Y62.852 E1.84798
G1 X131.622 Y64.025 E1.89644
G1 X131.687 Y64.339 E1.90924
G1 X131.834 Y65.248 E1.94599
G1 X131.896 Y66.007 E1.97638
G1 X131.932 Y66.799 E2.00803
G1 X131.942 Y67.123 E2.02097
G1 X131.952 Y67.799 E2.04795
G1 X131.953 Y68.458 E2.07425
G1 X131.946 Y69.723 E2.12474
G1 X131.947 Y69.847 E2.12969
G1 X131.898 Y76.553 E2.39735
G1 X131.893 Y77.538 E2.43666
G1 X131.844 Y84.384 E2.70991
G1 X131.837 Y86.079 E2.77756
G1 X131.82 Y88.396 E2.87004
G1 X131.806 Y91.537 E2.9954
G1 X131.798 Y92.467 E3.03252
G1 X131.794 Y93.594 E3.0775
G1 X131.786 Y94.745 E3.12344
G1 X131.784 Y95.426 E3.15063
G1 X131.769 Y96.316 E3.18615
G1 X131.713 Y97.235 E3.2229
G1 X131.548 Y98.29 E3.26552
G1 X131.518 Y98.434 E3.27139
G1 X131.356 Y99.101 E3.29878
G1 X131.261 Y99.444 E3.31299
G1 X130.892 Y100.541 E3.35918
G1 X130.324 Y101.964 E3.42034
G1 X130.29 Y102.046 E3.42388
G1 X129.384 Y104.419 E3.52526
G1 X128.546 Y106.819 E3.62672
G1 X127.787 Y109.204 E3.72661
G1 X127.085 Y111.652 E3.82826
G1 X126.462 Y114.08 E3.9283
G1 X125.904 Y116.53 E4.02859
G1 X125.408 Y119.049 E4.13106
G1 X124.992 Y121.526 E4.23131
G1 X124.643 Y124.038 E4.33253
G1 X124.367 Y126.533 E4.43272
G1 X124.158 Y129.089 E4.53507
G1 X124.026 Y131.582 E4.63472
G1 X123.962 Y134.116 E4.73588
G1 X123.981 Y137.251 E4.86101
G1 X124.006 Y138.37 E4.90568
G1 X124.183 Y142.422 E5.06756
G1 X124.179 Y142.422 E5.06772
G1 X124.195 Y143.164 E5.09734
G1 X124.172 Y144.315 E5.14329
G1 X124.154 Y146.891 E5.24611
G1 X124.215 Y149.057 E5.33259
G1 X124.244 Y150.411 E5.38665
G1 X124.223 Y151.331 E5.42337
G1 X124.07 Y152.559 E5.47277
G1 X123.882 Y153.579 E5.51416
G1 X123.809 Y153.943 E5.52898
G1 X123.66 Y154.618 E5.55657
G1 X123.423 Y155.507 E5.59329
G1 X123.109 Y156.373 E5.63006
G1 X122.721 Y157.208 E5.6668
G1 X122.263 Y158.006 E5.70353
G1 X121.737 Y158.762 E5.74029
G1 X121.344 Y159.247 E5.7652
G1 X121.307 Y159.29 E5.76746
G1 X120.767 Y159.871 E5.79912
G1 X120.606 Y160.032 E5.80821
G1 X119.928 Y160.654 E5.84493
G1 X119.198 Y161.215 E5.88168
G1 X118.241 Y161.813 E5.92672
G1 X117.93 Y161.985 E5.9409
G1 X117.106 Y162.395 E5.97764
G1 X116.249 Y162.732 E6.01439
G1 X115.366 Y162.994 E6.05115
G1 X114.464 Y163.178 E6.08789
G1 X113.55 Y163.282 E6.12461
G1 X112.985 Y163.307 E6.14718
G1 X111.942 Y163.324 E6.18882
G1 X100.125 Y163.324 E6.66046
G1 X99.417 Y163.314 E6.68872
G1 X98.498 Y163.261 E6.72546
G1 X97.468 Y163.105 E6.76704
G1 X96.574 Y162.886 E6.80377
G1 X95.702 Y162.589 E6.84054
G1 X94.86 Y162.218 E6.87726
G1 X94.188 Y161.857 E6.90771
G1 X93.676 Y161.557 E6.93139
G1 X92.903 Y161.057 E6.96814
G1 X92.176 Y160.492 E7.00489
G1 X91.5 Y159.867 E7.04163
G1 X90.882 Y159.185 E7.07837
G1 X90.428 Y158.598 E7.10798
G1 X90.382 Y158.534 E7.11113
G1 X89.877 Y157.763 E7.14791
G1 X89.442 Y156.952 E7.18465
G1 X89.078 Y156.106 E7.2214
G1 X88.726 Y154.998 E7.26781
G1 X88.493 Y154.096 E7.30499
G1 X88.417 Y153.784 E7.3178
G1 X88.26 Y153.09 E7.3462
G1 X88.105 Y152.243 E7.38057
G1 X88.014 Y151.327 E7.41731
G1 X88.003 Y150.405 E7.45411
G1 X88.048 Y149 E7.51022
G1 X88.066 Y148.595 E7.5264
G1 X88.106 Y146.017 E7.6293
G1 X88.095 Y144.403 E7.69372
G1 X88.104 Y143.89 E7.7142
G1 X88.164 Y142.465 E7.77113
G1 X88.184 Y142.11 E7.78532
G1 X88.254 Y139.445 E7.89172
G1 X88.263 Y138.648 E7.92353
G1 X88.266 Y138.489 E7.92988
G1 X88.319 Y136.507 E8.00901
G1 X88.336 Y136.076 E8.02623
G1 X88.364 Y133.567 E8.12637
G1 X88.33 Y131.299 E8.21691
G1 X88.321 Y130.95 E8.23084
G1 X88.274 Y128.338 E8.33511
G1 X88.256 Y127.11 E8.38412
G1 X88.251 Y126.554 E8.40632
G1 X88.228 Y122.748 E8.55822
G1 X88.228 Y95.397 E9.64986
G1 X88.16 Y84.266 E10.09413
G1 X88.104 Y76.385 E10.40869
G1 X88.052 Y69.587 E10.68002
G1 X88.047 Y68.465 E10.7248
G1 X88.05 Y67.791 E10.7517
G1 X88.065 Y67.027 E10.7822
G1 X88.076 Y66.705 E10.79506
G1 X88.116 Y65.906 E10.82699
G1 X88.202 Y64.989 E10.86375
G1 X88.384 Y64.01 E10.90349
G1 X88.455 Y63.708 E10.91588
G1 X88.772 Y62.625 E10.96091
G1 X88.859 Y62.377 E10.9714
G1 X89.201 Y61.522 E11.00816
G1 X89.616 Y60.701 E11.04487
G1 X90.101 Y59.918 E11.08163
G0 F9000 X90.46 Y60.101
G1 F1800 X91.005 Y59.38 E11.11771
G1 X91.885 Y58.445 E11.16895
G1 X92.045 Y58.295 E11.17771
G1 X92.73 Y57.707 E11.21374
G1 X93.465 Y57.182 E11.24979
G1 X94.244 Y56.724 E11.28586
G1 X95.059 Y56.337 E11.32187
G1 X95.906 Y56.023 E11.35792
G1 X96.748 Y55.792 E11.39277
G1 X96.853 Y55.768 E11.39707
G1 X97.348 Y55.668 E11.41722
G1 X97.749 Y55.597 E11.43348
G1 X98.644 Y55.479 E11.46951
G1 X99.425 Y55.442 E11.50071
G1 X99.974 Y55.439 E11.52262
G1 X101.239 Y55.457 E11.57312
G1 X102.112 Y55.464 E11.60796
G1 X105.289 Y55.468 E11.73476
G1 X116.604 Y55.468 E12.18637
G1 X117.914 Y55.464 E12.23866
G1 X118.964 Y55.45 E12.28057
G1 X119.139 Y55.455 E12.28755
G1 X120.397 Y55.442 E12.33777
G1 X121.3 Y55.472 E12.37383
G1 X122.43 Y55.624 E12.41933
G1 X122.883 Y55.711 E12.43774
G1 X123.761 Y55.92 E12.47377
G1 X124.618 Y56.207 E12.50984
G1 X125.446 Y56.568 E12.54589
G1 X126.238 Y57.001 E12.58192
G1 X127.299 Y57.738 E12.63348
G1 X127.483 Y57.884 E12.64285
G1 X128.165 Y58.476 E12.6789
G1 X128.792 Y59.126 E12.71494
G1 X129.359 Y59.829 E12.75099
G1 X129.861 Y60.579 E12.78701
G1 X130.295 Y61.371 E12.82305
G1 X130.658 Y62.199 E12.85914
G1 X130.829 Y62.678 E12.87944
G1 X130.928 Y62.978 E12.89205
G1 X131.23 Y64.106 E12.93865
G1 X131.295 Y64.42 E12.95145
G1 X131.439 Y65.312 E12.98751
G1 X131.496 Y66.025 E13.01606
G1 X131.532 Y66.817 E13.04771
G1 X131.542 Y67.129 E13.06016
G1 X131.552 Y67.805 E13.08715
G1 X131.553 Y68.456 E13.11313
G1 X131.546 Y69.723 E13.1637
G1 X131.547 Y69.845 E13.16857
G1 X131.498 Y76.551 E13.43623
G1 X131.493 Y77.535 E13.4755
G1 X131.444 Y84.381 E13.74875
G1 X131.437 Y86.076 E13.8164
G1 X131.42 Y88.393 E13.90888
G1 X131.406 Y91.534 E14.03424
G1 X131.398 Y92.464 E14.07136
G1 X131.394 Y93.591 E14.11634
G1 X131.386 Y94.742 E14.16228
G1 X131.384 Y95.425 E14.18954
G1 X131.369 Y96.309 E14.22483
G1 X131.313 Y97.211 E14.2609
G1 X131.157 Y98.208 E14.30118
G1 X131.127 Y98.352 E14.30705
G1 X130.971 Y98.995 E14.33346
G1 X130.876 Y99.338 E14.34766
G1 X130.52 Y100.393 E14.3921
G1 X129.918 Y101.899 E14.45683
G1 X129.01 Y104.276 E14.55839
G1 X128.167 Y106.692 E14.66052
G1 X127.41 Y109.068 E14.76005
G1 X126.699 Y111.548 E14.86302
G1 X126.068 Y114.006 E14.9643
G1 X125.517 Y116.43 E15.06352
G1 X125.014 Y118.983 E15.16737
G1 X124.596 Y121.47 E15.26803
G1 X124.248 Y123.975 E15.36897
G1 X123.966 Y126.528 E15.47148
G1 X123.761 Y129.034 E15.57184
G1 X123.625 Y131.587 E15.67388
G1 X123.562 Y134.108 E15.77453
G1 X123.581 Y137.262 E15.90041
G1 X123.607 Y138.396 E15.94569
G1 X123.783 Y142.439 E16.1072
G1 X123.78 Y142.439 E16.10732
G1 X123.795 Y143.156 E16.13595
G1 X123.772 Y144.304 E16.18177
G1 X123.754 Y146.9 E16.28539
G1 X123.815 Y149.066 E16.37187
G1 X123.844 Y150.42 E16.42593
G1 X123.823 Y151.322 E16.46194
G1 X123.677 Y152.487 E16.5088
G1 X123.489 Y153.507 E16.55019
G1 X123.418 Y153.857 E16.56445
G1 X123.269 Y154.532 E16.59204
G1 X123.036 Y155.404 E16.62806
G1 X122.726 Y156.252 E16.6641
G1 X122.342 Y157.07 E16.70016
G1 X121.888 Y157.85 E16.73619
G1 X121.366 Y158.588 E16.77226
G1 X121.041 Y158.986 E16.79277
G1 X121.004 Y159.029 E16.79504
G1 X120.484 Y159.588 E16.82551
G1 X120.323 Y159.749 E16.8346
G1 X119.657 Y160.359 E16.87064
G1 X118.94 Y160.908 E16.90668
G1 X118.047 Y161.463 E16.94865
G1 X117.736 Y161.635 E16.96283
G1 X116.928 Y162.037 E16.99885
G1 X116.086 Y162.365 E17.03492
G1 X115.219 Y162.618 E17.07097
G1 X114.333 Y162.793 E17.10701
G1 X113.435 Y162.889 E17.14306
G1 X112.978 Y162.907 E17.16131
G1 X111.942 Y162.924 E17.20267
G1 X100.131 Y162.924 E17.67407
G1 X99.423 Y162.914 E17.70233
G1 X98.521 Y162.861 E17.73839
G1 X97.547 Y162.713 E17.77771
G1 X96.67 Y162.497 E17.81376
G1 X95.815 Y162.204 E17.84983
G1 X94.99 Y161.837 E17.88587
G1 X94.39 Y161.512 E17.91311
G1 X93.878 Y161.212 E17.93679
G1 X93.12 Y160.721 E17.97284
G1 X92.408 Y160.165 E18.00889
G1 X91.748 Y159.549 E18.04493
G1 X91.146 Y158.876 E18.08096
G1 X90.752 Y158.364 E18.10675
G1 X90.706 Y158.3 E18.1099
G1 X90.212 Y157.544 E18.14594
G1 X89.787 Y156.747 E18.18199
G1 X89.434 Y155.916 E18.21803
G1 X89.113 Y154.898 E18.26063
G1 X88.88 Y153.996 E18.29781
G1 X88.807 Y153.696 E18.31013
G1 X88.65 Y153.002 E18.33853
G1 X88.501 Y152.186 E18.37164
G1 X88.413 Y151.288 E18.40765
G1 X88.403 Y150.417 E18.44242
G1 X88.453 Y148.882 E18.50372
G1 X88.466 Y148.585 E18.51558
G1 X88.506 Y146.02 E18.61797
G1 X88.495 Y144.401 E18.68259
G1 X88.504 Y143.906 E18.70235
G1 X88.564 Y142.487 E18.75903
G1 X88.583 Y142.143 E18.77278
G1 X88.654 Y139.459 E18.87995
G1 X88.663 Y138.653 E18.91212
G1 X88.715 Y136.65 E18.99209
G1 X88.736 Y136.095 E19.01426
G1 X88.764 Y133.566 E19.1152
G1 X88.73 Y131.293 E19.20593
G1 X88.721 Y130.943 E19.2199
G1 X88.674 Y128.332 E19.32413
G1 X88.656 Y127.106 E19.37307
G1 X88.651 Y126.552 E19.39518
G1 X88.628 Y122.746 E19.54709
G1 X88.628 Y95.397 E20.63865
G1 X88.56 Y84.264 E21.083
G1 X88.504 Y76.382 E21.39759
G1 X88.452 Y69.585 E21.66888
G1 X88.447 Y68.466 E21.71355
G1 X88.45 Y67.799 E21.74017
G1 X88.465 Y67.035 E21.77067
G1 X88.476 Y66.725 E21.78305
G1 X88.516 Y65.926 E21.81498
G1 X88.601 Y65.027 E21.85102
G1 X88.774 Y64.102 E21.88858
G1 X88.845 Y63.8 E21.90096
G1 X89.149 Y62.758 E21.94428
G1 X89.236 Y62.51 E21.95477
G1 X89.572 Y61.671 E21.99084
G1 X89.982 Y60.866 E22.0269
G1 X90.46 Y60.101 E22.0629
G1 F2400 E19.0629
G1 F300 Z0.44
G0 F9000 X101.539 Y149.379 Z0.44
G1 F300 Z0.24
G1 F2400 E22.0629
G1 F1800 X110.739 Y149.378 E22.43009
G1 X110.763 Y149.718 E22.4437
G1 X110.727 Y150.124 E22.45997
G1 X101.56 Y150.125 E22.82584
G1 X101.507 Y149.614 E22.84635
G1 X101.539 Y149.379 E22.85581
G0 F9000 X101.097 Y149.583
G1 F1800 X101.167 Y149.024 E22.8783
G1 X101.162 Y148.979 E22.8801
G1 X111.126 Y148.978 E23.27779
G1 X111.159 Y149.534 E23.30002
G1 X111.186 Y149.624 E23.30377
G1 X111.123 Y150.206 E23.32713
G1 X111.158 Y150.524 E23.3399
G1 X101.119 Y150.525 E23.74058
G1 X101.161 Y150.04 E23.76001
G1 X101.097 Y149.583 E23.77843
G0 F9000 X100.752 Y149.302
G1 F1800 X100.731 Y148.71 E23.80207
G1 X100.704 Y148.579 E23.80741
G1 X111.576 Y148.578 E24.24133
G1 X111.515 Y149.149 E24.26425
G1 X111.596 Y149.607 E24.28282
G1 X111.524 Y150.237 E24.30813
G1 X111.577 Y150.612 E24.32324
G1 X111.691 Y150.924 E24.3365
G1 X100.561 Y150.925 E24.78072
G1 X100.667 Y150.695 E24.79083
G1 X100.75 Y150.325 E24.80596
G1 X100.721 Y149.735 E24.82954
G1 X100.686 Y149.575 E24.83608
G1 X100.752 Y149.302 E24.84729
G0 F9000 X100.363 Y149.172
G1 F1800 X100.287 Y148.534 E24.87293
G1 X100.376 Y148.179 E24.88754
G1 X111.903 Y148.178 E25.34761
G1 X111.99 Y148.551 E25.36289
G1 X111.916 Y149.176 E25.38801
G1 X112.008 Y149.574 E25.40432
G1 X111.926 Y150.262 E25.43197
G1 X111.986 Y150.591 E25.44532
G1 X112.17 Y150.971 E25.46217
G1 X112.097 Y151.324 E25.47656
G1 X100.167 Y151.325 E25.95271
G1 X100.082 Y150.974 E25.96712
G1 X100.301 Y150.529 E25.98692
G1 X100.36 Y150.2 E26.00026
G1 X100.273 Y149.557 E26.02616
G1 X100.363 Y149.172 E26.04194
G0 F9000 X99.967 Y149.055
G1 F1800 X99.868 Y148.484 E26.06507
G1 X99.946 Y148.312 E26.0726
G1 X99.986 Y148.033 E26.08385
G1 X99.955 Y147.779 E26.09407
G1 X112.334 Y147.778 E26.58814
G1 X112.303 Y148.179 E26.60419
G1 X112.403 Y148.51 E26.61799
G1 X112.319 Y149.196 E26.64558
G1 X112.421 Y149.533 E26.65963
G1 X112.338 Y149.999 E26.67852
G1 X112.329 Y150.281 E26.68978
G1 X112.398 Y150.554 E26.70102
G1 X112.595 Y150.89 E26.71657
G1 X112.424 Y151.724 E26.75054
G1 X99.851 Y151.725 E27.25236
G1 X99.655 Y150.91 E27.28582
G1 X99.93 Y150.37 E27.31
G1 X99.962 Y150.089 E27.32129
G1 X99.853 Y149.514 E27.34465
G1 X99.931 Y149.335 E27.35244
G1 X99.967 Y149.055 E27.36371
G0 F9000 X99.557 Y149.18
G1 F1800 X99.555 Y148.949 E27.37293
G1 X99.448 Y148.425 E27.39427
G1 X99.574 Y148.152 E27.40628
G1 X99.574 Y147.913 E27.41581
G1 X99.464 Y147.377 E27.43765
G1 X99.494 Y147.379 E27.43885
G1 X112.802 Y147.378 E27.97
G1 X112.809 Y147.388 E27.97049
G1 X112.706 Y147.967 E27.99396
G1 X112.708 Y148.186 E28.0027
G1 X112.823 Y148.443 E28.01394
G1 X112.724 Y148.986 E28.03597
G1 X112.724 Y149.204 E28.04467
G1 X112.84 Y149.465 E28.05607
G1 X112.732 Y150.069 E28.08056
G1 X112.734 Y150.287 E28.08926
G1 X112.819 Y150.499 E28.09838
G1 X113.02 Y150.81 E28.11316
G1 X112.761 Y152.065 E28.1643
G1 X112.658 Y152.124 E28.16904
G1 X99.698 Y152.125 E28.6863
G1 X99.508 Y152.009 E28.69519
G1 X99.228 Y150.846 E28.74293
G1 X99.478 Y150.426 E28.76244
G1 X99.553 Y150.221 E28.77115
G1 X99.548 Y149.991 E28.78033
G1 X99.432 Y149.459 E28.80207
G1 X99.557 Y149.18 E28.81427
G0 F9000 X99.163 Y149.029
G1 F1800 X99.024 Y148.346 E28.84209
G1 X99.155 Y148.14 E28.85183
G1 X99.182 Y147.993 E28.8578
G1 X99.04 Y147.298 E28.88611
G1 X99.164 Y147.106 E28.89523
G1 X99.172 Y146.857 E28.90517
G1 X99.494 Y146.979 E28.91892
G1 X112.85 Y146.978 E29.45198
G1 X113.113 Y146.878 E29.46321
G1 X113.093 Y146.994 E29.46791
G1 X113.125 Y147.142 E29.47396
G1 X113.232 Y147.298 E29.48151
G1 X113.1 Y148.038 E29.51151
G1 X113.132 Y148.186 E29.51755
G1 X113.245 Y148.351 E29.52553
G1 X113.117 Y149.057 E29.55417
G1 X113.146 Y149.202 E29.56007
G1 X113.261 Y149.38 E29.56853
G1 X113.126 Y150.139 E29.5993
G1 X113.155 Y150.282 E29.60512
G1 X113.445 Y150.731 E29.62646
G1 X113.127 Y152.271 E29.68922
G1 X112.765 Y152.524 E29.70684
G1 X99.591 Y152.525 E30.23265
G1 X99.16 Y152.264 E30.25276
G1 X99.157 Y152.259 E30.25299
G1 X98.801 Y150.781 E30.31367
G1 X99.134 Y150.221 E30.33967
G1 X99.157 Y150.076 E30.34553
G1 X99.006 Y149.386 E30.37372
G1 X99.137 Y149.174 E30.38367
G1 X99.163 Y149.029 E30.38955
G1 F2400 E27.38955
G1 F300 Z0.44
G0 F9000 X99.534 Y146.579 Z0.44
;TYPE:SUPPORT-INTERFACE
G1 F300 Z0.24
G1 F2400 E30.38955
G1 F1800 X99.384 Y146.517 E30.39603
G1 X99.07 Y146.196 E30.41395
G1 X99.169 Y145.727 E30.43308
G1 X99.002 Y144.897 E30.46687
G1 X98.898 Y144.376 E30.48807
G1 X99.229 Y143.891 E30.51151
G1 X99.041 Y142.739 E30.5581
G1 X99.056 Y142.719 E30.5591
G1 X99.173 Y142.253 E30.57827
G1 X99.061 Y141.536 E30.60724
