;FLAVOR:Marlin
;TIME:3665
;Filament used: 2.19521m
;Layer height: 0.16
;MINX:88.047
;MINY:55.042
;MINZ:0.24
;MAXX:131.953
;MAXY:163.324
;MAXZ:15.48
;Generated with Cura_SteamEngine 4.7.1
M140 S50
M105
M190 S50
M104 S215
M105
M109 S215
M82 ;absolute extrusion mode
M201 X500.00 Y500.00 Z100.00 E5000.00 ;Setup machine max acceleration
M203 X500.00 Y500.00 Z10.00 E50.00 ;Setup machine max feedrate
M204 P500.00 R1000.00 T500.00 ;Setup Print/Retract/Travel acceleration
M205 X8.00 Y8.00 Z0.40 E5.00 ;Setup Jerk
M220 S100 ;Reset Feedrate
M221 S100 ;Reset Flowrate

G28 ;Home

G92 E0 ;Reset Extruder
G1 Z2.0 F3000 ;Move Z Axis up
G1 X10.1 Y20 Z0.28 F5000.0 ;Move to start position
G1 X10.1 Y200.0 Z0.28 F1500.0 E15 ;Draw the first line
G1 X10.4 Y200.0 Z0.28 F5000.0 ;Move to side a little
G1 X10.4 Y20 Z0.28 F1500.0 E30 ;Draw the second line
G92 E0 ;Reset Extruder
G1 Z2.0 F3000 ;Move Z Axis up

G92 E0
G92 E0
G1 F2400 E-3
;LAYER_COUNT:96
;LAYER:0
M106 S63.8
M204 S500
M205 X6 Y6
G1 F300 Z0.44
G0 F9000 X89.965 Y60.104 Z0.44
;TYPE:SKIRT
G1 F300 Z0.24
G1 F2400 E0
G1 F1800 X90.5 Y59.354 E0.03677
G1 X90.867 Y58.909 E0.05979
G1 X90.984 Y58.775 E0.06689
G1 X91.619 Y58.109 E0.10362
G1 X92.31 Y57.5 E0.14038
G1 X93.051 Y56.953 E0.17714
G1 X93.836 Y56.473 E0.21386
G1 X94.66 Y56.062 E0.25062
G1 X95.517 Y55.725 E0.28737
G1 X96.615 Y55.412 E0.33294
G1 X97.209 Y55.28 E0.35723
G1 X97.313 Y55.259 E0.36146
G1 X98.222 Y55.116 E0.39819
G1 X99.485 Y55.049 E0.44867
G1 X100.71 Y55.058 E0.49756
G1 X100.959 Y55.057 E0.5075
G1 X101.764 Y55.063 E0.53963
G1 X102.917 Y55.067 E0.58565
G1 X115.473 Y55.068 E1.08679
G1 X117.864 Y55.064 E1.18222
G1 X118.401 Y55.061 E1.20365
G1 X119.119 Y55.051 E1.23231
G1 X120.332 Y55.042 E1.28072
G1 X121.252 Y55.075 E1.31747
G1 X122.174 Y55.19 E1.35455
G1 X122.761 Y55.289 E1.37831
G1 X123.661 Y55.481 E1.41504
G1 X124.541 Y55.751 E1.45178
G1 X125.395 Y56.096 E1.48854
G1 X126.215 Y56.514 E1.52527
G1 X126.996 Y57.001 E1.56201
G1 X127.732 Y57.555 E1.59878
G1 X128.417 Y58.17 E1.63552
G1 X129.046 Y58.842 E1.67225
G1 X129.686 Y59.669 E1.71399
G1 X129.874 Y59.938 E1.72709
G1 X130.369 Y60.715 E1.76386
G1 X130.793 Y61.531 E1.80056
G1 X131.292 Y62.812 E1.85543
G1 X131.392 Y63.128 E1.86866
G1 X131.631 Y64.017 E1.9054
G1 X131.793 Y64.923 E1.94214
G1 X131.852 Y65.482 E1.96457
G1 X131.901 Y66.155 E1.9915
G1 X131.933 Y66.915 E2.02186
G1 X131.951 Y67.836 E2.05863
G1 X131.953 Y68.377 E2.08022
G1 X131.946 Y69.958 E2.14332
G1 X131.925 Y72.484 E2.24415
G1 X131.921 Y73.152 E2.27081
G1 X131.894 Y76.56 E2.40683
G1 X131.89 Y77.543 E2.44607
G1 X131.838 Y84.389 E2.71931
G1 X131.83 Y86.104 E2.78776
G1 X131.813 Y88.397 E2.87928
G1 X131.798 Y91.407 E2.99942
G1 X131.784 Y93.322 E3.07586
G1 X131.773 Y95.413 E3.15931
G1 X131.771 Y96.159 E3.18909
G1 X131.771 Y122.746 E4.25023
G1 X131.748 Y126.58 E4.40326
G1 X131.741 Y127.303 E4.43212
G1 X131.68 Y130.888 E4.57522
G1 X131.67 Y131.254 E4.58984
G1 X131.635 Y133.869 E4.69421
G1 X131.673 Y136.407 E4.79552
G1 X131.684 Y136.687 E4.80671
G1 X131.755 Y139.272 E4.90992
G1 X131.771 Y140.233 E4.94828
G1 X131.795 Y140.826 E4.97197
G1 X131.839 Y142.616 E5.04343
G1 X131.895 Y143.862 E5.09321
G1 X131.897 Y144.764 E5.12921
G1 X131.872 Y145.381 E5.15386
G1 X131.804 Y147.969 E5.25719
G1 X131.814 Y150.829 E5.37134
G1 X131.81 Y151.594 E5.40187
G1 X131.765 Y152.514 E5.43863
G1 X131.569 Y153.788 E5.49008
G1 X131.411 Y154.479 E5.51837
G1 X131.287 Y154.962 E5.53827
G1 X130.978 Y155.959 E5.57993
G1 X130.626 Y156.81 E5.61669
G1 X130.202 Y157.627 E5.65343
G1 X129.708 Y158.404 E5.69018
G1 X129.149 Y159.136 E5.72694
G1 X128.385 Y159.956 E5.77167
G1 X128.202 Y160.133 E5.78183
G1 X127.513 Y160.744 E5.81858
G1 X126.774 Y161.293 E5.85533
G1 X125.631 Y161.966 E5.90827
G1 X125.239 Y162.165 E5.92581
G1 X124.401 Y162.546 E5.96256
G1 X123.533 Y162.852 E5.99929
G1 X122.641 Y163.082 E6.03605
G1 X121.733 Y163.234 E6.0728
G1 X121.013 Y163.298 E6.10165
G1 X120.503 Y163.316 E6.12202
G1 X119.824 Y163.324 E6.14912
G1 X107.78 Y163.324 E6.62982
G1 X107.093 Y163.314 E6.65724
G1 X106.174 Y163.261 E6.69398
G1 X105.263 Y163.128 E6.73073
G1 X104.367 Y162.916 E6.76748
G1 X103.492 Y162.628 E6.80424
G1 X102.646 Y162.265 E6.84099
G1 X101.909 Y161.873 E6.8743
G1 X101.463 Y161.613 E6.89491
G1 X100.688 Y161.115 E6.93168
G1 X99.96 Y160.552 E6.96841
G1 X99.1 Y159.739 E7.01564
G1 X98.995 Y159.628 E7.02174
G1 X98.392 Y158.933 E7.05847
G1 X97.852 Y158.187 E7.09522
G1 X97.378 Y157.398 E7.13196
G1 X96.975 Y156.57 E7.16871
G1 X96.645 Y155.711 E7.20544
G1 X96.387 Y154.812 E7.24277
G1 X96.222 Y154.084 E7.27256
G1 X96.106 Y153.527 E7.29527
G1 X95.943 Y152.683 E7.32958
G1 X95.809 Y151.772 E7.36633
G1 X95.754 Y150.853 E7.40307
G1 X95.76 Y150.299 E7.42519
G1 X95.792 Y149.416 E7.46045
G1 X95.85 Y146.852 E7.56281
G1 X95.835 Y144.272 E7.66579
G1 X95.809 Y143.353 E7.70248
G1 X95.805 Y142.897 E7.72068
G1 X95.818 Y142.37 E7.74172
G1 X95.894 Y140.851 E7.80243
G1 X95.909 Y140.605 E7.81226
G1 X95.946 Y139.296 E7.86453
G1 X95.958 Y139.134 E7.87101
G1 X95.984 Y138.407 E7.90005
G1 X96.042 Y135.854 E8.00197
G1 X96.029 Y133.307 E8.10363
G1 X95.943 Y130.788 E8.20422
G1 X95.786 Y128.254 E8.30555
G1 X95.557 Y125.718 E8.40718
G1 X95.263 Y123.254 E8.50622
G1 X94.889 Y120.733 E8.60794
G1 X94.447 Y118.232 E8.70931
G1 X93.933 Y115.742 E8.81079
G1 X93.366 Y113.333 E8.90956
G1 X92.707 Y110.863 E9.0116
G1 X91.982 Y108.417 E9.11342
G1 X91.212 Y106.067 E9.21212
G1 X90.339 Y103.635 E9.31525
G1 X89.42 Y101.287 E9.41589
G1 X89.186 Y100.71 E9.44074
G1 X88.869 Y99.817 E9.47856
G1 X88.711 Y99.3 E9.50013
G1 X88.48 Y98.409 E9.53687
G1 X88.31 Y97.348 E9.57976
G1 X88.284 Y97.109 E9.58935
G1 X88.223 Y96.093 E9.62998
G1 X88.217 Y95.594 E9.6499
G1 X88.214 Y94.796 E9.68175
G1 X88.187 Y90.114 E9.86862
G1 X88.178 Y88.161 E9.94657
G1 X88.163 Y85.899 E10.03685
G1 X88.154 Y84.208 E10.10434
G1 X88.071 Y72.149 E10.58565
G1 X88.052 Y69.59 E10.68779
G1 X88.047 Y68.109 E10.7469
G1 X88.049 Y67.863 E10.75672
G1 X88.07 Y66.802 E10.79908
G1 X88.102 Y66.062 E10.82864
G1 X88.14 Y65.525 E10.85013
G1 X88.25 Y64.611 E10.88687
G1 X88.532 Y63.37 E10.93766
G1 X88.776 Y62.589 E10.97032
G1 X89.1 Y61.727 E11.00707
G1 X89.497 Y60.896 E11.04383
G1 X89.965 Y60.104 E11.08055
G0 F9000 X90.329 Y60.278
G1 F1800 X90.857 Y59.546 E11.11657
G1 X91.286 Y59.038 E11.14311
G1 X91.909 Y58.385 E11.17913
G1 X92.588 Y57.789 E11.21519
G1 X93.317 Y57.256 E11.25123
G1 X94.09 Y56.79 E11.28726
G1 X94.901 Y56.393 E11.3233
G1 X95.745 Y56.07 E11.35937
G1 X96.703 Y55.802 E11.39907
G1 X97.288 Y55.672 E11.42299
G1 X97.392 Y55.651 E11.42722
G1 X98.284 Y55.511 E11.46326
G1 X99.483 Y55.449 E11.51118
G1 X100.71 Y55.458 E11.56015
G1 X100.956 Y55.457 E11.56997
G1 X101.761 Y55.463 E11.6021
G1 X102.916 Y55.467 E11.6482
G1 X115.473 Y55.468 E12.14938
G1 X117.866 Y55.464 E12.24489
G1 X118.41 Y55.461 E12.2666
G1 X119.122 Y55.451 E12.29502
G1 X120.335 Y55.442 E12.34343
G1 X121.238 Y55.476 E12.3795
G1 X122.107 Y55.584 E12.41445
G1 X122.694 Y55.683 E12.43821
G1 X123.577 Y55.873 E12.47426
G1 X124.44 Y56.139 E12.5103
G1 X125.276 Y56.481 E12.54635
G1 X126.078 Y56.896 E12.58239
G1 X126.841 Y57.38 E12.61846
G1 X127.557 Y57.93 E12.65449
G1 X128.222 Y58.541 E12.69054
G1 X128.831 Y59.208 E12.72658
G1 X129.359 Y59.898 E12.76126
G1 X129.547 Y60.167 E12.77436
G1 X130.031 Y60.929 E12.81039
G1 X130.445 Y61.732 E12.84645
G1 X130.911 Y62.933 E12.89786
G1 X131.011 Y63.249 E12.91109
G1 X131.245 Y64.121 E12.94713
G1 X131.401 Y65.01 E12.98315
G1 X131.454 Y65.514 E13.00338
G1 X131.501 Y66.175 E13.02983
G1 X131.533 Y66.923 E13.05971
G1 X131.551 Y67.844 E13.09647
G1 X131.553 Y68.375 E13.11767
G1 X131.546 Y69.955 E13.18073
G1 X131.525 Y72.481 E13.28155
G1 X131.521 Y73.149 E13.30821
G1 X131.494 Y76.557 E13.44424
G1 X131.49 Y77.539 E13.48343
G1 X131.438 Y84.385 E13.75668
G1 X131.43 Y86.101 E13.82517
G1 X131.413 Y88.394 E13.91669
G1 X131.398 Y91.405 E14.03687
G1 X131.384 Y93.32 E14.1133
G1 X131.373 Y95.411 E14.19676
G1 X131.371 Y96.158 E14.22657
G1 X131.371 Y122.743 E15.28764
G1 X131.348 Y126.576 E15.44062
G1 X131.341 Y127.297 E15.4694
G1 X131.28 Y130.877 E15.61231
G1 X131.27 Y131.237 E15.62668
G1 X131.235 Y133.87 E15.73178
G1 X131.273 Y136.398 E15.83269
G1 X131.284 Y136.698 E15.84467
G1 X131.358 Y139.39 E15.95215
G1 X131.373 Y140.252 E15.98656
G1 X131.388 Y140.752 E16.00653
G1 X131.395 Y140.836 E16.00989
G1 X131.438 Y142.594 E16.08008
G1 X131.496 Y143.88 E16.13146
G1 X131.498 Y144.748 E16.1661
G1 X131.474 Y145.353 E16.19027
G1 X131.405 Y147.994 E16.29571
G1 X131.414 Y150.827 E16.40878
G1 X131.41 Y151.592 E16.43932
G1 X131.365 Y152.494 E16.47536
G1 X131.178 Y153.703 E16.52419
G1 X131.024 Y154.379 E16.55186
G1 X130.9 Y154.862 E16.57177
G1 X130.602 Y155.823 E16.61192
G1 X130.256 Y156.657 E16.64796
G1 X129.838 Y157.457 E16.68399
G1 X129.35 Y158.218 E16.72007
G1 X128.797 Y158.932 E16.75611
G1 X128.107 Y159.669 E16.79641
G1 X127.924 Y159.846 E16.80657
G1 X127.248 Y160.444 E16.84259
G1 X126.521 Y160.981 E16.87867
G1 X125.45 Y161.609 E16.92822
G1 X125.058 Y161.808 E16.94576
G1 X124.236 Y162.181 E16.98179
G1 X123.383 Y162.479 E17.01785
G1 X122.508 Y162.701 E17.05388
G1 X121.616 Y162.845 E17.08995
G1 X120.992 Y162.898 E17.11494
G1 X120.498 Y162.916 E17.13467
G1 X119.824 Y162.924 E17.16157
G1 X107.786 Y162.924 E17.64204
G1 X107.099 Y162.914 E17.66946
G1 X106.197 Y162.861 E17.70552
G1 X105.304 Y162.728 E17.74156
G1 X104.426 Y162.517 E17.7776
G1 X103.57 Y162.229 E17.81364
G1 X102.743 Y161.866 E17.84969
G1 X102.11 Y161.527 E17.87835
G1 X101.664 Y161.267 E17.89896
G1 X100.905 Y160.778 E17.93499
G1 X100.192 Y160.224 E17.97103
G1 X99.391 Y159.464 E18.0151
G1 X99.286 Y159.353 E18.0212
G1 X98.695 Y158.671 E18.05722
G1 X98.167 Y157.938 E18.09327
G1 X97.705 Y157.162 E18.12932
G1 X97.315 Y156.348 E18.16534
G1 X96.997 Y155.502 E18.20141
G1 X96.776 Y154.719 E18.23389
G1 X96.613 Y153.999 E18.26335
G1 X96.498 Y153.446 E18.28589
G1 X96.336 Y152.607 E18.32
G1 X96.205 Y151.714 E18.35602
G1 X96.154 Y150.812 E18.39208
G1 X96.16 Y150.314 E18.41196
G1 X96.192 Y149.44 E18.44686
G1 X96.25 Y146.858 E18.54994
G1 X96.235 Y144.259 E18.65368
G1 X96.209 Y143.342 E18.69029
G1 X96.205 Y142.897 E18.70805
G1 X96.218 Y142.39 E18.72829
G1 X96.294 Y140.875 E18.78884
G1 X96.308 Y140.64 E18.79823
G1 X96.346 Y139.307 E18.85146
G1 X96.358 Y139.149 E18.85778
G1 X96.385 Y138.406 E18.88746
G1 X96.442 Y135.86 E18.9891
G1 X96.429 Y133.291 E19.09163
G1 X96.342 Y130.752 E19.19303
G1 X96.186 Y128.229 E19.29392
G1 X95.958 Y125.706 E19.39503
G1 X95.656 Y123.18 E19.49657
G1 X95.286 Y120.675 E19.59763
G1 X94.839 Y118.153 E19.69986
G1 X94.329 Y115.684 E19.80048
G1 X93.751 Y113.227 E19.90122
G1 X93.094 Y110.76 E20.00312
G1 X92.363 Y108.294 E20.10577
G1 X91.578 Y105.901 E20.20629
G1 X90.721 Y103.514 E20.30752
G1 X89.793 Y101.14 E20.40925
G1 X89.557 Y100.56 E20.43424
G1 X89.251 Y99.7 E20.47067
G1 X89.093 Y99.183 E20.49225
G1 X88.868 Y98.309 E20.52827
G1 X88.708 Y97.305 E20.56885
G1 X88.682 Y97.066 E20.57844
G1 X88.623 Y96.088 E20.61755
G1 X88.617 Y95.592 E20.63735
G1 X88.614 Y94.794 E20.6692
G1 X88.587 Y90.112 E20.85607
G1 X88.578 Y88.159 E20.93402
G1 X88.563 Y85.897 E21.0243
G1 X88.554 Y84.206 E21.09179
G1 X88.471 Y72.146 E21.57315
G1 X88.452 Y69.588 E21.67524
G1 X88.447 Y68.107 E21.73435
G1 X88.449 Y67.871 E21.74377
G1 X88.47 Y66.81 E21.78613
G1 X88.502 Y66.082 E21.81521
G1 X88.539 Y65.556 E21.83626
G1 X88.648 Y64.659 E21.87232
G1 X88.916 Y63.481 E21.92054
G1 X89.156 Y62.713 E21.95266
G1 X89.475 Y61.868 E21.98871
G1 X89.866 Y61.054 E22.02475
G1 X90.329 Y60.278 E22.06081
G1 F2400 E19.06081
G1 F300 Z0.44
G0 F9000 X109.267 Y149.379 Z0.44
G1 F300 Z0.24
G1 F2400 E22.06081
G1 F1800 X118.452 Y149.378 E22.42741
G1 X118.492 Y149.591 E22.43606
G1 X118.442 Y150.124 E22.45742
G1 X109.263 Y150.125 E22.82378
G1 X109.225 Y149.644 E22.84303
G1 X109.267 Y149.379 E22.85374
G0 F9000 X108.884 Y149.172
G1 F1800 X108.87 Y148.979 E22.86147
G1 X118.835 Y148.978 E23.25919
G1 X118.863 Y149.449 E23.27802
G1 X118.886 Y149.65 E23.2861
G1 X118.836 Y150.066 E23.30282
G1 X118.876 Y150.524 E23.32117
G1 X108.844 Y150.525 E23.72157
G1 X108.878 Y150.178 E23.73548
G1 X108.818 Y149.641 E23.75705
G1 X108.884 Y149.172 E23.77595
G0 F9000 X108.458 Y149.432
G1 F1800 X108.484 Y149.054 E23.79108
G1 X108.421 Y148.579 E23.8102
G1 X119.292 Y148.578 E24.24409
G1 X119.229 Y149.074 E24.26404
G1 X119.312 Y149.575 E24.28431
G1 X119.235 Y150.112 E24.30596
G1 X119.323 Y150.644 E24.32748
G1 X119.278 Y150.924 E24.3388
G1 X108.302 Y150.925 E24.77688
G1 X108.457 Y150.446 E24.79697
G1 X108.448 Y149.845 E24.82096
G1 X108.406 Y149.615 E24.83029
G1 X108.458 Y149.432 E24.83789
G0 F9000 X108.076 Y149.285
G1 F1800 X108.011 Y148.575 E24.86634
G1 X108.092 Y148.179 E24.88248
G1 X119.628 Y148.178 E25.3429
G1 X119.713 Y148.52 E25.35697
G1 X119.63 Y149.112 E25.38083
G1 X119.727 Y149.548 E25.39865
G1 X119.635 Y150.153 E25.42308
G1 X119.683 Y150.484 E25.43643
G1 X119.739 Y150.615 E25.44211
G1 X119.654 Y151.19 E25.46531
G1 X119.673 Y151.324 E25.47071
G1 X107.905 Y151.325 E25.9404
G1 X107.831 Y150.965 E25.95507
G1 X107.999 Y150.632 E25.96996
G1 X108.071 Y150.306 E25.98328
G1 X107.998 Y149.606 E26.01137
G1 X108.076 Y149.285 E26.02455
G0 F9000 X107.685 Y149.151
G1 F1800 X107.593 Y148.509 E26.05044
G1 X107.654 Y148.385 E26.05596
G1 X107.703 Y148.107 E26.06722
G1 X107.668 Y147.779 E26.08039
G1 X120.043 Y147.778 E26.5743
G1 X120.015 Y148.112 E26.58768
G1 X120.128 Y148.488 E26.60335
G1 X120.032 Y149.143 E26.62977
G1 X120.143 Y149.519 E26.64542
G1 X120.037 Y150.188 E26.67245
G1 X120.155 Y150.587 E26.68906
G1 X120.056 Y151.224 E26.71479
G1 X120.169 Y151.63 E26.73161
G1 X120.146 Y151.724 E26.73547
G1 X107.579 Y151.725 E27.23705
G1 X107.406 Y150.887 E27.2712
G1 X107.635 Y150.459 E27.29057
G1 X107.678 Y150.18 E27.30184
G1 X107.58 Y149.545 E27.32748
G1 X107.637 Y149.429 E27.33264
G1 X107.685 Y149.151 E27.3439
G0 F9000 X107.269 Y149.258
G1 F1800 X107.276 Y149.019 E27.35344
G1 X107.176 Y148.446 E27.37666
G1 X107.288 Y148.213 E27.38698
G1 X107.295 Y147.969 E27.39672
G1 X107.191 Y147.379 E27.42063
G1 X120.506 Y147.378 E27.95206
G1 X120.535 Y147.372 E27.95324
G1 X120.424 Y147.911 E27.97521
G1 X120.42 Y148.129 E27.98391
G1 X120.551 Y148.423 E27.99676
G1 X120.442 Y148.943 E28.01796
G1 X120.437 Y149.161 E28.02667
G1 X120.566 Y149.458 E28.03959
G1 X120.449 Y149.992 E28.06141
G1 X120.442 Y150.21 E28.07011
G1 X120.578 Y150.524 E28.08377
G1 X120.468 Y151.028 E28.10436
G1 X120.461 Y151.246 E28.11307
G1 X120.59 Y151.595 E28.12792
G1 X120.482 Y152.041 E28.14623
G1 X120.321 Y152.124 E28.15346
G1 X107.371 Y152.125 E28.67032
G1 X107.236 Y152.035 E28.6768
G1 X106.981 Y150.805 E28.72693
G1 X107.265 Y150.295 E28.75023
G1 X107.268 Y150.062 E28.75953
G1 X107.162 Y149.487 E28.78287
G1 X107.269 Y149.258 E28.79296
G0 F9000 X106.882 Y149.088
G1 F1800 X106.754 Y148.354 E28.8227
G1 X106.869 Y148.186 E28.83082
G1 X106.901 Y148.038 E28.83687
G1 X106.771 Y147.299 E28.86681
G1 X106.873 Y146.873 E28.8843
G1 X107.15 Y146.979 E28.89613
G1 X120.506 Y146.978 E29.4292
G1 X120.827 Y146.856 E29.44291
G1 X120.838 Y147.091 E29.4523
G1 X120.962 Y147.283 E29.46142
G1 X120.816 Y147.992 E29.49031
G1 X120.844 Y148.14 E29.49632
G1 X120.975 Y148.345 E29.50603
G1 X120.833 Y149.025 E29.53376
G1 X120.859 Y149.171 E29.53968
G1 X120.992 Y149.385 E29.54973
G1 X120.84 Y150.077 E29.57801
G1 X120.864 Y150.223 E29.58392
G1 X121.003 Y150.454 E29.59468
G1 X120.859 Y151.113 E29.6216
G1 X120.87 Y151.235 E29.62649
G1 X121.01 Y151.561 E29.64065
G1 X120.839 Y152.264 E29.66952
G1 X120.708 Y152.374 E29.67635
G1 X120.416 Y152.524 E29.68945
G1 X107.256 Y152.525 E30.2147
G1 X106.877 Y152.275 E30.23282
G1 X106.556 Y150.726 E30.29596
G1 X106.846 Y150.279 E30.31722
G1 X106.875 Y150.134 E30.32312
G1 X106.74 Y149.398 E30.35299
G1 X106.851 Y149.234 E30.36089
G1 X106.882 Y149.088 E30.36685
G1 F2400 E27.36685
G1 F300 Z0.44
G0 F9000 X107.192 Y146.579 Z0.44
;TYPE:SUPPORT-INTERFACE
G1 F300 Z0.24
G1 F2400 E30.36685
G1 F1800 X107.038 Y146.509 E30.3736
G1 X106.786 Y146.228 E30.38867
G1 X106.926 Y146.03 E30.39835
G1 X106.779 Y145.167 E30.43329
G1 X106.889 Y144.716 E30.45181
G1 X106.605 Y142.987 E30.52175
G1 X106.781 Y142.771 E30.53287
