;FLAVOR:Marlin
;TIME:2093
;Filament used: 1.54555m
;Layer height: 0.2
;MINX:89.7
;MINY:69.388
;MINZ:0.24
;MAXX:130.889
;MAXY:150.365
;MAXZ:13.92
;Generated with Cura_SteamEngine 4.7.1
M140 S50
M105
M190 S50
M104 S215
M105
M109 S215
M82 ;absolute extrusion mode
M201 X500.00 Y500.00 Z100.00 E5000.00 ;Setup machine max acceleration
M203 X500.00 Y500.00 Z10.00 E50.00 ;Setup machine max feedrate
M204 P500.00 R1000.00 T500.00 ;Setup Print/Retract/Travel acceleration
M205 X8.00 Y8.00 Z0.40 E5.00 ;Setup Jerk
M220 S100 ;Reset Feedrate
M221 S100 ;Reset Flowrate

G28 ;Home

G92 E0 ;Reset Extruder
G1 Z2.0 F3000 ;Move Z Axis up
G1 X10.1 Y20 Z0.28 F5000.0 ;Move to start position
G1 X10.1 Y200.0 Z0.28 F1500.0 E15 ;Draw the first line
G1 X10.4 Y200.0 Z0.28 F5000.0 ;Move to side a little
G1 X10.4 Y20 Z0.28 F1500.0 E30 ;Draw the second line
G92 E0 ;Reset Extruder
G1 Z2.0 F3000 ;Move Z Axis up

G92 E0
G92 E0
G1 F2400 E-3
;LAYER_COUNT:67
;LAYER:0
M106 S63.8
M204 S500
M205 X6 Y6
G1 F300 Z0.44
G0 F9000 X93.329 Y81.961 Z0.44
;TYPE:SKIRT
G1 F300 Z0.24
G1 F2400 E0
G1 F1800 X93.588 Y81.668 E0.01561
G1 X94.202 Y80.997 E0.05191
G1 X94.617 Y80.565 E0.07582
G1 X95.068 Y80.132 E0.10077
G1 X95.776 Y79.491 E0.13889
G1 X96.376 Y78.974 E0.1705
G1 X96.912 Y78.547 E0.19785
G1 X97.811 Y77.877 E0.2426
G1 X98.115 Y77.658 E0.25756
G1 X98.595 Y77.326 E0.28085
G1 X99.331 Y76.861 E0.3156
G1 X99.68 Y76.664 E0.33159
G1 X100.218 Y76.374 E0.35599
G1 X100.467 Y76.244 E0.3672
G1 X101.835 Y75.553 E0.42837
G1 X104.102 Y74.366 E0.5305
G1 X106.334 Y73.116 E0.6326
G1 X108.5 Y71.821 E0.73333
G1 X109.447 Y71.223 E0.77803
G1 X109.838 Y70.984 E0.79632
G1 X110.645 Y70.541 E0.83306
G1 X111.487 Y70.17 E0.86978
G1 X112.359 Y69.873 E0.90655
G1 X112.932 Y69.722 E0.9302
G1 X113.181 Y69.664 E0.94041
G1 X114.086 Y69.495 E0.97715
G1 X115.002 Y69.404 E1.01389
G1 X115.678 Y69.388 E1.04088
G1 X116.255 Y69.393 E1.06391
G1 X117.174 Y69.441 E1.10064
G1 X118.086 Y69.569 E1.13739
G1 X118.983 Y69.775 E1.17413
G1 X119.859 Y70.058 E1.21087
G1 X120.707 Y70.417 E1.24762
G1 X121.521 Y70.847 E1.28437
G1 X122.304 Y71.353 E1.32158
G1 X122.47 Y71.471 E1.3297
G1 X123.197 Y72.037 E1.36648
G1 X123.872 Y72.663 E1.40322
G1 X124.489 Y73.346 E1.43996
G1 X125.046 Y74.079 E1.4767
G1 X125.536 Y74.859 E1.51347
G1 X125.957 Y75.677 E1.55018
G1 X126.338 Y76.621 E1.59081
G1 X126.429 Y76.882 E1.60185
G1 X126.694 Y77.764 E1.6386
G1 X126.882 Y78.665 E1.67534
G1 X126.99 Y79.57 E1.71172
G1 X127.073 Y80.664 E1.7555
G1 X127.154 Y81.961 E1.80737
G1 X127.383 Y84.516 E1.90976
G1 X127.679 Y87.004 E2.00976
G1 X128.052 Y89.534 E2.11183
G1 X128.494 Y92.038 E2.21331
G1 X128.737 Y93.23 E2.26187
G1 X128.857 Y93.863 E2.28758
G1 X128.987 Y94.774 E2.32431
G1 X129.038 Y95.738 E2.36284
G1 X129.039 Y95.881 E2.36855
G1 X129.005 Y96.801 E2.40529
G1 X128.912 Y97.591 E2.43704
G1 X128.832 Y98.101 E2.45764
G1 X128.465 Y100.676 E2.56145
G1 X128.18 Y103.184 E2.6622
G1 X127.964 Y105.717 E2.76366
G1 X127.821 Y108.232 E2.8642
G1 X127.748 Y110.776 E2.96578
G1 X127.748 Y113.287 E3.066
G1 X127.819 Y115.835 E3.16774
G1 X127.96 Y118.339 E3.26784
G1 X128.175 Y120.876 E3.36946
G1 X128.455 Y123.343 E3.46855
G1 X128.819 Y125.902 E3.57171
G1 X129.242 Y128.375 E3.67185
G1 X129.728 Y130.806 E3.7708
G1 X130.415 Y133.759 E3.89181
G1 X130.569 Y134.376 E3.91719
G1 X130.753 Y135.278 E3.95393
G1 X130.858 Y136.193 E3.99069
G1 X130.883 Y136.762 E4.01342
G1 X130.889 Y137.361 E4.03733
G1 X130.887 Y137.527 E4.04395
G1 X130.836 Y138.446 E4.08069
G1 X130.706 Y139.357 E4.11742
G1 X130.569 Y139.98 E4.14288
G1 X130.444 Y140.478 E4.16337
G1 X130.181 Y141.36 E4.2001
G1 X129.843 Y142.216 E4.23684
G1 X129.443 Y143.02 E4.27268
G1 X129.162 Y143.519 E4.29553
G1 X129.04 Y143.725 E4.30509
G1 X128.536 Y144.497 E4.34189
G1 X127.968 Y145.221 E4.37862
G1 X127.593 Y145.636 E4.40094
G1 X127.185 Y146.052 E4.4242
G1 X126.946 Y146.283 E4.43746
G1 X126.257 Y146.893 E4.47419
G1 X125.517 Y147.442 E4.51097
G1 X124.999 Y147.77 E4.53544
G1 X124.447 Y148.092 E4.56094
G1 X123.628 Y148.512 E4.59768
G1 X122.775 Y148.86 E4.63445
G1 X122.101 Y149.076 E4.6627
G1 X121.587 Y149.222 E4.68402
G1 X120.382 Y149.489 E4.73328
G1 X119.224 Y149.675 E4.78009
G1 X118.583 Y149.77 E4.80596
G1 X117.155 Y150.012 E4.86376
G1 X117.041 Y150.033 E4.86839
G1 X116.391 Y150.129 E4.89461
G1 X115.78 Y150.2 E4.91917
G1 X115.05 Y150.267 E4.94842
G1 X114.541 Y150.299 E4.96878
G1 X114.276 Y150.31 E4.97936
G1 X113.039 Y150.347 E5.02876
G1 X112.751 Y150.352 E5.04025
G1 X111.983 Y150.361 E5.07091
G1 X110.803 Y150.365 E5.11801
G1 X104.553 Y150.365 E5.36746
G1 X103.771 Y150.348 E5.39868
G1 X102.87 Y150.305 E5.43468
G1 X102.361 Y150.269 E5.45504
G1 X101.447 Y150.154 E5.49181
G1 X100.268 Y149.883 E5.54009
G1 X99.555 Y149.671 E5.56978
G1 X99.416 Y149.626 E5.57561
G1 X98.553 Y149.304 E5.61238
G1 X97.722 Y148.909 E5.6491
G1 X96.928 Y148.444 E5.68583
G1 X95.962 Y147.739 E5.73356
G1 X95.312 Y147.199 E5.76728
G1 X95.214 Y147.113 E5.77249
G1 X94.549 Y146.477 E5.80921
G1 X93.942 Y145.784 E5.84598
G1 X93.397 Y145.042 E5.88273
G1 X92.919 Y144.256 E5.91945
G1 X92.665 Y143.764 E5.94154
G1 X92.422 Y143.262 E5.9638
G1 X92.065 Y142.438 E5.99965
G1 X92.042 Y142.378 E6.00221
G1 X91.75 Y141.505 E6.03895
G1 X91.533 Y140.597 E6.07621
G1 X91.419 Y139.986 E6.10102
G1 X91.315 Y139.307 E6.12844
G1 X91.272 Y138.962 E6.14231
G1 X91.19 Y138.197 E6.17302
G1 X90.909 Y135.278 E6.29006
G1 X90.785 Y134.004 E6.34115
G1 X90.652 Y132.612 E6.39696
G1 X90.522 Y131.299 E6.44962
G1 X90.393 Y129.924 E6.50474
G1 X90.34 Y129.305 E6.52954
G1 X90.247 Y128.173 E6.57487
G1 X90.168 Y127.083 E6.61849
G1 X90.056 Y125.298 E6.68987
G1 X89.985 Y123.989 E6.74219
G1 X89.88 Y121.572 E6.83875
G1 X89.841 Y120.446 E6.88372
G1 X89.767 Y117.121 E7.01646
G1 X89.757 Y116.449 E7.04329
G1 X89.714 Y112.317 E7.20821
G1 X89.7 Y108.276 E7.3695
G1 X89.7 Y91.557 E8.03679
G1 X89.71 Y90.853 E8.06489
G1 X89.794 Y89.668 E8.1123
G1 X89.889 Y89.008 E8.13892
G1 X89.95 Y88.657 E8.15314
G1 X90.146 Y87.758 E8.18986
G1 X90.562 Y86.508 E8.24244
G1 X90.637 Y86.322 E8.25045
G1 X90.916 Y85.691 E8.27798
G1 X91.131 Y85.244 E8.29778
G1 X91.565 Y84.433 E8.33449
G1 X91.869 Y83.951 E8.35724
G1 X92.215 Y83.441 E8.38183
G1 X92.542 Y82.982 E8.40433
G1 X92.777 Y82.658 E8.4203
G1 X93.329 Y81.961 E8.45579
G0 F9000 X93.632 Y82.222
G1 F1800 X93.883 Y81.938 E8.47092
G1 X94.497 Y81.267 E8.50722
G1 X94.903 Y80.845 E8.53059
G1 X95.336 Y80.429 E8.55456
G1 X96.044 Y79.788 E8.59267
G1 X96.635 Y79.279 E8.6238
G1 X97.151 Y78.867 E8.65016
G1 X98.05 Y78.197 E8.69491
G1 X98.343 Y77.987 E8.7093
G1 X98.823 Y77.655 E8.73259
G1 X99.531 Y77.207 E8.76603
G1 X99.87 Y77.016 E8.78156
G1 X100.408 Y76.726 E8.80595
G1 X100.648 Y76.601 E8.81675
G1 X101.995 Y75.92 E8.877
G1 X104.289 Y74.719 E8.98034
G1 X106.528 Y73.465 E9.08277
G1 X108.736 Y72.145 E9.18544
G1 X109.811 Y71.468 E9.23615
G1 X110.045 Y71.326 E9.24707
G1 X110.837 Y70.892 E9.28312
G1 X111.665 Y70.53 E9.31918
G1 X112.521 Y70.242 E9.35523
G1 X113.023 Y70.112 E9.37593
G1 X113.272 Y70.054 E9.38613
G1 X114.16 Y69.888 E9.42219
G1 X115.059 Y69.802 E9.45823
G1 X115.674 Y69.788 E9.48278
G1 X116.251 Y69.793 E9.50581
G1 X117.153 Y69.841 E9.54187
G1 X118.047 Y69.969 E9.57791
G1 X118.927 Y70.175 E9.61398
G1 X119.784 Y70.457 E9.64999
G1 X120.614 Y70.815 E9.68607
G1 X121.408 Y71.245 E9.72211
G1 X122.073 Y71.679 E9.7538
G1 X122.239 Y71.797 E9.76193
G1 X122.951 Y72.353 E9.79799
G1 X123.611 Y72.969 E9.83402
G1 X124.214 Y73.641 E9.87006
G1 X124.756 Y74.364 E9.90612
G1 X125.231 Y75.132 E9.94216
G1 X125.637 Y75.939 E9.97822
G1 X125.96 Y76.753 E10.01317
G1 X126.051 Y77.014 E10.0242
G1 X126.311 Y77.879 E10.06025
G1 X126.492 Y78.764 E10.09631
G1 X126.591 Y79.6 E10.12991
G1 X126.674 Y80.694 E10.17369
G1 X126.756 Y82.007 E10.2262
G1 X126.982 Y84.528 E10.32722
G1 X127.285 Y87.078 E10.42972
G1 X127.655 Y89.584 E10.53082
G1 X128.102 Y92.116 E10.63344
G1 X128.377 Y93.471 E10.68862
G1 X128.464 Y93.936 E10.7075
G1 X128.591 Y94.83 E10.74354
G1 X128.638 Y95.741 E10.77995
G1 X128.639 Y95.884 E10.78566
G1 X128.605 Y96.786 E10.82169
G1 X128.517 Y97.53 E10.85159
G1 X128.434 Y98.061 E10.87304
G1 X128.07 Y100.615 E10.976
G1 X127.779 Y103.172 E11.07872
G1 X127.564 Y105.694 E11.17974
G1 X127.421 Y108.2 E11.27992
G1 X127.348 Y110.764 E11.3823
G1 X127.348 Y113.298 E11.48344
G1 X127.419 Y115.832 E11.58462
G1 X127.561 Y118.362 E11.68575
G1 X127.778 Y120.919 E11.78817
G1 X128.065 Y123.448 E11.88976
G1 X128.417 Y125.921 E11.98946
G1 X128.849 Y128.45 E12.09186
G1 X129.341 Y130.909 E12.19195
G1 X130.031 Y133.879 E12.31364
G1 X130.18 Y134.473 E12.33809
G1 X130.36 Y135.358 E12.37413
G1 X130.462 Y136.256 E12.4102
G1 X130.483 Y136.769 E12.43069
G1 X130.489 Y137.356 E12.45412
G1 X130.487 Y137.522 E12.46075
G1 X130.436 Y138.424 E12.49681
G1 X130.306 Y139.317 E12.53283
G1 X130.181 Y139.882 E12.55592
G1 X130.056 Y140.38 E12.57641
G1 X129.798 Y141.246 E12.61248
G1 X129.464 Y142.085 E12.64852
G1 X129.093 Y142.827 E12.68163
G1 X128.817 Y143.316 E12.70404
G1 X128.695 Y143.522 E12.7136
G1 X128.201 Y144.278 E12.74964
G1 X127.642 Y144.987 E12.78568
G1 X127.304 Y145.36 E12.80577
G1 X126.907 Y145.764 E12.82838
G1 X126.668 Y145.995 E12.84164
G1 X125.991 Y146.593 E12.87769
G1 X125.264 Y147.13 E12.91377
G1 X124.795 Y147.427 E12.93592
G1 X124.249 Y147.744 E12.96112
G1 X123.445 Y148.156 E12.99718
G1 X122.608 Y148.495 E13.03322
G1 X121.992 Y148.691 E13.05902
G1 X121.478 Y148.837 E13.08035
G1 X120.318 Y149.094 E13.12777
G1 X119.166 Y149.28 E13.17434
G1 X118.502 Y149.378 E13.20113
G1 X116.97 Y149.639 E13.26316
G1 X116.344 Y149.732 E13.28842
G1 X115.733 Y149.803 E13.31297
G1 X115.016 Y149.868 E13.3417
G1 X114.264 Y149.911 E13.37177
G1 X113.031 Y149.947 E13.421
G1 X112.746 Y149.952 E13.43238
G1 X111.982 Y149.961 E13.46287
G1 X110.803 Y149.965 E13.50993
G1 X104.558 Y149.965 E13.75918
G1 X103.79 Y149.948 E13.78984
G1 X102.889 Y149.905 E13.82584
G1 X102.393 Y149.871 E13.84568
G1 X101.498 Y149.757 E13.88169
G1 X100.379 Y149.499 E13.92753
G1 X99.678 Y149.29 E13.95672
G1 X99.539 Y149.245 E13.96255
G1 X98.693 Y148.929 E13.9986
G1 X97.879 Y148.54 E14.03461
G1 X97.101 Y148.08 E14.07068
G1 X96.215 Y147.43 E14.11454
G1 X95.576 Y146.899 E14.1477
G1 X95.478 Y146.813 E14.1529
G1 X94.826 Y146.187 E14.18898
G1 X94.233 Y145.507 E14.22499
G1 X93.701 Y144.777 E14.26104
G1 X93.236 Y144.003 E14.29708
G1 X93.025 Y143.59 E14.31559
G1 X92.782 Y143.088 E14.33785
G1 X92.439 Y142.295 E14.37233
G1 X92.416 Y142.235 E14.3749
G1 X92.13 Y141.378 E14.41096
G1 X91.926 Y140.521 E14.44612
G1 X91.814 Y139.921 E14.47048
G1 X91.711 Y139.256 E14.49734
G1 X91.67 Y138.919 E14.51088
G1 X91.577 Y138.044 E14.546
G1 X91.307 Y135.239 E14.65848
G1 X91.183 Y133.966 E14.70952
G1 X91.046 Y132.528 E14.76718
G1 X90.92 Y131.262 E14.81796
G1 X90.791 Y129.89 E14.87296
G1 X90.738 Y129.272 E14.89771
G1 X90.646 Y128.144 E14.94288
G1 X90.567 Y127.058 E14.98634
G1 X90.455 Y125.276 E15.05761
G1 X90.39 Y124.084 E15.10525
G1 X90.28 Y121.558 E15.20617
G1 X90.237 Y120.304 E15.25625
G1 X90.167 Y117.114 E15.3836
G1 X90.157 Y116.445 E15.4103
G1 X90.114 Y112.316 E15.57511
G1 X90.1 Y108.276 E15.73635
G1 X90.1 Y91.563 E16.4034
G1 X90.11 Y90.859 E16.43151
G1 X90.19 Y89.718 E16.47716
G1 X90.283 Y89.077 E16.50301
G1 X90.344 Y88.726 E16.51723
G1 X90.538 Y87.843 E16.55331
G1 X90.933 Y86.658 E16.60317
G1 X91.008 Y86.472 E16.61117
G1 X91.276 Y85.865 E16.63765
G1 X91.491 Y85.418 E16.65745
G1 X91.918 Y84.622 E16.6935
G1 X92.201 Y84.173 E16.71469
G1 X92.541 Y83.674 E16.73879
G1 X92.866 Y83.217 E16.76117
G1 X93.101 Y82.893 E16.77714
G1 X93.632 Y82.222 E16.81129
G1 F2400 E13.81129
G1 F300 Z0.44
G0 F9000 X109.999 Y95.532 Z0.44
G1 F300 Z0.24
G1 F2400 E16.81129
G1 F1800 X110.303 Y95.703 E16.82522
G1 X117.403 Y95.702 E17.10859
G1 X118.092 Y95.764 E17.1362
G1 X118.25 Y95.886 E17.14417
G1 X118.108 Y96.016 E17.15185
G1 X117.49 Y96.079 E17.17665
G1 X116.802 Y96.084 E17.20411
G1 X110.153 Y96.084 E17.46948
G1 X109.996 Y96.155 E17.47636
G1 X110.005 Y95.605 E17.49832
G1 X109.999 Y95.532 E17.50124
G1 F2400 E14.50124
G1 F300 Z0.44
;MESH:PianoKeys_BasicSharpKey.stl
G0 F9000 X100.799 Y124.081 Z0.44
;TYPE:WALL-OUTER
G1 F300 Z0.24
G1 F2400 E17.50124
G1 F1800 X100.685 Y121.444 E17.60659
G1 X100.649 Y120.656 E17.63807
G1 X100.627 Y119.727 E17.67516
G1 X100.559 Y116.598 E17.80007
G1 X100.514 Y112.277 E17.97254
G1 X100.502 Y109.035 E18.10194
G1 X100.5 Y108.067 E18.14057
G1 X100.499 Y91.011 E18.82132
G1 X100.58 Y90.512 E18.84149
G1 X100.846 Y89.938 E18.86674
G1 X100.867 Y89.898 E18.86855
G1 X101.209 Y89.429 E18.89171
G1 X101.521 Y88.981 E18.9135
G1 X101.745 Y88.728 E18.92699
G1 X102.384 Y88.056 E18.964
G1 X103.504 Y87.077 E19.02337
G1 X104.732 Y86.201 E19.08358
G1 X105.955 Y85.561 E19.13867
G1 X107.183 Y85.113 E19.19084
G1 X108.136 Y84.887 E19.22993
G1 X108.408 Y84.821 E19.2411
G1 X109.364 Y84.678 E19.27968
G1 X109.94 Y84.612 E19.30282
G1 X110.892 Y84.526 E19.34097
G1 X112.074 Y84.471 E19.3882
G1 X113.106 Y84.454 E19.4294
G1 X114.475 Y84.453 E19.48404
G1 X114.861 Y84.399 E19.49959
G1 X115.13 Y84.193 E19.51312
G1 X115.262 Y83.792 E19.52996
G1 X115.323 Y83.117 E19.55702
G1 X115.349 Y82.417 E19.58497
G1 X115.359 Y81.744 E19.61184
G1 X115.358 Y80.718 E19.65279
G1 X115.405 Y80.272 E19.67069
G1 X115.461 Y80.206 E19.67414
G1 X115.64 Y80.168 E19.68144
G1 X116.117 Y80.182 E19.70049
G1 X116.158 Y80.202 E19.70231
G1 X116.218 Y80.296 E19.70676
G1 X116.256 Y80.713 E19.72347
G1 X116.257 Y86.603 E19.95856
G1 X116.244 Y87.115 E19.979
G1 X116.2 Y87.503 E19.99458
G1 X116.09 Y87.809 E20.00756
G1 X116.073 Y87.825 E20.00849
G1 X115.793 Y87.858 E20.01975
G1 X114.964 Y87.859 E20.05283
G1 X114.431 Y87.924 E20.07426
G1 X113.888 Y88.022 E20.09629
G1 X113.697 Y88.062 E20.10408
G1 X113.055 Y88.184 E20.13016
G1 X112.817 Y88.256 E20.14008
G1 X112.02 Y88.471 E20.17303
G1 X111.209 Y88.791 E20.20783
G1 X110.861 Y88.958 E20.22323
G1 X110.122 Y89.435 E20.25834
G1 X109.692 Y89.824 E20.28148
G1 X109.444 Y90.377 E20.30567
G1 X109.092 Y91.236 E20.34272
G1 X109.007 Y91.701 E20.36159
G1 X108.837 Y92.742 E20.40369
G1 X108.774 Y93.936 E20.45141
G1 X108.753 Y94.302 E20.46604
G1 X108.754 Y132.148 E21.97656
G1 X108.844 Y133.044 E22.0125
G1 X109.135 Y133.725 E22.04206
G1 X109.538 Y134.082 E22.06354
G1 X109.825 Y134.266 E22.07715
G1 X110.275 Y134.37 E22.09558
G1 X111.045 Y134.537 E22.12703
G1 X111.411 Y134.578 E22.14173
G1 X112.274 Y134.664 E22.17635
G1 X113.142 Y134.711 E22.21104
G1 X113.409 Y134.727 E22.22172
G1 X114.13 Y134.759 E22.25052
G1 X114.532 Y134.795 E22.26663
G1 X115.029 Y134.849 E22.28658
G1 X115.5 Y134.948 E22.30579
G1 X116.026 Y135.141 E22.32815
G1 X116.555 Y135.381 E22.35134
G1 X117.172 Y135.578 E22.37719
G1 X117.595 Y135.634 E22.39422
G1 X118.232 Y135.558 E22.41982
G1 X118.675 Y135.557 E22.43751
G1 X119.09 Y135.669 E22.45466
G1 X119.463 Y135.883 E22.47182
G1 X119.77 Y136.191 E22.48918
G1 X119.986 Y136.564 E22.50638
G1 X120.096 Y136.977 E22.52344
G1 X120.097 Y137.413 E22.54084
G1 X119.985 Y137.827 E22.55796
G1 X119.77 Y138.203 E22.57525
G1 X119.464 Y138.506 E22.59244
G1 X119.088 Y138.725 E22.6098
G1 X118.675 Y138.834 E22.62685
G1 X118.226 Y138.835 E22.64477
G1 X117.718 Y138.767 E22.66523
G1 X117.388 Y138.756 E22.67841
G1 X116.737 Y138.908 E22.70509
G1 X116.25 Y139.084 E22.72576
G1 X115.738 Y139.279 E22.74762
G1 X115.165 Y139.405 E22.77104
G1 X115.038 Y139.429 E22.7762
G1 X114.364 Y139.496 E22.80323
G1 X114.13 Y139.508 E22.81258
G1 X113.412 Y139.538 E22.84127
G1 X112.269 Y139.559 E22.88689
G1 X111.004 Y139.565 E22.93738
G1 X104.001 Y139.566 E23.21689
G1 X103.239 Y139.514 E23.24737
G1 X102.758 Y139.366 E23.26746
G1 X102.34 Y139.011 E23.28934
G1 X102.127 Y138.545 E23.30979
G1 X102.011 Y137.894 E23.33619
G1 X101.958 Y137.327 E23.35892
G1 X101.922 Y136.976 E23.373
G1 X101.659 Y134.244 E23.48254
G1 X101.537 Y132.992 E23.53275
G1 X101.364 Y131.173 E23.60568
G1 X101.294 Y130.493 E23.63296
G1 X101.167 Y129.163 E23.68629
G1 X101.121 Y128.645 E23.70704
G1 X100.98 Y126.908 E23.7766
G1 X100.843 Y124.731 E23.86366
G1 X100.799 Y124.081 E23.88966
G0 F9000 X101.238 Y124.057
G1 F2400 E20.88966
G1 F300 Z0.44
G0 F9000 X119.612 Y136.716 Z0.44
;TYPE:WALL-INNER
G1 F300 Z0.24
G1 F2400 E23.88966
