;FLAVOR:Marlin
;TIME:7041
;Filament used: 5.49331m
;Layer height: 0.16
;MINX:74.826
;MINY:71.039
;MINZ:0.24
;MAXX:145.173
;MAXY:148.958
;MAXZ:9.96
;Generated with Cura_SteamEngine 4.5.0
M140 S50
M105
M190 S50
M104 S220
M105
M109 S220
M82 ;absolute extrusion mode
M201 X500.00 Y500.00 Z100.00 E5000.00 ;Setup machine max acceleration
M203 X500.00 Y500.00 Z10.00 E50.00 ;Setup machine max feedrate
M204 P500.00 R1000.00 T500.00 ;Setup Print/Retract/Travel acceleration
M205 X8.00 Y8.00 Z0.40 E5.00 ;Setup Jerk
M220 S100 ;Reset Feedrate
M221 S100 ;Reset Flowrate

G28 ;Home

G92 E0 ;Reset Extruder
G1 Z2.0 F3000 ;Move Z Axis up
G1 X10.1 Y20 Z0.28 F5000.0 ;Move to start position
G1 X10.1 Y200.0 Z0.28 F1500.0 E15 ;Draw the first line
G1 X10.4 Y200.0 Z0.28 F5000.0 ;Move to side a little
G1 X10.4 Y20 Z0.28 F1500.0 E30 ;Draw the second line
G92 E0 ;Reset Extruder
G1 Z2.0 F3000 ;Move Z Axis up

G92 E0
G92 E0
G1 F1800 E-3
;LAYER_COUNT:55
;LAYER:0
M107
G0 F9000 X84.481 Y82.005 Z0.24
;TYPE:SKIRT
G1 F1800 E0
G1 F3000 X85.029 Y81.44 E0.03141
G1 X85.589 Y80.888 E0.0628
G1 X86.162 Y80.348 E0.09422
G1 X86.743 Y79.824 E0.12545
G1 X87.339 Y79.31 E0.15686
G1 X87.948 Y78.809 E0.18834
G1 X88.566 Y78.323 E0.21972
G1 X89.199 Y77.848 E0.2513
G1 X89.832 Y77.394 E0.28239
G1 X90.484 Y76.949 E0.3139
G1 X91.142 Y76.52 E0.34525
G1 X91.811 Y76.106 E0.37665
G1 X92.491 Y75.706 E0.40814
G1 X93.18 Y75.321 E0.43964
G1 X93.867 Y74.956 E0.47069
G1 X94.57 Y74.602 E0.5021
G1 X95.283 Y74.264 E0.5336
G1 X96.004 Y73.942 E0.56511
G1 X96.726 Y73.638 E0.59638
G1 X97.462 Y73.348 E0.62795
G1 X98.193 Y73.078 E0.65906
G1 X98.943 Y72.821 E0.6907
G1 X99.687 Y72.583 E0.72188
G1 X100.445 Y72.36 E0.75341
G1 X101.206 Y72.155 E0.78487
G1 X101.967 Y71.967 E0.81615
G1 X102.732 Y71.796 E0.84744
G1 X103.509 Y71.642 E0.87905
G1 X104.281 Y71.506 E0.91034
G1 X105.056 Y71.387 E0.94164
G1 X105.837 Y71.284 E0.97308
G1 X106.622 Y71.2 E1.00459
G1 X107.404 Y71.133 E1.03591
G1 X108.189 Y71.084 E1.0673
G1 X108.977 Y71.053 E1.09878
G1 X109.759 Y71.039 E1.13
G1 X110.549 Y71.042 E1.16153
G1 X111.332 Y71.062 E1.19279
G1 X112.124 Y71.102 E1.22444
G1 X112.905 Y71.158 E1.25569
G1 X113.685 Y71.231 E1.28696
G1 X114.468 Y71.322 E1.31842
G1 X115.249 Y71.431 E1.34989
G1 X116.023 Y71.557 E1.38119
G1 X116.799 Y71.701 E1.41269
G1 X117.565 Y71.861 E1.44392
G1 X118.332 Y72.038 E1.47534
G1 X119.102 Y72.236 E1.50707
G1 X119.85 Y72.445 E1.53807
G1 X120.605 Y72.674 E1.56956
G1 X121.345 Y72.916 E1.60064
G1 X122.099 Y73.184 E1.63257
G1 X122.824 Y73.46 E1.66354
G1 X123.547 Y73.752 E1.69466
G1 X124.271 Y74.062 E1.72609
G1 X124.998 Y74.395 E1.75801
G1 X125.708 Y74.74 E1.78951
G1 X126.403 Y75.097 E1.8207
G1 X127.096 Y75.473 E1.85216
G1 X127.778 Y75.862 E1.8835
G1 X128.45 Y76.265 E1.91478
G1 X129.115 Y76.684 E1.94615
G1 X129.773 Y77.121 E1.97767
G1 X130.419 Y77.571 E2.00909
G1 X131.056 Y78.036 E2.04057
G1 X131.671 Y78.505 E2.07144
G1 X132.295 Y79.005 E2.10336
G1 X132.897 Y79.511 E2.13474
G1 X133.487 Y80.029 E2.16608
G1 X134.061 Y80.554 E2.19713
G1 X134.636 Y81.107 E2.22897
G1 X135.188 Y81.661 E2.26018
G1 X135.727 Y82.226 E2.29135
G1 X136.259 Y82.809 E2.32285
G1 X136.776 Y83.402 E2.35425
G1 X137.279 Y84.006 E2.38562
G1 X137.771 Y84.624 E2.41715
G1 X138.246 Y85.251 E2.44854
G1 X138.706 Y85.884 E2.47977
G1 X139.153 Y86.531 E2.51116
G1 X139.587 Y87.189 E2.54262
G1 X140.005 Y87.857 E2.57407
G1 X140.409 Y88.534 E2.60554
G1 X140.792 Y89.21 E2.63655
G1 X141.168 Y89.909 E2.66822
G1 X141.521 Y90.605 E2.69937
G1 X141.859 Y91.308 E2.73051
G1 X142.187 Y92.024 E2.76194
G1 X142.501 Y92.759 E2.79384
G1 X142.79 Y93.479 E2.8248
G1 X143.07 Y94.227 E2.85668
G1 X143.328 Y94.966 E2.88792
G1 X143.572 Y95.715 E2.91936
G1 X143.798 Y96.467 E2.9507
G1 X144.007 Y97.226 E2.98212
G1 X144.199 Y97.989 E3.01353
G1 X144.374 Y98.753 E3.04481
G1 X144.532 Y99.525 E3.07626
G1 X144.673 Y100.289 E3.10727
G1 X144.798 Y101.077 E3.13911
G1 X144.904 Y101.853 E3.17037
G1 X144.992 Y102.638 E3.2019
G1 X145.064 Y103.416 E3.23308
G1 X145.117 Y104.203 E3.26456
G1 X145.153 Y104.99 E3.29601
G1 X145.172 Y105.773 E3.32727
G1 X145.173 Y106.564 E3.35884
G1 X145.156 Y107.351 E3.39026
G1 X145.122 Y108.134 E3.42154
G1 X145.07 Y108.92 E3.45298
G1 X145.001 Y109.705 E3.48443
G1 X144.914 Y110.484 E3.51571
G1 X144.81 Y111.265 E3.54716
G1 X144.689 Y112.039 E3.57843
G1 X144.549 Y112.815 E3.6099
G1 X144.394 Y113.585 E3.64125
G1 X144.219 Y114.356 E3.6728
G1 X144.028 Y115.118 E3.70416
G1 X143.822 Y115.874 E3.73543
G1 X143.596 Y116.631 E3.76696
G1 X143.356 Y117.376 E3.7982
G1 X143.097 Y118.122 E3.82972
G1 X142.824 Y118.855 E3.86094
G1 X142.531 Y119.591 E3.89256
G1 X142.227 Y120.31 E3.92371
G1 X141.901 Y121.03 E3.95526
G1 X141.559 Y121.743 E3.98682
G1 X141.207 Y122.44 E4.01798
G1 X140.839 Y123.13 E4.0492
G1 X140.447 Y123.824 E4.08101
G1 X140.051 Y124.493 E4.11204
G1 X139.632 Y125.164 E4.14361
G1 X139.204 Y125.818 E4.17481
G1 X138.752 Y126.472 E4.20654
G1 X138.296 Y127.105 E4.23767
G1 X137.823 Y127.732 E4.26902
G1 X137.333 Y128.351 E4.30053
G1 X136.837 Y128.951 E4.3316
G1 X136.31 Y129.557 E4.36365
G1 X135.787 Y130.133 E4.39471
G1 X135.253 Y130.698 E4.42573
G1 X134.688 Y131.266 E4.45771
G1 X134.128 Y131.806 E4.48876
G1 X133.554 Y132.336 E4.51994
G1 X132.955 Y132.863 E4.55178
G1 X132.747 Y133.039 E4.56266
G1 X132.747 Y139.212 E4.80904
G1 X132.702 Y140.131 E4.84576
G1 X132.56 Y141.118 E4.88556
G1 X132.331 Y142.032 E4.92317
G1 X132.023 Y142.904 E4.96008
G1 X131.624 Y143.758 E4.9977
G1 X131.15 Y144.561 E5.03492
G1 X130.597 Y145.32 E5.0724
G1 X129.98 Y146.017 E5.10955
G1 X129.302 Y146.65 E5.14657
G1 X128.549 Y147.226 E5.18441
G1 X127.761 Y147.718 E5.22149
G1 X126.931 Y148.132 E5.25851
G1 X126.05 Y148.47 E5.29617
G1 X125.154 Y148.719 E5.33328
G1 X124.232 Y148.882 E5.37065
G1 X123.3 Y148.955 E5.40797
G1 X96.999 Y148.958 E6.45769
G1 X96.364 Y148.938 E6.48305
G1 X95.449 Y148.836 E6.5198
G1 X94.518 Y148.639 E6.55778
G1 X93.631 Y148.36 E6.59489
G1 X92.765 Y147.992 E6.63245
G1 X91.948 Y147.549 E6.66954
G1 X91.169 Y147.023 E6.70705
G1 X90.455 Y146.436 E6.74395
G1 X89.784 Y145.765 E6.78182
G1 X89.196 Y145.053 E6.81868
G1 X88.67 Y144.273 E6.85622
G1 X88.226 Y143.459 E6.89323
G1 X87.858 Y142.595 E6.93071
G1 X87.576 Y141.702 E6.96809
G1 X87.382 Y140.795 E7.00511
G1 X87.274 Y139.863 E7.04256
G1 X87.253 Y138.159 E7.11057
G1 X87.252 Y133.039 E7.31492
G1 X86.808 Y132.657 E7.3383
G1 X86.223 Y132.132 E7.36967
G1 X85.649 Y131.593 E7.4011
G1 X85.09 Y131.045 E7.43234
G1 X84.54 Y130.481 E7.46378
G1 X84.004 Y129.906 E7.49516
G1 X83.481 Y129.319 E7.52654
G1 X82.969 Y128.717 E7.55808
G1 X82.477 Y128.115 E7.58911
G1 X81.988 Y127.484 E7.62097
G1 X81.525 Y126.861 E7.65195
G1 X81.067 Y126.214 E7.68359
G1 X80.628 Y125.561 E7.71499
G1 X80.205 Y124.905 E7.74615
G1 X79.792 Y124.229 E7.77777
G1 X79.398 Y123.551 E7.80906
G1 X79.018 Y122.864 E7.8404
G1 X78.654 Y122.169 E7.87171
G1 X78.304 Y121.461 E7.90323
G1 X77.971 Y120.749 E7.93461
G1 X77.654 Y120.03 E7.96597
G1 X77.354 Y119.309 E7.99714
G1 X77.067 Y118.566 E8.02893
G1 X76.8 Y117.831 E8.06014
G1 X76.548 Y117.083 E8.09164
G1 X76.314 Y116.334 E8.12296
G1 X76.096 Y115.576 E8.15444
G1 X75.894 Y114.815 E8.18586
G1 X75.711 Y114.052 E8.21718
G1 X75.544 Y113.284 E8.24855
G1 X75.395 Y112.518 E8.27969
G1 X75.262 Y111.73 E8.31159
G1 X75.148 Y110.962 E8.34258
G1 X75.051 Y110.179 E8.37407
G1 X74.971 Y109.4 E8.40532
G1 X74.908 Y108.609 E8.43699
G1 X74.863 Y107.83 E8.46814
G1 X74.836 Y107.039 E8.49973
G1 X74.826 Y106.255 E8.53102
G1 X74.834 Y105.467 E8.56247
G1 X74.859 Y104.684 E8.59374
G1 X74.903 Y103.891 E8.62544
G1 X74.962 Y103.117 E8.65642
G1 X75.041 Y102.327 E8.68811
G1 X75.137 Y101.549 E8.7194
G1 X75.25 Y100.768 E8.75089
G1 X75.38 Y99.996 E8.78214
G1 X75.527 Y99.225 E8.81346
G1 X75.692 Y98.453 E8.84497
G1 X75.874 Y97.687 E8.8764
G1 X76.075 Y96.924 E8.90789
G1 X76.289 Y96.173 E8.93906
G1 X76.522 Y95.42 E8.97052
G1 X76.771 Y94.676 E9.00183
G1 X77.037 Y93.935 E9.03325
G1 X77.321 Y93.199 E9.06474
G1 X77.621 Y92.47 E9.0962
G1 X77.937 Y91.749 E9.12762
G1 X78.265 Y91.042 E9.15873
G1 X78.616 Y90.33 E9.19041
G1 X78.977 Y89.635 E9.22167
G1 X79.357 Y88.944 E9.25314
G1 X79.75 Y88.265 E9.28445
G1 X80.158 Y87.593 E9.31583
G1 X80.582 Y86.931 E9.34721
G1 X81.021 Y86.277 E9.37865
G1 X81.473 Y85.636 E9.40995
G1 X81.94 Y85.003 E9.44135
G1 X82.42 Y84.382 E9.47267
G1 X82.917 Y83.769 E9.50417
G1 X83.426 Y83.168 E9.5356
G1 X83.947 Y82.581 E9.56693
G1 X84.481 Y82.005 E9.59828
G0 F9000 X84.774 Y82.278
G1 F3000 X85.316 Y81.719 E9.62936
G1 X85.869 Y81.174 E9.66034
G1 X86.436 Y80.64 E9.69143
G1 X87.011 Y80.121 E9.72235
G1 X87.6 Y79.613 E9.75339
G1 X88.202 Y79.118 E9.7845
G1 X88.813 Y78.637 E9.81553
G1 X89.439 Y78.169 E9.84673
G1 X90.065 Y77.72 E9.87748
G1 X90.709 Y77.28 E9.90861
G1 X91.36 Y76.856 E9.93961
G1 X92.021 Y76.446 E9.97066
G1 X92.693 Y76.051 E10.00177
G1 X93.374 Y75.671 E10.0329
G1 X94.054 Y75.31 E10.06362
G1 X94.75 Y74.96 E10.09472
G1 X95.454 Y74.626 E10.12582
G1 X96.166 Y74.307 E10.15696
G1 X96.881 Y74.007 E10.1879
G1 X97.608 Y73.721 E10.21908
G1 X98.331 Y73.454 E10.24985
G1 X99.073 Y73.199 E10.28116
G1 X99.809 Y72.964 E10.312
G1 X100.558 Y72.744 E10.34315
G1 X101.31 Y72.541 E10.37424
G1 X102.062 Y72.356 E10.40515
G1 X102.818 Y72.187 E10.43607
G1 X103.587 Y72.034 E10.46736
G1 X104.35 Y71.9 E10.49828
G1 X105.117 Y71.782 E10.52925
G1 X105.888 Y71.681 E10.56029
G1 X106.665 Y71.598 E10.59148
G1 X107.437 Y71.532 E10.6224
G1 X108.213 Y71.483 E10.65344
G1 X108.992 Y71.453 E10.68455
G1 X109.766 Y71.438 E10.71545
G1 X110.546 Y71.442 E10.74658
G1 X111.321 Y71.462 E10.77752
G1 X112.104 Y71.501 E10.80881
G1 X112.876 Y71.557 E10.83971
G1 X113.647 Y71.629 E10.87061
G1 X114.421 Y71.719 E10.90171
G1 X115.193 Y71.827 E10.93282
G1 X115.958 Y71.951 E10.96376
G1 X116.726 Y72.094 E10.99494
G1 X117.484 Y72.252 E11.02584
G1 X118.241 Y72.428 E11.05686
G1 X119.002 Y72.623 E11.08821
G1 X119.742 Y72.83 E11.11888
G1 X120.488 Y73.057 E11.15
G1 X121.22 Y73.296 E11.18074
G1 X121.965 Y73.56 E11.21228
G1 X122.681 Y73.833 E11.24287
G1 X123.397 Y74.123 E11.2737
G1 X124.113 Y74.429 E11.30478
G1 X124.831 Y74.758 E11.3363
G1 X125.532 Y75.1 E11.36743
G1 X126.22 Y75.453 E11.39829
G1 X126.905 Y75.824 E11.42939
G1 X127.579 Y76.209 E11.46037
G1 X128.244 Y76.608 E11.49132
G1 X128.901 Y77.022 E11.52231
G1 X129.552 Y77.454 E11.5535
G1 X130.19 Y77.899 E11.58454
G1 X130.819 Y78.359 E11.61564
G1 X131.428 Y78.823 E11.6462
G1 X132.044 Y79.317 E11.67772
G1 X132.639 Y79.817 E11.70874
G1 X133.222 Y80.329 E11.7397
G1 X133.791 Y80.849 E11.77047
G1 X134.358 Y81.395 E11.80189
G1 X134.904 Y81.943 E11.83276
G1 X135.438 Y82.502 E11.86362
G1 X135.963 Y83.078 E11.89472
G1 X136.474 Y83.665 E11.92578
G1 X136.972 Y84.262 E11.95681
G1 X137.457 Y84.873 E11.98795
G1 X137.927 Y85.492 E12.01897
G1 X138.382 Y86.119 E12.04989
G1 X138.824 Y86.758 E12.0809
G1 X139.253 Y87.409 E12.11202
G1 X139.666 Y88.069 E12.14309
G1 X140.065 Y88.738 E12.17418
G1 X140.444 Y89.407 E12.20487
G1 X140.815 Y90.098 E12.23617
G1 X141.164 Y90.786 E12.26696
G1 X141.499 Y91.481 E12.29776
G1 X141.823 Y92.189 E12.32883
G1 X142.132 Y92.916 E12.36036
G1 X142.419 Y93.628 E12.391
G1 X142.695 Y94.367 E12.42248
G1 X142.951 Y95.097 E12.45336
G1 X143.191 Y95.838 E12.48445
G1 X143.414 Y96.582 E12.51545
G1 X143.622 Y97.332 E12.54651
G1 X143.811 Y98.086 E12.57754
G1 X143.984 Y98.842 E12.60849
G1 X144.141 Y99.605 E12.63958
G1 X144.28 Y100.361 E12.67026
G1 X144.403 Y101.139 E12.7017
G1 X144.507 Y101.906 E12.73259
G1 X144.595 Y102.682 E12.76376
G1 X144.665 Y103.452 E12.79462
G1 X144.718 Y104.23 E12.82574
G1 X144.754 Y105.008 E12.85683
G1 X144.772 Y105.783 E12.88777
G1 X144.773 Y106.564 E12.91894
G1 X144.756 Y107.342 E12.95
G1 X144.723 Y108.116 E12.98092
G1 X144.671 Y108.893 E13.012
G1 X144.602 Y109.669 E13.04309
G1 X144.517 Y110.439 E13.07401
G1 X144.413 Y111.212 E13.10514
G1 X144.294 Y111.977 E13.13604
G1 X144.156 Y112.744 E13.16715
G1 X144.002 Y113.505 E13.19814
G1 X143.829 Y114.267 E13.22932
G1 X143.64 Y115.02 E13.26031
G1 X143.436 Y115.769 E13.29129
G1 X143.213 Y116.516 E13.32241
G1 X142.976 Y117.253 E13.35331
G1 X142.719 Y117.99 E13.38446
G1 X142.45 Y118.715 E13.41532
G1 X142.159 Y119.443 E13.44661
G1 X141.858 Y120.153 E13.47739
G1 X141.537 Y120.865 E13.50856
G1 X141.199 Y121.57 E13.53977
G1 X140.85 Y122.259 E13.57059
G1 X140.486 Y122.942 E13.60148
G1 X140.099 Y123.627 E13.63289
G1 X139.707 Y124.289 E13.66359
G1 X139.293 Y124.952 E13.69479
G1 X138.869 Y125.599 E13.72566
G1 X138.423 Y126.245 E13.75699
G1 X137.972 Y126.871 E13.78779
G1 X137.504 Y127.491 E13.81879
G1 X137.02 Y128.102 E13.8499
G1 X136.529 Y128.696 E13.88066
G1 X136.009 Y129.294 E13.91229
G1 X135.491 Y129.864 E13.94303
G1 X134.963 Y130.423 E13.97372
G1 X134.405 Y130.984 E14.0053
G1 X133.851 Y131.518 E14.03601
G1 X133.283 Y132.042 E14.06686
G1 X132.692 Y132.562 E14.09828
G1 X132.347 Y132.854 E14.11632
G1 X132.347 Y139.212 E14.37008
G1 X132.303 Y140.109 E14.40592
G1 X132.166 Y141.052 E14.44395
G1 X131.945 Y141.928 E14.48001
G1 X131.648 Y142.764 E14.51542
G1 X131.265 Y143.582 E14.55147
G1 X130.809 Y144.352 E14.58719
G1 X130.278 Y145.078 E14.62309
G1 X129.685 Y145.746 E14.65874
G1 X129.034 Y146.352 E14.69424
G1 X128.312 Y146.904 E14.73051
G1 X127.556 Y147.375 E14.76606
G1 X126.759 Y147.771 E14.80158
G1 X125.914 Y148.094 E14.83769
G1 X125.055 Y148.331 E14.87325
G1 X124.17 Y148.487 E14.90912
G1 X123.276 Y148.556 E14.94491
G1 X96.999 Y148.558 E15.99368
G1 X96.378 Y148.538 E16.01848
G1 X95.5 Y148.439 E16.05374
G1 X94.609 Y148.249 E16.0901
G1 X93.758 Y147.98 E16.12573
G1 X92.928 Y147.627 E16.16172
G1 X92.145 Y147.201 E16.1973
G1 X91.399 Y146.695 E16.23328
G1 X90.714 Y146.131 E16.26869
G1 X90.073 Y145.488 E16.30493
G1 X89.509 Y144.804 E16.34031
G1 X89.006 Y144.056 E16.37629
G1 X88.581 Y143.274 E16.41181
G1 X88.229 Y142.445 E16.44776
G1 X87.96 Y141.589 E16.48357
G1 X87.774 Y140.718 E16.51912
G1 X87.672 Y139.825 E16.55499
G1 X87.653 Y138.158 E16.62153
G1 X87.652 Y132.853 E16.83326
G1 X87.069 Y132.354 E16.86389
G1 X86.491 Y131.834 E16.89492
G1 X85.924 Y131.302 E16.92596
G1 X85.371 Y130.76 E16.95686
G1 X84.827 Y130.202 E16.98796
G1 X84.297 Y129.633 E17.019
G1 X83.78 Y129.053 E17.05001
G1 X83.274 Y128.458 E17.08118
G1 X82.788 Y127.862 E17.11188
G1 X82.304 Y127.239 E17.14337
G1 X81.847 Y126.623 E17.17398
G1 X81.394 Y125.983 E17.20527
G1 X80.959 Y125.338 E17.23632
G1 X80.541 Y124.689 E17.26713
G1 X80.134 Y124.021 E17.29835
G1 X79.744 Y123.351 E17.3293
G1 X79.368 Y122.671 E17.36031
G1 X79.009 Y121.984 E17.39125
G1 X78.662 Y121.284 E17.42243
G1 X78.333 Y120.58 E17.45344
G1 X78.02 Y119.869 E17.48445
G1 X77.724 Y119.156 E17.51526
G1 X77.44 Y118.422 E17.54667
G1 X77.176 Y117.695 E17.57754
G1 X76.927 Y116.956 E17.60867
G1 X76.696 Y116.215 E17.63965
G1 X76.48 Y115.466 E17.67076
G1 X76.281 Y114.713 E17.70185
G1 X76.1 Y113.959 E17.73279
G1 X75.935 Y113.2 E17.7638
G1 X75.788 Y112.442 E17.79461
G1 X75.657 Y111.664 E17.8261
G1 X75.544 Y110.903 E17.85681
G1 X75.448 Y110.13 E17.8879
G1 X75.368 Y109.359 E17.91883
G1 X75.307 Y108.578 E17.9501
G1 X75.263 Y107.807 E17.98092
G1 X75.236 Y107.026 E18.01211
G1 X75.226 Y106.251 E18.04305
G1 X75.234 Y105.471 E18.07418
G1 X75.259 Y104.697 E18.10509
G1 X75.303 Y103.914 E18.13639
G1 X75.361 Y103.148 E18.16705
G1 X75.439 Y102.367 E18.19838
G1 X75.534 Y101.598 E18.2293
G1 X75.646 Y100.827 E18.2604
G1 X75.775 Y100.062 E18.29136
G1 X75.92 Y99.3 E18.32232
G1 X76.083 Y98.537 E18.35346
G1 X76.263 Y97.781 E18.38448
G1 X76.462 Y97.026 E18.41564
G1 X76.674 Y96.284 E18.44644
G1 X76.904 Y95.539 E18.47756
G1 X77.15 Y94.803 E18.50853
G1 X77.414 Y94.071 E18.53959
G1 X77.694 Y93.343 E18.57072
G1 X77.991 Y92.623 E18.60181
G1 X78.303 Y91.91 E18.63287
G1 X78.628 Y91.211 E18.66364
G1 X78.974 Y90.507 E18.69494
G1 X79.332 Y89.82 E18.72586
G1 X79.707 Y89.137 E18.75696
G1 X80.096 Y88.465 E18.78795
G1 X80.5 Y87.802 E18.81894
G1 X80.919 Y87.147 E18.84997
G1 X81.353 Y86.501 E18.88103
G1 X81.8 Y85.867 E18.912
G1 X82.262 Y85.241 E18.94305
G1 X82.736 Y84.627 E18.97401
G1 X83.227 Y84.021 E19.00514
G1 X83.731 Y83.427 E19.03623
G1 X84.246 Y82.847 E19.06719
G1 X84.774 Y82.278 E19.09817
G0 F9000 X85.067 Y82.55
G1 F3000 X85.603 Y81.998 E19.12888
