;FLAVOR:Marlin
;TIME:691
;Filament used: 0.24367m
;Layer height: 0.12
;MINX:72.55
;MINY:85.07
;MINZ:0.24
;MAXX:147.35
;MAXY:134.93
;MAXZ:2.48
;Generated with Cura_SteamEngine 4.10.0
M82 ;absolute extrusion mode
M201 X500.00 Y500.00 Z100.00 E5000.00 ;Setup machine max acceleration
M203 X500.00 Y500.00 Z10.00 E50.00 ;Setup machine max feedrate
M204 P500.00 R1000.00 T500.00 ;Setup Print/Retract/Travel acceleration
M205 X8.00 Y8.00 Z0.40 E5.00 ;Setup Jerk
M220 S100 ;Reset Feedrate
M221 S100 ;Reset Flowrate

;*** Start Dual Nozzle/Bed Preheating ***
M140 S50 ; start preheating the bed
M104 S195 ?T0 ; start preheating hotend
M190 S50 ; heat to Cura Bed setting and WAIT
M109 S195 ?T0 ; heat to Cura Hotend and WAIT
;*** End Preheating ***

;*** Single Print Start Tone
M300 S1000 P500 ; chirp to indicate starting to print
;*** End Single Start Tone

G28 ;Home

G92 E0 ;Reset Extruder
G1 Z2.0 F3000 ;Move Z Axis up

G1 X10.1 Y20 Z0.28 F5000.0 ;Move to start position
G1 X10.1 Y200.0 Z0.28 F1500.0 E15 ;Draw the first line
G1 X10.4 Y200.0 Z0.28 F5000.0 ;Move to side a little
G1 X10.4 Y20 Z0.28 F1500.0 E30 ;Draw the second line
G92 E0 ;Reset Extruder
G1 Z2.0 F3000 ;Move Z Axis up
G92 E0
G92 E0
G1 F2400 E-3.2
;LAYER_COUNT:16
;LAYER:0
M106 S63.8
M204 S500
M205 X6 Y6
G0 F9000 X73.935 Y86.422 Z0.24
;TYPE:SKIRT
G1 F1440 E0
G1 F1800 X74.423 Y86.01 E0.02039
G1 X74.596 Y85.891 E0.0271
G1 X75.188 Y85.557 E0.0488
G1 X75.622 Y85.386 E0.06369
G1 X76.241 Y85.272 E0.08379
G1 X76.315 Y85.264 E0.08617
G1 X76.927 Y85.219 E0.10576
G1 X77.752 Y85.182 E0.13213
G1 X79.617 Y85.144 E0.19169
G1 X81.738 Y85.117 E0.25942
G1 X86.005 Y85.096 E0.39567
G1 X95.141 Y85.08 E0.68738
G1 X107.605 Y85.076 E1.08535
G1 X108.715 Y85.074 E1.12079
G1 X143.448 Y85.07 E2.22981
G1 X143.744 Y85.11 E2.23934
G1 X143.958 Y85.193 E2.24667
G1 X144.751 Y85.599 E2.27512
G1 X145.263 Y85.91 E2.29425
G1 X145.708 Y86.249 E2.31211
G1 X146.131 Y86.634 E2.33037
G1 X146.46 Y86.996 E2.34599
G1 X147.01 Y87.687 E2.37419
G1 X147.163 Y87.943 E2.38371
G1 X147.254 Y88.381 E2.39799
G1 X147.35 Y131.129 E3.76293
G1 X147.311 Y131.426 E3.77249
G1 X147.22 Y131.656 E3.78039
G1 X146.798 Y132.454 E3.80922
G1 X146.529 Y132.883 E3.82538
G1 X146.157 Y133.356 E3.8446
G1 X145.757 Y133.776 E3.86312
G1 X145.331 Y134.135 E3.88091
G1 X145.265 Y134.186 E3.88357
G1 X144.498 Y134.726 E3.91352
G1 X144.233 Y134.864 E3.92306
G1 X143.853 Y134.93 E3.93537
G1 X76.041 Y134.93 E6.10059
G1 X75.745 Y134.89 E6.11013
G1 X75.396 Y134.726 E6.12244
G1 X74.629 Y134.186 E6.15239
G1 X74.23 Y133.861 E6.16882
G1 X73.807 Y133.435 E6.18799
G1 X73.442 Y132.991 E6.20635
G1 X73.144 Y132.536 E6.22371
G1 X73.099 Y132.459 E6.22656
G1 X72.68 Y131.667 E6.25517
G1 X72.577 Y131.386 E6.26473
G1 X72.55 Y131.143 E6.27253
G1 X72.555 Y101.768 E7.21047
G1 X72.564 Y97.673 E7.34122
G1 X72.601 Y92.208 E7.51572
G1 X72.648 Y90.17 E7.58081
G1 X72.713 Y88.962 E7.61944
G1 X72.813 Y88.289 E7.64116
G1 X72.952 Y87.88 E7.65495
G1 X73.267 Y87.27 E7.67688
G1 X73.38 Y87.094 E7.68355
G1 X73.405 Y87.062 E7.68485
G0 F1620 X73.776 Y86.588
G0 X73.935 Y86.422
G0 F9000 X74.142 Y86.667
G1 F1800 X74.63 Y86.255 E7.70524
G1 X74.753 Y86.169 E7.71003
G1 X75.345 Y85.835 E7.73174
G1 X75.697 Y85.697 E7.74381
G1 X76.286 Y85.589 E7.76293
G1 X76.339 Y85.583 E7.76463
G1 X76.942 Y85.539 E7.78394
G1 X77.759 Y85.502 E7.81005
G1 X79.621 Y85.464 E7.86952
G1 X81.74 Y85.437 E7.93718
G1 X86.006 Y85.416 E8.0734
G1 X95.141 Y85.4 E8.36507
G1 X107.606 Y85.396 E8.76308
G1 X108.715 Y85.394 E8.79849
G1 X143.448 Y85.39 E9.9075
G1 X143.813 Y85.478 E9.91949
G1 X144.606 Y85.884 E9.94794
G1 X145.071 Y86.166 E9.9653
G1 X145.495 Y86.487 E9.98228
G1 X145.896 Y86.85 E9.99955
G1 X146.21 Y87.195 E10.01445
G1 X146.76 Y87.886 E10.04265
G1 X146.884 Y88.105 E10.05068
G1 X146.934 Y88.382 E10.05967
G1 X147.03 Y131.13 E11.42461
G1 X146.937 Y131.506 E11.43697
G1 X146.515 Y132.304 E11.4658
G1 X146.207 Y132.784 E11.48401
G1 X145.86 Y133.209 E11.50153
G1 X145.46 Y133.615 E11.51972
G1 X145.081 Y133.924 E11.53534
G1 X144.314 Y134.464 E11.56529
G1 X144.087 Y134.575 E11.57336
G1 X143.853 Y134.61 E11.58091
G1 X76.041 Y134.61 E13.74613
G1 X75.792 Y134.57 E13.75418
G1 X75.58 Y134.464 E13.76175
G1 X74.813 Y133.924 E13.7917
G1 X74.369 Y133.554 E13.81016
G1 X73.989 Y133.159 E13.82766
G1 X73.637 Y132.715 E13.84575
G1 X73.382 Y132.309 E13.86106
G1 X72.963 Y131.517 E13.88967
G1 X72.87 Y131.143 E13.90197
G1 X72.875 Y101.768 E14.83991
G1 X72.884 Y97.676 E14.97056
G1 X72.921 Y92.215 E15.14494
G1 X72.967 Y90.187 E15.20971
G1 X73.032 Y88.979 E15.24833
G1 X73.126 Y88.354 E15.26851
G1 X73.236 Y88.027 E15.27953
G1 X73.551 Y87.417 E15.30145
G1 X73.619 Y87.312 E15.30544
G0 F1620 X73.632 Y87.291
G0 X74.028 Y86.785
G0 X74.142 Y86.667
G0 F9000 X74.348 Y86.911
G1 F1800 X74.836 Y86.499 E15.32584
G1 X74.91 Y86.448 E15.32871
G1 X75.502 Y86.114 E15.35041
G1 X76.021 Y85.95 E15.36779
G1 X76.363 Y85.902 E15.37882
G1 X76.956 Y85.858 E15.3978
G1 X77.765 Y85.822 E15.42366
G1 X79.625 Y85.784 E15.48306
G1 X81.742 Y85.757 E15.55066
G1 X86.006 Y85.736 E15.68681
G1 X95.14 Y85.72 E15.97846
G1 X107.606 Y85.716 E16.37649
G1 X108.714 Y85.714 E16.41187
G1 X143.447 Y85.71 E17.52089
G1 X143.667 Y85.763 E17.52811
G1 X144.488 Y86.184 E17.55757
G1 X145.25 Y86.7 E17.58696
G1 X145.627 Y87.034 E17.60304
G1 X145.96 Y87.394 E17.6187
G1 X146.51 Y88.085 E17.6469
G1 X146.614 Y88.383 E17.65697
G1 X146.71 Y131.131 E19.02191
G1 X146.654 Y131.356 E19.02931
G1 X146.213 Y132.188 E19.05938
G1 X145.958 Y132.583 E19.07439
G1 X145.63 Y132.987 E19.09101
G1 X145.257 Y133.368 E19.10803
G1 X144.896 Y133.662 E19.1229
G1 X144.129 Y134.202 E19.15285
G1 X143.853 Y134.29 E19.1621
G1 X76.041 Y134.29 E21.32732
G1 X75.765 Y134.202 E21.33657
G1 X74.969 Y133.64 E21.36768
G1 X74.599 Y133.331 E21.38307
G1 X74.238 Y132.957 E21.39967
G1 X73.907 Y132.543 E21.41659
G1 X73.665 Y132.159 E21.43109
G1 X73.246 Y131.367 E21.45969
G1 X73.19 Y131.143 E21.46707
G1 X73.195 Y101.77 E22.40494
G1 X73.204 Y97.678 E22.5356
G1 X73.241 Y92.222 E22.70981
G1 X73.287 Y90.204 E22.77426
G1 X73.355 Y88.963 E22.81394
G1 X73.44 Y88.418 E22.83156
G1 X73.521 Y88.174 E22.83976
G1 X73.836 Y87.565 E22.86166
G0 F1620 X73.836 Y87.564
G0 X73.884 Y87.488
G0 X74.28 Y86.982
G0 X74.348 Y86.911
G0 F9000 X74.555 Y87.156
G1 F1800 X75.043 Y86.744 E22.88205
G1 X75.067 Y86.727 E22.88299
G1 X75.659 Y86.393 E22.90469
G1 X76.066 Y86.267 E22.9183
G1 X76.386 Y86.221 E22.92862
G1 X76.971 Y86.178 E22.94735
G1 X77.772 Y86.142 E22.97295
G1 X79.629 Y86.104 E23.03226
G1 X81.743 Y86.077 E23.09976
G1 X86.006 Y86.056 E23.23588
G1 X95.14 Y86.04 E23.52752
G1 X107.606 Y86.036 E23.92556
G1 X108.714 Y86.034 E23.96094
G1 X143.447 Y86.03 E25.06995
G1 X143.521 Y86.048 E25.07239
G1 X144.323 Y86.459 E25.10116
G1 X145.058 Y86.956 E25.12949
G1 X145.702 Y87.585 E25.15823
G1 X146.259 Y88.284 E25.18677
G1 X146.294 Y88.384 E25.19015
G1 X146.39 Y131.132 E26.55509
G1 X146.371 Y131.207 E26.55756
G1 X145.943 Y132.016 E26.58678
G1 X145.709 Y132.382 E26.60065
G1 X145.067 Y133.108 E26.6316
G1 X144.712 Y133.401 E26.6463
G1 X143.945 Y133.941 E26.67625
G1 X143.853 Y133.97 E26.67933
G1 X76.041 Y133.97 E28.84455
G1 X75.949 Y133.941 E28.84763
G1 X75.172 Y133.393 E28.87799
G1 X74.828 Y133.108 E28.89225
G1 X74.188 Y132.387 E28.92303
G1 X73.948 Y132.01 E28.9373
G1 X73.529 Y131.218 E28.96591
G1 X73.51 Y131.143 E28.96838
G1 X73.515 Y101.77 E29.90625
G1 X73.524 Y97.68 E30.03685
G1 X73.561 Y92.229 E30.2109
G1 X73.606 Y90.221 E30.27503
G1 X73.672 Y89.002 E30.31401
G1 X73.753 Y88.483 E30.33078
G1 X73.805 Y88.321 E30.33621
G1 X74.062 Y87.823 E30.35411
G0 F1620 X74.12 Y87.711
G0 X74.136 Y87.685
G0 X74.532 Y87.179
G0 X74.555 Y87.156
;MESH:TheOfficeLogo_people_box.stl
G0 F9000 X74.316 Y88.21
G0 X74.206 Y88.493
G0 X74.098 Y88.451
;TYPE:WALL-OUTER
G1 F1800 X74.259 Y88.139 E30.36532
G1 X74.389 Y87.887 E30.37437
G1 X74.397 Y87.872 E30.37491
G1 X74.406 Y87.86 E30.37539
G1 X74.732 Y87.442 E30.39232
G1 X74.775 Y87.388 E30.39452
G1 X75.093 Y87.12 E30.4078
G1 X75.238 Y86.997 E30.41387
G1 X75.509 Y86.844 E30.42381
G1 X75.803 Y86.678 E30.43459
G1 X76.105 Y86.588 E30.44465
G1 X76.126 Y86.581 E30.44536
G1 X76.136 Y86.58 E30.44568
G1 X76.409 Y86.541 E30.45448
G1 X76.99 Y86.498 E30.47309
G1 X77.782 Y86.462 E30.4984
G1 X79.634 Y86.424 E30.55755
G1 X81.746 Y86.397 E30.62499
G1 X86.008 Y86.376 E30.76107
G1 X95.142 Y86.36 E31.05272
G1 X96.275 Y86.36 E31.0889
G1 X104.471 Y86.358 E31.35059
G1 X107.608 Y86.356 E31.45076
G1 X108.716 Y86.354 E31.48614
G1 X118.315 Y86.354 E31.79263
G1 X129.711 Y86.354 E32.1565
G1 X130.703 Y86.354 E32.18817
G1 X136.522 Y86.354 E32.37397
G1 X138.802 Y86.353 E32.44677
G1 X141.266 Y86.352 E32.52545
G1 X143.237 Y86.351 E32.58838
G1 X143.41 Y86.35 E32.59391
G1 X143.776 Y86.537 E32.60703
G1 X144.157 Y86.732 E32.6207
G1 X144.211 Y86.768 E32.62277
G1 X144.599 Y87.031 E32.63773
G1 X144.86 Y87.208 E32.6478
G1 X144.982 Y87.327 E32.65324
G1 X145.309 Y87.646 E32.66783
G1 X145.459 Y87.792 E32.67451
G1 X145.621 Y87.996 E32.68283
G1 X145.854 Y88.289 E32.69479
G1 X145.974 Y88.44 E32.70094
G1 X146.07 Y131.093 E34.06285
G1 X145.782 Y131.638 E34.08253
G1 X145.673 Y131.845 E34.09
G1 X145.61 Y131.932 E34.09343
G1 X145.405 Y132.216 E34.10461
G1 X145.233 Y132.453 E34.11396
G1 X145.165 Y132.548 E34.11769
G1 X145.053 Y132.652 E34.12257
G1 X144.675 Y133.003 E34.13904
G1 X144.528 Y133.139 E34.14544
G1 X143.956 Y133.542 E34.16778
G1 X143.802 Y133.65 E34.17378
G1 X143.507 Y133.65 E34.1832
G1 X76.15 Y133.65 E36.33389
G1 X76.092 Y133.65 E36.33575
G1 X75.996 Y133.583 E36.33948
G1 X75.537 Y133.26 E36.3574
G1 X75.366 Y133.139 E36.36409
G1 X75.209 Y132.994 E36.37092
G1 X74.73 Y132.55 E36.39177
G1 X74.575 Y132.335 E36.40023
G1 X74.343 Y132.014 E36.41288
G1 X74.224 Y131.85 E36.41935
G1 X73.898 Y131.233 E36.44163
G1 X73.83 Y131.104 E36.44629
G1 X73.83 Y130.892 E36.45306
G1 X73.83 Y130.832 E36.45497
G1 X73.835 Y101.77 E37.38291
G1 X73.844 Y97.682 E37.51344
G1 X73.881 Y92.237 E37.68731
G1 X73.926 Y90.239 E37.75112
G1 X73.978 Y89.273 E37.78201
G0 F1620 X73.99 Y89.042
G0 X74.063 Y88.642
G0 X74.071 Y88.596
G0 X74.098 Y88.451
G0 F9000 X74.306 Y88.638
G1 F1800 X74.35 Y88.652 E37.78334
G1 X74.564 Y88.724 E37.79055
G1 X74.66 Y88.539 E37.7972
G1 X74.789 Y88.291 E37.80613
G1 X74.796 Y88.277 E37.80663
G1 X74.805 Y88.265 E37.80711
G1 X75.128 Y87.855 E37.82377
G1 X75.167 Y87.805 E37.8258
G1 X75.485 Y87.539 E37.83903
G1 X75.625 Y87.421 E37.84488
G1 X75.896 Y87.269 E37.8548
G1 X76.28 Y87.054 E37.86885
G1 X76.166 Y86.79 E37.87804
G1 X75.866 Y86.882 E37.88466
G1 X75.581 Y86.97 E37.88974
G1 X75.322 Y87.131 E37.89428
G1 X75.178 Y87.22 E37.89654
G1 X74.901 Y87.508 E37.90249
G1 X74.865 Y87.545 E37.90324
G1 X74.542 Y87.965 E37.91219
G1 X74.399 Y88.211 E37.91692
G1 X74.336 Y88.502 E37.92257
G1 X74.306 Y88.638 E37.92588
G0 F9000 X74.794 Y88.608
G1 F1800 X74.759 Y88.767 E37.9284
G1 X74.693 Y89.061 E37.93802
G1 X74.656 Y89.434 E37.94999
G1 X74.625 Y89.95 E37.96649
G1 X74.62 Y90.14 E37.97256
G1 X74.592 Y90.901 E37.99687
G1 X74.559 Y92.973 E38.06304
G1 X74.53 Y96.582 E38.17828
G1 X74.509 Y103.088 E38.38602
G1 X74.452 Y130.766 E39.26977
G1 X74.788 Y131.354 E39.29139
G1 X74.879 Y131.513 E39.29724
G1 X75.101 Y131.833 E39.30968
G1 X75.263 Y131.994 E39.31697
G1 X75.717 Y132.444 E39.33738
G1 X75.866 Y132.546 E39.34315
G1 X76.04 Y132.665 E39.34988
G1 X76.434 Y132.887 E39.36432
G1 X76.792 Y133.089 E39.37744
G1 X111.431 Y133.046 E40.48346
G1 X115.248 Y133.039 E40.60533
G1 X143.435 Y133.005 E41.50534
G1 X143.498 Y133.004 E41.50735
G1 X144.047 Y132.589 E41.52932
G1 X144.195 Y132.477 E41.53525
G1 X144.377 Y132.349 E41.54235
G1 X144.609 Y132.186 E41.55141
G1 X144.795 Y132.012 E41.55954
G1 X144.953 Y131.771 E41.56874
G1 X144.961 Y131.748 E41.56952
G1 X145.08 Y131.436 E41.58018
G1 X145.094 Y131.367 E41.58243
G1 X145.179 Y130.976 E41.5952
G1 X145.257 Y130.348 E41.61541
G1 X145.316 Y129.545 E41.64112
G1 X145.36 Y128.566 E41.67241
G1 X145.41 Y126.389 E41.74194
G1 X145.446 Y122.879 E41.85402
G1 X145.485 Y113.177 E42.1638
G1 X145.505 Y102.618 E42.50095
G1 X145.499 Y97.866 E42.65268
G1 X145.489 Y94.758 E42.75192
G1 X145.447 Y90.552 E42.88622
G1 X145.418 Y89.516 E42.91931
G1 X145.401 Y89.334 E42.92515
G1 X145.27 Y88.911 E42.93929
G1 X145.178 Y88.725 E42.94591
G1 X145.074 Y88.518 E42.95331
G1 X144.921 Y88.301 E42.96179
G1 X144.817 Y88.154 E42.96754
G1 X144.508 Y87.827 E42.9819
G1 X144.383 Y87.727 E42.98701
G1 X144.151 Y87.541 E42.99651
G1 X143.753 Y87.302 E43.01133
G1 X143.732 Y87.293 E43.01206
G1 X143.32 Y87.116 E43.02638
G1 X143.073 Y87.047 E43.03457
G1 X142.859 Y86.986 E43.04167
G1 X142.601 Y86.957 E43.04996
G1 X141.741 Y86.917 E43.07745
G1 X141.262 Y86.905 E43.09275
G1 X140.888 Y86.894 E43.1047
G1 X138.481 Y86.862 E43.18156
G1 X136.227 Y86.845 E43.25353
G1 X130.471 Y86.835 E43.43732
G1 X129.49 Y86.831 E43.46864
G1 X118.223 Y86.837 E43.8284
G1 X108.73 Y86.861 E44.13151
G1 X105.511 Y86.87 E44.23429
G1 X104.533 Y86.873 E44.26551
G1 X96.277 Y86.901 E44.52913
G1 X94.354 Y86.908 E44.59053
G1 X86.233 Y86.952 E44.84983
G1 X81.786 Y86.99 E44.99183
G1 X80.384 Y87.013 E45.0366
G1 X78.774 Y87.051 E45.08802
G1 X78.017 Y87.077 E45.11221
G1 X77.2 Y87.13 E45.13835
G1 X76.477 Y87.231 E45.16166
G1 X76.347 Y87.27 E45.16599
G1 X75.963 Y87.388 E45.17301
G1 X75.704 Y87.547 E45.17724
G1 X75.565 Y87.633 E45.17927
G1 X75.286 Y87.92 E45.18491
G1 X75.254 Y87.953 E45.1855
G1 X74.935 Y88.366 E45.1939
G1 X74.794 Y88.608 E45.19837
G1 F2400 E41.99837
G0 F9000 X74.602 Y88.874
G0 X74.704 Y88.634
G0 X75.574 Y88.891
G0 X86.003 Y85.552
G0 X86.008 Y86.476
G0 X96.097 Y86.722
G0 X96.276 Y86.794
G1 F1440 E45.19837
G1 F1800 X104.532 Y86.793 E45.27542
G1 X105.51 Y86.792 E45.28315
G1 X108.729 Y86.789 E45.30727
G1 X118.222 Y86.788 E45.3646
G1 X129.49 Y86.788 E45.41633
G1 X130.471 Y86.788 E45.42074
G1 X136.226 Y86.788 E45.45061
G1 X138.48 Y86.787 E45.46549
G1 X140.887 Y86.786 E45.48751
G1 X141.265 Y86.785 E45.49185
G1 X141.267 Y86.467 E45.50201
G1 X138.803 Y86.434 E45.52615
G1 X136.523 Y86.418 E45.54268
G1 X130.703 Y86.407 E45.57669
G1 X129.711 Y86.403 E45.58174
G1 X118.316 Y86.409 E45.64085
G1 X108.717 Y86.433 E45.70505
G1 X107.609 Y86.436 E45.71386
G1 X104.472 Y86.445 E45.74002
G1 X96.276 Y86.474 E45.82223
G1 X96.276 Y86.794 E45.83245
G1 F2400 E42.63245
G0 F9000 X96.097 Y86.722
G0 X96.182 Y86.808
G0 X96.186 Y87.726
G0 X140.939 Y87.721
G0 X141.358 Y86.813
G0 X142.067 Y86.826
G0 X143.057 Y86.907
G0 X143.132 Y86.834
G1 F1440 E45.83245
G1 F1800 X143.395 Y86.967 E45.83839
G1 X143.786 Y87.166 E45.84496
G1 X143.826 Y87.192 E45.84583
G1 X144.211 Y87.451 E45.8514
G1 X144.466 Y87.623 E45.85519
G1 X144.589 Y87.742 E45.85745
G1 X144.912 Y88.055 E45.86319
G1 X145.062 Y88.2 E45.86666
G1 X145.221 Y88.399 E45.87118
G1 X145.395 Y88.616 E45.87741
G1 X145.637 Y88.462 E45.88657
G1 X145.468 Y88.119 E45.89588
G1 X145.312 Y87.896 E45.90106
G1 X145.209 Y87.75 E45.90371
G1 X144.896 Y87.416 E45.90988
G1 X144.773 Y87.317 E45.91182
G1 X144.535 Y87.126 E45.91557
G1 X144.134 Y86.883 E45.92146
G1 X144.099 Y86.868 E45.92177
G1 X143.697 Y86.693 E45.92887
G1 X143.342 Y86.594 E45.93651
G1 X143.238 Y86.564 E45.93876
G1 X143.132 Y86.834 E45.94802
G1 F2400 E42.74802
G0 F9000 X143.057 Y86.907
G0 X143.187 Y86.974
G0 X143.048 Y87.896
G0 X143.222 Y132.182
G0 X143.451 Y133.089
G0 X143.298 Y133.135
G0 X143.436 Y133.206
G1 F1440 E45.94802
G1 F1800 X143.507 Y133.43 E45.95552
G1 X143.802 Y133.43 E45.962
G1 X143.876 Y133.43 E45.96258
G1 X144.428 Y133.009 E45.97297
G1 X144.575 Y132.896 E45.97571
G1 X145 Y132.595 E45.98174
G1 X145.11 Y132.491 E45.9829
G1 X145.186 Y132.42 E45.98347
G1 X145.347 Y132.175 E45.98535
G1 X145.474 Y131.834 E45.98986
G1 X145.48 Y131.805 E45.98987
G1 X145.542 Y131.512 E45.99716
G1 X145.295 Y131.41 E46.00569
G1 X145.221 Y131.526 E46.00872
G1 X145.056 Y131.783 E46.01257
G1 X145.017 Y131.827
G1 X144.827 Y132.04 E46.01435
G1 X144.658 Y132.229 E46.01577
G1 X144.454 Y132.458 E46.01909
G1 X144.29 Y132.592 E46.02196
G1 X144.141 Y132.713 E46.02491
G1 X143.573 Y133.11 E46.03477
G1 X143.436 Y133.206 E46.03839
G1 F2400 E42.83839
G0 F9000 X143.333 Y133.135
G0 X76.761 Y133.207
G0 X76.186 Y133.507
G0 X75.596 Y133.186
G0 X75.256 Y132.952
