;FLAVOR:Marlin
;TIME:2556
;Filament used: 1.42506m
;Layer height: 0.2
;MINX:22.886
;MINY:74.134
;MINZ:0.2
;MAXX:197.114
;MAXY:145.866
;MAXZ:2.36
;Generated with Cura_SteamEngine 4.10.0
M82 ;absolute extrusion mode
M201 X500.00 Y500.00 Z100.00 E5000.00 ;Setup machine max acceleration
M203 X500.00 Y500.00 Z10.00 E50.00 ;Setup machine max feedrate
M204 P500.00 R1000.00 T500.00 ;Setup Print/Retract/Travel acceleration
M205 X8.00 Y8.00 Z0.40 E5.00 ;Setup Jerk
M220 S100 ;Reset Feedrate
M221 S100 ;Reset Flowrate

;*** Start Dual Nozzle/Bed Preheating ***
M140 S50 ; start preheating the bed
M104 S195 ?T0 ; start preheating hotend
M190 S50 ; heat to Cura Bed setting and WAIT
M109 S195 ?T0 ; heat to Cura Hotend and WAIT
;*** End Preheating ***

;*** Single Print Start Tone
M300 S1000 P500 ; chirp to indicate starting to print
;*** End Single Start Tone

G28 ;Home

G92 E0 ;Reset Extruder
G1 Z2.0 F3000 ;Move Z Axis up

G1 X10.1 Y20 Z0.28 F5000.0 ;Move to start position
G1 X10.1 Y200.0 Z0.28 F1500.0 E15 ;Draw the first line
G1 X10.4 Y200.0 Z0.28 F5000.0 ;Move to side a little
G1 X10.4 Y20 Z0.28 F1500.0 E30 ;Draw the second line
G92 E0 ;Reset Extruder
G1 Z2.0 F3000 ;Move Z Axis up
G92 E0
G92 E0
G1 F2400 E-3.2
;LAYER_COUNT:11
;LAYER:0
M106 S63.8
M204 S500
M205 X6 Y6
G0 F9000 X35.891 Y85.332 Z0.2
;TYPE:SKIRT
G1 F1440 E0
G1 F1800 X36.741 Y84.987 E0.03051
G1 X37.37 Y84.773 E0.05261
G1 X37.868 Y84.619 E0.06995
G1 X38.921 Y84.352 E0.10608
G1 X39.061 Y84.324 E0.11083
G1 X39.629 Y84.226 E0.13
G1 X40.324 Y84.136 E0.15331
G1 X40.971 Y84.079 E0.17491
G1 X41.488 Y84.052 E0.19213
G1 X42.414 Y84.024 E0.22294
G1 X42.734 Y84.019 E0.23359
G1 X43.257 Y84.019 E0.25098
G1 X43.581 Y84.024 E0.26176
G1 X44.137 Y84.041 E0.28026
G1 X44.455 Y84.055 E0.29085
G1 X45.966 Y84.147 E0.3412
G1 X48.547 Y84.266 E0.42713
G1 X52.191 Y84.311 E0.54834
G1 X52.649 Y84.308 E0.56357
G1 X54.916 Y84.309 E0.63897
G1 X56.275 Y84.328 E0.68418
G1 X58.933 Y84.328 E0.77258
G1 X59.666 Y84.312 E0.79697
G1 X59.892 Y84.309 E0.80449
G1 X62.235 Y84.309 E0.88242
G1 X62.618 Y84.314 E0.89516
G1 X64.849 Y84.299 E0.96936
G1 X65.233 Y84.313 E0.98214
G1 X65.947 Y84.308 E1.00589
G1 X67.611 Y84.308 E1.06123
G1 X70.236 Y84.271 E1.14855
G1 X72.746 Y84.164 E1.23211
G1 X74.675 Y84.033 E1.29642
G1 X75.207 Y84.009 E1.31413
G1 X75.44 Y84.003 E1.32188
G1 X78.099 Y83.899 E1.41039
G1 X80.618 Y83.729 E1.49436
G1 X83.123 Y83.488 E1.57806
G1 X85.652 Y83.173 E1.66283
G1 X88.119 Y82.795 E1.74584
G1 X90.635 Y82.335 E1.83091
G1 X93.063 Y81.821 E1.91345
G1 X95.582 Y81.212 E1.99965
G1 X97.992 Y80.557 E2.08271
G1 X100.41 Y79.826 E2.16673
G1 X102.822 Y79.021 E2.2513
G1 X105.176 Y78.162 E2.33465
G1 X107.568 Y77.21 E2.42028
G1 X108.575 Y76.781 E2.45668
G1 X109.393 Y76.457 E2.48594
G1 X109.583 Y76.389 E2.49266
G1 X110.463 Y76.117 E2.52329
G1 X111.033 Y75.984 E2.54276
G1 X111.312 Y75.927 E2.55223
G1 X112.143 Y75.791 E2.58024
G1 X112.643 Y75.735 E2.59697
G1 X113.276 Y75.683 E2.6181
G1 X114.115 Y75.633 E2.64605
G1 X114.404 Y75.62 E2.65567
G1 X115.338 Y75.59 E2.68675
G1 X116.964 Y75.558 E2.74084
G1 X119.133 Y75.533 E2.81299
G1 X123.27 Y75.513 E2.95059
G1 X132.445 Y75.497 E3.25575
G1 X145.922 Y75.49 E3.704
G1 X167.385 Y75.488 E4.41786
G1 X170.011 Y75.451 E4.50521
G1 X172.507 Y75.345 E4.5883
G1 X175.047 Y75.164 E4.673
G1 X177.539 Y74.917 E4.75629
G1 X180.083 Y74.59 E4.8416
G1 X181.605 Y74.352 E4.89284
G1 X182.291 Y74.253 E4.91589
G1 X183.489 Y74.149 E4.95588
G1 X184.14 Y74.134 E4.97754
G1 X185.38 Y74.134 E5.01878
G1 X186.23 Y74.145 E5.04706
G1 X187.149 Y74.198 E5.07767
G1 X188.06 Y74.331 E5.1083
G1 X188.956 Y74.542 E5.13891
G1 X189.83 Y74.83 E5.16952
G1 X190.677 Y75.193 E5.20017
G1 X191.488 Y75.628 E5.23078
G1 X192.258 Y76.132 E5.26139
G1 X192.982 Y76.701 E5.29201
G1 X193.654 Y77.331 E5.32265
G1 X194.269 Y78.016 E5.35327
G1 X194.822 Y78.752 E5.38389
G1 X195.309 Y79.533 E5.4145
G1 X195.442 Y79.778 E5.42377
G1 X195.912 Y80.731 E5.45911
G1 X196.297 Y81.76 E5.49566
G1 X196.498 Y82.409 E5.51825
G1 X196.617 Y82.827 E5.53271
G1 X196.83 Y83.722 E5.56331
G1 X196.95 Y84.492 E5.58923
G1 X197.028 Y85.205 E5.61308
G1 X197.051 Y85.478 E5.6222
G1 X197.086 Y86.144 E5.64438
G1 X197.112 Y87.376 E5.68536
G1 X197.114 Y87.6 E5.69281
G1 X197.113 Y132.223 E7.17698
G1 X197.106 Y132.742 E7.19424
G1 X197.075 Y133.419 E7.21679
G1 X197.008 Y134.282 E7.24557
G1 X196.906 Y135.144 E7.27445
G1 X196.87 Y135.368 E7.28199
G1 X196.587 Y136.629 E7.32498
G1 X196.427 Y137.17 E7.34374
G1 X196.279 Y137.634 E7.35994
G1 X195.961 Y138.498 E7.39056
G1 X195.606 Y139.262 E7.41858
G1 X195.273 Y139.899 E7.44249
G1 X195.059 Y140.285 E7.45717
G1 X194.578 Y141.07 E7.48779
G1 X194.02 Y141.823 E7.51896
G1 X193.934 Y141.929 E7.5235
G1 X193.323 Y142.619 E7.55415
G1 X192.655 Y143.252 E7.58476
G1 X191.934 Y143.825 E7.61539
G1 X191.167 Y144.334 E7.64601
G1 X190.358 Y144.774 E7.67664
G1 X189.514 Y145.142 E7.70726
G1 X188.642 Y145.435 E7.73786
G1 X187.747 Y145.652 E7.76849
G1 X186.837 Y145.79 E7.7991
G1 X185.887 Y145.849 E7.83076
G1 X184.844 Y145.866 E7.86546
G1 X184.102 Y145.865 E7.89013
G1 X183.392 Y145.854 E7.91375
G1 X182.473 Y145.8 E7.94437
G1 X181.915 Y145.727 E7.96309
G1 X181.043 Y145.589 E7.99245
G1 X179.874 Y145.389 E8.0319
G1 X177.315 Y145.025 E8.11787
G1 X174.843 Y144.744 E8.20062
G1 X172.311 Y144.53 E8.28513
G1 X169.834 Y144.389 E8.36765
G1 X165.88 Y144.306 E8.49919
G1 X113.827 Y144.305 E10.23048
G1 X113.125 Y144.295 E10.25383
G1 X112.206 Y144.242 E10.28445
G1 X111.295 Y144.109 E10.31507
G1 X110.399 Y143.898 E10.34568
G1 X109.524 Y143.61 E10.37632
G1 X108.521 Y143.17 E10.41275
G1 X108.007 Y142.912 E10.43188
G1 X105.725 Y141.804 E10.51625
G1 X103.412 Y140.76 E10.60066
G1 X101.077 Y139.783 E10.68484
G1 X98.704 Y138.872 E10.76939
G1 X96.357 Y138.045 E10.85215
G1 X93.905 Y137.257 E10.93781
G1 X91.501 Y136.559 E11.02107
G1 X89.074 Y135.928 E11.10448
G1 X86.581 Y135.353 E11.18957
G1 X84.089 Y134.857 E11.27408
G1 X81.611 Y134.433 E11.3577
G1 X79.14 Y134.082 E11.44071
G1 X76.592 Y133.794 E11.526
G1 X74.078 Y133.58 E11.60992
G1 X71.572 Y133.439 E11.6934
G1 X69.025 Y133.368 E11.77814
G1 X66.514 Y133.368 E11.86166
G1 X63.973 Y133.441 E11.94621
G1 X61.429 Y133.586 E12.03096
G1 X58.954 Y133.797 E12.11358
G1 X56.413 Y134.087 E12.19864
G1 X53.921 Y134.442 E12.28236
G1 X51.414 Y134.873 E12.36697
G1 X49.176 Y135.32 E12.44287
G1 X47.841 Y135.604 E12.48827
G1 X46.933 Y135.756 E12.51889
G1 X46.056 Y135.827 E12.54816
G1 X45.702 Y135.837 E12.55993
G1 X45.033 Y135.845 E12.58219
G1 X43.561 Y135.845 E12.63115
G1 X43.453 Y135.85 E12.63474
G1 X42.169 Y135.847 E12.67745
G1 X34.154 Y135.932 E12.94404
G1 X33.464 Y135.93 E12.96699
G1 X32.545 Y135.887 E12.99759
G1 X31.632 Y135.765 E13.02823
G1 X30.734 Y135.564 E13.05883
G1 X29.856 Y135.286 E13.08947
G1 X29.006 Y134.933 E13.12008
G1 X28.19 Y134.507 E13.15069
G1 X27.413 Y134.012 E13.18134
G1 X26.683 Y133.451 E13.21196
G1 X26.004 Y132.83 E13.24256
G1 X25.381 Y132.151 E13.27321
G1 X24.82 Y131.422 E13.30381
G1 X24.324 Y130.646 E13.33444
G1 X23.898 Y129.83 E13.36505
G1 X23.543 Y128.98 E13.39569
G1 X23.264 Y128.103 E13.4263
G1 X23.062 Y127.205 E13.45692
G1 X22.939 Y126.292 E13.48756
G1 X22.896 Y125.476 E13.51473
G1 X22.886 Y124.675 E13.54138
G1 X22.887 Y123.716 E13.57327
G1 X22.898 Y123.009 E13.59679
G1 X22.953 Y122.09 E13.62741
G1 X23.105 Y121.083 E13.66128
G1 X23.657 Y118.339 E13.75438
G1 X24.081 Y115.865 E13.83786
G1 X24.44 Y113.345 E13.92253
G1 X24.72 Y110.87 E14.00537
G1 X24.938 Y108.315 E14.09066
G1 X25.079 Y105.831 E14.17341
G1 X25.159 Y102.708 E14.27732
G1 X25.165 Y102.046 E14.29933
G1 X25.187 Y101.313 E14.32372
G1 X25.213 Y100.817 E14.34024
G1 X25.256 Y100.307 E14.35727
G1 X25.312 Y99.791 E14.37453
G1 X25.382 Y99.251 E14.39264
G1 X25.456 Y98.802 E14.40778
G1 X25.549 Y98.299 E14.42479
G1 X25.652 Y97.795 E14.4419
G1 X25.777 Y97.272 E14.45978
G1 X25.907 Y96.783 E14.47661
G1 X26.052 Y96.279 E14.49406
G1 X26.193 Y95.838 E14.50946
G1 X26.359 Y95.356 E14.52641
G1 X26.693 Y94.508 E14.55672
G1 X27.011 Y93.804 E14.58242
G1 X27.151 Y93.515 E14.5931
G1 X27.507 Y92.843 E14.61839
G1 X27.866 Y92.246 E14.64156
G1 X28.263 Y91.638 E14.66571
G1 X28.805 Y90.892 E14.69638
G1 X29.127 Y90.487 E14.71359
G1 X29.544 Y89.987 E14.73525
G1 X29.893 Y89.596 E14.75268
G1 X30.392 Y89.085 E14.77643
G1 X30.937 Y88.563 E14.80153
G1 X31.37 Y88.175 E14.82087
G1 X31.554 Y88.019 E14.82889
G1 X31.97 Y87.684 E14.84666
G1 X32.429 Y87.333 E14.86588
G1 X33.094 Y86.863 E14.89296
G1 X33.651 Y86.507 E14.91495
G1 X34.021 Y86.282 E14.92935
G1 X34.834 Y85.835 E14.96021
G1 X35.167 Y85.673 E14.97253
G0 F1620 X35.545 Y85.49
G0 X35.891 Y85.332
G0 F9000 X36.057 Y85.696
G1 F1800 X36.875 Y85.364 E15.00189
G1 X37.489 Y85.155 E15.02346
G1 X37.987 Y85.001 E15.0408
G1 X39 Y84.744 E15.07556
G1 X39.14 Y84.716 E15.08031
G1 X39.686 Y84.622 E15.09873
G1 X40.364 Y84.534 E15.12147
G1 X40.996 Y84.478 E15.14258
G1 X41.5 Y84.452 E15.15936
G1 X42.426 Y84.424 E15.19018
G1 X42.734 Y84.419 E15.20042
G1 X43.257 Y84.419 E15.21782
G1 X43.569 Y84.424 E15.22819
G1 X44.125 Y84.441 E15.2467
G1 X44.431 Y84.455 E15.25688
G1 X45.926 Y84.546 E15.3067
G1 X48.523 Y84.666 E15.39317
G1 X52.189 Y84.711 E15.51511
G1 X52.652 Y84.708 E15.53051
G1 X54.911 Y84.709 E15.60564
G1 X56.27 Y84.728 E15.65085
G1 X58.896 Y84.728 E15.73819
G1 X59.674 Y84.711 E15.76407
G1 X59.892 Y84.709 E15.77132
G1 X62.23 Y84.709 E15.84909
G1 X62.616 Y84.714 E15.86192
G1 X64.852 Y84.699 E15.9363
G1 X65.23 Y84.713 E15.94888
G1 X65.95 Y84.708 E15.97283
G1 X67.617 Y84.708 E16.02827
G1 X70.223 Y84.671 E16.11495
G1 X72.789 Y84.562 E16.20038
G1 X74.696 Y84.432 E16.26395
G1 X75.218 Y84.408 E16.28133
G1 X75.541 Y84.4 E16.29208
G1 X78.106 Y84.299 E16.37746
G1 X80.65 Y84.128 E16.46226
G1 X83.175 Y83.885 E16.54663
G1 X85.692 Y83.572 E16.63099
G1 X88.209 Y83.185 E16.71569
G1 X90.683 Y82.733 E16.79934
G1 X93.167 Y82.207 E16.88379
G1 X95.684 Y81.599 E16.96991
G1 X98.075 Y80.949 E17.05232
G1 X100.568 Y80.195 E17.13895
G1 X102.949 Y79.401 E17.22243
G1 X105.325 Y78.533 E17.30656
G1 X107.711 Y77.585 E17.39196
G1 X108.889 Y77.083 E17.43455
G1 X109.528 Y76.834 E17.45736
G1 X109.718 Y76.766 E17.46407
G1 X110.581 Y76.499 E17.49411
G1 X111.113 Y76.375 E17.51228
G1 X111.392 Y76.318 E17.52175
G1 X112.192 Y76.188 E17.54871
G1 X112.989 Y76.105 E17.57536
G1 X113.3 Y76.082 E17.58574
G1 X114.139 Y76.032 E17.61369
G1 X114.417 Y76.019 E17.62295
G1 X115.346 Y75.99 E17.65386
G1 X116.968 Y75.958 E17.70782
G1 X119.135 Y75.933 E17.7799
G1 X123.271 Y75.913 E17.91746
G1 X132.446 Y75.897 E18.22263
G1 X145.922 Y75.89 E18.67084
G1 X167.391 Y75.888 E19.3849
G1 X169.998 Y75.851 E19.47162
G1 X172.554 Y75.743 E19.55671
G1 X175.076 Y75.563 E19.6408
G1 X177.596 Y75.313 E19.72503
G1 X180.125 Y74.989 E19.80983
G1 X181.662 Y74.748 E19.86158
G1 X182.348 Y74.649 E19.88463
G1 X183.501 Y74.549 E19.92312
G1 X184.14 Y74.534 E19.94438
G1 X185.38 Y74.534 E19.98563
G1 X186.224 Y74.545 E20.0137
G1 X187.126 Y74.598 E20.04375
G1 X188.019 Y74.73 E20.07378
G1 X188.897 Y74.941 E20.10381
G1 X189.753 Y75.229 E20.13385
G1 X190.58 Y75.591 E20.16387
G1 X191.372 Y76.026 E20.19393
G1 X192.123 Y76.528 E20.22397
G1 X192.826 Y77.095 E20.25401
G1 X193.476 Y77.722 E20.28405
G1 X194.068 Y78.404 E20.31409
G1 X194.598 Y79.135 E20.34412
G1 X194.987 Y79.789 E20.36943
G1 X195.093 Y79.972 E20.37646
G1 X195.545 Y80.89 E20.4105
G1 X195.916 Y81.88 E20.44566
G1 X196.113 Y82.518 E20.46787
G1 X196.232 Y82.936 E20.48232
G1 X196.441 Y83.815 E20.51237
G1 X196.552 Y84.539 E20.53673
G1 X196.629 Y85.239 E20.56016
G1 X196.652 Y85.512 E20.56927
G1 X196.686 Y86.153 E20.59062
G1 X196.712 Y87.385 E20.63161
G1 X196.714 Y87.6 E20.63876
G1 X196.713 Y132.218 E22.12276
G1 X196.706 Y132.737 E22.14002
G1 X196.676 Y133.389 E22.16173
G1 X196.609 Y134.252 E22.19052
G1 X196.511 Y135.081 E22.21828
G1 X196.475 Y135.305 E22.22583
G1 X196.203 Y136.518 E22.26718
G1 X196.046 Y137.049 E22.28559
G1 X195.898 Y137.513 E22.30179
G1 X195.585 Y138.36 E22.33182
G1 X195.25 Y139.079 E22.35821
G1 X194.923 Y139.705 E22.3817
G1 X194.709 Y140.091 E22.39638
G1 X194.236 Y140.86 E22.42641
G1 X193.709 Y141.571 E22.45584
G1 X193.623 Y141.677 E22.46038
G1 X193.023 Y142.353 E22.49044
G1 X192.367 Y142.973 E22.52046
G1 X191.657 Y143.532 E22.55052
G1 X190.902 Y144.026 E22.58053
G1 X190.105 Y144.452 E22.61059
G1 X189.274 Y144.805 E22.64062
G1 X188.415 Y145.084 E22.67066
G1 X187.535 Y145.285 E22.70068
G1 X186.64 Y145.408 E22.73073
G1 X185.88 Y145.449 E22.75604
G1 X184.844 Y145.466 E22.7905
G1 X184.108 Y145.465 E22.81498
G1 X183.398 Y145.454 E22.8386
G1 X182.496 Y145.4 E22.86865
G1 X181.977 Y145.332 E22.88606
G1 X181.111 Y145.195 E22.91523
G1 X179.932 Y144.993 E22.95501
G1 X177.38 Y144.63 E23.04074
G1 X174.85 Y144.343 E23.12543
G1 X172.369 Y144.133 E23.20825
G1 X169.836 Y143.989 E23.29263
G1 X165.888 Y143.906 E23.42397
G1 X113.833 Y143.905 E25.15533
G1 X113.131 Y143.895 E25.17868
G1 X112.229 Y143.842 E25.20873
G1 X111.336 Y143.71 E25.23875
G1 X110.458 Y143.499 E25.26879
G1 X109.602 Y143.211 E25.29883
G1 X108.7 Y142.812 E25.33163
G1 X108.186 Y142.554 E25.35076
G1 X105.915 Y141.451 E25.43473
G1 X103.564 Y140.39 E25.52052
G1 X101.198 Y139.4 E25.60582
G1 X98.876 Y138.509 E25.68855
G1 X96.465 Y137.659 E25.77357
G1 X94.044 Y136.881 E25.85815
G1 X91.607 Y136.173 E25.94256
G1 X89.15 Y135.535 E26.02699
G1 X86.645 Y134.958 E26.11249
G1 X84.206 Y134.471 E26.19521
G1 X81.662 Y134.036 E26.28105
G1 X79.17 Y133.682 E26.36477
G1 X76.635 Y133.395 E26.44962
G1 X74.134 Y133.183 E26.5331
G1 X71.571 Y133.039 E26.61848
G1 X69.036 Y132.968 E26.70283
G1 X66.503 Y132.968 E26.78708
G1 X63.938 Y133.041 E26.87242
G1 X61.443 Y133.184 E26.95554
G1 X58.876 Y133.403 E27.04123
G1 X56.378 Y133.688 E27.12486
G1 X53.874 Y134.045 E27.20898
G1 X51.333 Y134.481 E27.29473
G1 X49.029 Y134.942 E27.37288
G1 X47.758 Y135.212 E27.4161
G1 X46.867 Y135.361 E27.44614
G1 X46.04 Y135.427 E27.47374
G1 X45.697 Y135.437 E27.48515
G1 X45.033 Y135.445 E27.50724
G1 X43.61 Y135.445 E27.55457
G1 X43.454 Y135.45 E27.55976
G1 X42.165 Y135.447 E27.60263
G1 X34.155 Y135.532 E27.86906
G1 X33.465 Y135.53 E27.89201
G1 X32.563 Y135.487 E27.92204
G1 X31.669 Y135.365 E27.95205
G1 X30.788 Y135.164 E27.98211
G1 X29.929 Y134.886 E28.01214
G1 X29.097 Y134.533 E28.0422
G1 X28.301 Y134.108 E28.07221
G1 X27.545 Y133.614 E28.10225
G1 X26.835 Y133.056 E28.13228
G1 X26.178 Y132.436 E28.16233
G1 X25.578 Y131.761 E28.19237
G1 X25.04 Y131.036 E28.22239
G1 X24.569 Y130.265 E28.25244
G1 X24.167 Y129.457 E28.28246
G1 X23.839 Y128.615 E28.31252
G1 X23.586 Y127.748 E28.34255
G1 X23.411 Y126.862 E28.37259
G1 X23.315 Y125.964 E28.40263
G1 X23.296 Y125.47 E28.41907
G1 X23.286 Y124.675 E28.44552
G1 X23.287 Y123.722 E28.47721
G1 X23.298 Y123.015 E28.50073
G1 X23.352 Y122.114 E28.53075
G1 X23.497 Y121.162 E28.56278
G1 X24.05 Y118.414 E28.65601
G1 X24.476 Y115.922 E28.7401
G1 X24.834 Y113.41 E28.82449
G1 X25.122 Y110.878 E28.90925
G1 X25.335 Y108.371 E28.99293
G1 X25.479 Y105.832 E29.07752
G1 X25.559 Y102.721 E29.18102
G1 X25.565 Y102.05 E29.20334
G1 X25.587 Y101.326 E29.22743
G1 X25.654 Y100.35 E29.25997
G1 X25.71 Y99.834 E29.27723
G1 X25.779 Y99.307 E29.29491
G1 X25.849 Y98.875 E29.30947
G1 X25.942 Y98.372 E29.32648
G1 X26.043 Y97.878 E29.34325
G1 X26.163 Y97.374 E29.36048
G1 X26.293 Y96.885 E29.37731
G1 X26.435 Y96.392 E29.39438
G1 X26.571 Y95.969 E29.40915
G1 X26.737 Y95.487 E29.42611
G1 X27.058 Y94.67 E29.45531
G1 X27.371 Y93.978 E29.48057
G1 X27.511 Y93.689 E29.49125
G1 X27.853 Y93.043 E29.51556
G1 X28.206 Y92.457 E29.53831
G1 X28.597 Y91.859 E29.56208
G1 X29.118 Y91.141 E29.59158
G1 X29.44 Y90.736 E29.60879
G1 X29.849 Y90.246 E29.63002
G1 X30.185 Y89.87 E29.64679
G1 X30.675 Y89.368 E29.67012
G1 X31.212 Y88.853 E29.69487
G1 X31.629 Y88.48 E29.71348
G1 X31.813 Y88.324 E29.7215
G1 X32.213 Y88.002 E29.73858
G1 X32.672 Y87.651 E29.7578
G1 X33.312 Y87.199 E29.78386
G1 X33.859 Y86.849 E29.80546
G1 X34.229 Y86.624 E29.81986
G1 X35.011 Y86.194 E29.84954
G1 X35.334 Y86.037 E29.86149
G0 F1620 X35.711 Y85.854
G0 X36.057 Y85.696
G1 F2400 E26.66149
;MESH:TheOfficeLogo_sign_white.stl
G0 F9000 X39.962 Y94.383
G0 X40.429 Y95.362
G0 X40.458 Y95.437
G0 X40.344 Y95.159
;TYPE:WALL-OUTER
