;FLAVOR:Marlin
;TIME:4476
;Filament used: 5.05938m
;Layer height: 0.2
;MINX:30.535
;MINY:82.835
;MINZ:0.2
;MAXX:189.465
;MAXY:137.165
;MAXZ:3.92
;Generated with Cura_SteamEngine 4.10.0
M82 ;absolute extrusion mode
M201 X500.00 Y500.00 Z100.00 E5000.00 ;Setup machine max acceleration
M203 X500.00 Y500.00 Z10.00 E50.00 ;Setup machine max feedrate
M204 P500.00 R1000.00 T500.00 ;Setup Print/Retract/Travel acceleration
M205 X8.00 Y8.00 Z0.40 E5.00 ;Setup Jerk
M220 S100 ;Reset Feedrate
M221 S100 ;Reset Flowrate

;*** Start Dual Nozzle/Bed Preheating ***
M140 S50 ; start preheating the bed
M104 S195 ?T0 ; start preheating hotend
M190 S50 ; heat to Cura Bed setting and WAIT
M109 S195 ?T0 ; heat to Cura Hotend and WAIT
;*** End Preheating ***

;*** Single Print Start Tone
M300 S1000 P500 ; chirp to indicate starting to print
;*** End Single Start Tone

G28 ;Home

G92 E0 ;Reset Extruder
G1 Z2.0 F3000 ;Move Z Axis up

G1 X10.1 Y20 Z0.28 F5000.0 ;Move to start position
G1 X10.1 Y200.0 Z0.28 F1500.0 E15 ;Draw the first line
G1 X10.4 Y200.0 Z0.28 F5000.0 ;Move to side a little
G1 X10.4 Y20 Z0.28 F1500.0 E30 ;Draw the second line
G92 E0 ;Reset Extruder
G1 Z2.0 F3000 ;Move Z Axis up
G92 E0
G92 E0
G1 F2400 E-3.2
;LAYER_COUNT:18
;LAYER:0
M106 S63.8
M204 S500
M205 X6 Y6
;MESH:TheOfficeLogo_base_black.stl
G0 F9000 X33.035 Y83.143 Z0.2
;TYPE:WALL-OUTER
G1 F1440 E0
G1 F1800 X33.794 Y82.913 E0.02638
G1 X34.594 Y82.835 E0.05311
G1 X185.406 Y82.835 E5.06914
G1 X186.206 Y82.913 E5.09587
G1 X186.965 Y83.143 E5.12225
G1 X187.661 Y83.516 E5.14852
G1 X188.278 Y84.021 E5.17503
G1 X188.784 Y84.638 E5.20157
G1 X189.157 Y85.334 E5.22784
G1 X189.386 Y86.093 E5.25421
G1 X189.465 Y86.895 E5.28101
G1 X189.465 Y133.105 E6.81796
G1 X189.386 Y133.907 E6.84477
G1 X189.157 Y134.666 E6.87113
G1 X188.784 Y135.362 E6.8974
G1 X188.278 Y135.979 E6.92394
G1 X187.661 Y136.484 E6.95046
G1 X186.965 Y136.857 E6.97672
G1 X186.206 Y137.087 E7.0031
G1 X185.406 Y137.165 E7.02983
G1 X34.594 Y137.165 E12.04586
G1 X33.794 Y137.087 E12.07259
G1 X33.035 Y136.857 E12.09897
G1 X32.339 Y136.484 E12.12524
G1 X31.722 Y135.979 E12.15176
G1 X31.216 Y135.362 E12.17829
G1 X30.844 Y134.666 E12.20454
G1 X30.614 Y133.907 E12.23092
G1 X30.535 Y133.105 E12.25772
G1 X30.535 Y86.895 E13.79468
G1 X30.614 Y86.093 E13.82148
G1 X30.844 Y85.334 E13.84786
G1 X31.216 Y84.638 E13.87411
G1 X31.722 Y84.021 E13.90065
G1 X32.331 Y83.522 E13.92683
G0 F1620 X32.339 Y83.516
G0 X33.035 Y83.143
G0 F9000 X33.19 Y83.514
;TYPE:WALL-INNER
G1 F1800 X33.874 Y83.307 E13.9506
G1 X34.612 Y83.235 E13.97526
G1 X185.388 Y83.235 E18.99009
G1 X186.126 Y83.307 E19.01476
G1 X186.81 Y83.514 E19.03853
G1 X187.439 Y83.851 E19.06226
G1 X187.994 Y84.306 E19.08613
G1 X188.449 Y84.86 E19.10997
G1 X188.786 Y85.489 E19.13371
G1 X188.992 Y86.173 E19.15747
G1 X189.065 Y86.914 E19.18223
G1 X189.065 Y133.086 E20.71792
G1 X188.992 Y133.827 E20.74268
G1 X188.786 Y134.511 E20.76644
G1 X188.449 Y135.14 E20.79018
G1 X187.994 Y135.694 E20.81402
G1 X187.439 Y136.149 E20.83789
G1 X186.81 Y136.486 E20.86162
G1 X186.126 Y136.693 E20.88539
G1 X185.388 Y136.765 E20.91006
G1 X34.612 Y136.765 E25.92489
G1 X33.874 Y136.693 E25.94955
G1 X33.19 Y136.486 E25.97332
G1 X32.561 Y136.149 E25.99705
G1 X32.006 Y135.694 E26.02092
G1 X31.552 Y135.14 E26.04474
G1 X31.215 Y134.511 E26.06848
G1 X31.008 Y133.827 E26.09225
G1 X30.935 Y133.086 E26.11701
G1 X30.935 Y86.914 E27.6527
G1 X31.008 Y86.173 E27.67746
G1 X31.215 Y85.489 E27.70123
G1 X31.552 Y84.86 E27.72497
G1 X32.006 Y84.306 E27.74879
G1 X32.494 Y83.906 E27.76978
G0 F1620 X32.561 Y83.851
G0 X33.19 Y83.514
G0 F9000 X33.345 Y83.885
G1 F1800 X33.953 Y83.701 E27.79091
G1 X34.631 Y83.635 E27.81356
G1 X185.369 Y83.635 E32.82713
G1 X186.047 Y83.701 E32.84979
G1 X186.655 Y83.885 E32.87091
G1 X187.217 Y84.186 E32.89212
G1 X187.71 Y84.59 E32.91332
G1 X188.114 Y85.082 E32.93449
G1 X188.415 Y85.645 E32.95573
G1 X188.598 Y86.251 E32.97678
G1 X188.665 Y86.933 E32.99957
G1 X188.665 Y133.067 E34.534
G1 X188.598 Y133.749 E34.55679
G1 X188.415 Y134.355 E34.57784
G1 X188.114 Y134.918 E34.59908
G1 X187.71 Y135.41 E34.62025
G1 X187.217 Y135.814 E34.64145
G1 X186.655 Y136.115 E34.66265
G1 X186.047 Y136.299 E34.68378
G1 X185.37 Y136.365 E34.70641
G1 X34.63 Y136.365 E39.72004
G1 X33.953 Y136.299 E39.74266
G1 X33.345 Y136.115 E39.76379
G1 X32.783 Y135.814 E39.78499
G1 X32.29 Y135.41 E39.80619
G1 X31.888 Y134.918 E39.82733
G1 X31.586 Y134.356 E39.84855
G1 X31.402 Y133.747 E39.86971
G1 X31.335 Y133.067 E39.89243
G1 X31.335 Y86.933 E41.42686
G1 X31.402 Y86.253 E41.44958
G1 X31.586 Y85.644 E41.47074
G1 X31.888 Y85.082 E41.49196
G1 X32.29 Y84.59 E41.51309
G1 X32.657 Y84.289 E41.52888
G0 F1620 X32.783 Y84.186
G0 X33.345 Y83.885
G0 F9000 X33.492 Y84.247
;TYPE:SKIN
G1 F1800 X34.029 Y84.085 E41.54754
G1 X34.648 Y84.025 E41.56822
G1 X185.352 Y84.025 E46.58066
G1 X185.971 Y84.085 E46.60134
G1 X186.508 Y84.247 E46.62
G1 X186.996 Y84.509 E46.63842
G1 X187.433 Y84.867 E46.65721
G1 X187.791 Y85.303 E46.67597
G1 X188.053 Y85.792 E46.69442
G1 X188.214 Y86.326 E46.71297
G1 X188.275 Y86.951 E46.73386
G1 X188.275 Y133.049 E48.26709
G1 X188.214 Y133.674 E48.28797
G1 X188.053 Y134.208 E48.30652
G1 X187.791 Y134.697 E48.32497
G1 X187.433 Y135.133 E48.34374
G1 X186.996 Y135.491 E48.36253
G1 X186.508 Y135.753 E48.38095
G1 X185.971 Y135.915 E48.3996
G1 X185.353 Y135.975 E48.42026
G1 X34.647 Y135.975 E53.43276
G1 X34.029 Y135.915 E53.45341
G1 X33.492 Y135.753 E53.47207
G1 X33.004 Y135.491 E53.49049
G1 X32.568 Y135.133 E53.50925
G1 X32.212 Y134.699 E53.52792
G1 X31.948 Y134.206 E53.54652
G1 X31.786 Y133.672 E53.56508
G1 X31.725 Y133.048 E53.58593
G1 X31.725 Y86.952 E55.11909
G1 X31.786 Y86.328 E55.13995
G1 X31.948 Y85.794 E55.15851
G1 X32.212 Y85.301 E55.17711
G1 X32.568 Y84.867 E55.19578
G1 X32.814 Y84.665 E55.20636
G0 F1620 X33.004 Y84.509
G0 X33.492 Y84.247
G1 F2400 E52.00636
G0 F9000 X33.361 Y84.001
G0 X32.414 Y84.708
G0 X32.029 Y85.18
G0 X31.745 Y85.709
G0 X31.57 Y86.287
G0 X31.506 Y86.943
G0 X31.506 Y133.057
G0 X31.57 Y133.713
G0 X31.745 Y134.291
G0 X32.029 Y134.82
G0 X32.414 Y135.292
G0 X32.788 Y135.598
G0 X33.716 Y136.111
G0 X33.849 Y135.672
G1 F1440 E55.20636
G1 F1800 X32.026 Y133.85 E55.29209
G0 F9000 X31.917 Y133.175
G1 F1800 X34.523 Y135.781 E55.41467
G0 F9000 X35.102 Y135.794
G1 F1800 X31.904 Y132.596 E55.56509
G0 F9000 X31.904 Y132.03
G1 F1800 X35.667 Y135.794 E55.74212
G0 F9000 X36.233 Y135.794
G1 F1800 X31.904 Y131.465 E55.94574
G0 F9000 X31.904 Y130.899
G1 F1800 X36.799 Y135.794 E56.17598
G0 F9000 X37.364 Y135.794
G1 F1800 X31.904 Y130.333 E56.43283
G0 F9000 X31.904 Y129.768
G1 F1800 X37.93 Y135.794 E56.71627
G0 F9000 X38.496 Y135.794
G1 F1800 X31.904 Y129.202 E57.02634
G0 F9000 X31.904 Y128.636
G1 F1800 X39.061 Y135.794 E57.36301
G0 F9000 X39.627 Y135.794
G1 F1800 X31.904 Y128.071 E57.72627
G0 F9000 X31.904 Y127.505
G1 F1800 X40.193 Y135.794 E58.11616
G0 F9000 X40.759 Y135.794
G1 F1800 X31.904 Y126.939 E58.53268
G0 F9000 X31.904 Y126.374
G1 F1800 X41.324 Y135.794 E58.97576
G0 F9000 X41.89 Y135.794
G1 F1800 X31.904 Y125.808 E59.44547
G0 F9000 X31.904 Y125.242
G1 F1800 X42.456 Y135.794 E59.94181
G0 F9000 X43.021 Y135.794
G1 F1800 X31.904 Y124.677 E60.46472
G0 F9000 X31.904 Y124.111
G1 F1800 X43.587 Y135.794 E61.01425
G0 F9000 X44.153 Y135.794
G1 F1800 X31.904 Y123.545 E61.59041
G0 F9000 X31.904 Y122.98
G1 F1800 X44.718 Y135.794 E62.19314
G0 F9000 X45.284 Y135.794
G1 F1800 X31.904 Y122.414 E62.82249
G0 F9000 X31.904 Y121.848
G1 F1800 X45.85 Y135.794 E63.47847
G0 F9000 X46.415 Y135.794
G1 F1800 X31.904 Y121.282 E64.16104
G0 F9000 X31.904 Y120.717
G1 F1800 X46.981 Y135.794 E64.87022
G0 F9000 X47.547 Y135.794
G1 F1800 X31.904 Y120.151 E65.60602
G0 F9000 X31.904 Y119.585
G1 F1800 X48.112 Y135.794 E66.36842
G0 F9000 X48.678 Y135.794
G1 F1800 X31.904 Y119.02 E67.15741
G0 F9000 X31.904 Y118.454
G1 F1800 X49.244 Y135.794 E67.97304
G0 F9000 X49.81 Y135.794
G1 F1800 X31.904 Y117.888 E68.81528
G0 F9000 X31.904 Y117.323
G1 F1800 X50.375 Y135.794 E69.6841
G0 F9000 X50.941 Y135.794
G1 F1800 X31.904 Y116.757 E70.57954
G0 F9000 X31.904 Y116.191
G1 F1800 X51.507 Y135.794 E71.50161
G0 F9000 X52.072 Y135.794
G1 F1800 X31.904 Y115.626 E72.45025
G0 F9000 X31.904 Y115.06
G1 F1800 X52.638 Y135.794 E73.42551
G0 F9000 X53.204 Y135.794
G1 F1800 X31.904 Y114.494 E74.4274
G0 F9000 X31.904 Y113.929
G1 F1800 X53.769 Y135.794 E75.45586
G0 F9000 X54.335 Y135.794
G1 F1800 X31.904 Y113.363 E76.51094
G0 F9000 X31.904 Y112.797
G1 F1800 X54.901 Y135.794 E77.59265
G0 F9000 X55.466 Y135.794
G1 F1800 X31.904 Y112.231 E78.70096
G0 F9000 X31.904 Y111.666
G1 F1800 X56.032 Y135.794 E79.83587
G0 F9000 X56.598 Y135.794
G1 F1800 X31.904 Y111.1 E80.9974
G0 F9000 X31.904 Y110.534
G1 F1800 X57.163 Y135.794 E82.18553
G0 F9000 X57.729 Y135.794
G1 F1800 X31.904 Y109.969 E83.40026
G0 F9000 X31.904 Y109.403
G1 F1800 X58.295 Y135.794 E84.64161
G0 F9000 X58.86 Y135.794
G1 F1800 X31.904 Y108.837 E85.90956
G0 F9000 X31.904 Y108.272
G1 F1800 X59.426 Y135.794 E87.20411
G0 F9000 X59.992 Y135.794
G1 F1800 X31.904 Y107.706 E88.52528
G0 F9000 X31.904 Y107.14
G1 F1800 X60.558 Y135.794 E89.87308
G0 F9000 X61.123 Y135.794
G1 F1800 X31.904 Y106.575 E91.24745
G0 F9000 X31.904 Y106.009
G1 F1800 X61.689 Y135.794 E92.64845
G0 F9000 X62.255 Y135.794
G1 F1800 X31.904 Y105.443 E94.07606
G0 F9000 X31.904 Y104.878
G1 F1800 X62.82 Y135.794 E95.53026
G0 F9000 X63.386 Y135.794
G1 F1800 X31.904 Y104.312 E97.01107
G0 F9000 X31.904 Y103.746
G1 F1800 X63.952 Y135.794 E98.51851
G0 F9000 X64.517 Y135.794
G1 F1800 X31.904 Y103.181 E100.05253
G0 F9000 X31.904 Y102.615
G1 F1800 X65.083 Y135.794 E101.61317
G0 F9000 X65.649 Y135.794
G1 F1800 X31.904 Y102.049 E103.20043
G0 F9000 X31.904 Y101.483
G1 F1800 X66.214 Y135.794 E104.81429
G0 F9000 X66.78 Y135.794
G1 F1800 X31.904 Y100.918 E106.45475
G0 F9000 X31.904 Y100.352
G1 F1800 X67.346 Y135.794 E108.12183
G0 F9000 X67.911 Y135.794
G1 F1800 X31.904 Y99.786 E109.81552
G0 F9000 X31.904 Y99.221
G1 F1800 X68.477 Y135.794 E111.5358
G0 F9000 X69.043 Y135.794
G1 F1800 X31.904 Y98.655 E113.2827
G0 F9000 X31.904 Y98.089
G1 F1800 X69.609 Y135.794 E115.05623
G0 F9000 X70.174 Y135.794
G1 F1800 X31.904 Y97.524 E116.85633
G0 F9000 X31.904 Y96.958
G1 F1800 X70.74 Y135.794 E118.68306
G0 F9000 X71.306 Y135.794
G1 F1800 X31.904 Y96.392 E120.53641
G0 F9000 X31.904 Y95.827
G1 F1800 X71.871 Y135.794 E122.41633
G0 F9000 X72.437 Y135.794
G1 F1800 X31.904 Y95.261 E124.32288
G0 F9000 X31.904 Y94.695
G1 F1800 X73.003 Y135.794 E126.25605
G0 F9000 X73.568 Y135.794
G1 F1800 X31.904 Y94.13 E128.2158
G0 F9000 X31.904 Y93.564
G1 F1800 X74.134 Y135.794 E130.20217
G0 F9000 X74.7 Y135.794
G1 F1800 X31.904 Y92.998 E132.21516
G0 F9000 X31.904 Y92.432
G1 F1800 X75.265 Y135.794 E134.25475
G0 F9000 X75.831 Y135.794
G1 F1800 X31.904 Y91.867 E136.32095
G0 F9000 X31.904 Y91.301
G1 F1800 X76.397 Y135.794 E138.41376
G0 F9000 X76.962 Y135.794
G1 F1800 X31.904 Y90.735 E140.53317
G0 F9000 X31.904 Y90.17
G1 F1800 X77.528 Y135.794 E142.67919
G0 F9000 X78.094 Y135.794
G1 F1800 X31.904 Y89.604 E144.85182
G0 F9000 X31.904 Y89.038
G1 F1800 X78.659 Y135.794 E147.05106
G0 F9000 X79.225 Y135.794
G1 F1800 X31.904 Y88.473 E149.27689
G0 F9000 X31.904 Y87.907
G1 F1800 X79.791 Y135.794 E151.52935
G0 F9000 X80.357 Y135.794
G1 F1800 X31.904 Y87.341 E153.80843
G0 F9000 X31.92 Y86.792
G1 F1800 X80.922 Y135.794 E156.11334
G0 F9000 X81.488 Y135.794
G1 F1800 X31.984 Y86.29 E158.44185
G0 F9000 X32.116 Y85.856
G1 F1800 X82.054 Y135.794 E160.79078
G0 F9000 X82.619 Y135.794
G1 F1800 X32.314 Y85.488 E163.157
G0 F9000 X32.555 Y85.164
G1 F1800 X83.185 Y135.794 E165.53848
G0 F9000 X83.751 Y135.794
G1 F1800 X32.836 Y84.879 E167.93336
G0 F9000 X33.154 Y84.632
G1 F1800 X84.316 Y135.794 E170.33987
G0 F9000 X84.882 Y135.794
G1 F1800 X33.522 Y84.434 E172.75568
G0 F9000 X33.949 Y84.295
G1 F1800 X85.448 Y135.794 E175.17804
G0 F9000 X86.013 Y135.794
G1 F1800 X34.444 Y84.224 E177.60371
G0 F9000 X34.989 Y84.204
G1 F1800 X86.579 Y135.794 E180.03035
G0 F9000 X87.145 Y135.794
G1 F1800 X35.555 Y84.204 E182.45698
G0 F9000 X36.121 Y84.204
G1 F1800 X87.71 Y135.794 E184.88359
G0 F9000 X88.276 Y135.794
G1 F1800 X36.686 Y84.204 E187.31023
G0 F9000 X37.252 Y84.204
G1 F1800 X88.842 Y135.794 E189.73686
G0 F9000 X89.407 Y135.794
G1 F1800 X37.818 Y84.204 E192.16348
G0 F9000 X38.383 Y84.204
G1 F1800 X89.973 Y135.794 E194.59011
G0 F9000 X90.539 Y135.794
G1 F1800 X38.949 Y84.204 E197.01675
G0 F9000 X39.515 Y84.204
G1 F1800 X91.105 Y135.794 E199.44338
G0 F9000 X91.67 Y135.794
G1 F1800 X40.08 Y84.204 E201.87002
G0 F9000 X40.646 Y84.204
G1 F1800 X92.236 Y135.794 E204.29665
G0 F9000 X92.802 Y135.794
G1 F1800 X41.212 Y84.204 E206.72329
G0 F9000 X41.777 Y84.204
G1 F1800 X93.367 Y135.794 E209.14992
G0 F9000 X93.933 Y135.794
G1 F1800 X42.343 Y84.204 E211.57656
G0 F9000 X42.909 Y84.204
G1 F1800 X94.499 Y135.794 E214.0032
G0 F9000 X95.064 Y135.794
G1 F1800 X43.475 Y84.204 E216.42981
G0 F9000 X44.04 Y84.204
G1 F1800 X95.63 Y135.794 E218.85644
G0 F9000 X96.196 Y135.794
G1 F1800 X44.606 Y84.204 E221.28308
G0 F9000 X45.172 Y84.204
G1 F1800 X96.761 Y135.794 E223.70969
G0 F9000 X97.327 Y135.794
G1 F1800 X45.737 Y84.204 E226.13633
G0 F9000 X46.303 Y84.204
G1 F1800 X97.893 Y135.794 E228.56296
G0 F9000 X98.458 Y135.794
G1 F1800 X46.869 Y84.204 E230.98957
G0 F9000 X47.434 Y84.204
G1 F1800 X99.024 Y135.794 E233.41621
G0 F9000 X99.59 Y135.794
G1 F1800 X48 Y84.204 E235.84284
G0 F9000 X48.566 Y84.204
G1 F1800 X100.156 Y135.794 E238.26948
G0 F9000 X100.721 Y135.794
G1 F1800 X49.131 Y84.204 E240.69611
G0 F9000 X49.697 Y84.204
G1 F1800 X101.287 Y135.794 E243.12275
G0 F9000 X101.853 Y135.794
G1 F1800 X50.263 Y84.204 E245.54939
G0 F9000 X50.828 Y84.204
G1 F1800 X102.418 Y135.794 E247.97602
G0 F9000 X102.984 Y135.794
G1 F1800 X51.394 Y84.204 E250.40266
G0 F9000 X51.96 Y84.204
G1 F1800 X103.55 Y135.794 E252.82929
G0 F9000 X104.115 Y135.794
G1 F1800 X52.526 Y84.204 E255.2559
G0 F9000 X53.091 Y84.204
G1 F1800 X104.681 Y135.794 E257.68254
G0 F9000 X105.247 Y135.794
G1 F1800 X53.657 Y84.204 E260.10917
G0 F9000 X54.223 Y84.204
G1 F1800 X105.812 Y135.794 E262.53579
G0 F9000 X106.378 Y135.794
G1 F1800 X54.788 Y84.204 E264.96242
G0 F9000 X55.354 Y84.204
G1 F1800 X106.944 Y135.794 E267.38906
G0 F9000 X107.509 Y135.794
G1 F1800 X55.92 Y84.204 E269.81567
G0 F9000 X56.485 Y84.204
G1 F1800 X108.075 Y135.794 E272.2423
G0 F9000 X108.641 Y135.794
G1 F1800 X57.051 Y84.204 E274.66894
G0 F9000 X57.617 Y84.204
G1 F1800 X109.206 Y135.794 E277.09555
G0 F9000 X109.772 Y135.794
G1 F1800 X58.182 Y84.204 E279.52219
G0 F9000 X58.748 Y84.204
G1 F1800 X110.338 Y135.794 E281.94882
G0 F9000 X110.904 Y135.794
G1 F1800 X59.314 Y84.204 E284.37546
G0 F9000 X59.879 Y84.204
G1 F1800 X111.469 Y135.794 E286.80209
G0 F9000 X112.035 Y135.794
G1 F1800 X60.445 Y84.204 E289.22873
G0 F9000 X61.011 Y84.204
G1 F1800 X112.601 Y135.794 E291.65536
G0 F9000 X113.166 Y135.794
G1 F1800 X61.576 Y84.204 E294.082
G0 F9000 X62.142 Y84.204
G1 F1800 X113.732 Y135.794 E296.50864
G0 F9000 X114.298 Y135.794
G1 F1800 X62.708 Y84.204 E298.93527
G0 F9000 X63.274 Y84.204
G1 F1800 X114.863 Y135.794 E301.36188
G0 F9000 X115.429 Y135.794
G1 F1800 X63.839 Y84.204 E303.78852
G0 F9000 X64.405 Y84.204
G1 F1800 X115.995 Y135.794 E306.21515
G0 F9000 X116.56 Y135.794
G1 F1800 X64.971 Y84.204 E308.64177
G0 F9000 X65.536 Y84.204
G1 F1800 X117.126 Y135.794 E311.0684
G0 F9000 X117.692 Y135.794
G1 F1800 X66.102 Y84.204 E313.49504
G0 F9000 X66.668 Y84.204
G1 F1800 X118.257 Y135.794 E315.92165
G0 F9000 X118.823 Y135.794
G1 F1800 X67.233 Y84.204 E318.34828
G0 F9000 X67.799 Y84.204
G1 F1800 X119.389 Y135.794 E320.77492
G0 F9000 X119.955 Y135.794
G1 F1800 X68.365 Y84.204 E323.20155
G0 F9000 X68.93 Y84.204
G1 F1800 X120.52 Y135.794 E325.62819
G0 F9000 X121.086 Y135.794
G1 F1800 X69.496 Y84.204 E328.05483
G0 F9000 X70.062 Y84.204
G1 F1800 X121.652 Y135.794 E330.48146
G0 F9000 X122.217 Y135.794
G1 F1800 X70.627 Y84.204 E332.9081
G0 F9000 X71.193 Y84.204
G1 F1800 X122.783 Y135.794 E335.33473
G0 F9000 X123.349 Y135.794
G1 F1800 X71.759 Y84.204 E337.76137
G0 F9000 X72.325 Y84.204
