;FLAVOR:Marlin
;TIME:4759
;Filament used: 3.70079m
;Layer height: 0.16
;MINX:54.415
;MINY:84.76
;MINZ:0.24
;MAXX:165.583
;MAXY:135.249
;MAXZ:11.24
;Generated with Cura_SteamEngine 4.5.0
M140 S50
M105
M190 S50
M104 S215
M105
M109 S215
M82 ;absolute extrusion mode
M201 X500.00 Y500.00 Z100.00 E5000.00 ;Setup machine max acceleration
M203 X500.00 Y500.00 Z10.00 E50.00 ;Setup machine max feedrate
M204 P500.00 R1000.00 T500.00 ;Setup Print/Retract/Travel acceleration
M205 X8.00 Y8.00 Z0.40 E5.00 ;Setup Jerk
M220 S100 ;Reset Feedrate
M221 S100 ;Reset Flowrate

G28 ;Home

G92 E0 ;Reset Extruder
G1 Z2.0 F3000 ;Move Z Axis up
G1 X10.1 Y20 Z0.28 F5000.0 ;Move to start position
G1 X10.1 Y200.0 Z0.28 F1500.0 E15 ;Draw the first line
G1 X10.4 Y200.0 Z0.28 F5000.0 ;Move to side a little
G1 X10.4 Y20 Z0.28 F1500.0 E30 ;Draw the second line
G92 E0 ;Reset Extruder
G1 Z2.0 F3000 ;Move Z Axis up

G92 E0
G92 E0
G1 F1800 E-3
;LAYER_COUNT:57
;LAYER:0
M106 S63.8
M204 S500
M205 X6 Y6
G0 F9000 X59.438 Y91.764 Z0.24
;TYPE:SKIRT
G1 F1800 E0
G1 F3000 X60.215 Y91.271 E0.03673
G1 X61.033 Y90.847 E0.0735
G1 X61.884 Y90.496 E0.11024
G1 X62.483 Y90.299 E0.13541
G1 X63.673 Y89.998 E0.1844
G1 X64.239 Y89.888 E0.20741
G1 X65.211 Y89.716 E0.24681
G1 X67.669 Y89.217 E0.34692
G1 X70.139 Y88.642 E0.44813
G1 X72.562 Y88.005 E0.54813
G1 X75.041 Y87.277 E0.65125
G1 X77.407 Y86.509 E0.75053
G1 X78.385 Y86.162 E0.79195
G1 X79.761 Y85.685 E0.85007
G1 X80.832 Y85.376 E0.89456
G1 X81.349 Y85.256 E0.91575
G1 X82.188 Y85.083 E0.94994
G1 X83.098 Y84.941 E0.9867
G1 X83.605 Y84.896 E1.00701
G1 X84.418 Y84.85 E1.03951
G1 X85.028 Y84.83 E1.06387
G1 X85.948 Y84.84 E1.10059
G1 X86.536 Y84.888 E1.12414
G1 X87.135 Y84.954 E1.14819
G1 X87.955 Y85.065 E1.18122
G1 X88.856 Y85.233 E1.2178
G1 X90.529 Y85.62 E1.28634
G1 X93.074 Y86.16 E1.39017
G1 X95.534 Y86.607 E1.48997
G1 X98.04 Y86.99 E1.59115
G1 X100.539 Y87.301 E1.69166
G1 X103.087 Y87.545 E1.79382
G1 X105.593 Y87.714 E1.89406
G1 X108.127 Y87.812 E1.99528
G1 X110.645 Y87.838 E2.09578
G1 X113.155 Y87.794 E2.19598
G1 X115.699 Y87.677 E2.29762
G1 X118.215 Y87.49 E2.39832
G1 X120.769 Y87.227 E2.50079
G1 X123.238 Y86.902 E2.60018
G1 X125.749 Y86.5 E2.70168
G1 X128.21 Y86.033 E2.80166
G1 X130.872 Y85.448 E2.91044
G1 X131.924 Y85.201 E2.95357
G1 X132.759 Y85.025 E2.98763
G1 X133.668 Y84.878 E3.02438
G1 X134.274 Y84.825 E3.04866
G1 X134.955 Y84.785 E3.07588
G1 X135.708 Y84.76 E3.10595
G1 X137.042 Y84.808 E3.15923
G1 X137.858 Y84.897 E3.19199
G1 X138.494 Y84.984 E3.21761
G1 X139.399 Y85.148 E3.25432
G1 X139.978 Y85.296 E3.27818
G1 X140.585 Y85.47 E3.30338
G1 X141.327 Y85.701 E3.33439
G1 X142.191 Y86.018 E3.37113
G1 X142.741 Y86.265 E3.39519
G1 X143.35 Y86.56 E3.4222
G1 X145.717 Y87.665 E3.52646
G1 X148.067 Y88.681 E3.62864
G1 X150.413 Y89.618 E3.72947
G1 X152.737 Y90.471 E3.82827
G1 X155.385 Y91.34 E3.93951
G1 X156.145 Y91.595 E3.9715
G1 X157.041 Y91.943 E4.00987
G1 X158.317 Y92.55 E4.06626
G1 X159.104 Y93.028 E4.10301
G1 X159.765 Y93.508 E4.13562
G1 X160.191 Y93.843 E4.15725
G1 X160.89 Y94.443 E4.19401
G1 X161.533 Y95.101 E4.23073
G1 X162.273 Y95.99 E4.2769
G1 X162.824 Y96.728 E4.31366
G1 X163.165 Y97.263 E4.33898
G1 X163.568 Y97.939 E4.37039
G1 X164.004 Y98.75 E4.40714
G1 X164.299 Y99.414 E4.43614
G1 X164.6 Y100.163 E4.46836
G1 X164.905 Y101.032 E4.50512
G1 X165.108 Y101.802 E4.5369
G1 X165.278 Y102.562 E4.56798
G1 X165.44 Y103.468 E4.60472
G1 X165.51 Y104.158 E4.6324
G1 X165.561 Y104.909 E4.66244
G1 X165.583 Y105.829 E4.69917
G1 X165.554 Y106.442 E4.72366
G1 X165.5 Y107.142 E4.75168
G1 X165.389 Y108.056 E4.78843
G1 X165.106 Y109.297 E4.83924
G1 X164.911 Y109.965 E4.86701
G1 X164.534 Y111.04 E4.91248
G1 X164.254 Y111.719 E4.94179
G1 X163.324 Y114.069 E5.04266
G1 X162.627 Y116.029 E5.12569
G1 X162.089 Y117.461 E5.18674
G1 X161.726 Y118.307 E5.22349
G1 X161.469 Y118.809 E5.246
G1 X160.796 Y119.955 E5.29904
G1 X160.297 Y120.643 E5.33296
G1 X159.366 Y121.739 E5.39036
G1 X158.946 Y122.175 E5.41452
G1 X157.205 Y124.026 E5.51594
G1 X155.535 Y125.907 E5.61633
G1 X153.878 Y127.882 E5.71923
G1 X152.424 Y129.708 E5.81239
G1 X151.819 Y130.403 E5.84917
G1 X151.157 Y131.043 E5.88592
G1 X150.442 Y131.623 E5.92266
G1 X149.679 Y132.138 E5.9594
G1 X148.875 Y132.585 E5.99612
G1 X148.034 Y132.961 E6.03289
G1 X147.164 Y133.263 E6.06964
G1 X146.271 Y133.488 E6.1064
G1 X145.663 Y133.595 E6.13104
G1 X145.003 Y133.685 E6.15762
G1 X138.456 Y134.423 E6.42058
G1 X137.384 Y134.53 E6.46358
G1 X131.1 Y134.962 E6.71498
G1 X128.727 Y135.075 E6.8098
G1 X122.601 Y135.235 E7.05439
G1 X121.483 Y135.249 E7.09901
G1 X114.802 Y135.134 E7.36571
G1 X114.091 Y135.113 E7.3941
G1 X112.827 Y135.038 E7.44463
G1 X111.27 Y134.916 E7.50697
G1 X110.393 Y134.835 E7.54212
G1 X109.793 Y134.762 E7.56624
G1 X109.04 Y134.648 E7.59664
G1 X107.59 Y134.405 E7.65532
G1 X106.763 Y134.256 E7.68886
G1 X106.164 Y134.129 E7.7133
G1 X105.506 Y133.97 E7.74031
G1 X103.943 Y133.573 E7.80468
G1 X103.127 Y133.353 E7.83841
G1 X102.25 Y133.074 E7.87514
G1 X101.528 Y132.778 E7.90628
G1 X100.963 Y132.522 E7.93104
G1 X99.691 Y131.92 E7.98721
G1 X97.281 Y130.817 E8.09299
G1 X94.953 Y129.83 E8.19391
G1 X92.57 Y128.896 E8.29607
G1 X90.242 Y128.064 E8.39474
G1 X87.846 Y127.281 E8.49535
G1 X85.384 Y126.552 E8.59783
G1 X82.988 Y125.916 E8.69677
G1 X79.167 Y125.044 E8.85319
G1 X78.193 Y124.843 E8.89289
G1 X77.602 Y124.703 E8.91713
G1 X76.764 Y124.462 E8.95193
G1 X75.398 Y124.014 E9.00931
G1 X72.891 Y123.225 E9.11421
G1 X71.349 Y122.777 E9.1783
G1 X70.353 Y122.496 E9.2196
G1 X68.878 Y122.067 E9.28091
G1 X68.082 Y121.824 E9.31413
G1 X67.294 Y121.547 E9.34746
G1 X66.677 Y121.303 E9.37395
G1 X65.375 Y120.764 E9.43019
G1 X64.646 Y120.45 E9.46187
G1 X63.817 Y120.048 E9.49864
G1 X63.252 Y119.721 E9.5247
G1 X62.507 Y119.231 E9.56029
G1 X61.48 Y118.446 E9.61188
G1 X60.807 Y117.817 E9.64864
G1 X60.389 Y117.365 E9.67322
G1 X59.534 Y116.311 E9.72738
G1 X59.223 Y115.877 E9.74869
G1 X58.922 Y115.442 E9.76981
G1 X57.966 Y114.012 E9.83846
G1 X57.445 Y113.208 E9.8767
G1 X57.095 Y112.693 E9.90155
G1 X56.738 Y112.15 E9.92749
G1 X56.426 Y111.646 E9.95115
G1 X56.147 Y111.159 E9.97355
G1 X55.603 Y110.083 E10.02167
G1 X55.373 Y109.516 E10.04609
G1 X55.183 Y108.994 E10.06826
G1 X54.823 Y107.819 E10.11731
G1 X54.699 Y107.256 E10.14032
G1 X54.584 Y106.623 E10.166
G1 X54.438 Y105.435 E10.21377
G1 X54.415 Y104.514 E10.25054
G1 X54.461 Y103.694 E10.28332
G1 X54.591 Y102.339 E10.33765
G1 X54.727 Y100.774 E10.40035
G1 X54.804 Y99.802 E10.43926
G1 X54.917 Y98.888 E10.47602
G1 X55.108 Y97.988 E10.51274
G1 X55.377 Y97.107 E10.54951
G1 X55.721 Y96.253 E10.58625
G1 X56.138 Y95.432 E10.62301
G1 X56.712 Y94.524 E10.66588
G1 X57.401 Y93.619 E10.71128
G1 X58.025 Y92.942 E10.74802
G1 X58.706 Y92.322 E10.78478
G1 X59.438 Y91.764 E10.82152
G0 F9000 X59.723 Y92.053
G1 F3000 X60.489 Y91.575 E10.85756
G1 X61.295 Y91.167 E10.89361
G1 X62.134 Y90.832 E10.92967
G1 X62.796 Y90.624 E10.95736
G1 X63.749 Y90.39 E10.99653
G1 X64.315 Y90.28 E11.01954
G1 X65.288 Y90.109 E11.05897
G1 X67.768 Y89.605 E11.15998
G1 X70.226 Y89.033 E11.2607
G1 X72.671 Y88.39 E11.36161
G1 X75.129 Y87.668 E11.46386
G1 X77.559 Y86.88 E11.56581
G1 X78.519 Y86.539 E11.60648
G1 X79.892 Y86.063 E11.66447
G1 X80.923 Y85.766 E11.7073
G1 X81.44 Y85.646 E11.72848
G1 X82.267 Y85.475 E11.76219
G1 X83.159 Y85.337 E11.79821
G1 X84.117 Y85.265 E11.83655
G1 X85.041 Y85.229 E11.87346
G1 X85.944 Y85.24 E11.9095
G1 X86.492 Y85.285 E11.93145
G1 X87.091 Y85.351 E11.9555
G1 X87.899 Y85.461 E11.98805
G1 X88.766 Y85.622 E12.02324
G1 X90.466 Y86.015 E12.09288
G1 X92.991 Y86.551 E12.19591
G1 X95.468 Y87.001 E12.29639
G1 X98.002 Y87.388 E12.3987
G1 X100.523 Y87.702 E12.5001
G1 X103.023 Y87.942 E12.60033
G1 X105.585 Y88.114 E12.70282
G1 X108.108 Y88.212 E12.80359
G1 X110.648 Y88.238 E12.90498
G1 X113.18 Y88.194 E13.00605
G1 X115.713 Y88.077 E13.10725
G1 X118.25 Y87.888 E13.20879
G1 X120.79 Y87.627 E13.3107
G1 X123.322 Y87.294 E13.41263
G1 X125.816 Y86.894 E13.51344
G1 X128.298 Y86.423 E13.61427
G1 X130.919 Y85.848 E13.72137
G1 X132.016 Y85.59 E13.76635
G1 X132.84 Y85.416 E13.79996
G1 X133.731 Y85.274 E13.83597
G1 X134.298 Y85.225 E13.85869
G1 X134.979 Y85.185 E13.88591
G1 X135.718 Y85.16 E13.91543
G1 X137.003 Y85.206 E13.96675
G1 X137.803 Y85.293 E13.99886
G1 X138.439 Y85.38 E14.02448
G1 X139.328 Y85.542 E14.06055
G1 X139.868 Y85.681 E14.08281
G1 X140.475 Y85.855 E14.10801
G1 X141.206 Y86.083 E14.13857
G1 X142.054 Y86.394 E14.17462
G1 X142.567 Y86.625 E14.19708
G1 X143.214 Y86.938 E14.22576
G1 X145.568 Y88.037 E14.32945
G1 X147.896 Y89.043 E14.43067
G1 X150.244 Y89.982 E14.5316
G1 X152.618 Y90.853 E14.63253
G1 X155.26 Y91.72 E14.74351
G1 X156.017 Y91.974 E14.77538
G1 X156.88 Y92.309 E14.81232
G1 X158.14 Y92.909 E14.86802
G1 X158.911 Y93.38 E14.90408
G1 X159.518 Y93.822 E14.93405
G1 X159.944 Y94.157 E14.95568
G1 X160.629 Y94.746 E14.99174
G1 X161.542 Y95.727 E15.04523
G1 X161.963 Y96.243 E15.07181
G1 X162.503 Y96.967 E15.10786
G1 X162.821 Y97.468 E15.13154
G1 X163.224 Y98.144 E15.16295
G1 X163.652 Y98.939 E15.19899
G1 X163.927 Y99.564 E15.22624
G1 X164.228 Y100.313 E15.25846
G1 X164.528 Y101.165 E15.29451
G1 X164.718 Y101.889 E15.32438
G1 X164.888 Y102.649 E15.35547
G1 X165.046 Y103.539 E15.39154
G1 X165.111 Y104.185 E15.41746
G1 X165.162 Y104.936 E15.4475
G1 X165.183 Y105.839 E15.48355
G1 X165.155 Y106.412 E15.50645
G1 X165.101 Y107.112 E15.53447
G1 X164.992 Y108.008 E15.5705
G1 X164.722 Y109.185 E15.61869
G1 X164.527 Y109.853 E15.64647
G1 X164.164 Y110.888 E15.69024
G1 X163.883 Y111.568 E15.71961
G1 X162.949 Y113.932 E15.82106
G1 X162.25 Y115.895 E15.90422
G1 X161.714 Y117.32 E15.96499
G1 X161.358 Y118.15 E16.00104
G1 X161.118 Y118.617 E16.02199
G1 X160.454 Y119.747 E16.0743
G1 X159.983 Y120.395 E16.10628
G1 X159.078 Y121.461 E16.16209
G1 X158.707 Y121.846 E16.18343
G1 X156.898 Y123.769 E16.2888
G1 X155.228 Y125.65 E16.38919
G1 X153.578 Y127.617 E16.49167
G1 X152.111 Y129.459 E16.58565
G1 X151.517 Y130.14 E16.62172
G1 X150.866 Y130.766 E16.65776
G1 X150.162 Y131.332 E16.69382
G1 X149.411 Y131.833 E16.72985
G1 X148.618 Y132.266 E16.76591
G1 X147.791 Y132.627 E16.80192
G1 X146.934 Y132.913 E16.83798
G1 X146.056 Y133.123 E16.87402
G1 X145.29 Y133.245 E16.90497
G1 X138.412 Y134.026 E17.18125
G1 X137.345 Y134.132 E17.22405
G1 X131.073 Y134.563 E17.47497
G1 X128.708 Y134.676 E17.56947
G1 X122.591 Y134.835 E17.81369
G1 X121.478 Y134.849 E17.85812
G1 X114.809 Y134.734 E18.12433
G1 X114.103 Y134.713 E18.15252
G1 X112.853 Y134.639 E18.2025
G1 X111.301 Y134.517 E18.26464
G1 X110.43 Y134.437 E18.29955
G1 X109.853 Y134.366 E18.32275
G1 X109.1 Y134.252 E18.35315
G1 X107.657 Y134.011 E18.41154
G1 X106.834 Y133.862 E18.44492
G1 X106.258 Y133.741 E18.46841
G1 X105.6 Y133.582 E18.49543
G1 X104.041 Y133.185 E18.55964
G1 X103.232 Y132.967 E18.59308
G1 X102.372 Y132.692 E18.62911
G1 X101.693 Y132.414 E18.6584
G1 X101.128 Y132.158 E18.68315
G1 X99.821 Y131.539 E18.74087
G1 X97.455 Y130.456 E18.84473
G1 X95.12 Y129.466 E18.94595
G1 X92.724 Y128.527 E19.04867
G1 X90.341 Y127.675 E19.14967
G1 X87.957 Y126.896 E19.24977
G1 X85.518 Y126.175 E19.35128
G1 X83.069 Y125.524 E19.45242
G1 X79.25 Y124.653 E19.60876
G1 X78.273 Y124.451 E19.64858
G1 X77.706 Y124.317 E19.67183
G1 X76.889 Y124.082 E19.70576
G1 X75.57 Y123.649 E19.76117
G1 X72.942 Y122.822 E19.87113
G1 X71.515 Y122.408 E19.93044
G1 X70.461 Y122.111 E19.97414
G1 X68.99 Y121.683 E20.03529
G1 X68.2 Y121.441 E20.06826
G1 X67.441 Y121.175 E20.10036
G1 X66.824 Y120.931 E20.12685
G1 X65.529 Y120.395 E20.18278
G1 X64.804 Y120.083 E20.21429
G1 X63.992 Y119.688 E20.25033
G1 X63.463 Y119.381 E20.27474
G1 X62.74 Y118.906 E20.30926
G1 X61.727 Y118.131 E20.36017
G1 X61.069 Y117.512 E20.39623
G1 X60.691 Y117.102 E20.41848
G1 X59.859 Y116.078 E20.47114
G1 X59.548 Y115.644 E20.49245
G1 X59.252 Y115.216 E20.51322
G1 X58.299 Y113.79 E20.58168
G1 X57.779 Y112.987 E20.61986
G1 X57.429 Y112.473 E20.64468
G1 X57.072 Y111.93 E20.67062
G1 X56.772 Y111.446 E20.69334
G1 X56.498 Y110.967 E20.71537
G1 X55.963 Y109.906 E20.7628
G1 X55.748 Y109.376 E20.78562
G1 X55.561 Y108.865 E20.80734
G1 X55.207 Y107.706 E20.85571
G1 X55.092 Y107.181 E20.87716
G1 X54.979 Y106.561 E20.90231
G1 X54.836 Y105.39 E20.9494
G1 X54.815 Y104.487 E20.98545
G1 X54.86 Y103.732 E21.01563
G1 X54.981 Y102.469 E21.06627
G1 X55.132 Y100.729 E21.13598
G1 X55.203 Y99.833 E21.17186
G1 X55.314 Y98.937 E21.20789
G1 X55.504 Y98.054 E21.24394
G1 X55.771 Y97.192 E21.27996
G1 X56.114 Y96.356 E21.31602
G1 X56.529 Y95.554 E21.35206
G1 X57.039 Y94.755 E21.3899
G1 X57.717 Y93.864 E21.43458
G1 X58.331 Y93.202 E21.47062
G1 X59.002 Y92.597 E21.50668
G1 X59.723 Y92.053 E21.54273
G1 F1800 E18.54273
;MESH:KeyChain_Saab.stl
G0 F9000 X67.881 Y99.42
G0 X68.11 Y101.079
G0 X66.934 Y103.974
G0 X66.937 Y104.652
;TYPE:WALL-INNER
G1 F1800 E21.54273
G1 F3000 X69.097 Y104.652 E21.62894
G1 X69.673 Y104.563 E21.6522
G1 X70.271 Y104.221 E21.6797
G1 X70.775 Y103.518 E21.71422
G1 X70.904 Y102.85 E21.74137
G1 X70.777 Y102.034 E21.77433
G1 X70.384 Y101.304 E21.80742
G1 X70.203 Y101.14 E21.81717
G1 X69.867 Y100.835 E21.83528
G1 X70.319 Y100.794 E21.84509
G1 X73.447 Y100.508 E21.97046
G1 X76.474 Y100.362 E22.09141
G1 X76.479 Y100.506 E22.09716
G1 X79.815 Y100.464 E22.23032
G1 X80.17 Y99.621 E22.26683
G1 X80.625 Y98.807 E22.30405
G1 X81.206 Y98.081 E22.34116
G1 X81.882 Y97.487 E22.37708
G1 X82.687 Y96.986 E22.41492
G1 X83.529 Y96.649 E22.45112
G1 X84.403 Y96.462 E22.48679
G1 X85.357 Y96.417 E22.52491
G1 X86.26 Y96.531 E22.56124
G1 X87.109 Y96.791 E22.59667
G1 X87.938 Y97.205 E22.63366
G1 X88.681 Y97.75 E22.67043
G1 X89.308 Y98.401 E22.70651
G1 X89.853 Y99.2 E22.74511
G1 X90.409 Y100.338 E22.79566
G1 X93.478 Y100.303 E22.91816
G1 X93.494 Y100.072 E22.9274
G1 X127.382 Y99.925 E24.27996
G1 X127.386 Y100.04 E24.28455
G1 X130.416 Y100.278 E24.40586
G1 X131.254 Y98.736 E24.4759
G1 X131.826 Y98.024 E24.51236
G1 X132.524 Y97.406 E24.54956
G1 X133.292 Y96.933 E24.58556
G1 X134.142 Y96.587 E24.62219
G1 X135.058 Y96.386 E24.65962
G1 X135.956 Y96.349 E24.69549
G1 X136.867 Y96.461 E24.73213
G1 X137.764 Y96.733 E24.76954
G1 X138.571 Y97.138 E24.80558
G1 X139.319 Y97.688 E24.84263
G1 X139.942 Y98.339 E24.8786
G1 X140.471 Y99.114 E24.91605
G1 X140.856 Y99.969 E24.95347
G1 X141.204 Y101.12 E25.00146
G1 X144.334 Y101.367 E25.12678
G1 X144.364 Y101.37 E25.12798
G1 X144.352 Y101.143 E25.1337
G1 X144.381 Y101.145
G1 X146.385 Y101.298 E25.21392
G1 X149.496 Y101.818 E25.33981
G1 X152.49 Y102.598 E25.4633
G1 X152.754 Y102.719 E25.47489
G1 X152.961 Y102.893 E25.48568
G1 X153.326 Y103.363 E25.50943
G1 X153.634 Y103.919 E25.5348
G1 X153.85 Y104.503 E25.55965
G1 X153.969 Y105.102 E25.58403
G1 X153.997 Y105.737 E25.60939
G1 X153.934 Y106.308 E25.63232
G1 X153.88 Y106.457 E25.63865
G1 X153.791 Y106.565 E25.64423
G1 X153.773 Y106.578 E25.64512
G1 X153.149 Y106.892 E25.673
G1 X152.595 Y107.295 E25.70034
G1 X152.124 Y107.777 E25.72724
G1 X151.743 Y108.329 E25.75401
G1 X151.459 Y108.934 E25.78069
G1 X151.278 Y109.58 E25.80746
G1 X151.206 Y110.244 E25.83412
G1 X151.241 Y110.847 E25.85823
G1 X151.4 Y112.549 E25.92645
G1 X151.394 Y112.855 E25.93867
G1 X151.349 Y113.087 E25.9481
G1 X151.26 Y113.324 E25.9582
G1 X151.146 Y113.529 E25.96757
G1 X150.994 Y113.722 E25.97737
G1 X150.811 Y113.89 E25.98729
G1 X150.617 Y114.018 E25.99656
G1 X150.386 Y114.123 E26.00669
G1 X150.154 Y114.186 E26.01629
G1 X149.432 Y114.267 E26.04528
G1 X147.601 Y116.507 E26.16075
G1 X145.798 Y118.347 E26.26357
G1 X143.935 Y119.921 E26.36091
G1 X141.259 Y121.798 E26.49137
G1 X141.336 Y122.213 E26.50822
G1 X141.374 Y122.422 E26.5167
G1 X141.163 Y122.445 E26.52207
G1 X136.556 Y122.965 E26.70712
G1 X129.259 Y123.459 E26.99902
G1 X121.641 Y123.656 E27.30317
G1 X114.36 Y123.524 E27.59382
G1 X111.468 Y123.296 E27.70961
G1 X108.893 Y122.864 E27.81382
G1 X106.225 Y122.181 E27.92374
G1 X102.624 Y120.473 E28.08281
G1 X98.895 Y118.447 E28.25219
G1 X95.415 Y116.292 E28.41556
G1 X91.957 Y113.88 E28.58383
G1 X91.473 Y113.598 E28.60619
G1 X88.458 Y113.346 E28.72694
G1 X85.874 Y113.041 E28.83079
G1 X85.398 Y113.055 E28.8498
