;FLAVOR:Marlin
;TIME:6532
;Filament used: 6.44338m
;Layer height: 0.2
;MINX:72.839
;MINY:68.713
;MINZ:0.24
;MAXX:147.161
;MAXY:151.32
;MAXZ:23.84
;Generated with Cura_SteamEngine 4.5.0
M140 S110
M105
M190 S110
M104 S230
M105
M109 S230
M82 ;absolute extrusion mode
M201 X500.00 Y500.00 Z100.00 E5000.00 ;Setup machine max acceleration
M203 X500.00 Y500.00 Z10.00 E50.00 ;Setup machine max feedrate
M204 P500.00 R1000.00 T500.00 ;Setup Print/Retract/Travel acceleration
M205 X8.00 Y8.00 Z0.40 E5.00 ;Setup Jerk
M220 S100 ;Reset Feedrate
M221 S100 ;Reset Flowrate

G28 ;Home

G92 E0 ;Reset Extruder
G1 Z2.0 F3000 ;Move Z Axis up
G1 X10.1 Y20 Z0.28 F5000.0 ;Move to start position
G1 X10.1 Y200.0 Z0.28 F1500.0 E15 ;Draw the first line
G1 X10.4 Y200.0 Z0.28 F5000.0 ;Move to side a little
G1 X10.4 Y20 Z0.28 F1500.0 E30 ;Draw the second line
G92 E0 ;Reset Extruder
G1 Z2.0 F3000 ;Move Z Axis up

G92 E0
G92 E0
G1 F1800 E-3
;LAYER_COUNT:126
;LAYER:0
M107
;MESH:Object 1
G0 F9000 X107.769 Y84.795 Z0.24
;TYPE:WALL-INNER
G1 F1800 E0
G1 F3000 X108.634 Y84.302 E0.05961
G1 X109.298 Y83.569 E0.11882
G1 X109.485 Y83.157 E0.14591
G1 X109.703 Y82.676 E0.17752
G1 X109.705 Y82.662 E0.17837
G1 X109.762 Y82.257 E0.20285
G1 X109.819 Y82.659 E0.2053
G1 X109.822 Y82.678
G1 X110.04 Y83.159 E0.22538
G1 X110.227 Y83.569 E0.25236
G1 X110.891 Y84.302 E0.31157
G1 X111.756 Y84.795 E0.37118
G1 X112.62 Y84.948 E0.42371
G1 X134.6 Y84.948 E1.73961
G1 X135.5 Y84.788 E1.79434
G1 X136.41 Y84.212 E1.85881
G1 X136.991 Y83.571 E1.91061
G1 X137.398 Y82.678 E1.96936
G1 X137.535 Y81.718 E2.02742
G1 X137.398 Y80.756 E2.08559
G1 X136.993 Y79.87 E2.14391
G1 X136.332 Y79.135 E2.20309
G1 X135.462 Y78.64 E2.26302
G1 X134.598 Y78.489 E2.31553
G1 X112.622 Y78.489 E3.63119
G1 X111.723 Y78.646 E3.68583
G1 X110.81 Y79.223 E3.75049
G1 X110.228 Y79.869 E3.80255
G1 X110.04 Y80.28 E3.8296
G1 X109.822 Y80.757 E3.861
G1 X109.82 Y80.774 E3.86203
G1 X109.762 Y81.178 E3.88646
G1 X109.706 Y80.774 E3.88895
G1 X109.703 Y80.758
G1 X109.485 Y80.28 E3.90894
G1 X109.298 Y79.87 E3.93592
G1 X108.637 Y79.135 E3.9951
G1 X107.767 Y78.64 E4.05502
G1 X106.902 Y78.489 E4.10759
G1 X84.927 Y78.489 E5.4232
G1 X84.028 Y78.646 E5.47783
G1 X83.078 Y79.244 E5.54504
G1 X82.458 Y80.013 E5.60418
G1 X82.109 Y80.881 E5.66018
G1 X81.99 Y81.718 E5.7108
G1 X82.127 Y82.678 E5.76885
G1 X82.532 Y83.566 E5.82729
G1 X83.191 Y84.302 E5.88643
G1 X84.063 Y84.795 E5.9464
G1 X84.925 Y84.948 E5.99881
G1 X106.904 Y84.948 E7.31466
G1 X107.769 Y84.795 E7.36725
G0 F9000 X107.562 Y84.222
G1 F3000 X108.254 Y83.828 E7.41492
G1 X108.79 Y83.236 E7.46273
G1 X109.121 Y82.507 E7.51066
G1 X109.232 Y81.718 E7.55837
G1 X109.121 Y80.928 E7.60613
G1 X108.79 Y80.203 E7.65384
G1 X108.256 Y79.608 E7.7017
G1 X107.561 Y79.213 E7.74956
G1 X106.85 Y79.089 E7.79277
G1 X84.979 Y79.089 E9.10215
G1 X84.248 Y79.217 E9.14658
G1 X83.482 Y79.699 E9.20076
G1 X82.981 Y80.32 E9.24853
G1 X82.693 Y81.037 E9.29479
G1 X82.596 Y81.718 E9.33597
G1 X82.709 Y82.508 E9.38375
G1 X83.04 Y83.234 E9.43152
G1 X83.572 Y83.828 E9.47926
G1 X84.269 Y84.222 E9.52719
G1 X84.978 Y84.348 E9.5703
G1 X106.851 Y84.348 E10.8798
G1 X107.562 Y84.222 E10.92303
G0 F9000 X107.355 Y83.649
;TYPE:WALL-OUTER
G1 F3000 X107.874 Y83.354 E10.95877
G1 X108.282 Y82.903 E10.99518
G1 X108.539 Y82.338 E11.03234
G1 X108.626 Y81.718 E11.06982
G1 X108.539 Y81.098 E11.1073
G1 X108.282 Y80.535 E11.14436
G1 X107.875 Y80.081 E11.18086
G1 X107.355 Y79.786 E11.21665
G1 X106.798 Y79.689 E11.2505
G1 X85.031 Y79.689 E12.55365
G1 X84.468 Y79.788 E12.58787
G1 X83.886 Y80.154 E12.62904
G1 X83.504 Y80.627 E12.66543
G1 X83.277 Y81.193 E12.70194
G1 X83.202 Y81.718 E12.73369
G1 X83.291 Y82.338 E12.77119
G1 X83.548 Y82.902 E12.8083
G1 X83.953 Y83.354 E12.84463
G1 X84.475 Y83.649 E12.88053
G1 X85.031 Y83.748 E12.91434
G1 X106.798 Y83.748 E14.21749
G1 X107.355 Y83.649 E14.25136
G0 F9000 X107.579 Y84.269
G0 X109.762 Y83.256
G0 X111.963 Y84.222
;TYPE:WALL-INNER
G1 F3000 X112.673 Y84.348 E14.29453
G1 X134.547 Y84.348 E15.60409
G1 X135.279 Y84.218 E15.6486
G1 X136.02 Y83.749 E15.7011
G1 X136.484 Y83.237 E15.74247
G1 X136.816 Y82.508 E15.79042
G1 X136.929 Y81.718 E15.8382
G1 X136.816 Y80.927 E15.88604
G1 X136.485 Y80.203 E15.9337
G1 X135.951 Y79.608 E15.98156
G1 X135.256 Y79.213 E16.02942
G1 X134.546 Y79.089 E16.07257
G1 X112.674 Y79.089 E17.38201
G1 X111.943 Y79.217 E17.42644
G1 X111.2 Y79.686 E17.47904
G1 X110.735 Y80.202 E17.52063
G1 X110.404 Y80.927 E17.56834
G1 X110.291 Y81.718 E17.61618
G1 X110.404 Y82.508 E17.66395
G1 X110.735 Y83.236 E17.71183
G1 X111.271 Y83.828 E17.75964
G1 X111.963 Y84.222 E17.80732
G0 F9000 X112.17 Y83.649
;TYPE:WALL-OUTER
G1 F3000 X112.726 Y83.748 E17.84113
G1 X134.494 Y83.748 E19.14434
G1 X135.058 Y83.648 E19.17863
G1 X135.63 Y83.286 E19.21916
G1 X135.977 Y82.903 E19.2501
G1 X136.234 Y82.338 E19.28726
G1 X136.323 Y81.718 E19.32476
G1 X136.234 Y81.098 E19.36225
G1 X135.977 Y80.535 E19.39931
G1 X135.57 Y80.081 E19.43581
G1 X135.05 Y79.786 E19.4716
G1 X134.494 Y79.689 E19.50539
G1 X112.726 Y79.689 E20.8086
G1 X112.163 Y79.788 E20.84283
G1 X111.59 Y80.149 E20.88337
G1 X111.243 Y80.535 E20.91445
G1 X110.986 Y81.098 E20.9515
G1 X110.897 Y81.718 E20.989
G1 X110.986 Y82.338 E21.02649
G1 X111.243 Y82.903 E21.06365
G1 X111.651 Y83.354 E21.10006
G1 X112.17 Y83.649 E21.1358
G0 F9000 X111.946 Y84.269
G0 X112.625 Y85.257
G0 X110.956 Y87.424
G0 X110.657 Y88.078
G0 X110.554 Y88.793
G0 X110.636 Y89.372
G0 X111.758 Y91.871
;TYPE:WALL-INNER
G1 F3000 X112.618 Y92.023 E21.18809
G1 X112.622 Y92.023 E21.18833
G1 X134.598 Y92.023 E22.50399
G1 X134.602 Y92.023 E22.50423
G1 X135.499 Y91.864 E22.55877
G1 X136.413 Y91.287 E22.62348
G1 X136.993 Y90.641 E22.67546
G1 X137.398 Y89.755 E22.73378
G1 X137.535 Y88.793 E22.79196
G1 X137.398 Y87.832 E22.85007
G1 X136.993 Y86.946 E22.90839
G1 X136.332 Y86.211 E22.96757
G1 X135.462 Y85.716 E23.0275
G1 X134.598 Y85.565 E23.08001
G1 X112.622 Y85.565 E24.39567
G1 X111.723 Y85.722 E24.45031
G1 X110.81 Y86.299 E24.51497
G1 X110.228 Y86.945 E24.56703
G1 X110.04 Y87.355 E24.59403
G1 X109.822 Y87.832 E24.62543
G1 X109.82 Y87.85 E24.62651
G1 X109.762 Y88.253 E24.65089
G1 X109.706 Y87.849 E24.6534
G1 X109.703 Y87.834
G1 X109.485 Y87.356 E24.67339
G1 X109.298 Y86.946 E24.70037
G1 X108.637 Y86.211 E24.75955
G1 X107.767 Y85.716 E24.81948
G1 X106.902 Y85.565 E24.87205
G1 X84.927 Y85.565 E26.18765
G1 X84.028 Y85.722 E26.24229
G1 X83.078 Y86.32 E26.30949
G1 X82.481 Y87.061 E26.36646
G1 X82.127 Y87.832 E26.41725
G1 X81.99 Y88.793 E26.47537
G1 X82.127 Y89.755 E26.53354
G1 X82.532 Y90.639 E26.59175
G1 X83.189 Y91.376 E26.65086
G1 X84.063 Y91.872 E26.71103
G1 X84.926 Y92.023 E26.76348
G1 X84.927 Y92.023 E26.76354
G1 X106.902 Y92.023 E28.07914
G1 X106.906 Y92.023 E28.07938
G1 X107.767 Y91.872 E28.13172
G1 X108.639 Y91.376 E28.19177
G1 X109.298 Y90.639 E28.25096
G1 X109.486 Y90.229 E28.27797
G1 X109.703 Y89.753 E28.30929
G1 X109.705 Y89.739 E28.31013
G1 X109.762 Y89.334 E28.33462
G1 X109.819 Y89.736 E28.33707
G1 X109.822 Y89.755
G1 X110.04 Y90.231 E28.35698
G1 X110.227 Y90.639 E28.38385
G1 X110.886 Y91.376 E28.44304
G1 X111.758 Y91.871 E28.50307
G0 F9000 X111.964 Y91.298
G1 F3000 X112.674 Y91.423 E28.54623
G1 X134.546 Y91.423 E29.85567
G1 X135.278 Y91.294 E29.90017
G1 X136.022 Y90.824 E29.95285
G1 X136.485 Y90.308 E29.99436
G1 X136.816 Y89.584 E30.04202
G1 X136.929 Y88.793 E30.08985
G1 X136.816 Y88.003 E30.13763
G1 X136.485 Y87.279 E30.18529
G1 X135.951 Y86.684 E30.23315
G1 X135.256 Y86.289 E30.28101
G1 X134.546 Y86.165 E30.32416
G1 X112.674 Y86.165 E31.6336
G1 X111.943 Y86.293 E31.67803
G1 X111.2 Y86.762 E31.73063
G1 X110.735 Y87.278 E31.77222
G1 X110.404 Y88.003 E31.81993
G1 X110.291 Y88.793 E31.86771
G1 X110.404 Y89.584 E31.91555
G1 X110.735 Y90.307 E31.96315
G1 X111.268 Y90.903 E32.01102
G1 X111.964 Y91.298 E32.05893
G0 F9000 X112.17 Y90.725
;TYPE:WALL-OUTER
G1 F3000 X112.726 Y90.823 E32.09273
G1 X134.494 Y90.823 E33.39594
G1 X135.057 Y90.724 E33.43017
G1 X135.631 Y90.361 E33.47083
G1 X135.977 Y89.975 E33.50186
G1 X136.234 Y89.413 E33.53886
G1 X136.323 Y88.793 E33.57636
G1 X136.234 Y88.174 E33.6138
G1 X135.977 Y87.611 E33.65085
G1 X135.57 Y87.157 E33.68735
G1 X135.05 Y86.862 E33.72314
G1 X134.494 Y86.765 E33.75693
G1 X112.726 Y86.765 E35.06014
G1 X112.163 Y86.864 E35.09437
G1 X111.59 Y87.225 E35.13491
G1 X111.243 Y87.611 E35.16599
G1 X110.986 Y88.174 E35.20304
G1 X110.897 Y88.793 E35.24048
G1 X110.986 Y89.413 E35.27798
G1 X111.243 Y89.975 E35.31497
G1 X111.65 Y90.43 E35.35152
G1 X112.17 Y90.725 E35.38731
G0 F9000 X111.947 Y91.346
G0 X109.762 Y90.329
G0 X107.561 Y91.299
;TYPE:WALL-INNER
G1 F3000 X108.257 Y90.903 E35.43525
G1 X108.79 Y90.307 E35.48312
G1 X109.121 Y89.583 E35.53078
G1 X109.232 Y88.793 E35.57854
G1 X109.121 Y88.004 E35.62624
G1 X108.79 Y87.279 E35.67396
G1 X108.256 Y86.684 E35.72182
G1 X107.561 Y86.289 E35.76968
G1 X106.85 Y86.165 E35.81289
G1 X84.979 Y86.165 E37.12227
G1 X84.248 Y86.293 E37.1667
G1 X83.482 Y86.775 E37.22088
G1 X82.995 Y87.379 E37.26733
G1 X82.709 Y88.003 E37.30843
G1 X82.596 Y88.793 E37.3562
G1 X82.709 Y89.584 E37.40404
G1 X83.04 Y90.307 E37.45164
G1 X83.571 Y90.903 E37.49943
G1 X84.269 Y91.299 E37.54748
G1 X84.979 Y91.423 E37.59063
G1 X106.85 Y91.423 E38.90001
G1 X107.561 Y91.299 E38.94322
G0 F9000 X107.355 Y90.726
;TYPE:WALL-OUTER
G1 F3000 X107.875 Y90.43 E38.97904
G1 X108.282 Y89.975 E39.01558
G1 X108.539 Y89.413 E39.05258
G1 X108.626 Y88.793 E39.09006
G1 X108.539 Y88.174 E39.12749
G1 X108.282 Y87.611 E39.16454
G1 X107.875 Y87.157 E39.20104
G1 X107.355 Y86.862 E39.23683
G1 X106.798 Y86.765 E39.27068
G1 X85.031 Y86.765 E40.57383
G1 X84.468 Y86.864 E40.60806
G1 X83.886 Y87.23 E40.64922
G1 X83.509 Y87.697 E40.68515
G1 X83.291 Y88.174 E40.71655
G1 X83.202 Y88.793 E40.75399
G1 X83.291 Y89.413 E40.79149
G1 X83.548 Y89.975 E40.82848
G1 X83.953 Y90.43 E40.86495
G1 X84.475 Y90.726 E40.90088
G1 X85.031 Y90.823 E40.93467
G1 X106.798 Y90.823 E42.23782
G1 X107.355 Y90.726 E42.27167
G0 F9000 X107.578 Y91.347
G0 X106.955 Y92.321
G0 X108.569 Y94.479
G0 X108.868 Y95.134
G0 X108.969 Y95.85
G0 X108.888 Y96.428
G0 X107.767 Y98.927
;TYPE:WALL-INNER
G1 F3000 X108.637 Y98.432 E42.33159
G1 X109.298 Y97.697 E42.39077
G1 X109.485 Y97.287 E42.41775
G1 X109.703 Y96.809 E42.4492
G1 X109.705 Y96.795 E42.45005
G1 X109.762 Y96.39 E42.47454
G1 X109.819 Y96.792 E42.47698
G1 X109.822 Y96.811
G1 X110.04 Y97.288 E42.49692
G1 X110.227 Y97.697 E42.52384
G1 X110.888 Y98.432 E42.58302
G1 X111.758 Y98.927 E42.64295
G1 X112.622 Y99.078 E42.69546
G1 X134.462 Y99.078 E44.00298
G1 X135.44 Y98.939 E44.06212
G1 X136.332 Y98.434 E44.12349
G1 X136.993 Y97.696 E44.1828
G1 X137.398 Y96.811 E44.24107
G1 X137.535 Y95.85 E44.29919
G1 X137.398 Y94.89 E44.35724
G1 X136.993 Y94 E44.41578
G1 X136.309 Y93.24 E44.47699
G1 X135.348 Y92.75 E44.54158
G1 X134.602 Y92.62 E44.58691
G1 X134.598 Y92.62 E44.58715
G1 X112.621 Y92.62 E45.89848
G1 X112.617 Y92.62 E45.89872
G1 X111.723 Y92.779 E45.95308
G1 X110.81 Y93.355 E46.01771
G1 X110.227 Y93.999 E46.06972
G1 X110.04 Y94.41 E46.09675
G1 X109.822 Y94.89 E46.12831
G1 X109.82 Y94.906 E46.12928
G1 X109.762 Y95.31 E46.15371
G1 X109.706 Y94.907 E46.15617
G1 X109.703 Y94.89
G1 X109.485 Y94.41 E46.17621
G1 X109.298 Y94 E46.20319
G1 X108.614 Y93.24 E46.2644
G1 X107.653 Y92.75 E46.32898
G1 X106.906 Y92.62 E46.37438
G1 X106.902 Y92.62 E46.37462
G1 X84.927 Y92.62 E47.68583
G1 X84.89 Y92.62 E47.68804
G1 X84.889 Y92.62 E47.6881
G1 X83.919 Y92.839 E47.74763
G1 X83.106 Y93.36 E47.80544
G1 X82.532 Y94.002 E47.857
G1 X82.127 Y94.89 E47.91543
G1 X81.99 Y95.85 E47.97349
G1 X82.127 Y96.811 E48.0316
G1 X82.532 Y97.696 E48.08987
G1 X83.189 Y98.434 E48.14903
G1 X84.065 Y98.927 E48.2092
G1 X84.927 Y99.078 E48.2616
G1 X106.902 Y99.078 E49.5772
G1 X107.767 Y98.927 E49.62977
G0 F9000 X107.561 Y98.354
G1 F3000 X108.256 Y97.959 E49.67763
G1 X108.79 Y97.364 E49.72549
G1 X109.121 Y96.639 E49.77321
G1 X109.232 Y95.85 E49.82091
G1 X109.121 Y95.06 E49.86867
G1 X108.79 Y94.333 E49.91649
G1 X108.242 Y93.724 E49.96554
G1 X107.461 Y93.326 E50.01802
G1 X106.85 Y93.22 E50.05514
G1 X84.957 Y93.22 E51.36584
G1 X84.154 Y93.401 E51.41512
G1 X83.499 Y93.821 E51.4617
G1 X83.04 Y94.334 E51.50291
G1 X82.709 Y95.06 E51.55068
G1 X82.596 Y95.85 E51.59846
G1 X82.709 Y96.64 E51.64624
G1 X83.04 Y97.364 E51.6939
G1 X83.571 Y97.96 E51.74169
G1 X84.27 Y98.354 E51.78972
G1 X84.979 Y98.478 E51.83281
G1 X106.85 Y98.478 E53.14219
G1 X107.561 Y98.354 E53.1854
G0 F9000 X107.355 Y97.781
;TYPE:WALL-OUTER
G1 F3000 X107.875 Y97.486 E53.22119
G1 X108.282 Y97.032 E53.2577
G1 X108.539 Y96.469 E53.29475
G1 X108.626 Y95.85 E53.33217
G1 X108.539 Y95.23 E53.36965
G1 X108.282 Y94.666 E53.40676
G1 X107.87 Y94.208 E53.44364
G1 X107.269 Y93.902 E53.48402
G1 X106.798 Y93.82 E53.51264
G1 X85.024 Y93.82 E54.81621
G1 X84.389 Y93.963 E54.85518
G1 X83.892 Y94.282 E54.89054
G1 X83.548 Y94.666 E54.9214
G1 X83.291 Y95.23 E54.95851
G1 X83.202 Y95.85 E54.996
G1 X83.291 Y96.469 E55.03344
G1 X83.548 Y97.032 E55.0705
G1 X83.953 Y97.486 E55.10692
G1 X84.475 Y97.781 E55.14282
G1 X85.031 Y97.878 E55.17661
G1 X106.798 Y97.878 E56.47976
G1 X107.355 Y97.781 E56.51361
G0 F9000 X107.577 Y98.402
G0 X109.762 Y97.386
G0 X111.964 Y98.354
;TYPE:WALL-INNER
G1 F3000 X112.674 Y98.478 E56.55676
G1 X134.42 Y98.478 E57.85865
G1 X135.243 Y98.361 E57.90842
G1 X135.951 Y97.96 E57.95713
G1 X136.485 Y97.364 E58.00504
G1 X136.816 Y96.64 E58.0527
G1 X136.929 Y95.85 E58.10048
G1 X136.816 Y95.06 E58.14825
G1 X136.485 Y94.333 E58.19608
G1 X135.937 Y93.724 E58.24512
G1 X135.156 Y93.326 E58.2976
G1 X134.546 Y93.22 E58.33467
G1 X112.674 Y93.22 E59.64411
G1 X111.943 Y93.349 E59.68855
G1 X111.2 Y93.818 E59.74115
G1 X110.735 Y94.332 E59.78265
G1 X110.404 Y95.06 E59.83052
G1 X110.291 Y95.85 E59.8783
G1 X110.404 Y96.64 E59.92608
G1 X110.735 Y97.364 E59.97374
G1 X111.269 Y97.959 E60.0216
G1 X111.964 Y98.354 E60.06946
G0 F9000 X112.17 Y97.781
;TYPE:WALL-OUTER
G1 F3000 X112.726 Y97.878 E60.10325
G1 X134.378 Y97.878 E61.39952
G1 X135.046 Y97.783 E61.43991
G1 X135.57 Y97.486 E61.47597
G1 X135.977 Y97.032 E61.51247
G1 X136.234 Y96.469 E61.54953
G1 X136.323 Y95.85 E61.58697
G1 X136.234 Y95.23 E61.62446
G1 X135.977 Y94.666 E61.66157
G1 X135.565 Y94.208 E61.69845
G1 X134.964 Y93.902 E61.73883
G1 X134.494 Y93.82 E61.76739
G1 X112.726 Y93.82 E63.0706
G1 X112.163 Y93.919 E63.10483
G1 X111.59 Y94.281 E63.1454
G1 X111.243 Y94.665 E63.17639
G1 X110.986 Y95.23 E63.21355
G1 X110.897 Y95.85 E63.25105
G1 X110.986 Y96.469 E63.28849
G1 X111.243 Y97.032 E63.32554
G1 X111.65 Y97.486 E63.36204
G1 X112.17 Y97.781 E63.39783
G0 F9000 X111.948 Y98.402
G1 F1800 E60.39783
G0 F9000 X112.596 Y99.369
G0 X112.553 Y99.412
G0 X110.956 Y101.56
G0 X110.657 Y102.216
G0 X110.554 Y102.932
G0 X110.636 Y103.51
G0 X111.758 Y106.008
;TYPE:WALL-INNER
G1 F1800 E63.39783
G1 F3000 X112.62 Y106.161 E63.45025
G1 X134.6 Y106.161 E64.76615
G1 X135.499 Y106.001 E64.82082
G1 X136.443 Y105.405 E64.88766
G1 X137.067 Y104.639 E64.9468
G1 X137.416 Y103.768 E65.00298
G1 X137.535 Y102.932 E65.05353
G1 X137.398 Y101.972 E65.11159
G1 X136.993 Y101.082 E65.17013
G1 X136.332 Y100.348 E65.22927
G1 X135.462 Y99.855 E65.28913
G1 X134.598 Y99.703 E65.34165
G1 X112.585 Y99.703 E66.65953
G1 X111.612 Y99.922 E66.71924
G1 X110.805 Y100.443 E66.77675
G1 X110.229 Y101.082 E66.82825
G1 X110.04 Y101.494 E66.85539
G1 X109.822 Y101.971 E66.88679
G1 X109.82 Y101.988 E66.88781
G1 X109.762 Y102.392 E66.91225
G1 X109.706 Y101.988 E66.91474
G1 X109.703 Y101.972
G1 X109.486 Y101.494 E66.93469
G1 X109.298 Y101.082 E66.9618
G1 X108.637 Y100.348 E67.02094
G1 X107.767 Y99.854 E67.08083
G1 X106.902 Y99.703 E67.1334
G1 X84.926 Y99.703 E68.44907
G1 X84.028 Y99.862 E68.50366
G1 X83.112 Y100.439 E68.56848
G1 X82.532 Y101.083 E68.62036
G1 X82.127 Y101.971 E68.67879
G1 X81.99 Y102.932 E68.73691
G1 X82.127 Y103.893 E68.79502
G1 X82.532 Y104.778 E68.85329
G1 X83.214 Y105.541 E68.91456
G1 X84.177 Y106.028 E68.97917
G1 X84.925 Y106.161 E69.02465
G1 X106.904 Y106.161 E70.34049
G1 X107.767 Y106.008 E70.39297
G1 X108.637 Y105.516 E70.4528
G1 X109.32 Y104.756 E70.51398
G1 X109.492 Y104.332 E70.54137
