;FLAVOR:Marlin
;TIME:1354
;Filament used: 2.09542m
;Layer height: 0.2
;MINX:75.55
;MINY:71.575
;MINZ:0.2
;MAXX:144.45
;MAXY:148.425
;MAXZ:5
;Generated with Cura_SteamEngine 4.5.0
M140 S50
M105
M190 S50
M104 S215
M105
M109 S215
M82 ;absolute extrusion mode
M201 X500.00 Y500.00 Z100.00 E5000.00 ;Setup machine max acceleration
M203 X500.00 Y500.00 Z10.00 E50.00 ;Setup machine max feedrate
M204 P500.00 R1000.00 T500.00 ;Setup Print/Retract/Travel acceleration
M205 X8.00 Y8.00 Z0.40 E5.00 ;Setup Jerk
M220 S100 ;Reset Feedrate
M221 S100 ;Reset Flowrate

G28 ;Home

G92 E0 ;Reset Extruder
G1 Z2.0 F3000 ;Move Z Axis up
G1 X10.1 Y20 Z0.28 F5000.0 ;Move to start position
G1 X10.1 Y200.0 Z0.28 F1500.0 E15 ;Draw the first line
G1 X10.4 Y200.0 Z0.28 F5000.0 ;Move to side a little
G1 X10.4 Y20 Z0.28 F1500.0 E30 ;Draw the second line
G92 E0 ;Reset Extruder
G1 Z2.0 F3000 ;Move Z Axis up

G92 E0
G92 E0
G1 F1800 E-3
;LAYER_COUNT:22
;LAYER:0
M107
;MESH:Insert_normal_male.stl
G0 F9000 X76.75 Y72.775 Z0.2
;TYPE:WALL-INNER
G1 F1800 E0
G1 F3000 X76.75 Y147.225 E2.47622
G1 X143.25 Y147.225 E4.68802
G1 X143.25 Y72.775 E7.16423
G1 X76.75 Y72.775 E9.37603
G0 F9000 X77.15 Y73.175
G1 F3000 X77.15 Y146.825 E11.82564
G1 X142.85 Y146.825 E14.01083
G1 X142.85 Y73.175 E16.46044
G1 X77.15 Y73.175 E18.64563
G1 F1800 E15.64563
G0 F9000 X109.728 Y73.447
G0 X109.8 Y87.915
G0 X109.6 Y87.915
;TYPE:WALL-OUTER
G1 F1800 E18.64563
G1 F3000 X109.6 Y73.575 E19.12258
G1 X77.55 Y73.575 E20.18857
G1 X77.55 Y87.915 E20.66552
G1 X109.6 Y87.915 E21.73151
G0 F9000 X110.4 Y87.915
G1 F3000 X142.45 Y87.915 E22.79749
G1 X142.45 Y73.575 E23.27444
G1 X110.4 Y73.575 E24.34043
G1 X110.4 Y87.915 E24.81738
G1 F1800 E21.81738
G0 F9000 X110.2 Y87.915
G0 X110.2 Y109.6
G0 X110.4 Y109.6
G1 F1800 E24.81738
G1 F3000 X142.45 Y109.6 E25.88337
G1 X142.45 Y88.715 E26.57801
G1 X110.4 Y88.715 E27.64399
G1 X110.4 Y109.6 E28.33863
G0 F9000 X109.6 Y109.6
G1 F3000 X109.6 Y88.715 E29.03327
G1 X77.55 Y88.715 E30.09926
G1 X77.55 Y109.6 E30.7939
G1 X109.6 Y109.6 E31.85988
G1 F1800 E28.85988
G0 F9000 X109.8 Y109.6
G0 X109.8 Y131.825
G0 X109.6 Y131.825
G1 F1800 E31.85988
G1 F3000 X109.6 Y110.4 E32.57248
G1 X77.55 Y110.4 E33.63847
G1 X77.55 Y131.825 E34.35107
G1 X109.6 Y131.825 E35.41705
G0 F9000 X110.4 Y131.825
G1 F3000 X142.45 Y131.825 E36.48304
G1 X142.45 Y110.4 E37.19564
G1 X110.4 Y110.4 E38.26163
G1 X110.4 Y131.825 E38.97423
G1 F1800 E35.97423
G0 F9000 X110.2 Y131.825
G0 X110.2 Y146.425
G0 X110.4 Y146.425
G1 F1800 E38.97423
G1 F3000 X142.45 Y146.425 E40.04021
G1 X142.45 Y132.625 E40.4992
G1 X110.4 Y132.625 E41.56519
G1 X110.4 Y146.425 E42.02418
G0 F9000 X109.6 Y146.425
G1 F3000 X109.6 Y132.625 E42.48317
G1 X77.55 Y132.625 E43.54916
G1 X77.55 Y146.425 E44.00815
G1 X109.6 Y146.425 E45.07414
G1 F1800 E42.07414
G0 F9000 X109.8 Y146.425
G0 X109.743 Y146.528
G0 X76.357 Y147.616
;TYPE:WALL-INNER
G1 F1800 E45.07414
G1 F3000 X76.35 Y147.562 E45.07595
G1 X76.35 Y72.446 E47.57431
G1 X76.359 Y72.382 E47.57646
G1 X76.413 Y72.375 E47.57828
G1 X143.579 Y72.375 E49.81223
G1 X143.643 Y72.384 E49.81437
G1 X143.65 Y72.438 E49.81619
G1 X143.65 Y147.555 E52.31459
G1 X143.641 Y147.618 E52.3167
G1 X143.587 Y147.625 E52.31852
G1 X76.42 Y147.625 E54.5525
G1 X76.357 Y147.616 E54.55462
G0 F9000 X75.962 Y147.67
G1 F3000 X75.955 Y147.618 E54.55636
G1 X75.95 Y147.585 E54.55747
G1 X75.95 Y72.417 E57.05757
G1 X75.971 Y72.27 E57.06251
G1 X76.011 Y72.175 E57.06594
G1 X76.075 Y72.094 E57.06937
G1 X76.156 Y72.033 E57.07274
G1 X76.21 Y72.012 E57.07467
G1 X76.256 Y71.993 E57.07632
G1 X76.305 Y71.987 E57.07797
G1 X76.357 Y71.98 E57.07971
G1 X76.39 Y71.975 E57.08082
G1 X143.608 Y71.975 E59.3165
G1 X143.755 Y71.996 E59.32144
G1 X143.85 Y72.036 E59.32487
G1 X143.931 Y72.1 E59.3283
G1 X143.992 Y72.181 E59.33167
G1 X144.013 Y72.235 E59.3336
G1 X144.032 Y72.281 E59.33526
G1 X144.038 Y72.334 E59.33703
G1 X144.045 Y72.384 E59.33871
G1 X144.05 Y72.415 E59.33975
G1 X144.05 Y147.584 E61.83989
G1 X144.029 Y147.73 E61.84479
G1 X143.989 Y147.825 E61.84822
G1 X143.925 Y147.906 E61.85165
G1 X143.844 Y147.967 E61.85503
G1 X143.79 Y147.988 E61.85695
G1 X143.744 Y148.007 E61.85861
G1 X143.695 Y148.013 E61.86025
G1 X143.643 Y148.02 E61.862
G1 X143.61 Y148.025 E61.86311
G1 X76.391 Y148.025 E64.09882
G1 X76.245 Y148.004 E64.10372
G1 X76.15 Y147.964 E64.10715
G1 X76.069 Y147.9 E64.11059
G1 X76.008 Y147.819 E64.11396
G1 X75.987 Y147.765 E64.11589
G1 X75.968 Y147.719 E64.11754
G1 X75.962 Y147.67 E64.11918
G0 F9000 X76.136 Y148.393
;TYPE:WALL-OUTER
G1 F3000 X75.944 Y148.311 E64.12613
G1 X75.781 Y148.183 E64.13302
G1 X75.657 Y148.018 E64.13989
G1 X75.577 Y147.819 E64.14702
G1 X75.55 Y147.614 E64.1539
G1 X75.55 Y72.389 E66.65589
G1 X75.582 Y72.161 E66.66355
G1 X75.664 Y71.969 E66.67049
G1 X75.792 Y71.806 E66.67738
G1 X75.957 Y71.682 E66.68425
G1 X76.156 Y71.602 E66.69138
G1 X76.361 Y71.575 E66.69826
G1 X143.636 Y71.575 E68.93584
G1 X143.864 Y71.607 E68.94349
G1 X144.056 Y71.689 E68.95044
G1 X144.219 Y71.817 E68.95733
G1 X144.343 Y71.982 E68.9642
G1 X144.423 Y72.181 E68.97133
G1 X144.45 Y72.386 E68.97821
G1 X144.45 Y147.611 E71.4802
G1 X144.418 Y147.839 E71.48786
G1 X144.336 Y148.031 E71.4948
G1 X144.208 Y148.194 E71.5017
G1 X144.043 Y148.318 E71.50856
G1 X143.844 Y148.398 E71.51569
G1 X143.639 Y148.425 E71.52257
G1 X76.364 Y148.425 E73.76015
G1 X76.136 Y148.393 E73.7678
G0 F9000 X76.254 Y147.97
G0 X77.422 Y132.497
G0 X77.577 Y132.425
G0 X77.443 Y132.314
;TYPE:SKIN
G1 F3000 X77.635 Y132.223 E73.77563
G1 X109.313 Y132.223 E74.94311
G1 X109.999 Y132.91 E74.97889
G1 X109.798 Y132.425 E74.99824
G0 F9000 X109.654 Y131.999
G1 F3000 X110.225 Y132.569 E75.01166
G0 F9000 X110.387 Y132.449
G1 F3000 X109.774 Y131.836 E75.02607
G0 F9000 X110.222 Y132.001
G1 F3000 X110.728 Y132.224 E75.04706
G1 X142.406 Y132.224 E76.2495
G1 X142.577 Y132.112 E76.25726
G0 F9000 X142.689 Y132.224
G0 X142.578 Y110.272
G0 X142.468 Y110.2
G0 X142.243 Y109.999
G1 F3000 X141.96 Y109.999 E76.26785
G1 X110.565 Y109.999 E77.443
G1 X109.999 Y109.433 E77.47296
G1 X109.999 Y88.785 E78.24584
G1 X109.904 Y88.408 E78.26039
G0 F9000 X109.774 Y87.995
G1 F3000 X110.319 Y88.54 E78.27321
G0 F9000 X110.188 Y88.126
G1 F3000 X109.999 Y87.654 E78.29284
G1 X109.999 Y73.795 E78.8279
G1 X110.164 Y73.394 E78.84464
G0 F9000 X110.105 Y73.335
G0 X110.272 Y88.043
G0 X110.434 Y88.115
G0 X110.659 Y88.314
G1 F3000 X110.942 Y88.314 E78.85542
G1 X142.337 Y88.314 E80.05058
G1 X142.542 Y88.236 E80.05893
G0 F9000 X142.395 Y88.115
G0 X142.578 Y88.587
G0 X142.578 Y109.728
G0 X142.301 Y109.8
G0 X142.495 Y109.968
G1 F3000 X142.636 Y109.826 E80.07051
G1 F1800 E77.07051
G0 F9000 X142.62 Y109.77
G0 X110.507 Y110.2
G0 X110.507 Y110.224
G1 F1800 E80.07051
G1 F3000 X109.774 Y109.491 E80.08775
G0 F9000 X109.774 Y109.774
G1 F3000 X110.224 Y110.224 E80.09833
G0 F9000 X109.857 Y110.14
G1 F3000 X109.433 Y109.999 E80.11511
G1 X109.999 Y110.565 E80.14517
G1 X109.999 Y131.495 E80.9312
G0 F9000 X110.2 Y131.72
G0 X109.8 Y132.967
G0 X109.999 Y133.192
G1 F3000 X109.999 Y133.475 E80.94212
G1 X109.999 Y146.203 E81.43342
G1 X109.834 Y146.603 E81.45012
G1 F1800 E78.45012
G0 F9000 X109.894 Y146.663
G0 X109.728 Y110.272
G0 X109.375 Y110.2
G0 X109.15 Y109.999
G1 F1800 E81.45012
G1 F3000 X108.868 Y109.999 E81.46079
G1 X77.755 Y109.999 E82.63865
G1 X77.362 Y110.171 E82.65489
G0 F9000 X77.38 Y110.23
G0 X77.422 Y88.587
G0 X77.508 Y88.515
G0 X77.508 Y88.538
G1 F3000 X77.31 Y88.34 E82.65955
G0 F9000 X77.565 Y88.313
G1 F3000 X77.848 Y88.313 E82.67028
G1 X109.527 Y88.313 E83.8712
G0 F9000 X109.303 Y88.215
G1 F1800 E80.8712
;MESH:NONMESH
G0 F300 X109.303 Y88.215 Z0.44
G0 F9000 X77.422 Y88.043
G0 X76.75 Y72.775
;TIME_ELAPSED:68.046653
;LAYER:1
M140 S30
M106 S85
;TYPE:WALL-INNER
;MESH:Insert_normal_male.stl
G1 F1800 E83.8712
G1 F3000 X76.75 Y147.225 E86.84266
G1 X143.25 Y147.225 E89.49682
G1 X143.25 Y72.775 E92.46828
G1 X76.75 Y72.775 E95.12244
G0 F9000 X77.15 Y73.175
G1 F3000 X77.15 Y146.825 E98.06197
G1 X142.85 Y146.825 E100.6842
G1 X142.85 Y73.175 E103.62373
G1 X77.15 Y73.175 E106.24596
G1 F1800 E103.24596
G0 F9000 X109.728 Y73.447
G0 X109.8 Y87.915
G0 X109.6 Y87.915
;TYPE:WALL-OUTER
G1 F1800 E106.24596
G1 F3000 X109.6 Y73.575 E106.8183
G1 X77.55 Y73.575 E108.09748
G1 X77.55 Y87.915 E108.66983
G1 X109.6 Y87.915 E109.94901
G0 F9000 X110.4 Y87.915
G1 F3000 X142.45 Y87.915 E111.22819
G1 X142.45 Y73.575 E111.80054
G1 X110.4 Y73.575 E113.07972
G1 X110.4 Y87.915 E113.65206
G1 F1800 E110.65206
G0 F9000 X110.2 Y87.915
G0 X110.2 Y109.6
G0 X110.4 Y109.6
G1 F1800 E113.65206
G1 F3000 X142.45 Y109.6 E114.93125
G1 X142.45 Y88.715 E115.76481
G1 X110.4 Y88.715 E117.044
G1 X110.4 Y109.6 E117.87756
G0 F9000 X109.6 Y109.6
G1 F3000 X109.6 Y88.715 E118.71113
G1 X77.55 Y88.715 E119.99031
G1 X77.55 Y109.6 E120.82388
G1 X109.6 Y109.6 E122.10306
G1 F1800 E119.10306
G0 F9000 X109.8 Y109.6
G0 X109.8 Y131.825
G0 X109.6 Y131.825
G1 F1800 E122.10306
G1 F3000 X109.6 Y110.4 E122.95818
G1 X77.55 Y110.4 E124.23736
G1 X77.55 Y131.825 E125.09248
G1 X109.6 Y131.825 E126.37167
G0 F9000 X110.4 Y131.825
G1 F3000 X142.45 Y131.825 E127.65085
G1 X142.45 Y110.4 E128.50597
G1 X110.4 Y110.4 E129.78516
G1 X110.4 Y131.825 E130.64027
G1 F1800 E127.64027
G0 F9000 X110.2 Y131.825
G0 X110.2 Y146.425
G0 X110.4 Y146.425
G1 F1800 E130.64027
G1 F3000 X142.45 Y146.425 E131.91946
G1 X142.45 Y132.625 E132.47025
G1 X110.4 Y132.625 E133.74943
G1 X110.4 Y146.425 E134.30022
G0 F9000 X109.6 Y146.425
G1 F3000 X109.6 Y132.625 E134.85101
G1 X77.55 Y132.625 E136.13019
G1 X77.55 Y146.425 E136.68098
G1 X109.6 Y146.425 E137.96016
G1 F1800 E134.96016
G0 F9000 X109.8 Y146.425
G0 X109.743 Y146.528
G0 X76.359 Y147.615
;TYPE:WALL-INNER
G1 F1800 E137.96016
G1 F3000 X76.355 Y147.604 E137.96063
G1 X76.35 Y147.564 E137.96224
G1 X76.35 Y72.45 E140.9602
G1 X76.36 Y72.384 E140.96287
G1 X76.371 Y72.38 E140.96333
G1 X76.41 Y72.375 E140.9649
G1 X143.575 Y72.375 E143.6456
G1 X143.641 Y72.385 E143.64827
G1 X143.65 Y72.435 E143.65029
G1 X143.65 Y147.55 E146.6483
G1 X143.64 Y147.616 E146.65096
G1 X143.592 Y147.625 E146.65291
G1 X76.425 Y147.625 E149.33369
G1 X76.359 Y147.615 E149.33635
G0 F9000 X75.96 Y147.659
G1 F3000 X75.95 Y147.591 E149.3391
G1 X75.95 Y72.42 E152.33934
G1 X75.974 Y72.266 E152.34556
G1 X76.017 Y72.169 E152.34979
G1 X76.08 Y72.09 E152.35382
G1 X76.158 Y72.033 E152.35768
G1 X76.268 Y71.991 E152.36238
G1 X76.316 Y71.985 E152.36431
G1 X76.384 Y71.975 E152.36705
G1 X143.605 Y71.975 E155.04999
G1 X143.759 Y71.999 E155.05621
G1 X143.856 Y72.042 E155.06044
G1 X143.935 Y72.105 E155.06448
G1 X143.992 Y72.183 E155.06833
G1 X144.034 Y72.293 E155.07303
G1 X144.05 Y72.409 E155.07771
G1 X144.05 Y147.58 E158.07794
G1 X144.026 Y147.734 E158.08416
G1 X143.983 Y147.831 E158.0884
G1 X143.92 Y147.91 E158.09243
G1 X143.841 Y147.968 E158.09634
G1 X143.734 Y148.009 E158.10092
G1 X143.646 Y148.02 E158.10446
G1 X143.616 Y148.025 E158.10567
G1 X76.395 Y148.025 E160.78861
G1 X76.241 Y148.001 E160.79483
G1 X76.144 Y147.958 E160.79906
G1 X76.065 Y147.895 E160.80309
G1 X76.008 Y147.817 E160.80695
G1 X75.966 Y147.707 E160.81165
G1 X75.96 Y147.659 E160.81358
G0 F9000 X76.126 Y148.388
;TYPE:WALL-OUTER
G1 F3000 X75.936 Y148.304 E160.82187
G1 X75.774 Y148.174 E160.83016
G1 X75.653 Y148.01 E160.8383
G1 X75.576 Y147.808 E160.84692
G1 X75.55 Y147.614 E160.85474
G1 X75.55 Y72.392 E163.85701
G1 X75.587 Y72.151 E163.86674
G1 X75.671 Y71.961 E163.87503
G1 X75.801 Y71.799 E163.88332
G1 X75.965 Y71.678 E163.89146
G1 X76.167 Y71.601 E163.90008
G1 X76.361 Y71.575 E163.9079
G1 X143.633 Y71.575 E166.59287
G1 X143.874 Y71.612 E166.6026
G1 X144.064 Y71.696 E166.61089
G1 X144.226 Y71.826 E166.61918
G1 X144.347 Y71.99 E166.62731
G1 X144.424 Y72.192 E166.63594
G1 X144.45 Y72.386 E166.64375
G1 X144.45 Y147.608 E169.64603
G1 X144.413 Y147.849 E169.65576
G1 X144.329 Y148.039 E169.66405
G1 X144.199 Y148.201 E169.67234
G1 X144.036 Y148.321 E169.68042
G1 X143.833 Y148.399 E169.6891
G1 X143.639 Y148.425 E169.69691
G1 X76.367 Y148.425 E172.38188
G1 X76.126 Y148.388 E172.39161
G0 F9000 X76.249 Y147.966
G0 X77.38 Y132.455
G0 X77.645 Y132.223
;TYPE:SKIN
G1 F3000 X77.927 Y132.223 E172.4042
G1 X109.323 Y132.223 E173.80571
G1 X109.999 Y131.547 E173.84838
G1 X109.802 Y132.027 E173.87155
G0 F9000 X109.664 Y132.448
G1 F3000 X110.224 Y131.888 E173.88735
G0 F9000 X110.085 Y132.31
G1 F3000 X109.999 Y132.678 E173.90443
G1 X110.453 Y132.224 E173.93345
G1 X142.414 Y132.224 E175.37805
G1 X142.58 Y132.341 E175.38723
G0 F9000 X142.689 Y132.233
G0 X142.636 Y110.224
G0 X142.662 Y110.198
G1 F3000 X142.521 Y110.056 E175.39623
G1 X141.73 Y109.999 E175.43192
G1 X110.617 Y109.999 E176.83215
G1 X110.166 Y110.166 E176.85379
G0 F9000 X109.774 Y110.276
G1 F3000 X110.276 Y109.774 E176.86796
G0 F9000 X109.884 Y109.884
G1 F3000 X109.486 Y109.999 E176.8867
G1 X109.999 Y109.486 E176.91951
G1 X109.999 Y88.838 E177.85343
G1 X110.119 Y88.434 E177.87249
G0 F9000 X110.223 Y88.048
G1 F3000 X109.733 Y88.539 E177.88634
G0 F9000 X109.836 Y88.152
G1 F3000 X109.998 Y87.707 E177.90752
G1 X109.392 Y88.314 E177.94588
G1 X77.714 Y88.314 E179.3628
G1 X77.341 Y88.12 E179.3816
G0 F9000 X77.31 Y88.152
G0 X77.422 Y109.728
G0 X77.467 Y109.8
G0 X77.467 Y109.774
G1 F3000 X77.31 Y109.931 E179.38603
G0 F9000 X77.529 Y109.994
G1 F3000 X77.807 Y109.999 E179.39872
G1 X109.203 Y109.999 E180.83077
G0 F9000 X109.428 Y109.8
G0 X110.2 Y110.392
G0 X109.999 Y110.617
G1 F3000 X109.999 Y110.9 E180.8438
G1 X109.999 Y131.265 E181.78137
G0 F9000 X110.2 Y131.04
G0 X110.2 Y132.736
G0 X109.999 Y132.961
G1 F3000 X109.999 Y133.244 E181.79444
G1 X109.999 Y146.255 E182.39526
G1 X110.19 Y146.629 E182.41465
G1 F1800 E179.41465
G0 F9000 X110.225 Y146.595
G0 X109.728 Y132.497
G0 X77.587 Y132.025
G0 X77.587 Y131.999
G1 F1800 E182.41465
G1 F3000 X77.31 Y132.276 E182.42247
G1 F1800 E179.42247
G0 F9000 X77.422 Y110.272
G0 X109.728 Y109.728
G0 X110.23 Y88.545
G0 X110.523 Y88.314
G1 F1800 E182.42247
G1 F3000 X110.805 Y88.314 E182.43532
G1 X142.201 Y88.314 E183.86562
G1 X142.615 Y88.466 E183.88571
G1 F1800 E180.88571
G0 F9000 X142.689 Y88.393
G0 X110.272 Y88.043
G0 X110.2 Y87.2
G0 X109.998 Y87.425
G1 F1800 E183.88571
G1 F3000 X109.998 Y87.142 E183.89851
G1 X109.998 Y73.565 E184.51256
G1 X109.86 Y73.42 E184.52161
G0 F9000 X109.9 Y73.507
G1 F1800 E181.52161
;MESH:NONMESH
G0 F300 X109.9 Y73.507 Z0.68
G0 F9000 X109.804 Y73.474
G0 X76.75 Y72.775
;TIME_ELAPSED:132.651734
;LAYER:2
M106 S170
;TYPE:WALL-INNER
;MESH:Insert_normal_male.stl
G1 F1800 E184.52161
G1 F3000 X76.75 Y147.225 E187.49307
G1 X143.25 Y147.225 E190.14723
G1 X143.25 Y72.775 E193.11869
G1 X76.75 Y72.775 E195.77285
G0 F9000 X77.15 Y73.175
G1 F3000 X77.15 Y146.825 E198.71238
G1 X142.85 Y146.825 E201.33461
G1 X142.85 Y73.175 E204.27414
G1 X77.15 Y73.175 E206.89637
G1 F1800 E203.89637
G0 F9000 X109.728 Y73.447
G0 X109.8 Y87.915
G0 X109.6 Y87.915
;TYPE:WALL-OUTER
G1 F1800 E206.89637
G1 F3000 X109.6 Y73.575 E207.46871
G1 X77.55 Y73.575 E208.7479
G1 X77.55 Y87.915 E209.32024
G1 X109.6 Y87.915 E210.59942
G0 F9000 X110.4 Y87.915
G1 F3000 X142.45 Y87.915 E211.87861
G1 X142.45 Y73.575 E212.45095
G1 X110.4 Y73.575 E213.73013
G1 X110.4 Y87.915 E214.30247
G1 F1800 E211.30247
G0 F9000 X110.2 Y87.915
G0 X110.2 Y109.6
G0 X110.4 Y109.6
G1 F1800 E214.30247
G1 F3000 X142.45 Y109.6 E215.58166
G1 X142.45 Y88.715 E216.41522
G1 X110.4 Y88.715 E217.69441
G1 X110.4 Y109.6 E218.52797
G0 F9000 X109.6 Y109.6
G1 F3000 X109.6 Y88.715 E219.36154
G1 X77.55 Y88.715 E220.64072
G1 X77.55 Y109.6 E221.47429
G1 X109.6 Y109.6 E222.75347
G1 F1800 E219.75347
G0 F9000 X109.8 Y109.6
G0 X109.8 Y131.825
G0 X109.6 Y131.825
G1 F1800 E222.75347
G1 F3000 X109.6 Y110.4 E223.60859
G1 X77.55 Y110.4 E224.88778
G1 X77.55 Y131.825 E225.74289
G1 X109.6 Y131.825 E227.02208
G0 F9000 X110.4 Y131.825
G1 F3000 X142.45 Y131.825 E228.30126
G1 X142.45 Y110.4 E229.15638
G1 X110.4 Y110.4 E230.43557
G1 X110.4 Y131.825 E231.29068
G1 F1800 E228.29068
G0 F9000 X110.2 Y131.825
G0 X110.2 Y146.425
G0 X110.4 Y146.425
G1 F1800 E231.29068
G1 F3000 X142.45 Y146.425 E232.56987
G1 X142.45 Y132.625 E233.12066
G1 X110.4 Y132.625 E234.39984
G1 X110.4 Y146.425 E234.95063
