;FLAVOR:Marlin
;TIME:1145
;Filament used: 0.87687m
;Layer height: 0.2
;MINX:83.274
;MINY:74.234
;MINZ:0.28
;MAXX:137.096
;MAXY:145.718
;MAXZ:6.88
;Generated with Cura_SteamEngine main
M82 ;absolute extrusion mode
M201 X500.00 Y500.00 Z100.00 E5000.00 ;Setup machine max acceleration
M203 X500.00 Y500.00 Z10.00 E50.00 ;Setup machine max feedrate
M204 P500.00 R1000.00 T500.00 ;Setup Print/Retract/Travel acceleration
M205 X8.00 Y8.00 Z0.40 E5.00 ;Setup Jerk
M220 S100 ;Reset Feedrate
M221 S100 ;Reset Flowrate

;*** Start Dual Nozzle/Bed Preheating ***
M140 S50 ; start preheating the bed
M104 S200 ?T0 ; start preheating hotend
M190 S50 ; heat to Cura Bed setting and WAIT
M109 S200 ?T0 ; heat to Cura Hotend and WAIT
;*** End Preheating ***

;*** Single Print Start Tone
M300 S1000 P500 ; chirp to indicate starting to print
;*** End Single Start Tone

G28 ;Home

G92 E0 ;Reset Extruder
G1 Z2.0 F3000 ;Move Z Axis up

G1 X10.1 Y20 Z0.28 F5000.0 ;Move to start position
G1 X10.1 Y200.0 Z0.28 F1500.0 E15 ;Draw the first line
G1 X10.4 Y200.0 Z0.28 F5000.0 ;Move to side a little
G1 X10.4 Y20 Z0.28 F1500.0 E30 ;Draw the second line
G92 E0 ;Reset Extruder
G1 Z2.0 F3000 ;Move Z Axis up
G92 E0
G92 E0
G1 F2400 E-2
;LAYER_COUNT:34
;LAYER:0
M107
M204 S500
M205 X5 Y5
G0 F7500 X92.009 Y84.666 Z0.28
G0 X85.297 Y95.279
M205 X8 Y8
;TYPE:SKIRT
G1 F1200 E0
G1 F1500 X85.585 Y94.565 E0.0364
G1 X85.77 Y94.141 E0.05827
G1 X86.218 Y93.19 E0.10797
G1 X86.782 Y92.086 E0.16658
G1 X87.254 Y91.229 E0.21283
G1 X87.575 Y90.679 E0.24294
G1 X88.186 Y89.689 E0.29794
G1 X88.49 Y89.227 E0.32409
G1 X89.432 Y87.873 E0.40207
G1 X89.668 Y87.546 E0.42114
G1 X90.146 Y86.919 E0.45841
G1 X90.902 Y85.974 E0.51562
G1 X91.676 Y85.046 E0.57275
G1 X92.009 Y84.666 E0.59664
G1 X92.843 Y83.76 E0.65486
G1 X93.918 Y82.663 E0.72747
G1 X94.202 Y82.386 E0.74623
G1 X95.318 Y81.345 E0.81838
G1 X95.749 Y80.967 E0.84548
G1 X96.347 Y80.465 E0.8824
G1 X97.379 Y79.646 E0.94468
G1 X97.893 Y79.265 E0.97493
G1 X98.658 Y78.725 E1.0192
G1 X99.133 Y78.408 E1.0462
G1 X99.69 Y78.052 E1.07745
G1 X100.105 Y77.8 E1.10041
G1 X100.814 Y77.391 E1.1391
G1 X101.484 Y77.027 E1.17515
G1 X101.849 Y76.841 E1.19452
G1 X102.486 Y76.532 E1.22799
G1 X102.972 Y76.311 E1.25323
G1 X103.603 Y76.043 E1.28564
G1 X104.41 Y75.726 E1.32664
G1 X104.858 Y75.565 E1.34914
G1 X105.703 Y75.289 E1.39117
G1 X106.453 Y75.066 E1.42816
G1 X107.155 Y74.883 E1.46246
G1 X107.894 Y74.717 E1.49827
G1 X108.341 Y74.626 E1.51983
G1 X109.017 Y74.508 E1.55228
G1 X109.883 Y74.387 E1.59362
G1 X110.572 Y74.314 E1.62637
G1 X111.192 Y74.267 E1.65577
G1 X111.922 Y74.24 E1.6903
G1 X112.617 Y74.234 E1.72316
G1 X113.51 Y74.256 E1.76539
G1 X114.143 Y74.294 E1.79537
G1 X114.584 Y74.335 E1.81631
G1 X115.186 Y74.409 E1.84499
G1 X116 Y74.529 E1.88389
G1 X116.862 Y74.686 E1.92531
G1 X117.52 Y74.836 E1.95722
G1 X118.051 Y74.975 E1.98317
G1 X118.48 Y75.097 E2.00425
G1 X118.985 Y75.252 E2.02923
G1 X119.633 Y75.47 E2.06155
G1 X120.087 Y75.642 E2.0845
G1 X120.884 Y75.968 E2.12521
G1 X121.434 Y76.218 E2.15378
G1 X122.198 Y76.586 E2.19387
G1 X123.1 Y77.074 E2.24235
G1 X123.976 Y77.605 E2.29078
G1 X124.682 Y78.073 E2.33083
G1 X125.265 Y78.493 E2.3648
G1 X125.884 Y78.974 E2.40186
G1 X126.2 Y79.239 E2.42136
G1 X126.767 Y79.739 E2.4571
G1 X127.396 Y80.348 E2.49849
G1 X127.941 Y80.939 E2.5365
G1 X128.571 Y81.667 E2.58201
G1 X128.966 Y82.151 E2.61155
G1 X129.703 Y83.111 E2.66877
G1 X130.249 Y83.865 E2.71278
G1 X130.789 Y84.679 E2.75896
G1 X131.259 Y85.474 E2.80262
G1 X131.514 Y85.987 E2.82971
G1 X132.022 Y87.083 E2.88682
G1 X133.435 Y90.301 E3.05298
G1 X133.606 Y90.714 E3.07411
G1 X134.459 Y92.901 E3.18509
G1 X134.785 Y93.873 E3.23356
G1 X135.53 Y96.505 E3.36288
G1 X135.764 Y97.513 E3.4118
G1 X136.212 Y99.991 E3.53086
G1 X136.297 Y100.546 E3.5574
G1 X136.375 Y101.169 E3.58708
G1 X136.566 Y102.879 E3.66843
G1 X136.66 Y103.625 E3.70398
G1 X136.716 Y104.205 E3.73153
G1 X136.882 Y106.554 E3.84286
G1 X136.98 Y107.567 E3.89097
G1 X137.058 Y108.492 E3.93486
G1 X137.096 Y109.415 E3.97853
G1 X137.014 Y110.708 E4.03979
G1 X136.676 Y113.423 E4.16913
G1 X136.529 Y114.302 E4.21127
G1 X136.424 Y114.801 E4.23538
G1 X136.281 Y115.395 E4.26426
G1 X135.53 Y118.165 E4.39995
G1 X134.93 Y120.678 E4.52209
G1 X134.417 Y123.124 E4.64025
G1 X133.974 Y125.576 E4.75805
G1 X133.59 Y128.124 E4.87987
G1 X133.289 Y130.563 E4.99606
G1 X133.204 Y131.328 E5.03245
G1 X133.063 Y132.262 E5.0771
G1 X132.828 Y133.257 E5.12544
G1 X132.538 Y134.134 E5.16911
G1 X132.174 Y134.983 E5.21278
G1 X131.737 Y135.797 E5.25646
G1 X131.238 Y136.562 E5.29964
G1 X130.992 Y136.906 E5.31963
G1 X130.423 Y137.634 E5.36332
G1 X129.772 Y138.33 E5.40837
G1 X129.369 Y138.724 E5.43502
G1 X128.624 Y139.415 E5.48306
G1 X127.688 Y140.182 E5.54027
G1 X127.419 Y140.378 E5.556
G1 X126.327 Y141.076 E5.61728
G1 X126.09 Y141.208 E5.6301
G1 X125.264 Y141.622 E5.67378
G1 X124.245 Y142.018 E5.72547
G1 X123.909 Y142.129 E5.7422
G1 X123.02 Y142.381 E5.78588
G1 X121.701 Y142.607 E5.84915
G1 X121.138 Y142.668 E5.87592
G1 X118.604 Y142.979 E5.99662
G1 X116.089 Y143.359 E6.11688
G1 X113.595 Y143.81 E6.2367
G1 X111.159 Y144.321 E6.35437
G1 X108.678 Y144.915 E6.47498
G1 X107.567 Y145.213 E6.52936
G1 X106.834 Y145.398 E6.5651
G1 X105.929 Y145.584 E6.60878
G1 X105.011 Y145.691 E6.65248
G1 X104.087 Y145.718 E6.69618
G1 X103.165 Y145.665 E6.73984
G1 X102.251 Y145.533 E6.7835
G1 X101.351 Y145.322 E6.8272
G1 X100.473 Y145.034 E6.87089
G1 X99.624 Y144.671 E6.91454
G1 X98.808 Y144.236 E6.95826
G1 X98.034 Y143.732 E7.00193
G1 X97.306 Y143.164 E7.04558
G1 X96.63 Y142.534 E7.08927
G1 X96.011 Y141.848 E7.13295
G1 X95.453 Y141.112 E7.17662
G1 X94.961 Y140.329 E7.22034
G1 X94.42 Y139.24 E7.27783
G1 X94.185 Y138.676 E7.30671
G1 X92.725 Y134.934 E7.49661
G1 X92.424 Y134.131 E7.53715
G1 X92.189 Y133.43 E7.57211
G1 X91.395 Y130.756 E7.70398
G1 X90.596 Y128.32 E7.82519
G1 X89.745 Y125.95 E7.94424
G1 X88.826 Y123.607 E8.06323
G1 X87.826 Y121.254 E8.1841
G1 X87.013 Y119.448 E8.27773
G1 X86.749 Y118.808 E8.31046
G1 X86.517 Y118.165 E8.34278
G1 X86.293 Y117.466 E8.37748
G1 X85.401 Y114.435 E8.52686
G1 X84.621 Y112.039 E8.64598
G1 X84.322 Y111.196 E8.68827
G1 X84.101 Y110.545 E8.72077
G1 X83.777 Y109.482 E8.77331
G1 X83.552 Y108.586 E8.81699
G1 X83.448 Y107.997 E8.84527
G1 X83.399 Y107.665 E8.86113
G1 X83.301 Y106.695 E8.90722
G1 X83.283 Y106.369 E8.92266
G1 X83.274 Y105.394 E8.96876
G1 X83.313 Y104.315 E9.0198
G1 X83.382 Y103.195 E9.07285
G1 X83.449 Y102.513 E9.10525
G1 X83.604 Y101.375 E9.15955
G1 X83.733 Y100.623 E9.19562
G1 X83.813 Y100.22 E9.21505
G1 X84.06 Y99.145 E9.26719
G1 X84.155 Y98.771 E9.28544
G1 X84.47 Y97.637 E9.34108
G1 X84.627 Y97.127 E9.36631
G1 X84.827 Y96.54 E9.39562
G1 X85.297 Y95.279 E9.45925
M205 X5 Y5
G1 F2400 E7.45925
G0 F7500 X83.778 Y104.028
M205 X8 Y8
G1 F1200 E9.45925
G1 F1500 X83.831 Y103.224 E9.49734
G1 X83.895 Y102.572 E9.52831
G1 X83.998 Y101.784 E9.56589
G1 X84.115 Y101.041 E9.60145
G1 X84.255 Y100.308 E9.63673
G1 X84.498 Y99.248 E9.68814
G1 X84.811 Y98.078 E9.7454
G1 X85.058 Y97.26 E9.7858
G1 X85.249 Y96.697 E9.8139
G1 X85.719 Y95.436 E9.87753
G1 X86.001 Y94.736 E9.91321
G1 X86.178 Y94.33 E9.93414
G1 X86.619 Y93.394 E9.98306
G1 X87.178 Y92.301 E10.0411
G1 X87.643 Y91.456 E10.0867
G1 X88.11 Y90.663 E10.13021
G1 X88.568 Y89.926 E10.17123
G1 X88.859 Y89.484 E10.19625
G1 X89.801 Y88.13 E10.27423
G1 X90.028 Y87.817 E10.29251
G1 X90.498 Y87.2 E10.32918
G1 X91.254 Y86.255 E10.3864
G1 X92.021 Y85.335 E10.44302
G1 X92.34 Y84.971 E10.46591
G1 X93.174 Y84.065 E10.52412
G1 X94.238 Y82.979 E10.596
G1 X94.51 Y82.713 E10.61399
G1 X95.355 Y81.919 E10.66881
G1 X96.248 Y81.133 E10.72505
G1 X96.635 Y80.811 E10.74885
G1 X97.649 Y80.006 E10.81006
G1 X98.154 Y79.631 E10.8398
G1 X98.701 Y79.242 E10.87153
G1 X99.164 Y78.926 E10.89803
G1 X99.932 Y78.431 E10.94123
G1 X100.33 Y78.19 E10.96323
G1 X101.039 Y77.781 E11.00192
G1 X101.696 Y77.424 E11.03727
G1 X102.045 Y77.246 E11.0558
G1 X102.682 Y76.937 E11.08927
G1 X103.148 Y76.726 E11.11345
G1 X104.101 Y76.327 E11.1623
G1 X104.571 Y76.146 E11.18611
G1 X105.001 Y75.992 E11.2077
G1 X105.831 Y75.72 E11.249
G1 X106.581 Y75.497 E11.28599
G1 X107.254 Y75.322 E11.31886
G1 X107.993 Y75.156 E11.35467
G1 X108.421 Y75.069 E11.37532
G1 X109.085 Y74.953 E11.40719
G1 X109.931 Y74.835 E11.44757
G1 X110.62 Y74.762 E11.48033
G1 X111.214 Y74.716 E11.50849
G1 X111.926 Y74.69 E11.54218
G1 X112.621 Y74.684 E11.57504
G1 X113.494 Y74.705 E11.61632
G1 X114.111 Y74.743 E11.64555
G1 X114.534 Y74.782 E11.66563
G1 X115.12 Y74.854 E11.69354
G1 X115.934 Y74.974 E11.73244
G1 X116.776 Y75.127 E11.7729
G1 X117.406 Y75.271 E11.80345
G1 X117.937 Y75.41 E11.8294
G1 X118.853 Y75.682 E11.87458
G1 X119.483 Y75.895 E11.90602
G1 X119.919 Y76.059 E11.92804
G1 X120.41 Y76.257 E11.95307
G1 X120.919 Y76.475 E11.97925
G1 X122.003 Y76.991 E12.03601
G1 X122.866 Y77.459 E12.08242
G1 X123.742 Y77.99 E12.13085
G1 X124.419 Y78.438 E12.16923
G1 X125.002 Y78.858 E12.2032
G1 X125.595 Y79.319 E12.23871
G1 X126.151 Y79.791 E12.27319
G1 X126.468 Y80.074 E12.29328
G1 X127.069 Y80.658 E12.3329
G1 X127.601 Y81.233 E12.36994
G1 X128.231 Y81.961 E12.41545
G1 X128.61 Y82.425 E12.44378
G1 X129.347 Y83.385 E12.501
G1 X129.883 Y84.127 E12.54427
G1 X130.13 Y84.49 E12.56503
G1 X130.412 Y84.924 E12.5895
G1 X130.871 Y85.703 E12.63225
G1 X131.106 Y86.177 E12.65726
G1 X131.61 Y87.264 E12.7139
G1 X133.023 Y90.482 E12.88006
G1 X133.187 Y90.878 E12.90033
G1 X134.04 Y93.065 E13.01131
G1 X134.352 Y93.995 E13.05768
G1 X135.097 Y96.627 E13.18701
G1 X135.321 Y97.593 E13.23389
G1 X135.769 Y100.071 E13.35294
G1 X135.851 Y100.603 E13.37839
G1 X135.928 Y101.219 E13.40774
G1 X136.125 Y102.982 E13.49161
G1 X136.213 Y103.681 E13.52491
G1 X136.268 Y104.237 E13.55133
G1 X136.437 Y106.629 E13.6647
G1 X136.532 Y107.605 E13.71106
G1 X136.61 Y108.53 E13.75494
G1 X136.646 Y109.433 E13.79767
G1 X136.568 Y110.652 E13.85542
G1 X136.23 Y113.367 E13.98477
G1 X136.089 Y114.209 E14.02513
G1 X135.984 Y114.708 E14.04924
G1 X135.847 Y115.277 E14.07691
G1 X135.086 Y118.087 E14.21454
G1 X134.498 Y120.548 E14.33416
G1 X133.978 Y123.026 E14.45387
G1 X133.525 Y125.536 E14.57445
G1 X133.143 Y128.07 E14.69561
G1 X132.833 Y130.581 E14.81522
G1 X132.756 Y131.278 E14.84837
G1 X132.621 Y132.178 E14.8914
G1 X132.389 Y133.153 E14.93878
G1 X132.103 Y134.011 E14.98154
G1 X131.743 Y134.84 E15.02427
G1 X131.311 Y135.634 E15.067
G1 X130.872 Y136.301 E15.10475
G1 X130.626 Y136.645 E15.12475
G1 X130.068 Y137.356 E15.16748
G1 X129.457 Y138.008 E15.20972
G1 X128.823 Y138.621 E15.25141
G1 X128.319 Y139.084 E15.28377
G1 X127.423 Y139.818 E15.33853
G1 X127.154 Y140.014 E15.35426
G1 X126.108 Y140.683 E15.41297
G1 X125.871 Y140.815 E15.42579
G1 X125.063 Y141.22 E15.46852
G1 X124.103 Y141.591 E15.51718
G1 X123.767 Y141.702 E15.53391
G1 X122.897 Y141.947 E15.57664
G1 X121.653 Y142.159 E15.6363
G1 X121.164 Y142.212 E15.65955
G1 X118.52 Y142.536 E15.78549
G1 X116.01 Y142.916 E15.90551
G1 X113.532 Y143.364 E16.02456
G1 X111.03 Y143.888 E16.14541
G1 X108.575 Y144.477 E16.26477
G1 X107.29 Y144.82 E16.32765
G1 X106.724 Y144.962 E16.35524
G1 X105.838 Y145.143 E16.39799
G1 X104.94 Y145.245 E16.44072
G1 X104.036 Y145.267 E16.48347
G1 X103.134 Y145.209 E16.5262
G1 X102.24 Y145.072 E16.56896
G1 X101.362 Y144.857 E16.6117
G1 X100.506 Y144.564 E16.65447
G1 X99.679 Y144.198 E16.69723
G1 X98.889 Y143.759 E16.73996
G1 X98.14 Y143.253 E16.78269
G1 X97.438 Y142.682 E16.82547
G1 X96.79 Y142.052 E16.8682
G1 X96.2 Y141.366 E16.91098
G1 X95.673 Y140.632 E16.9537
G1 X95.213 Y139.853 E16.99647
G1 X94.834 Y139.063 E17.03789
G1 X94.604 Y138.513 E17.06608
G1 X93.144 Y134.771 E17.25598
G1 X92.845 Y133.973 E17.29627
G1 X92.62 Y133.302 E17.32972
G1 X91.812 Y130.581 E17.46392
G1 X91.031 Y128.202 E17.5823
G1 X90.16 Y125.777 E17.70411
G1 X89.244 Y123.439 E17.82283
G1 X88.241 Y121.082 E17.94393
G1 X87.423 Y119.264 E18.03818
G1 X87.171 Y118.65 E18.06956
G1 X86.945 Y118.023 E18.10107
G1 X86.724 Y117.339 E18.13505
G1 X85.823 Y114.279 E18.28586
G1 X85.046 Y111.892 E18.40454
G1 X84.527 Y110.401 E18.47918
G1 X84.209 Y109.354 E18.53091
G1 X83.989 Y108.477 E18.57366
G1 X83.894 Y107.931 E18.59986
G1 X83.845 Y107.599 E18.61572
G1 X83.751 Y106.67 E18.65987
G1 X83.733 Y106.344 E18.6753
G1 X83.724 Y105.411 E18.71942
G1 X83.778 Y104.028 E18.78485
M205 X5 Y5
G1 F2400 E16.78485
G0 F7500 X103.846 Y135.871
G0 X120.652 Y132.672
G0 X121.177 Y132.499
G0 X121.83 Y132.076
G0 X122.822 Y131.138
G0 X123.19 Y130.621
G0 X123.287 Y130.091
G0 X121.613 Y122.975
G0 X115.5 Y119.045
G0 X119.632 Y115.228
G0 X120.503 Y115.41
M205 X8 Y8
;TYPE:SUPPORT-INTERFACE
G1 F1200 E18.78485
G1 F1500 X120.574 Y115.07 E18.80127
G1 X120.941 Y114.827 E18.82208
G1 X120.882 Y114.69 E18.82913
G1 X120.97 Y114.271 E18.84937
G1 X120.846 Y113.986 E18.86407
G1 X120.917 Y113.645 E18.88054
G1 X121.175 Y113.473 E18.8952
G1 X121.666 Y113.536 E18.9186
G1 X121.822 Y113.326 E18.93097
G1 X121.622 Y112.864 E18.95477
G1 X121.693 Y112.523 E18.97123
G1 X121.952 Y112.351 E18.98593
G1 X122.303 Y112.391 E19.00264
G1 X121.995 Y111.683 E19.03914
G1 X122.066 Y111.342 E19.05561
G1 X122.349 Y111.155 E19.07164
G1 X122.231 Y110.885 E19.08557
G1 X122.302 Y110.544 E19.10204
G1 X122.558 Y110.374 E19.11657
G1 X122.626 Y110.383 E19.11981
G1 X122.786 Y110.172 E19.13233
G1 X122.747 Y110.083 E19.13692
G1 X122.825 Y109.714 E19.15475
G1 X122.713 Y109.625 E19.16152
G1 X122.632 Y109.439 E19.17111
G1 X122.364 Y109.23 E19.18718
G1 X122.181 Y108.806 E19.20901
G1 X122.252 Y108.465 E19.22548
G1 X122.511 Y108.293 E19.24018
G1 X122.623 Y108.307 E19.24551
G1 X122.779 Y108.098 E19.25784
G1 X122.574 Y107.625 E19.28221
G1 X122.645 Y107.284 E19.29868
G1 X122.768 Y107.202 E19.30567
G1 X122.862 Y106.755 E19.32727
G1 X123.298 Y106.466 E19.352
G1 X122.896 Y106.152 E19.37611
G1 X122.842 Y106.025 E19.38264
G1 X122.58 Y105.821 E19.39833
G1 X122.397 Y105.397 E19.42017
G1 X122.468 Y105.056 E19.43663
G1 X122.639 Y104.942 E19.44635
G1 X122.707 Y104.62 E19.46191
G1 X122.965 Y104.448 E19.47657
G1 X123.369 Y104.499 E19.49582
G1 X123.563 Y104.651 E19.50747
G1 X123.652 Y104.593 E19.5125
G1 X124.055 Y104.644 E19.5317
G1 X124.243 Y104.792 E19.54301
G1 X124.322 Y104.739 E19.54751
G1 X124.518 Y104.763 E19.55684
G1 X124.604 Y104.349 E19.57684
G1 X124.862 Y104.177 E19.59149
G1 X125.266 Y104.228 E19.61075
G1 X125.658 Y104.534 E19.63426
G1 X125.841 Y104.958 E19.65609
G1 X125.77 Y105.299 E19.67256
G1 X125.511 Y105.471 E19.68726
G1 X125.314 Y105.447 E19.69664
G1 X125.228 Y105.862 E19.71668
G1 X125.005 Y106.015 E19.72946
G1 X125.213 Y106.171 E19.74175
G1 X125.286 Y106.337 E19.75033
G1 X125.37 Y106.35 E19.75435
G1 X125.764 Y106.657 E19.77796
G1 X125.947 Y107.081 E19.79979
G1 X125.876 Y107.422 E19.81626
G1 X125.782 Y107.484 E19.82158
G1 X125.859 Y107.666 E19.83093
G1 X125.788 Y108.008 E19.84744
G1 X125.53 Y108.18 E19.8621
G1 X125.098 Y108.125 E19.88269
G1 X124.942 Y108.338 E19.89517
G1 X125.068 Y108.616 E19.9096
G1 X125.621 Y108.686 E19.93595
G1 X126.013 Y108.992 E19.95946
G1 X126.196 Y109.416 E19.9813
G1 X126.125 Y109.757 E19.99776
G1 X125.867 Y109.928 E20.0124
G1 X125.675 Y109.903 E20.02155
G1 X125.583 Y110.341 E20.04271
G1 X125.425 Y110.446 E20.05168
G1 X125.599 Y110.85 E20.07248
G1 X125.528 Y111.189 E20.08885
G1 X125.25 Y111.374 E20.10464
G1 X125.674 Y111.706 E20.1301
G1 X125.857 Y112.13 E20.15193
G1 X125.786 Y112.471 E20.1684
G1 X125.528 Y112.643 E20.18306
G1 X125.124 Y112.592 E20.20231
G1 X124.73 Y112.283 E20.22598
G1 X124.453 Y112.496 E20.2425
G1 X124.543 Y112.706 E20.2533
G1 X124.472 Y113.047 E20.26977
G1 X124.215 Y113.218 E20.28436
G1 X124.124 Y113.205 E20.28871
G1 X123.965 Y113.415 E20.30116
G1 X124.17 Y113.887 E20.32549
G1 X124.135 Y114.052 E20.33347
G1 X124.215 Y114.112 E20.33819
G1 X124.4 Y114.539 E20.36019
G1 X124.546 Y114.653 E20.36895
G1 X124.729 Y115.077 E20.39078
G1 X124.658 Y115.418 E20.40725
G1 X124.366 Y115.612 E20.42382
G1 X124.435 Y115.772 E20.43206
G1 X124.364 Y116.113 E20.44853
G1 X124.106 Y116.285 E20.46319
G1 X123.703 Y116.233 E20.4824
G1 X123.44 Y116.409 E20.49736
G1 X123.406 Y116.572 E20.50523
G1 X123.148 Y116.744 E20.51989
G1 X122.744 Y116.693 E20.53914
