;FLAVOR:Marlin
;TIME:4571
;Filament used: 2.63239m
;Layer height: 0.2
;MINX:75.405
;MINY:61.854
;MINZ:0.24
;MAXX:144.242
;MAXY:158.139
;MAXZ:10.32
;Generated with Cura_SteamEngine 4.10.0
M82 ;absolute extrusion mode
M201 X500.00 Y500.00 Z100.00 E5000.00 ;Setup machine max acceleration
M203 X500.00 Y500.00 Z10.00 E50.00 ;Setup machine max feedrate
M204 P500.00 R1000.00 T500.00 ;Setup Print/Retract/Travel acceleration
M205 X8.00 Y8.00 Z0.40 E5.00 ;Setup Jerk
M220 S100 ;Reset Feedrate
M221 S100 ;Reset Flowrate

;*** Start Dual Nozzle/Bed Preheating ***
M140 S50 ; start preheating the bed
M104 S200 ?T0 ; start preheating hotend
M190 S50 ; heat to Cura Bed setting and WAIT
M109 S200 ?T0 ; heat to Cura Hotend and WAIT
;*** End Preheating ***

;*** Single Print Start Tone
M300 S1000 P500 ; chirp to indicate starting to print
;*** End Single Start Tone

G28 ;Home

G92 E0 ;Reset Extruder
G1 Z2.0 F3000 ;Move Z Axis up

G1 X10.1 Y20 Z0.28 F5000.0 ;Move to start position
G1 X10.1 Y200.0 Z0.28 F1500.0 E15 ;Draw the first line
G1 X10.4 Y200.0 Z0.28 F5000.0 ;Move to side a little
G1 X10.4 Y20 Z0.28 F1500.0 E30 ;Draw the second line
G92 E0 ;Reset Extruder
G1 Z2.0 F3000 ;Move Z Axis up
G92 E0
G92 E0
G1 F2400 E-3.2
;LAYER_COUNT:51
;LAYER:0
M106 S63.8
M204 S500
M205 X6 Y6
G0 F9000 X86.993 Y75.816 Z0.24
;TYPE:SKIRT
G1 F1440 E0
G1 F1800 X87.291 Y75.478 E0.01798
G1 X88.426 Y74.249 E0.08475
G1 X88.661 Y74.005 E0.09828
G1 X89.78 Y72.874 E0.16178
G1 X90.044 Y72.617 E0.17648
G1 X91.298 Y71.438 E0.24518
G1 X91.559 Y71.201 E0.25925
G1 X92.202 Y70.637 E0.29339
G1 X92.631 Y70.274 E0.31582
G1 X93.501 Y69.559 E0.36076
G1 X93.702 Y69.398 E0.37104
G1 X94.344 Y68.897 E0.40354
G1 X94.957 Y68.44 E0.43406
G1 X95.108 Y68.33 E0.44152
G1 X95.841 Y67.809 E0.47741
G1 X96.067 Y67.653 E0.48837
G1 X96.687 Y67.237 E0.51817
G1 X96.937 Y67.074 E0.53008
G1 X97.544 Y66.692 E0.5587
G1 X97.926 Y66.463 E0.57648
G1 X99.298 Y65.681 E0.63951
G1 X99.879 Y65.375 E0.66572
G1 X101.323 Y64.671 E0.72984
G1 X101.842 Y64.435 E0.75259
G1 X102.525 Y64.148 E0.78216
G1 X102.846 Y64.02 E0.79595
G1 X103.878 Y63.627 E0.84003
G1 X104.455 Y63.424 E0.86444
G1 X104.687 Y63.348 E0.87419
G1 X105.461 Y63.107 E0.90654
G1 X106.196 Y62.89 E0.93713
G1 X106.711 Y62.753 E0.9584
G1 X107.501 Y62.564 E0.99082
G1 X107.794 Y62.498 E1.00281
G1 X108.298 Y62.393 E1.02335
G1 X108.976 Y62.268 E1.05087
G1 X109.278 Y62.218 E1.06309
G1 X109.856 Y62.132 E1.08641
G1 X110.415 Y62.06 E1.10891
G1 X111.454 Y61.948 E1.15061
G1 X112.211 Y61.895 E1.1809
G1 X112.842 Y61.868 E1.20611
G1 X113.669 Y61.854 E1.23912
G1 X114.197 Y61.858 E1.2602
G1 X115.035 Y61.886 E1.29366
G1 X115.565 Y61.917 E1.31485
G1 X116.251 Y61.978 E1.34234
G1 X116.913 Y62.049 E1.36891
G1 X117.416 Y62.112 E1.38914
G1 X118.156 Y62.229 E1.41905
G1 X118.782 Y62.343 E1.44444
G1 X119.403 Y62.471 E1.46975
G1 X119.831 Y62.572 E1.4873
G1 X120.69 Y62.795 E1.52272
G1 X121.218 Y62.944 E1.54462
G1 X121.495 Y63.027 E1.55616
G1 X121.979 Y63.181 E1.57643
G1 X122.473 Y63.349 E1.59726
G1 X123.119 Y63.591 E1.62479
G1 X123.683 Y63.815 E1.64901
G1 X124.009 Y63.952 E1.66312
G1 X124.694 Y64.253 E1.69299
G1 X125.391 Y64.58 E1.72372
G1 X126.01 Y64.891 E1.75136
G1 X126.634 Y65.221 E1.77954
G1 X127.053 Y65.461 E1.79881
G1 X127.837 Y65.933 E1.83533
G1 X128.548 Y66.392 E1.86911
G1 X129.024 Y66.722 E1.89223
G1 X129.21 Y66.856 E1.90138
G1 X129.677 Y67.201 E1.92455
G1 X130.276 Y67.67 E1.95492
G1 X130.839 Y68.143 E1.98426
G1 X131.305 Y68.551 E2.00898
G1 X131.713 Y68.928 E2.03116
G1 X132.136 Y69.357 E2.0552
G1 X132.665 Y69.925 E2.08618
G1 X133.043 Y70.345 E2.10873
G1 X133.398 Y70.752 E2.13029
G1 X133.911 Y71.37 E2.16234
G1 X134.054 Y71.548 E2.17146
G1 X134.883 Y72.605 E2.22507
G1 X135.147 Y72.957 E2.24263
G1 X135.795 Y73.861 E2.28703
G1 X136.158 Y74.394 E2.31276
G1 X136.637 Y75.13 E2.34781
G1 X137.068 Y75.859 E2.38161
G1 X137.276 Y76.247 E2.39918
G1 X137.69 Y76.997 E2.43338
G1 X138.368 Y78.251 E2.49027
G1 X138.746 Y79.027 E2.52472
G1 X139.156 Y79.967 E2.56566
G1 X140.102 Y82.062 E2.6574
G1 X140.211 Y82.314 E2.66836
G1 X140.411 Y82.812 E2.68978
G1 X140.572 Y83.246 E2.70825
G1 X141.3 Y85.147 E2.7895
G1 X141.63 Y85.982 E2.82533
G1 X141.913 Y86.797 E2.85977
G1 X142.25 Y87.924 E2.90672
G1 X142.381 Y88.386 E2.92588
G1 X142.8 Y89.746 E2.98268
G1 X143.074 Y90.61 E3.01886
G1 X143.308 Y91.482 E3.05489
G1 X143.408 Y92.003 E3.07607
G1 X143.893 Y94.673 E3.18438
G1 X144.002 Y95.219 E3.2066
G1 X144.076 Y95.624 E3.22303
G1 X144.199 Y96.518 E3.25905
G1 X144.242 Y97.42 E3.29509
G1 X144.137 Y100.955 E3.43624
G1 X144.138 Y102.853 E3.512
G1 X144.13 Y103.639 E3.54337
G1 X144.123 Y103.93 E3.55499
G1 X144.071 Y105.264 E3.60827
G1 X144.037 Y105.868 E3.63241
G1 X143.973 Y106.818 E3.67042
G1 X143.942 Y107.173 E3.68464
G1 X143.865 Y107.972 E3.71668
G1 X143.698 Y110.014 E3.79845
G1 X143.567 Y111.369 E3.85278
G1 X143.465 Y112.282 E3.88945
G1 X143.266 Y114.722 E3.98716
G1 X143.227 Y115.124 E4.00328
G1 X143.092 Y116.017 E4.03932
G1 X142.925 Y116.733 E4.06867
G1 X142.602 Y117.92 E4.11777
G1 X142.574 Y118.058 E4.12339
G1 X142.186 Y119.494 E4.18276
G1 X141.593 Y121.964 E4.28414
G1 X141.073 Y124.454 E4.38567
G1 X140.623 Y126.939 E4.48646
G1 X140.246 Y129.435 E4.58721
G1 X139.931 Y131.996 E4.6902
G1 X139.697 Y134.49 E4.79017
G1 X139.531 Y137.031 E4.89181
G1 X139.454 Y139.106 E4.97468
G1 X139.446 Y139.205 E4.97865
G1 X139.408 Y140.452 E5.02844
G1 X139.341 Y141.353 E5.0645
G1 X139.265 Y141.871 E5.0854
G1 X139.137 Y142.552 E5.11305
G1 X138.918 Y143.428 E5.14909
G1 X138.623 Y144.282 E5.18515
G1 X138.415 Y144.771 E5.20636
G1 X138.296 Y145.031 E5.21777
G1 X137.884 Y145.835 E5.25383
G1 X137.405 Y146.595 E5.28969
G1 X137.193 Y146.901 E5.30454
G1 X136.798 Y147.434 E5.33102
G1 X136.644 Y147.628 E5.34091
G1 X135.911 Y148.455 E5.38502
G1 X135.348 Y149.005 E5.41643
G1 X134.864 Y149.465 E5.44308
G1 X134.196 Y150.08 E5.47932
G1 X133.559 Y150.617 E5.51257
G1 X133.411 Y150.732 E5.52005
G1 X132.977 Y151.052 E5.54157
G1 X132.665 Y151.269 E5.55674
G1 X132.15 Y151.605 E5.58128
G1 X131.677 Y151.882 E5.60316
G1 X131.435 Y152.016 E5.6142
G1 X130.626 Y152.418 E5.65026
G1 X129.848 Y152.726 E5.68366
G1 X129.144 Y152.964 E5.71332
G1 X128.927 Y153.031 E5.72238
G1 X128.053 Y153.259 E5.75843
G1 X126.722 Y153.453 E5.81211
G1 X125.318 Y153.563 E5.86832
G1 X124.734 Y153.601 E5.89168
G1 X122.192 Y153.841 E5.99359
G1 X119.65 Y154.154 E6.09581
G1 X117.179 Y154.529 E6.19556
G1 X114.658 Y154.986 E6.29782
G1 X112.146 Y155.514 E6.40027
G1 X109.736 Y156.091 E6.49918
G1 X107.238 Y156.766 E6.60246
G1 X105.101 Y157.405 E6.69148
G1 X104.202 Y157.685 E6.72906
G1 X103.329 Y157.915 E6.76509
G1 X102.439 Y158.067 E6.80113
G1 X101.538 Y158.139 E6.8372
G1 X100.635 Y158.132 E6.87325
G1 X99.736 Y158.045 E6.9093
G1 X98.849 Y157.879 E6.94531
G1 X97.979 Y157.634 E6.98139
G1 X97.428 Y157.435 E7.00477
G1 X96.689 Y157.144 E7.03647
G1 X94.239 Y156.218 E7.141
G1 X93.075 Y155.81 E7.19023
G1 X92.748 Y155.689 E7.20415
G1 X91.916 Y155.338 E7.24019
G1 X91.118 Y154.916 E7.27622
G1 X90.416 Y154.463 E7.30956
G1 X89.899 Y154.099 E7.3348
G1 X89.389 Y153.724 E7.36007
G1 X88.689 Y153.154 E7.3961
G1 X88.043 Y152.523 E7.43214
G1 X87.454 Y151.838 E7.46819
G1 X86.929 Y151.104 E7.50421
G1 X86.47 Y150.326 E7.54027
G1 X86.082 Y149.51 E7.57633
G1 X85.829 Y148.847 E7.60465
G1 X85.645 Y148.31 E7.62731
G1 X85.426 Y147.618 E7.65628
G1 X85.198 Y146.744 E7.69233
G1 X85.048 Y145.853 E7.72839
G1 X84.999 Y145.361 E7.74812
G1 X84.896 Y143.964 E7.80403
G1 X84.884 Y143.758 E7.81227
G1 X84.662 Y141.261 E7.91232
G1 X84.366 Y138.729 E8.01407
G1 X83.998 Y136.215 E8.11548
G1 X83.561 Y133.714 E8.21681
G1 X83.048 Y131.202 E8.31914
G1 X82.48 Y128.772 E8.41874
G1 X81.831 Y126.314 E8.5202
G1 X81.111 Y123.867 E8.62201
G1 X80.106 Y120.813 E8.75033
G1 X79.902 Y120.203 E8.776
G1 X79.806 Y119.899 E8.78873
G1 X79.577 Y119.127 E8.82087
G1 X79.518 Y118.918 E8.82953
G1 X78.826 Y116.39 E8.93414
G1 X78.08 Y113.937 E9.03648
G1 X77.261 Y111.498 E9.13916
G1 X76.747 Y110.074 E9.19959
G1 X76.43 Y109.218 E9.23602
G1 X76.233 Y108.629 E9.26081
G1 X76.005 Y107.874 E9.29229
G1 X75.859 Y107.352 E9.31392
G1 X75.609 Y106.128 E9.36378
G1 X75.538 Y105.625 E9.38405
G1 X75.455 Y104.793 E9.41743
G1 X75.423 Y104.244 E9.43938
G1 X75.405 Y103.733 E9.45978
G1 X75.405 Y103.169 E9.48229
G1 X75.432 Y102.388 E9.51348
G1 X75.482 Y101.55 E9.54699
G1 X75.562 Y100.2 E9.60097
G1 X75.634 Y99.45 E9.63104
G1 X75.816 Y98.086 E9.68596
G1 X75.89 Y97.612 E9.70511
G1 X75.989 Y97.067 E9.72722
G1 X76.143 Y96.317 E9.75777
G1 X76.321 Y95.519 E9.79041
G1 X76.456 Y94.939 E9.81417
G1 X76.525 Y94.657 E9.82576
G1 X76.667 Y94.117 E9.84805
G1 X76.738 Y93.862 E9.85861
G1 X76.939 Y93.177 E9.8871
G1 X77.245 Y92.188 E9.92842
G1 X77.44 Y91.604 E9.953
G1 X77.535 Y91.337 E9.96431
G1 X77.966 Y90.179 E10.01362
G1 X78.145 Y89.729 E10.03295
G1 X78.718 Y88.388 E10.09116
G1 X78.999 Y87.776 E10.11803
G1 X79.607 Y86.54 E10.17301
G1 X79.743 Y86.274 E10.18494
G1 X80.163 Y85.481 E10.22075
G1 X80.477 Y84.905 E10.24693
G1 X80.623 Y84.646 E10.2588
G1 X80.986 Y84.024 E10.28754
G1 X81.113 Y83.814 E10.29734
G1 X81.9 Y82.537 E10.35721
G1 X82.317 Y81.894 E10.3878
G1 X82.479 Y81.654 E10.39935
G1 X83.584 Y80.071 E10.47641
G1 X83.774 Y79.807 E10.48939
G1 X84.151 Y79.302 E10.51454
G1 X84.355 Y79.038 E10.52786
G1 X85.101 Y78.104 E10.57557
G1 X85.378 Y77.749 E10.59354
G1 X85.695 Y77.357 E10.61366
G1 X85.831 Y77.193 E10.62216
G1 X86.993 Y75.816 E10.69407
G1 F2400 E7.49407
G0 F9000 X111.103 Y71.579
G0 X112.621 Y71.413
G0 X114.764 Y71.411
G0 X115.969 Y71.527
G0 X117.108 Y71.723
G0 X119.076 Y72.254
G0 X121.019 Y73.049
G0 X122.606 Y73.9
G0 X124.146 Y74.963
G0 X125.183 Y75.865
G0 X126.872 Y77.825
G0 X127.894 Y79.189
G0 X128.683 Y80.369
G0 X130.066 Y82.981
G0 X131.53 Y86.292
G0 X132.83 Y89.677
G0 X134.032 Y93.76
G0 X134.719 Y97.568
G0 X133.835 Y99.751
G0 X121.785 Y125.996
G0 X120.652 Y127.597
G0 X119.204 Y129.352
G0 X111.32 Y138.612
G1 F1440 E10.69407
G1 F1800 X111.454 Y138.568 E10.6997
G1 X111.537 Y138.682 E10.70533
G1 X111.454 Y138.796 E10.71096
G1 X111.32 Y138.752 E10.71659
G1 X111.32 Y138.612 E10.72218
G0 F9000 X110.98 Y138.365
G1 F1800 X111.25 Y138.168 E10.73552
G1 X111.584 Y138.168 E10.74885
G1 X111.854 Y138.365 E10.76219
G1 X111.957 Y138.682 E10.77549
G1 X111.854 Y138.999 E10.78879
G1 X111.584 Y139.196 E10.80213
G1 X111.25 Y139.196 E10.81546
G1 X110.98 Y138.999 E10.8288
G1 X110.877 Y138.682 E10.84211
G1 X110.98 Y138.365 E10.85541
G0 F9000 X110.64 Y138.118
G1 F1800 X111.12 Y137.768 E10.87912
G1 X111.714 Y137.768 E10.90283
G1 X112.194 Y138.118 E10.92654
G1 X112.377 Y138.682 E10.9502
G1 X112.194 Y139.246 E10.97387
G1 X111.714 Y139.596 E10.99758
G1 X111.12 Y139.596 E11.02129
G1 X110.64 Y139.246 E11.045
G1 X110.457 Y138.682 E11.06866
G1 X110.64 Y138.118 E11.09233
G0 F9000 X110.299 Y137.872
G1 F1800 X110.991 Y137.368 E11.1265
G1 X111.843 Y137.368 E11.1605
G1 X112.535 Y137.872 E11.19467
G1 X112.799 Y138.682 E11.22867
G1 X112.535 Y139.492 E11.26268
G1 X111.843 Y139.996 E11.29684
G1 X110.991 Y139.996 E11.33085
G1 X110.299 Y139.492 E11.36502
G1 X110.035 Y138.682 E11.39902
G1 X110.299 Y137.872 E11.43302
G1 F2400 E8.23302
G0 F9000 X122.349 Y130.679
G0 X126.476 Y129.677
G0 X127.147 Y130.396
G0 X129.814 Y139.614
G0 X129.886 Y140.204
G0 X129.757 Y140.812
G0 X129.579 Y141.171
G0 X129.172 Y141.724
G0 X127.692 Y143.113
G0 X126.713 Y143.734
G0 X125.924 Y143.964
G0 X101.229 Y148.634
G0 X100.671 Y148.371
G0 X97.871 Y143.799
G1 F1440 E11.43302
G1 F1800 X98.135 Y144.609 E11.46703
G1 X97.871 Y145.419 E11.50103
G1 X97.179 Y145.923 E11.5352
G1 X96.327 Y145.923 E11.5692
G1 X95.635 Y145.419 E11.60337
G1 X95.371 Y144.609 E11.63737
G1 X95.635 Y143.799 E11.67137
G1 X96.327 Y143.295 E11.70554
G1 X97.179 Y143.295 E11.73955
G1 X97.871 Y143.799 E11.77372
G0 F9000 X97.53 Y144.045
G1 F1800 X97.713 Y144.609 E11.79738
G1 X97.53 Y145.173 E11.82105
G1 X97.05 Y145.523 E11.84476
G1 X96.456 Y145.523 E11.86847
G1 X95.976 Y145.173 E11.89218
G1 X95.793 Y144.609 E11.91584
G1 X95.976 Y144.045 E11.93951
G1 X96.456 Y143.695 E11.96322
G1 X97.05 Y143.695 E11.98692
G1 X97.53 Y144.045 E12.01063
G0 F9000 X97.19 Y144.292
G1 F1800 X97.293 Y144.609 E12.02394
G1 X97.19 Y144.926 E12.03724
G1 X96.92 Y145.123 E12.05058
G1 X96.586 Y145.123 E12.06391
G1 X96.316 Y144.926 E12.07725
G1 X96.213 Y144.609 E12.09055
G1 X96.316 Y144.292 E12.10386
G1 X96.586 Y144.095 E12.1172
G1 X96.92 Y144.095 E12.13053
G1 X97.19 Y144.292 E12.14387
G0 F9000 X96.873 Y144.609
G1 F1800 X96.79 Y144.723 E12.1495
G1 X96.656 Y144.679 E12.15513
G1 X96.656 Y144.539 E12.16071
G1 X96.79 Y144.495 E12.16634
G1 X96.873 Y144.609 E12.17197
G1 F2400 E8.97197
G0 F9000 X100.608 Y148.341
G0 X101.229 Y148.634
G0 X126.08 Y143.942
G0 X126.791 Y143.699
G0 X127.739 Y143.079
G0 X129.227 Y141.661
G0 X129.619 Y141.104
G0 X129.791 Y140.708
G0 X129.886 Y140.055
G0 X125.607 Y120.762
;TYPE:SUPPORT-INTERFACE
G1 F1440 E12.17197
G1 F1800 X125.456 Y120.299 E12.19141
G1 X125.607 Y119.836 E12.21085
G1 X126.003 Y119.548 E12.23039
G1 X126.293 Y119.548 E12.24196
G1 X126.406 Y119.201 E12.25653
G1 X126.802 Y118.913 E12.27607
G1 X127.093 Y118.913 E12.28769
G1 X126.995 Y118.611 E12.30036
G1 X127.166 Y118.086 E12.3224
G1 X127.144 Y118.016 E12.32532
G1 X127.295 Y117.552 E12.3448
G1 X127.485 Y117.413 E12.35419
G1 X127.575 Y117.139 E12.36571
G1 X127.971 Y116.851 E12.38525
G1 X128.146 Y116.851 E12.39223
G1 X128.178 Y116.75 E12.39646
G1 X128.501 Y116.515 E12.4124
G1 X128.63 Y116.12 E12.42899
G1 X128.098 Y115.732 E12.45527
G1 X127.947 Y115.269 E12.47471
G1 X128.098 Y114.805 E12.49418
G1 X128.423 Y114.568 E12.51024
G1 X128.232 Y113.981 E12.53487
G1 X128.408 Y113.44 E12.55758
G1 X128.326 Y113.187 E12.5682
G1 X128.477 Y112.724 E12.58763
G1 X128.63 Y112.613 E12.59518
G1 X128.701 Y112.393 E12.6044
G1 X128.757 Y112.352 E12.60717
G1 X128.9 Y111.911 E12.62568
G1 X128.829 Y111.691 E12.6349
G1 X128.998 Y111.173 E12.65665
G1 X128.978 Y111.112 E12.65921
G1 X129.116 Y110.689 E12.67697
G1 X129.028 Y110.419 E12.68831
G1 X129.179 Y109.956 E12.70774
G1 X129.469 Y109.745 E12.72206
G1 X129.61 Y109.312 E12.74023
G1 X129.692 Y109.271 E12.74389
G1 X129.59 Y108.961 E12.75692
G1 X129.774 Y108.396 E12.78063
G1 X129.564 Y108.243 E12.791
G1 X129.413 Y107.779 E12.81048
G1 X129.564 Y107.316 E12.82992
G1 X129.607 Y107.285 E12.83203
G1 X129.783 Y106.744 E12.85474
G1 X129.73 Y106.582 E12.86154
G1 X129.881 Y106.119 E12.88098
G1 X130.126 Y105.941 E12.89306
G1 X130.279 Y105.471 E12.91279
G1 X129.765 Y105.096 E12.93819
G1 X129.614 Y104.633 E12.95762
G1 X129.765 Y104.17 E12.97706
G1 X130.002 Y103.997 E12.98877
G1 X129.965 Y103.879 E12.99371
G1 X129.983 Y103.826 E12.99594
G1 X129.93 Y103.67 E13.00252
G1 X129.795 Y103.571 E13.0092
G1 X129.634 Y103.076 E13.02997
G1 X129.58 Y103.037 E13.03263
G1 X129.429 Y102.574 E13.05207
G1 X129.58 Y102.111 E13.07151
G1 X129.708 Y102.018 E13.07782
G1 X129.724 Y101.97 E13.07984
G1 X133.004 Y101.463 E13.21231
G1 X133.072 Y101.674 E13.22116
G1 X132.921 Y102.137 E13.24059
G1 X132.767 Y102.249 E13.24819
G1 X132.594 Y102.778 E13.27041
G1 X133.184 Y102.778 E13.29396
G1 X133.58 Y103.066 E13.3135
G1 X133.731 Y103.529 E13.33294
G1 X133.58 Y103.992 E13.35237
G1 X133.038 Y104.387 E13.37914
G1 X133.509 Y104.73 E13.4024
G1 X133.66 Y105.193 E13.42183
G1 X133.509 Y105.656 E13.44127
G1 X133.057 Y105.985 E13.46358
G1 X133.391 Y106.228 E13.48007
G1 X133.542 Y106.691 E13.49951
G1 X133.391 Y107.154 E13.51894
G1 X132.995 Y107.442 E13.53849
G1 X132.947 Y107.442 E13.5404
G1 X132.691 Y107.628 E13.55303
G1 X132.63 Y107.815 E13.56088
G1 X132.234 Y108.103 E13.58043
G1 X131.949 Y108.103 E13.5918
G1 X131.629 Y108.335 E13.60758
G1 X131.504 Y108.335 E13.61257
G1 X131.376 Y108.729 E13.6291
G1 X131.205 Y108.854 E13.63755
G1 X131.025 Y109.406 E13.66073
G1 X130.943 Y109.447 E13.66439
G1 X131.091 Y109.899 E13.68337
G1 X131.381 Y109.899 E13.69494
G1 X131.528 Y109.449 E13.71384
G1 X131.77 Y109.273 E13.72578
G1 X131.796 Y109.192 E13.72918
G1 X131.815 Y109.178 E13.73012
G1 X131.875 Y108.994 E13.73784
G1 X132.271 Y108.706 E13.75739
G1 X132.757 Y108.706 E13.77678
G1 X133.153 Y108.994 E13.79633
G1 X133.304 Y109.457 E13.81576
G1 X133.153 Y109.921 E13.83524
