;FLAVOR:Marlin
;TIME:2441
;Filament used: 1.4735m
;Layer height: 0.2
;MINX:79.894
;MINY:69.047
;MINZ:0.28
;MAXX:140.119
;MAXY:150.952
;MAXZ:8.32
;Generated with Cura_SteamEngine main
M82 ;absolute extrusion mode
M201 X500.00 Y500.00 Z100.00 E5000.00 ;Setup machine max acceleration
M203 X500.00 Y500.00 Z10.00 E50.00 ;Setup machine max feedrate
M204 P500.00 R1000.00 T500.00 ;Setup Print/Retract/Travel acceleration
M205 X8.00 Y8.00 Z0.40 E5.00 ;Setup Jerk
M220 S100 ;Reset Feedrate
M221 S100 ;Reset Flowrate

;*** Start Dual Nozzle/Bed Preheating ***
M140 S50 ; start preheating the bed
M104 S200 ?T0 ; start preheating hotend
M190 S50 ; heat to Cura Bed setting and WAIT
M109 S200 ?T0 ; heat to Cura Hotend and WAIT
;*** End Preheating ***

;*** Single Print Start Tone
M300 S1000 P500 ; chirp to indicate starting to print
;*** End Single Start Tone

G28 ;Home

G92 E0 ;Reset Extruder
G1 Z2.0 F3000 ;Move Z Axis up

G1 X10.1 Y20 Z0.28 F5000.0 ;Move to start position
G1 X10.1 Y200.0 Z0.28 F1500.0 E15 ;Draw the first line
G1 X10.4 Y200.0 Z0.28 F5000.0 ;Move to side a little
G1 X10.4 Y20 Z0.28 F1500.0 E30 ;Draw the second line
G92 E0 ;Reset Extruder
G1 Z2.0 F3000 ;Move Z Axis up
G92 E0
G92 E0
G1 F2400 E-2
;LAYER_COUNT:40
;LAYER:0
M106 S63.8
M204 S500
M205 X6 Y6
G0 F9000 X89.705 Y81.097 Z0.28
G0 X83.656 Y89.848
;TYPE:SKIRT
G1 F1200 E0
G1 F1800 X84.223 Y88.79 E0.05589
G1 X84.768 Y87.843 E0.10677
G1 X85.544 Y86.591 E0.17536
G1 X85.839 Y86.144 E0.2003
G1 X86.952 Y84.546 E0.29098
G1 X87.619 Y83.643 E0.34325
G1 X88.717 Y82.278 E0.42482
G1 X89.705 Y81.097 E0.49652
G1 X91.138 Y79.552 E0.59464
G1 X92.1 Y78.578 E0.65839
G1 X93.529 Y77.225 E0.75002
G1 X94.404 Y76.465 E0.80399
G1 X95.245 Y75.773 E0.8547
G1 X96.018 Y75.162 E0.90058
G1 X96.483 Y74.813 E0.92766
G1 X97.263 Y74.255 E0.97231
G1 X97.901 Y73.822 E1.00822
G1 X98.958 Y73.154 E1.06644
G1 X99.41 Y72.885 E1.09093
G1 X100.531 Y72.257 E1.15076
G1 X101.726 Y71.656 E1.21305
G1 X102.711 Y71.22 E1.26321
G1 X103.219 Y71.01 E1.2888
G1 X104.057 Y70.684 E1.33067
G1 X104.594 Y70.493 E1.35721
G1 X105.594 Y70.171 E1.40613
G1 X106.304 Y69.961 E1.44061
G1 X107.083 Y69.753 E1.47815
G1 X108.382 Y69.482 E1.53994
G1 X109.063 Y69.364 E1.57212
G1 X109.605 Y69.283 E1.59764
G1 X110.125 Y69.219 E1.62204
G1 X111.022 Y69.13 E1.66401
G1 X111.552 Y69.091 E1.68876
G1 X112.545 Y69.051 E1.73503
G1 X113.098 Y69.047 E1.76078
G1 X114.098 Y69.072 E1.80736
G1 X114.878 Y69.121 E1.84375
G1 X115.577 Y69.191 E1.87646
G1 X116.835 Y69.367 E1.93561
G1 X117.461 Y69.477 E1.96521
G1 X118.012 Y69.591 E1.99141
G1 X118.552 Y69.718 E2.01724
G1 X119.568 Y69.984 E2.06614
G1 X120.653 Y70.334 E2.11923
G1 X121.466 Y70.632 E2.15955
G1 X122.001 Y70.846 E2.18638
G1 X122.591 Y71.103 E2.21635
G1 X123.44 Y71.504 E2.26007
G1 X123.948 Y71.761 E2.28658
G1 X124.439 Y72.026 E2.31256
G1 X124.918 Y72.301 E2.33827
G1 X125.821 Y72.851 E2.38751
G1 X126.489 Y73.294 E2.42483
G1 X127.106 Y73.737 E2.4602
G1 X127.661 Y74.163 E2.49278
G1 X128.057 Y74.489 E2.51666
G1 X128.686 Y75.033 E2.55538
G1 X129.491 Y75.813 E2.60758
G1 X129.874 Y76.226 E2.63381
G1 X130.807 Y77.294 E2.69984
G1 X131.177 Y77.753 E2.72729
G1 X132.156 Y79.024 E2.802
G1 X132.874 Y80.034 E2.8597
G1 X133.354 Y80.775 E2.90081
G1 X133.716 Y81.377 E2.93352
G1 X134.113 Y82.089 E2.97148
G1 X134.836 Y83.434 E3.04258
G1 X135.229 Y84.242 E3.08442
G1 X135.439 Y84.723 E3.10886
G1 X136.128 Y86.245 E3.18665
G1 X136.497 Y87.092 E3.22967
G1 X137.608 Y89.984 E3.37393
G1 X137.871 Y90.757 E3.41195
G1 X138.156 Y91.714 E3.45845
G1 X138.81 Y93.844 E3.5622
G1 X139.101 Y95.032 E3.61916
G1 X139.657 Y98.046 E3.76187
G1 X139.782 Y98.933 E3.80358
G1 X139.885 Y99.985 E3.8528
G1 X139.967 Y100.956 E3.89817
G1 X140.063 Y101.904 E3.94254
G1 X140.117 Y102.95 E3.99131
G1 X140.119 Y103.834 E4.03248
G1 X140.107 Y104.869 E4.08067
G1 X140.108 Y105.913 E4.12929
G1 X140.09 Y106.542 E4.15859
G1 X139.911 Y109.604 E4.30141
G1 X139.772 Y110.801 E4.35752
G1 X139.547 Y112.098 E4.41882
G1 X139.199 Y114.225 E4.51918
G1 X139.003 Y115.158 E4.56357
G1 X138.438 Y117.354 E4.66915
G1 X137.873 Y119.811 E4.78655
G1 X137.361 Y122.364 E4.90779
G1 X136.945 Y124.797 E5.02273
G1 X136.587 Y127.32 E5.14139
G1 X136.304 Y129.816 E5.25836
G1 X136.089 Y132.35 E5.37677
G1 X135.95 Y134.733 E5.48792
G1 X135.856 Y135.649 E5.5308
G1 X135.714 Y136.445 E5.56845
G1 X135.5 Y137.341 E5.61135
G1 X135.209 Y138.214 E5.6542
G1 X134.843 Y139.059 E5.69707
G1 X134.302 Y140.038 E5.74916
G1 X133.951 Y140.601 E5.78005
G1 X133.431 Y141.36 E5.82289
G1 X132.846 Y142.072 E5.8658
G1 X132.347 Y142.592 E5.89936
G1 X131.799 Y143.125 E5.93496
G1 X131.068 Y143.803 E5.98138
G1 X130.364 Y144.398 E6.0243
G1 X129.796 Y144.808 E6.05692
G1 X129.116 Y145.265 E6.09507
G1 X128.33 Y145.745 E6.13796
G1 X127.506 Y146.155 E6.18081
G1 X126.574 Y146.517 E6.22737
G1 X126.094 Y146.678 E6.25094
G1 X125.209 Y146.932 E6.29382
G1 X123.864 Y147.166 E6.35739
G1 X123.053 Y147.253 E6.39537
G1 X121.687 Y147.381 E6.45925
G1 X119.202 Y147.683 E6.57581
G1 X116.693 Y148.063 E6.69398
G1 X114.17 Y148.517 E6.81334
G1 X111.75 Y149.022 E6.92846
G1 X109.256 Y149.619 E7.04787
G1 X106.936 Y150.24 E7.1597
G1 X105.81 Y150.557 E7.21417
G1 X104.914 Y150.768 E7.25703
G1 X104.003 Y150.9 E7.2999
G1 X103.083 Y150.952 E7.3428
G1 X102.163 Y150.924 E7.38566
G1 X101.249 Y150.817 E7.42851
G1 X100.347 Y150.631 E7.4714
G1 X99.465 Y150.367 E7.51427
G1 X98.609 Y150.028 E7.55714
G1 X97.786 Y149.615 E7.60002
G1 X97.002 Y149.133 E7.64287
G1 X96.262 Y148.584 E7.68577
G1 X95.573 Y147.974 E7.72862
G1 X94.94 Y147.306 E7.77148
G1 X94.367 Y146.585 E7.81436
G1 X93.858 Y145.818 E7.85722
G1 X93.418 Y145.009 E7.9001
G1 X93.187 Y144.503 E7.92601
G1 X92.965 Y143.969 E7.95293
G1 X90.988 Y138.897 E8.20641
G1 X90.75 Y138.261 E8.23804
G1 X90.513 Y137.552 E8.27284
G1 X90.306 Y136.852 E8.30684
G1 X89.776 Y134.943 E8.39909
G1 X89.035 Y132.532 E8.51654
G1 X88.23 Y130.153 E8.63348
G1 X87.345 Y127.763 E8.75216
G1 X86.41 Y125.443 E8.86863
G1 X84.907 Y122.053 E9.0413
G1 X84.438 Y121.049 E9.0929
G1 X84.153 Y120.402 E9.12582
G1 X83.905 Y119.774 E9.15726
G1 X83.712 Y119.237 E9.18383
G1 X83.526 Y118.671 E9.21157
G1 X83.157 Y117.429 E9.2719
G1 X82.764 Y116.012 E9.34038
G1 X82.023 Y113.601 E9.45783
G1 X80.767 Y109.965 E9.63695
G1 X80.502 Y109.118 E9.67827
G1 X80.328 Y108.49 E9.70862
G1 X80.051 Y107.151 E9.77229
G1 X79.942 Y106.087 E9.82209
G1 X79.907 Y105.512 E9.84892
G1 X79.894 Y104.495 E9.89628
G1 X79.948 Y103.066 E9.96286
G1 X80.015 Y102 E10.0126
G1 X80.088 Y101.256 E10.04741
G1 X80.282 Y99.859 E10.11308
G1 X80.394 Y99.232 E10.14274
G1 X80.59 Y98.267 E10.18859
G1 X80.79 Y97.387 E10.23061
G1 X81.205 Y95.86 E10.3043
G1 X81.511 Y94.891 E10.35161
G1 X81.697 Y94.354 E10.37808
G1 X82.179 Y93.072 E10.44185
G1 X82.613 Y92.008 E10.49536
G1 X83.065 Y91.031 E10.54548
G1 X83.656 Y89.848 E10.60706
G1 F2400 E8.60706
G0 F9000 X80.676 Y99.926
G1 F1200 E10.60706
G1 F1800 X80.786 Y99.312 E10.63611
G1 X80.982 Y98.347 E10.68196
G1 X81.176 Y97.493 E10.72274
G1 X81.584 Y95.99 E10.79526
G1 X81.893 Y95.011 E10.84306
G1 X82.072 Y94.494 E10.86854
G1 X82.554 Y93.212 E10.93231
G1 X82.988 Y92.15 E10.98573
G1 X83.428 Y91.199 E11.03452
G1 X84.013 Y90.028 E11.09548
G1 X84.739 Y88.687 E11.16648
G1 X85.271 Y87.784 E11.21529
G1 X85.883 Y86.803 E11.26913
G1 X86.167 Y86.372 E11.29316
G1 X87.28 Y84.774 E11.38384
G1 X87.844 Y84.011 E11.42802
G1 X89.028 Y82.529 E11.51635
G1 X90.002 Y81.364 E11.58706
G1 X91.423 Y79.833 E11.68432
G1 X92.51 Y78.733 E11.75633
G1 X93.808 Y77.511 E11.83934
G1 X94.659 Y76.773 E11.89179
G1 X95.494 Y76.086 E11.94214
G1 X96.258 Y75.482 E11.98749
G1 X96.723 Y75.133 E12.01456
G1 X97.495 Y74.581 E12.05876
G1 X98.124 Y74.154 E12.09416
G1 X99.17 Y73.492 E12.1518
G1 X99.605 Y73.234 E12.17535
G1 X100.721 Y72.609 E12.23491
G1 X101.877 Y72.028 E12.29515
G1 X102.584 Y71.71 E12.33125
G1 X103.372 Y71.38 E12.37103
G1 X104.201 Y71.057 E12.41246
G1 X104.718 Y70.873 E12.43801
G1 X105.707 Y70.555 E12.48638
G1 X106.417 Y70.345 E12.52086
G1 X107.171 Y70.143 E12.55721
G1 X108.453 Y69.875 E12.61819
G1 X109.122 Y69.76 E12.6498
G1 X109.664 Y69.679 E12.67532
G1 X110.165 Y69.617 E12.69883
G1 X111.062 Y69.528 E12.7408
G1 X111.572 Y69.49 E12.76461
G1 X112.548 Y69.451 E12.8101
G1 X113.101 Y69.447 E12.83585
G1 X114.084 Y69.472 E12.88163
G1 X114.848 Y69.52 E12.91728
G1 X115.533 Y69.589 E12.94934
G1 X116.778 Y69.763 E13.00787
G1 X117.38 Y69.869 E13.03634
G1 X117.931 Y69.983 E13.06254
G1 X118.451 Y70.104 E13.0874
G1 X119.434 Y70.362 E13.13472
G1 X120.733 Y70.779 E13.19825
G1 X121.852 Y71.218 E13.25422
G1 X122.42 Y71.465 E13.28306
G1 X123.269 Y71.866 E13.32678
G1 X123.758 Y72.113 E13.35229
G1 X124.249 Y72.378 E13.37827
G1 X124.71 Y72.643 E13.40303
G1 X125.613 Y73.193 E13.45226
G1 X126.256 Y73.618 E13.48815
G1 X126.873 Y74.061 E13.52352
G1 X127.407 Y74.472 E13.5549
G1 X127.803 Y74.798 E13.57878
G1 X128.423 Y75.334 E13.61695
G1 X129.198 Y76.085 E13.6672
G1 X129.777 Y76.716 E13.70707
G1 X130.498 Y77.548 E13.75834
G1 X130.86 Y77.997 E13.78519
G1 X131.715 Y79.107 E13.85044
G1 X132.523 Y80.229 E13.91482
G1 X133.018 Y80.993 E13.95721
G1 X133.367 Y81.572 E13.98869
G1 X133.764 Y82.284 E14.02665
G1 X134.484 Y83.625 E14.09752
G1 X134.862 Y84.402 E14.13775
G1 X135.078 Y84.898 E14.16295
G1 X135.763 Y86.41 E14.24024
G1 X136.134 Y87.262 E14.28351
G1 X137.235 Y90.127 E14.42643
G1 X137.488 Y90.871 E14.46302
G1 X137.774 Y91.831 E14.50966
G1 X138.428 Y93.961 E14.61341
G1 X138.708 Y95.105 E14.66826
G1 X139.264 Y98.119 E14.81097
G1 X139.384 Y98.972 E14.85108
G1 X139.486 Y100.018 E14.90002
G1 X139.567 Y100.978 E14.94488
G1 X139.665 Y101.945 E14.99014
G1 X139.717 Y102.951 E15.03704
G1 X139.719 Y103.835 E15.0782
G1 X139.707 Y104.869 E15.12635
G1 X139.708 Y105.913 E15.17497
G1 X139.691 Y106.518 E15.20315
G1 X139.512 Y109.58 E15.34597
G1 X139.378 Y110.732 E15.39998
G1 X139.162 Y111.976 E15.45877
G1 X138.805 Y114.161 E15.56186
G1 X138.616 Y115.058 E15.60455
G1 X138.046 Y117.271 E15.71096
G1 X137.475 Y119.756 E15.82968
G1 X136.975 Y122.249 E15.94808
G1 X136.548 Y124.75 E16.06622
G1 X136.193 Y127.251 E16.18385
G1 X135.907 Y129.774 E16.30208
G1 X135.69 Y132.332 E16.42162
G1 X135.551 Y134.709 E16.53249
G1 X135.458 Y135.608 E16.57458
G1 X135.321 Y136.369 E16.61058
G1 X135.11 Y137.247 E16.65263
G1 X134.823 Y138.103 E16.69467
G1 X134.46 Y138.931 E16.73677
G1 X133.963 Y139.826 E16.78443
G1 X133.612 Y140.389 E16.81533
G1 X133.1 Y141.134 E16.85742
G1 X132.525 Y141.83 E16.89946
G1 X132.068 Y142.305 E16.93015
G1 X131.52 Y142.838 E16.96575
G1 X130.797 Y143.509 E17.01168
G1 X130.106 Y144.092 E17.05378
G1 X129.573 Y144.476 E17.08437
G1 X128.893 Y144.933 E17.12252
G1 X128.121 Y145.403 E17.1646
G1 X127.312 Y145.803 E17.20662
G1 X126.447 Y146.138 E17.24982
G1 X125.967 Y146.299 E17.27339
G1 X125.099 Y146.548 E17.31544
G1 X123.821 Y146.769 E17.37583
G1 X123.016 Y146.855 E17.41353
G1 X121.638 Y146.984 E17.47798
G1 X119.127 Y147.29 E17.59576
G1 X116.634 Y147.667 E17.71317
G1 X114.123 Y148.119 E17.83197
G1 X111.647 Y148.636 E17.94975
G1 X109.164 Y149.23 E18.06863
G1 X106.823 Y149.857 E18.18148
G1 X105.702 Y150.172 E18.2357
G1 X104.822 Y150.378 E18.27778
G1 X103.928 Y150.505 E18.31983
G1 X103.026 Y150.553 E18.36189
G1 X102.124 Y150.52 E18.40392
G1 X101.228 Y150.408 E18.44597
G1 X100.345 Y150.217 E18.48803
G1 X99.483 Y149.949 E18.53007
G1 X98.647 Y149.605 E18.57216
G1 X97.846 Y149.189 E18.61419
G1 X97.084 Y148.704 E18.65625
G1 X96.369 Y148.153 E18.69828
G1 X95.704 Y147.541 E18.74036
G1 X95.097 Y146.873 E18.78239
G1 X94.551 Y146.154 E18.82443
G1 X94.071 Y145.389 E18.86648
G1 X93.555 Y144.347 E18.92063
G1 X93.338 Y143.824 E18.94699
G1 X91.363 Y138.757 E19.20022
G1 X91.125 Y138.121 E19.23184
G1 X90.897 Y137.438 E19.26537
G1 X90.641 Y136.567 E19.30764
G1 X90.165 Y134.847 E19.39075
G1 X89.413 Y132.401 E19.5099
G1 X88.608 Y130.022 E19.62685
G1 X87.715 Y127.611 E19.74657
G1 X86.778 Y125.285 E19.86333
G1 X85.268 Y121.879 E20.03682
G1 X84.801 Y120.88 E20.08817
G1 X84.52 Y120.243 E20.12059
G1 X84.281 Y119.639 E20.15083
G1 X84.088 Y119.102 E20.17741
G1 X83.909 Y118.557 E20.20412
G1 X83.54 Y117.315 E20.26445
G1 X83.143 Y115.884 E20.3336
G1 X82.404 Y113.479 E20.45075
G1 X81.145 Y109.835 E20.63027
G1 X80.885 Y109.002 E20.67091
G1 X80.714 Y108.386 E20.70068
G1 X80.447 Y107.093 E20.76215
G1 X80.341 Y106.063 E20.81037
G1 X80.306 Y105.488 E20.83719
G1 X80.293 Y104.509 E20.88278
G1 X80.333 Y103.372 E20.93576
G1 X80.414 Y102.025 E20.99859
G1 X80.485 Y101.309 E21.0321
G1 X80.676 Y99.926 E21.09711
G1 F2400 E19.09711
G0 F9000 X101.945 Y83.127
G0 X103.946 Y81.739
G0 X105.762 Y80.737
G0 X107.649 Y79.937
G0 X109.122 Y79.479
G0 X110.767 Y79.145
G0 X112.82 Y78.973
G0 X114.79 Y79.09
G0 X116.659 Y79.482
G0 X118.477 Y80.126
G0 X120.104 Y80.977
G0 X121.338 Y81.814
G0 X122.191 Y82.539
G0 X123.727 Y84.332
G0 X125.154 Y86.371
G0 X126.2 Y88.122
G0 X128.521 Y92.871
G0 X129.436 Y96.788
G0 X129.998 Y99.858
G0 X127.429 Y114.959
G0 X127.324 Y115.08
G1 F1200 E21.09711
G1 F1800 X127.429 Y114.959 E21.10457
G1 X127.464 Y115.12 E21.11224
G1 X127.324 Y115.08 E21.11902
G1 F2400 E19.11902
G0 F9000 X123.157 Y117.921
;TYPE:SUPPORT-INTERFACE
G1 F1200 E21.11902
G1 F1800 X123.182 Y117.625 E21.13285
G1 X123.344 Y117.112 E21.1579
G1 X123.98 Y115.353 E21.245
G1 X124.439 Y113.866 E21.31746
G1 X124.961 Y111.803 E21.41655
G1 X125.199 Y110.542 E21.4763
G1 X125.35 Y109.468 E21.52681
G1 X125.505 Y107.8 E21.60481
G1 X125.598 Y106.294 E21.67507
G1 X125.625 Y105.143 E21.72868
G1 X125.597 Y103.48 E21.80613
G1 X125.56 Y103.003 E21.8284
G1 X128.401 Y102.563 E21.96227
G1 X128.282 Y102.854 E21.97691
G1 X129.17 Y102.796 E22.01835
G1 X129.296 Y102.987 E22.029
G1 X128.634 Y104.278 E22.09656
G1 X128.645 Y104.778 E22.11985
G1 X128.742 Y104.948 E22.12896
G1 X128.354 Y105.707 E22.16865
G1 X129.175 Y105.707 E22.20688
G1 X129.288 Y105.905 E22.2175
G1 X127.78 Y108.446 E22.35508
G1 X128.045 Y108.998 E22.3836
G1 X128.998 Y109.138 E22.42845
G1 X127.177 Y111.868 E22.58125
G1 X127.408 Y112.434 E22.60972
G1 X128.376 Y112.643 E22.65583
G1 X127.397 Y113.774 E22.72549
G1 X127.275 Y114.25 E22.74837
G1 X127.323 Y114.47 E22.75885
G1 X126.613 Y115.29 E22.80936
G1 X127.561 Y115.564 E22.85531
G1 X127.607 Y115.775 E22.86536
G1 X126.076 Y117.091 E22.95937
G1 X124.876 Y118.102 E23.03244
G1 X124.553 Y118.329 E23.05082
G1 X124.347 Y118.408 E23.06109
G1 X124.003 Y118.428 E23.07714
G1 X123.519 Y118.327 E23.10016
G1 X123.364 Y118.248 E23.10826
G1 X123.247 Y118.144 E23.11555
G1 X123.177 Y118.019 E23.12222
G1 X123.157 Y117.921 E23.12688
G0 F9000 X123.407 Y117.574
G1 F1800 X127.183 Y113.798 E23.37553
G1 X127.233 Y113.656
G1 X125.196 Y111.62 E23.50964
G0 F9000 X124.957 Y112.63
G1 F1800 X128.344 Y109.243 E23.73268
G0 F9000 X127.697 Y110.727
G1 F1800 X125.625 Y108.654 E23.86916
G1 X125.634 Y108.559
G1 X128.286 Y105.906 E24.04383
G0 F9000 X128.442 Y104.683
G1 F1800 X126.776 Y103.017 E24.15354
G0 F9000 X127.967 Y102.831
G1 F1800 X125.821 Y104.977 E24.29486
G0 F9000 X125.816 Y105.452
G1 F1800 X128.017 Y107.652 E24.43976
G1 F2400 E22.43976
G0 F9000 X124.505 Y114.323
G1 F1200 E24.43976
G1 F1800 X126.577 Y116.394 E24.57617
G0 F9000 X124.74 Y117.951
G1 F1800 X123.647 Y116.859 E24.64812
G1 F2400 E22.64812
;MESH:CableClamp_no_loop.stl
G0 F9000 X122.331 Y125.791
G0 X122.564 Y126.838
G0 X121.864 Y127.467
G1 F1200 E24.64812
G0 F9000 X121.466 Y128.143
;TYPE:WALL-OUTER
G1 F1555.1 X121.07 Y128.486 E24.67635
G1 F1800 X120.557 Y129.042 E24.71158
G1 X118.902 Y130.721 E24.82136
G1 X118.133 Y131.468 E24.87128
G1 X117.581 Y131.969 E24.90599
G1 X116.352 Y132.987 E24.9803
G1 X115.145 Y133.851 E25.04942
G1 X113.924 Y134.634 E25.11696
G1 X112.797 Y135.234 E25.17641
G1 X110.526 Y136.332 E25.29387
G1 F1718.4 X110.407 Y136.412 E25.30086
G1 F1448.7 X110.162 Y136.718 E25.32354
G1 F1506.3 X109.881 Y136.568 E25.34127
G1 F1800 X107.654 Y132.165 E25.57102
G1 X107.654 Y132.065 E25.57568
G1 X107.744 Y131.938 E25.58293
G1 X109.767 Y130.834 E25.69024
G1 X111.074 Y130.056 E25.76107
G1 X112.325 Y129.25 E25.83036
G1 X113.694 Y128.266 E25.90887
G1 X114.561 Y127.519 E25.96216
G1 X115.125 Y126.946 E25.99959
G1 X115.928 Y126.068 E26.055
G1 X117.172 Y124.607 E26.14435
G1 X117.963 Y123.603 E26.20386
