;FLAVOR:Marlin
;TIME:2432
;Filament used: 2.34771m
;Layer height: 0.2
;MINX:75.587
;MINY:62.032
;MINZ:0.28
;MAXX:144.381
;MAXY:157.915
;MAXZ:10.48
;Generated with Cura_SteamEngine main
M82 ;absolute extrusion mode
M201 X500.00 Y500.00 Z100.00 E5000.00 ;Setup machine max acceleration
M203 X500.00 Y500.00 Z10.00 E50.00 ;Setup machine max feedrate
M204 P500.00 R1000.00 T500.00 ;Setup Print/Retract/Travel acceleration
M205 X8.00 Y8.00 Z0.40 E5.00 ;Setup Jerk
M220 S100 ;Reset Feedrate
M221 S100 ;Reset Flowrate

;*** Start Dual Nozzle/Bed Preheating ***
M140 S50 ; start preheating the bed
M104 S200 ?T0 ; start preheating hotend
M190 S50 ; heat to Cura Bed setting and WAIT
M109 S200 ?T0 ; heat to Cura Hotend and WAIT
;*** End Preheating ***

;*** Single Print Start Tone
M300 S1000 P500 ; chirp to indicate starting to print
;*** End Single Start Tone

G28 ;Home

G92 E0 ;Reset Extruder
G1 Z2.0 F3000 ;Move Z Axis up

G1 X10.1 Y20 Z0.28 F5000.0 ;Move to start position
G1 X10.1 Y200.0 Z0.28 F1500.0 E15 ;Draw the first line
G1 X10.4 Y200.0 Z0.28 F5000.0 ;Move to side a little
G1 X10.4 Y20 Z0.28 F1500.0 E30 ;Draw the second line
G92 E0 ;Reset Extruder
G1 Z2.0 F3000 ;Move Z Axis up
G92 E0
G92 E0
G1 F2400 E-2
;LAYER_COUNT:52
;LAYER:0
M107
M204 S500
M205 X5 Y5
G0 F7500 X86.873 Y76.214 Z0.28
G0 X83.928 Y79.893
M205 X8 Y8
;TYPE:SKIRT
G1 F1200 E0
G1 F1500 X84.636 Y78.957 E0.05548
G1 X86.049 Y77.2 E0.16208
G1 X86.873 Y76.214 E0.22283
G1 X87.217 Y75.823 E0.24745
G1 X88.521 Y74.407 E0.33846
G1 X88.764 Y74.152 E0.35511
G1 X89.92 Y72.983 E0.43284
G1 X90.184 Y72.726 E0.45026
G1 X91.665 Y71.341 E0.54612
G1 X92.512 Y70.604 E0.5992
G1 X93.436 Y69.841 E0.65585
G1 X94.433 Y69.051 E0.71599
G1 X95.182 Y68.493 E0.76015
G1 X96.159 Y67.801 E0.81675
G1 X96.978 Y67.256 E0.86326
G1 X97.926 Y66.662 E0.91615
G1 X98.414 Y66.374 E0.94294
G1 X99.434 Y65.802 E0.99823
G1 X100.376 Y65.313 E1.04841
G1 X101.185 Y64.921 E1.09091
G1 X101.709 Y64.681 E1.11816
G1 X103.046 Y64.127 E1.18658
G1 X103.643 Y63.896 E1.21684
G1 X104.105 Y63.73 E1.24005
G1 X104.892 Y63.471 E1.27922
G1 X106.142 Y63.089 E1.34101
G1 X106.699 Y62.936 E1.36832
G1 X107.626 Y62.714 E1.41339
G1 X108.225 Y62.587 E1.44234
G1 X109.089 Y62.426 E1.48389
G1 X109.972 Y62.289 E1.52613
G1 X111.28 Y62.139 E1.58838
G1 X111.749 Y62.098 E1.61063
G1 X112.305 Y62.063 E1.63697
G1 X112.778 Y62.044 E1.65935
G1 X113.503 Y62.032 E1.69363
G1 X114.198 Y62.035 E1.72649
G1 X115.037 Y62.061 E1.76618
G1 X115.49 Y62.087 E1.78763
G1 X116.316 Y62.158 E1.82682
G1 X117.064 Y62.248 E1.86244
G1 X118.382 Y62.448 E1.92547
G1 X119.074 Y62.578 E1.95875
G1 X119.851 Y62.755 E1.99643
G1 X120.592 Y62.949 E2.03264
G1 X121.161 Y63.109 E2.06059
G1 X122.262 Y63.464 E2.11528
G1 X122.796 Y63.656 E2.14211
G1 X123.632 Y63.984 E2.18456
G1 X124.429 Y64.325 E2.22555
G1 X125.731 Y64.948 E2.29379
G1 X126.451 Y65.324 E2.33219
G1 X126.907 Y65.585 E2.35703
G1 X127.985 Y66.239 E2.41664
G1 X128.558 Y66.614 E2.44901
G1 X129.341 Y67.171 E2.49444
G1 X129.829 Y67.539 E2.52334
G1 X130.221 Y67.85 E2.54699
G1 X130.733 Y68.281 E2.57864
G1 X131.239 Y68.724 E2.61043
G1 X132.05 Y69.517 E2.66406
G1 X132.733 Y70.264 E2.71191
G1 X133.371 Y70.991 E2.75764
G1 X133.848 Y71.563 E2.79285
G1 X134.075 Y71.849 E2.81011
G1 X134.967 Y73.014 E2.87948
G1 X135.662 Y73.977 E2.93563
G1 X136.118 Y74.648 E2.97398
G1 X136.481 Y75.213 E3.00573
G1 X137.089 Y76.3 E3.06461
G1 X138.043 Y78.281 E3.16856
G1 X138.551 Y79.372 E3.22546
G1 X139.19 Y80.845 E3.30137
G1 X139.709 Y81.993 E3.36093
G1 X139.993 Y82.644 E3.39451
G1 X140.157 Y83.043 E3.41491
G1 X140.955 Y85.117 E3.51997
G1 X141.406 Y86.255 E3.57784
G1 X141.735 Y87.225 E3.62627
G1 X142.538 Y90.052 E3.76521
G1 X142.826 Y90.994 E3.81178
G1 X143.11 Y92.169 E3.86893
G1 X143.651 Y95.177 E4.01342
G1 X143.768 Y95.791 E4.04297
G1 X143.924 Y96.99 E4.10013
G1 X143.964 Y97.561 E4.12719
G1 X144.059 Y99.266 E4.20793
G1 X144.344 Y102.608 E4.3665
G1 X144.381 Y103.511 E4.40923
G1 X144.366 Y104.03 E4.43377
G1 X144.308 Y105.091 E4.48401
G1 X144.179 Y108.883 E4.66339
G1 X144.16 Y110.125 E4.72211
G1 X144.106 Y111.028 E4.76488
G1 X144.037 Y111.558 E4.79015
G1 X143.851 Y112.738 E4.84663
G1 X143.727 Y113.466 E4.88154
G1 X143.535 Y114.813 E4.94586
G1 X143.425 Y115.507 E4.97908
G1 X143.144 Y116.762 E5.03989
G1 X142.422 Y119.242 E5.162
G1 X141.782 Y121.702 E5.28218
G1 X141.209 Y124.191 E5.40293
G1 X140.71 Y126.677 E5.5228
G1 X140.28 Y129.181 E5.64292
G1 X139.922 Y131.688 E5.76264
G1 X139.636 Y134.197 E5.88203
G1 X139.419 Y136.748 E6.00307
G1 X139.274 Y139.292 E6.12354
G1 X139.229 Y140.504 E6.18088
G1 X139.155 Y141.406 E6.22366
G1 X139.07 Y141.961 E6.25021
G1 X139.009 Y142.295 E6.26626
G1 X138.807 Y143.176 E6.30899
G1 X138.528 Y144.037 E6.35178
G1 X138.225 Y144.775 E6.3895
G1 X137.774 Y145.667 E6.43675
G1 X137.272 Y146.472 E6.48161
G1 X136.948 Y146.941 E6.50856
G1 X136.401 Y147.661 E6.5513
G1 X135.587 Y148.533 E6.6077
G1 X134.66 Y149.414 E6.66816
G1 X134.041 Y149.984 E6.70794
G1 X133.35 Y150.566 E6.75066
G1 X132.946 Y150.862 E6.77433
G1 X132.57 Y151.123 E6.79597
G1 X131.833 Y151.589 E6.8372
G1 X131.518 Y151.77 E6.85437
G1 X130.715 Y152.185 E6.89711
G1 X129.805 Y152.554 E6.94353
G1 X129.277 Y152.739 E6.96998
G1 X128.411 Y153 E7.01274
G1 X127.526 Y153.183 E7.05547
G1 X126.681 Y153.284 E7.0957
G1 X125.642 Y153.364 E7.14497
G1 X124.986 Y153.406 E7.17605
G1 X122.481 Y153.633 E7.29496
G1 X119.955 Y153.934 E7.41523
G1 X117.412 Y154.31 E7.53676
G1 X114.962 Y154.744 E7.65439
G1 X112.469 Y155.258 E7.77473
G1 X109.965 Y155.85 E7.89638
G1 X107.538 Y156.495 E8.0151
G1 X104.935 Y157.268 E8.14348
G1 X104.335 Y157.456 E8.1732
G1 X103.461 Y157.688 E8.21596
G1 X102.569 Y157.841 E8.25874
G1 X101.668 Y157.915 E8.30148
G1 X100.764 Y157.909 E8.34422
G1 X99.864 Y157.823 E8.38697
G1 X98.975 Y157.658 E8.42971
G1 X98.363 Y157.496 E8.45964
G1 X97.414 Y157.212 E8.50648
G1 X96.521 Y156.93 E8.55075
G1 X94.436 Y156.33 E8.65332
G1 X93.364 Y156.035 E8.70589
G1 X92.503 Y155.757 E8.74866
G1 X91.671 Y155.404 E8.79139
G1 X90.873 Y154.979 E8.83414
G1 X90.206 Y154.548 E8.87168
G1 X89.687 Y154.184 E8.90165
G1 X89.097 Y153.748 E8.93633
G1 X88.399 Y153.173 E8.97909
G1 X87.754 Y152.539 E9.02185
G1 X87.168 Y151.85 E9.06461
G1 X86.645 Y151.113 E9.10733
G1 X86.189 Y150.332 E9.15009
G1 X85.804 Y149.514 E9.19283
G1 X85.572 Y148.903 E9.22373
G1 X85.385 Y148.36 E9.25088
G1 X85.15 Y147.616 E9.28777
G1 X84.922 Y146.741 E9.33052
G1 X84.772 Y145.85 E9.37323
G1 X84.714 Y145.206 E9.4038
G1 X84.536 Y142.2 E9.54617
G1 X84.311 Y139.662 E9.66663
G1 X84.018 Y137.167 E9.7854
G1 X83.644 Y134.603 E9.9079
G1 X83.213 Y132.149 E10.02569
G1 X82.708 Y129.667 E10.14544
G1 X82.122 Y127.168 E10.26679
G1 X81.471 Y124.703 E10.38732
G1 X80.763 Y122.304 E10.50558
G1 X79.981 Y119.893 E10.62541
G1 X79.766 Y119.174 E10.66089
G1 X79.016 Y116.417 E10.79597
G1 X78.282 Y113.995 E10.91562
G1 X77.467 Y111.556 E11.03719
G1 X76.945 Y110.103 E11.11018
G1 X76.583 Y109.122 E11.15962
G1 X76.389 Y108.545 E11.1884
G1 X76.202 Y107.927 E11.21893
G1 X76.028 Y107.3 E11.24969
G1 X75.781 Y106.092 E11.30798
G1 X75.711 Y105.602 E11.33138
G1 X75.624 Y104.735 E11.37258
G1 X75.596 Y104.241 E11.39597
G1 X75.587 Y103.297 E11.4406
G1 X75.636 Y101.958 E11.50395
G1 X75.709 Y100.637 E11.5665
G1 X75.751 Y100.043 E11.59465
G1 X75.813 Y99.433 E11.62364
G1 X75.955 Y98.351 E11.67523
G1 X76.06 Y97.685 E11.7071
G1 X76.386 Y96.044 E11.7862
G1 X76.63 Y94.979 E11.83786
G1 X76.723 Y94.611 E11.8558
G1 X77.089 Y93.286 E11.92079
G1 X77.36 Y92.4 E11.96459
G1 X77.545 Y91.837 E11.99261
G1 X78.187 Y90.1 E12.08016
G1 X78.557 Y89.187 E12.12673
G1 X78.71 Y88.836 E12.14484
G1 X79.205 Y87.752 E12.20118
G1 X79.379 Y87.389 E12.22021
G1 X79.993 Y86.18 E12.28431
G1 X80.645 Y84.965 E12.3495
G1 X80.848 Y84.605 E12.36904
G1 X81.38 Y83.703 E12.41855
G1 X82.03 Y82.653 E12.47694
G1 X82.604 Y81.785 E12.52613
G1 X83.928 Y79.893 E12.63531
M205 X5 Y5
G1 F2400 E10.63531
G0 F7500 X108.964 Y72.214
G0 X111.137 Y71.772
G0 X112.614 Y71.614
G0 X114.749 Y71.609
G0 X117.071 Y71.915
G0 X119.027 Y72.449
G0 X120.992 Y73.254
G0 X122.533 Y74.089
G0 X123.982 Y75.088
G0 X124.97 Y75.929
G0 X126.203 Y77.302
G0 X127.732 Y79.307
G0 X128.565 Y80.556
G0 X129.859 Y83.086
G0 X132.705 Y89.099
G0 X133.805 Y93.81
G0 X134.49 Y97.601
G0 X133.589 Y99.813
G0 X131.235 Y103.146
G0 X131.183 Y103.596
M205 X8 Y8
G1 F1200 E12.63531
G1 F1500 X131.218 Y103.446 E12.64259
G1 X131.235 Y103.146 E12.6568
G1 X131.637 Y103.104 E12.6759
G1 X131.827 Y103.509 E12.69705
G1 X131.567 Y103.513 E12.70935
G1 X131.183 Y103.596 E12.72792
M205 X5 Y5
G0 F7500 X130.53 Y104.069
M205 X8 Y8
G1 F1500 X130.714 Y103.653 E12.74943
G1 X130.785 Y103.186 E12.77176
G1 X130.786 Y102.74 E12.79284
G1 X131.75 Y102.641 E12.83866
G1 X132.027 Y102.58 E12.85207
G1 X132.052 Y102.859 E12.86531
G1 X132.177 Y103.243 E12.8844
G1 X132.453 Y103.69 E12.90924
G1 X132.4 Y103.868 E12.91802
G1 X132.152 Y103.975 E12.93079
G1 X131.931 Y103.956 E12.94128
G1 X131.577 Y103.966 E12.95802
G1 X131.234 Y104.054 E12.97476
G1 X130.857 Y104.25 E12.99485
G1 X130.53 Y104.069 E13.01252
M205 X5 Y5
G0 F7500 X129.856 Y104.31
M205 X8 Y8
G1 F1500 X130.182 Y103.75 E13.04315
G1 X130.297 Y103.474 E13.05729
G1 X130.335 Y103.185 E13.07107
G1 X130.336 Y102.334 E13.1113
G1 X131.704 Y102.193 E13.17632
G1 X131.995 Y102.123 E13.19047
G1 X132.136 Y102.046 E13.19807
G1 X132.606 Y102.005 E13.22037
G1 X132.494 Y102.31 E13.23573
G1 X132.472 Y102.609 E13.24991
G1 X132.53 Y102.903 E13.26407
G1 X132.638 Y103.132 E13.27605
G1 X132.943 Y103.626 E13.30349
G1 X132.77 Y104.198 E13.33175
G1 X132.227 Y104.432 E13.3597
G1 X131.893 Y104.404 E13.37554
G1 X131.594 Y104.419 E13.3897
G1 X131.31 Y104.512 E13.40383
G1 X131.06 Y104.676 E13.41796
G1 X130.876 Y104.885 E13.43113
G1 X130.684 Y104.672 E13.44468
G1 X130.317 Y104.465 E13.4646
G1 X129.856 Y104.31 E13.4876
M205 X5 Y5
G0 F7500 X130.572 Y106.53
M205 X8 Y8
G1 F1500 X130.899 Y106.168 E13.51066
G1 X131.063 Y106.376 E13.52318
G1 X131.269 Y106.554 E13.53606
G1 X130.906 Y106.518 E13.5533
G1 X130.572 Y106.53 E13.5691
M205 X5 Y5
G0 F7500 X129.813 Y108.824
M205 X8 Y8
G1 F1500 X129.936 Y108.967 E13.57802
G1 X130.184 Y109.134 E13.59215
G1 X130.325 Y109.182 E13.5992
G1 X129.956 Y109.478 E13.62156
G1 X129.813 Y108.824 E13.65321
M205 X5 Y5
G0 F7500 X132.027 Y109.492
M205 X8 Y8
G1 F1500 X132.381 Y109.557 E13.67023
G1 X132.14 Y109.772 E13.6855
G1 X132.027 Y109.492 E13.69977
M205 X5 Y5
G1 F2400 E11.69977
G0 F7500 X129.209 Y112.474
M205 X8 Y8
G1 F1200 E13.69977
G1 F1500 X129.396 Y111.714 E13.73677
G1 X129.717 Y111.474 E13.75572
G1 X129.928 Y111.267 E13.7697
G1 X130.083 Y111.466 E13.78162
G1 X129.851 Y111.714 E13.79768
G1 X129.677 Y111.958 E13.81184
G1 X129.574 Y112.239 E13.82599
G1 X129.549 Y112.538 E13.84018
G1 X129.604 Y112.832 E13.85432
G1 X129.734 Y113.101 E13.86844
G1 X129.946 Y113.337 E13.88344
G1 X129.802 Y113.33 E13.89026
G1 X129.51 Y113.393 E13.90438
G1 X129.273 Y113.517 E13.91703
G1 X129.321 Y113.235 E13.93055
G1 X129.332 Y112.936 E13.9447
G1 X129.209 Y112.474 E13.9673
M205 X5 Y5
G1 F2400 E11.9673
G0 F7500 X128.546 Y115.907
M205 X8 Y8
G1 F1200 E13.9673
G1 F1500 X128.836 Y115.448 E13.99297
G1 X129.092 Y115.668 E14.00893
G1 X129.315 Y115.78 E14.02072
G1 X129.115 Y115.895 E14.03163
G1 X128.903 Y116.107 E14.04581
G1 X128.789 Y116.31 E14.05681
G1 X128.546 Y115.907 E14.07906
M205 X5 Y5
G0 F7500 X128.555 Y118.199
M205 X8 Y8
G1 F1500 X128.643 Y117.998 E14.08943
G1 X128.713 Y117.935 E14.09389
G1 X128.976 Y118.132 E14.10942
G1 X128.941 Y118.18 E14.11223
G1 X128.555 Y118.199 E14.1305
M205 X5 Y5
G0 F7500 X126.956 Y119.532
M205 X8 Y8
G1 F1500 X127.029 Y119.375 E14.13869
G1 X127.388 Y119.175 E14.15812
G1 X127.627 Y118.996 E14.17223
G1 X127.87 Y118.644 E14.19245
G1 X128.28 Y117.706 E14.24085
G1 X128.385 Y117.63 E14.24698
G1 X128.601 Y117.423 E14.26112
G1 X128.74 Y117.193 E14.27383
G1 X128.927 Y117.499 E14.29078
G1 X129.258 Y117.799 E14.3119
G1 X129.665 Y117.998 E14.33332
G1 X129.495 Y118.179 E14.34506
G1 X129.167 Y118.638 E14.37173
G1 X128.715 Y118.621 E14.39312
G1 X128.423 Y118.69 E14.4073
G1 X128.16 Y118.833 E14.42146
G1 X127.966 Y119.013 E14.43397
G1 X127.68 Y119.35 E14.45486
G1 X127.25 Y119.405 E14.47536
G1 X126.956 Y119.532 E14.4905
M205 X5 Y5
G0 F7500 X125.441 Y120.596
M205 X8 Y8
G1 F1500 X125.877 Y120.398 E14.51314
G1 X126.068 Y120.268 E14.52406
G1 X126.21 Y120.068 E14.53566
G1 X126.684 Y119.052 E14.58866
G1 X127.168 Y118.782 E14.61486
G1 X127.348 Y118.636 E14.62582
G1 X127.457 Y118.463 E14.63549
G1 X127.915 Y117.415 E14.68956
G1 X128.12 Y117.266 E14.70154
G1 X128.281 Y117.1 E14.71247
G1 X128.377 Y116.889 E14.72343
G1 X128.395 Y116.658 E14.73439
G1 X128.301 Y116.371 E14.74866
G1 X128.018 Y115.902 E14.77456
G1 X128.483 Y115.165 E14.81576
G1 X128.577 Y114.918 E14.82826
G1 X128.877 Y113.159 E14.91262
G1 X128.854 Y112.837 E14.92788
G1 X128.742 Y112.492 E14.94503
G1 X128.998 Y111.449 E14.9958
G1 X129.447 Y111.113 E15.02231
G1 X129.606 Y110.945 E15.03325
G1 X129.699 Y110.733 E15.04419
G1 X129.703 Y110.429 E15.05857
G1 X129.253 Y108.361 E15.15863
G1 X129.491 Y107.061 E15.22111
G1 X130.46 Y105.982 E15.28967
G1 X130.583 Y105.786 E15.30061
G1 X130.632 Y105.56 E15.31154
G1 X130.602 Y105.33 E15.32251
G1 X130.497 Y105.124 E15.33344
G1 X130.289 Y104.93 E15.34689
G1 X129.19 Y104.559 E15.40173
G1 X129.793 Y103.524 E15.45836
G1 X129.885 Y103.278 E15.47077
G1 X129.887 Y101.986 E15.53186
G1 X129.981 Y101.917 E15.53737
G1 X131.658 Y101.745 E15.61707
G1 X131.881 Y101.683 E15.62801
G1 X132.006 Y101.605 E15.63498
G1 X132.937 Y101.523 E15.67916
G1 X133.184 Y101.862 E15.69899
G1 X132.994 Y102.233 E15.7187
G1 X132.926 Y102.454 E15.72963
G1 X132.936 Y102.686 E15.74061
G1 X133.021 Y102.896 E15.75132
G1 X133.433 Y103.563 E15.78838
G1 X133.141 Y104.528 E15.83605
G1 X132.31 Y104.891 E15.87892
G1 X131.855 Y104.852 E15.90051
G1 X131.624 Y104.873 E15.91148
G1 X131.414 Y104.97 E15.92241
G1 X131.249 Y105.132 E15.93335
G1 X131.149 Y105.341 E15.9443
G1 X131.125 Y105.571 E15.95523
G1 X131.18 Y105.796 E15.96618
G1 X131.357 Y106.036 E15.98028
G1 X131.628 Y106.27 E15.99721
G1 X131.826 Y106.389 E16.00813
G1 X132.054 Y106.434 E16.01912
G1 X132.282 Y106.399 E16.03002
G1 X132.588 Y106.215 E16.0469
G1 X132.909 Y106.338 E16.06316
G1 X132.909 Y106.733 E16.08183
G1 X132.357 Y107.114 E16.11354
G1 X130.861 Y106.966 E16.18461
G1 X130.63 Y106.983 E16.19556
G1 X130.419 Y107.077 E16.20648
G1 X130.252 Y107.238 E16.21745
G1 X130.137 Y107.488 E16.23046
G1 X130.026 Y107.976 E16.25412
G1 X130.014 Y108.208 E16.2651
G1 X130.081 Y108.429 E16.27602
G1 X130.219 Y108.615 E16.28697
G1 X130.411 Y108.744 E16.29791
G1 X130.678 Y108.809 E16.3109
G1 X131.396 Y108.704 E16.3452
G1 X132.097 Y109.046 E16.38208
G1 X132.433 Y109.113 E16.39828
G1 X133.227 Y109.066 E16.43588
G1 X133.272 Y109.099 E16.43852
G1 X133.272 Y109.569 E16.46074
G1 X132.667 Y109.901 E16.49337
G1 X132.486 Y110.046 E16.50433
G1 X132.341 Y110.311 E16.51861
G1 X132.122 Y111.095 E16.5571
G1 X132.023 Y111.167 E16.56288
G1 X131.451 Y111.076 E16.59027
G1 X131.532 Y110.968 E16.59665
G1 X131.712 Y110.199 E16.63399
G1 X131.726 Y109.968 E16.64493
G1 X131.66 Y109.746 E16.65588
G1 X131.524 Y109.559 E16.66681
G1 X131.332 Y109.429 E16.67777
G1 X131.108 Y109.372 E16.6887
G1 X130.877 Y109.394 E16.69967
G1 X130.67 Y109.49 E16.71046
G1 X130.393 Y109.682 E16.72639
G1 X130.229 Y109.845 E16.73732
G1 X130.128 Y110.054 E16.7483
G1 X130.102 Y110.318 E16.76084
G1 X130.249 Y110.874 E16.78803
G1 X130.345 Y111.084 E16.79894
G1 X130.508 Y111.249 E16.80991
G1 X130.799 Y111.359 E16.82462
G1 X130.18 Y112.021 E16.86747
G1 X130.053 Y112.215 E16.87843
G1 X129.999 Y112.44 E16.88937
G1 X130.025 Y112.67 E16.90031
G1 X130.127 Y112.878 E16.91126
G1 X130.293 Y113.04 E16.92223
G1 X130.504 Y113.135 E16.93317
G1 X130.728 Y113.155 E16.9438
G1 X132.625 Y113 E17.03378
G1 X132.663 Y113.028 E17.03602
G1 X132.663 Y113.554 E17.06088
G1 X132.571 Y113.621 E17.06626
G1 X131.349 Y113.741 E17.12432
G1 X131.126 Y113.803 E17.13526
G1 X130.899 Y113.954 E17.14815
G1 X130.018 Y113.788 E17.19053
G1 X129.786 Y113.784 E17.2015
G1 X129.567 Y113.86 E17.21246
G1 X129.338 Y114.067 E17.22705
G1 X129.149 Y114.34 E17.24275
G1 X129.052 Y114.55 E17.25369
