;FLAVOR:Marlin
;TIME:7267
;Filament used: 10.1633m
;Layer height: 0.2
;MINX:38.641
;MINY:73.812
;MINZ:0.2
;MAXX:181.037
;MAXY:145.606
;MAXZ:14.96
;Generated with Cura_SteamEngine 4.10.0
M82 ;absolute extrusion mode
M201 X500.00 Y500.00 Z100.00 E5000.00 ;Setup machine max acceleration
M203 X500.00 Y500.00 Z10.00 E50.00 ;Setup machine max feedrate
M204 P500.00 R1000.00 T500.00 ;Setup Print/Retract/Travel acceleration
M205 X8.00 Y8.00 Z0.40 E5.00 ;Setup Jerk
M220 S100 ;Reset Feedrate
M221 S100 ;Reset Flowrate

;*** Start Dual Nozzle/Bed Preheating ***
M140 S50 ; start preheating the bed
M104 S195 ?T0 ; start preheating hotend
M190 S50 ; heat to Cura Bed setting and WAIT
M109 S195 ?T0 ; heat to Cura Hotend and WAIT
;*** End Preheating ***

;*** Single Print Start Tone
M300 S1000 P500 ; chirp to indicate starting to print
;*** End Single Start Tone

G28 ;Home

G92 E0 ;Reset Extruder
G1 Z2.0 F3000 ;Move Z Axis up

G1 X10.1 Y20 Z0.28 F5000.0 ;Move to start position
G1 X10.1 Y200.0 Z0.28 F1500.0 E15 ;Draw the first line
G1 X10.4 Y200.0 Z0.28 F5000.0 ;Move to side a little
G1 X10.4 Y20 Z0.28 F1500.0 E30 ;Draw the second line
G92 E0 ;Reset Extruder
G1 Z2.0 F3000 ;Move Z Axis up
G92 E0
G92 E0
G1 F2400 E-3.2
;LAYER_COUNT:67
;LAYER:0
M106 S63.8
M204 S500
M205 X6 Y6
G0 F9000 X46.327 Y75.817 Z0.2
;TYPE:SKIRT
G1 F1440 E0
G1 F1800 X46.578 Y75.677 E0.00956
G1 X47.228 Y75.345 E0.03383
G1 X47.566 Y75.187 E0.04624
G1 X48.173 Y74.927 E0.06821
G1 X48.498 Y74.8 E0.07981
G1 X49.202 Y74.554 E0.10462
G1 X49.607 Y74.429 E0.11871
G1 X50.273 Y74.247 E0.14168
G1 X50.663 Y74.155 E0.155
G1 X51.512 Y73.993 E0.18375
G1 X51.681 Y73.968 E0.18943
G1 X52.273 Y73.898 E0.20926
G1 X53.171 Y73.829 E0.23922
G1 X53.355 Y73.821 E0.24534
G1 X53.934 Y73.812 E0.2646
G1 X54.599 Y73.83 E0.28673
G1 X54.758 Y73.839 E0.29203
G1 X55.395 Y73.895 E0.31329
G1 X55.946 Y73.961 E0.33175
G1 X56.516 Y74.046 E0.35092
G1 X57.111 Y74.164 E0.37109
G1 X57.568 Y74.272 E0.38671
G1 X58.336 Y74.469 E0.41308
G1 X60.902 Y75.087 E0.50087
G1 X63.377 Y75.612 E0.58502
G1 X65.873 Y76.065 E0.66939
G1 X68.411 Y76.453 E0.75479
G1 X70.882 Y76.76 E0.83761
G1 X73.441 Y77.004 E0.9231
G1 X75.983 Y77.175 E1.00784
G1 X78.506 Y77.273 E1.09182
G1 X80.75 Y77.3 E1.16646
G1 X140.006 Y77.3 E3.13733
G1 X142.611 Y77.263 E3.22398
G1 X145.177 Y77.154 E3.3094
G1 X147.684 Y76.976 E3.39299
G1 X150.225 Y76.725 E3.47792
G1 X152.733 Y76.404 E3.56201
G1 X155.238 Y76.01 E3.64636
G1 X157.703 Y75.552 E3.72975
G1 X161.425 Y74.726 E3.85655
G1 X161.656 Y74.67 E3.86446
G1 X162.437 Y74.512 E3.89096
G1 X163.03 Y74.416 E3.91094
G1 X163.645 Y74.336 E3.93157
G1 X163.705 Y74.33 E3.93357
G1 X164.524 Y74.281 E3.96086
G1 X165.044 Y74.271 E3.97816
G1 X165.726 Y74.281 E4.00085
G1 X166.208 Y74.304 E4.01689
G1 X166.937 Y74.365 E4.04123
G1 X167.012 Y74.374 E4.04374
G1 X167.684 Y74.477 E4.06635
G1 X168.279 Y74.589 E4.08649
G1 X169.101 Y74.779 E4.11455
G1 X169.199 Y74.806 E4.11793
G1 X169.778 Y74.985 E4.13809
G1 X170.333 Y75.174 E4.15759
G1 X170.922 Y75.395 E4.17851
G1 X170.995 Y75.425 E4.18114
G1 X171.706 Y75.749 E4.20712
G1 X172.125 Y75.96 E4.22273
G1 X172.768 Y76.314 E4.24714
G1 X173.076 Y76.498 E4.25907
G1 X173.678 Y76.886 E4.28289
G1 X173.985 Y77.1 E4.29534
G1 X174.543 Y77.519 E4.31855
G1 X174.946 Y77.843 E4.33575
G1 X175.624 Y78.439 E4.36577
G1 X176.008 Y78.828 E4.38395
G1 X176.407 Y79.255 E4.40339
G1 X176.842 Y79.752 E4.42536
G1 X177.403 Y80.455 E4.45527
G1 X177.446 Y80.513 E4.45767
G1 X177.993 Y81.331 E4.4904
G1 X178.248 Y81.755 E4.50686
G1 X178.584 Y82.36 E4.52988
G1 X178.83 Y82.84 E4.54782
G1 X179.206 Y83.661 E4.57785
G1 X179.39 Y84.151 E4.59526
G1 X179.563 Y84.65 E4.61282
G1 X179.765 Y85.3 E4.63546
G1 X179.99 Y86.154 E4.66484
G1 X180.002 Y86.206 E4.66661
G1 X180.186 Y87.245 E4.70171
G1 X180.246 Y87.729 E4.71793
G1 X180.307 Y88.418 E4.74093
G1 X180.335 Y88.922 E4.75772
G1 X180.351 Y89.488 E4.77656
G1 X180.351 Y89.548 E4.77855
G1 X180.315 Y90.406 E4.80711
G1 X180.271 Y90.927 E4.8245
G1 X180.188 Y91.62 E4.84772
G1 X180.032 Y92.634 E4.88184
G1 X180 Y92.83 E4.88845
G1 X179.786 Y94.064 E4.9301
G1 X179.418 Y96.602 E5.0154
G1 X179.127 Y99.114 E5.09951
G1 X178.904 Y101.659 E5.18448
G1 X178.756 Y104.173 E5.26824
G1 X178.678 Y106.714 E5.35279
G1 X178.671 Y109.249 E5.43711
G1 X178.737 Y111.799 E5.52195
G1 X178.875 Y114.344 E5.60672
G1 X179.083 Y116.864 E5.69082
G1 X179.363 Y119.381 E5.77505
G1 X179.718 Y121.922 E5.86039
G1 X180.137 Y124.406 E5.94417
G1 X180.55 Y126.514 E6.01562
G1 X180.73 Y127.381 E6.04507
G1 X180.862 Y128.167 E6.07158
G1 X180.928 Y128.686 E6.08898
G1 X180.993 Y129.395 E6.11266
G1 X181.021 Y129.888 E6.12908
G1 X181.037 Y130.466 E6.14831
G1 X181.037 Y130.528 E6.15038
G1 X181.001 Y131.38 E6.17874
G1 X180.96 Y131.869 E6.19506
G1 X180.871 Y132.606 E6.21975
G1 X180.789 Y133.126 E6.23726
G1 X180.609 Y134.011 E6.2673
G1 X180.478 Y134.487 E6.28372
G1 X180.333 Y134.967 E6.3004
G1 X180.101 Y135.647 E6.32429
G1 X179.906 Y136.159 E6.34252
G1 X179.548 Y136.988 E6.37255
G1 X179.315 Y137.438 E6.3894
G1 X179.069 Y137.886 E6.4064
G1 X178.7 Y138.505 E6.43037
G1 X178.513 Y138.795 E6.44185
G1 X178.125 Y139.355 E6.46451
G1 X177.82 Y139.765 E6.4815
G1 X177.359 Y140.34 E6.50602
G1 X177.315 Y140.391 E6.50826
G1 X176.831 Y140.914 E6.53196
G1 X176.424 Y141.324 E6.55117
G1 X175.92 Y141.799 E6.57421
G1 X175.486 Y142.167 E6.59313
G1 X175.241 Y142.364 E6.60359
G1 X174.422 Y142.958 E6.63724
G1 X174.028 Y143.215 E6.65289
G1 X173.471 Y143.554 E6.67457
G1 X173.131 Y143.746 E6.68756
G1 X172.43 Y144.106 E6.71377
G1 X172.128 Y144.247 E6.72485
G1 X171.517 Y144.509 E6.74697
G1 X171.027 Y144.7 E6.76446
G1 X170.172 Y144.99 E6.79449
G1 X169.657 Y145.125 E6.81219
G1 X169.138 Y145.247 E6.82993
G1 X168.39 Y145.394 E6.85528
G1 X168.066 Y145.445 E6.86619
G1 X167.414 Y145.526 E6.88804
G1 X167.077 Y145.557 E6.8993
G1 X166.368 Y145.598 E6.92292
G1 X166.005 Y145.606 E6.935
G1 X165.263 Y145.595 E6.95968
G1 X164.908 Y145.577 E6.9715
G1 X164.203 Y145.517 E6.99503
G1 X163.83 Y145.472 E7.00753
G1 X163.153 Y145.367 E7.03032
G1 X162.657 Y145.273 E7.04711
G1 X162.298 Y145.198 E7.0593
G1 X161.151 Y144.938 E7.09842
G1 X158.603 Y144.397 E7.18506
G1 X156.083 Y143.938 E7.27025
G1 X153.592 Y143.556 E7.35407
G1 X151.054 Y143.24 E7.43914
G1 X148.562 Y143.001 E7.5224
G1 X145.984 Y142.827 E7.60834
G1 X143.461 Y142.728 E7.69232
G1 X141.185 Y142.7 E7.76803
G1 X78.047 Y142.7 E9.86801
G1 X75.442 Y142.737 E9.95466
G1 X72.876 Y142.846 E10.04008
G1 X70.369 Y143.024 E10.12367
G1 X67.828 Y143.275 E10.2086
G1 X65.32 Y143.596 E10.2927
G1 X62.815 Y143.99 E10.37704
G1 X60.338 Y144.45 E10.46083
G1 X57.577 Y145.048 E10.55479
G1 X57.058 Y145.168 E10.57251
G1 X56.398 Y145.298 E10.59488
G1 X55.964 Y145.369 E10.60951
G1 X55.293 Y145.456 E10.63201
G1 X55.241 Y145.461 E10.63375
G1 X54.465 Y145.506 E10.6596
G1 X53.801 Y145.519 E10.68169
G1 X53.084 Y145.508 E10.70554
G1 X52.354 Y145.448 E10.7299
G1 X51.706 Y145.371 E10.75161
G1 X51.179 Y145.294 E10.76932
G1 X50.238 Y145.091 E10.80134
G1 X49.643 Y144.933 E10.82182
G1 X49.066 Y144.762 E10.84183
G1 X48.558 Y144.584 E10.85974
G1 X47.967 Y144.353 E10.88084
G1 X47.896 Y144.323 E10.8834
G1 X47.277 Y144.036 E10.9061
G1 X46.878 Y143.835 E10.92096
G1 X46.233 Y143.481 E10.94543
G1 X45.855 Y143.255 E10.96008
G1 X45.253 Y142.866 E10.98392
G1 X44.886 Y142.61 E10.9988
G1 X44.407 Y142.254 E11.01865
G1 X44.355 Y142.213 E11.02085
G1 X43.718 Y141.667 E11.04876
G1 X43.223 Y141.206 E11.07125
G1 X42.59 Y140.562 E11.10129
G1 X41.961 Y139.81 E11.1339
G1 X41.516 Y139.221 E11.15845
G1 X41.189 Y138.755 E11.17738
G1 X40.703 Y137.993 E11.20744
G1 X40.455 Y137.536 E11.22474
G1 X40.172 Y136.982 E11.24543
G1 X39.86 Y136.314 E11.26995
G1 X39.808 Y136.191 E11.27439
G1 X39.567 Y135.563 E11.29676
G1 X39.389 Y135.05 E11.31482
G1 X39.144 Y134.237 E11.34307
G1 X39.102 Y134.073 E11.3487
G1 X38.976 Y133.516 E11.36769
G1 X38.877 Y133.014 E11.38471
G1 X38.775 Y132.402 E11.40534
G1 X38.711 Y131.868 E11.42323
G1 X38.659 Y131.237 E11.44429
G1 X38.655 Y131.164 E11.44672
G1 X38.641 Y130.47 E11.46981
G1 X38.65 Y129.793 E11.49233
G1 X38.702 Y128.892 E11.52235
G1 X38.775 Y128.328 E11.54126
G1 X38.895 Y127.573 E11.56669
G1 X39.043 Y126.781 E11.59349
G1 X39.507 Y124.201 E11.68067
G1 X39.883 Y121.703 E11.76469
G1 X40.189 Y119.189 E11.84893
G1 X40.427 Y116.641 E11.93404
G1 X40.591 Y114.099 E12.01876
G1 X40.682 Y111.591 E12.10224
G1 X40.703 Y109.022 E12.18768
G1 X40.652 Y106.489 E12.27195
G1 X40.529 Y103.96 E12.35616
G1 X40.335 Y101.435 E12.44039
G1 X40.064 Y98.869 E12.52621
G1 X39.732 Y96.392 E12.60934
G1 X39.318 Y93.855 E12.69483
G1 X38.985 Y92.08 E12.7549
G1 X38.9 Y91.647 E12.76958
G1 X38.773 Y90.821 E12.79737
G1 X38.755 Y90.66 E12.80276
G1 X38.707 Y90.087 E12.82188
G1 X38.678 Y89.56 E12.83944
G1 X38.668 Y88.673 E12.86894
G1 X38.675 Y88.455 E12.8762
G1 X38.705 Y87.939 E12.89339
G1 X38.742 Y87.493 E12.90827
G1 X38.851 Y86.626 E12.93734
G1 X38.893 Y86.379 E12.94567
G1 X39.007 Y85.808 E12.96504
G1 X39.116 Y85.333 E12.98125
G1 X39.281 Y84.707 E13.00278
G1 X39.303 Y84.633 E13.00535
G1 X39.558 Y83.884 E13.03166
G1 X39.725 Y83.449 E13.04716
G1 X39.984 Y82.835 E13.06932
G1 X40.161 Y82.451 E13.08339
G1 X40.489 Y81.802 E13.10757
G1 X40.707 Y81.406 E13.12261
G1 X41.037 Y80.849 E13.14414
G1 X41.065 Y80.805 E13.14588
G1 X41.499 Y80.176 E13.17129
G1 X41.898 Y79.642 E13.19346
G1 X42.47 Y78.943 E13.2235
G1 X42.831 Y78.56 E13.24101
G1 X43.255 Y78.133 E13.26102
G1 X43.773 Y77.647 E13.28465
G1 X44.079 Y77.379 E13.29818
G1 X44.784 Y76.814 E13.32823
G1 X45.193 Y76.531 E13.34477
G1 X45.644 Y76.234 E13.36273
G0 F1620 X45.69 Y76.204
G0 X46.327 Y75.817
G1 F2400 E10.16273
G0 F9000 X164.377 Y85.94
G1 F1440 E13.36273
G1 F1800 X165.037 Y85.854 E13.38487
G1 X165.286 Y85.854 E13.39315
G1 X165.947 Y85.94 E13.41532
G1 X164.561 Y85.94 E13.46142
G0 F1620 X164.377 Y85.94
G0 F9000 X164.189 Y85.571
G1 F1800 X164.735 Y85.474 E13.47986
G1 X165.299 Y85.454 E13.49863
G1 X165.846 Y85.51 E13.51692
G1 X166.4 Y85.648 E13.53591
G1 X166.904 Y85.85 E13.55397
G1 X167.41 Y86.143 E13.57342
G1 X167.66 Y86.34 E13.584
G1 X162.651 Y86.34 E13.7506
G1 X163.173 Y85.982 E13.77166
G1 X163.504 Y85.819 E13.78393
G0 F1620 X163.656 Y85.745
G0 X164.189 Y85.571
G0 F9000 X164.401 Y85.117
G1 F1800 X165.011 Y85.054 E13.80432
G1 X165.312 Y85.054 E13.81434
G1 X165.923 Y85.117 E13.83477
G1 X166.512 Y85.263 E13.85495
G1 X167.082 Y85.492 E13.87538
G1 X167.619 Y85.801 E13.89599
G1 X168.114 Y86.188 E13.91688
G1 X168.532 Y86.623 E13.93695
G1 X168.885 Y87.106 E13.95685
G1 X169.179 Y87.657 E13.97762
G1 X169.391 Y88.238 E13.99819
G1 X169.516 Y88.822 E14.01805
G1 X169.561 Y89.451 E14.03903
G1 X169.516 Y90.08 E14.06
G1 X169.391 Y90.664 E14.07987
G1 X169.179 Y91.245 E14.10044
G1 X168.886 Y91.794 E14.12113
G1 X168.532 Y92.279 E14.14111
G1 X168.26 Y92.572 E14.1544
G1 X168.26 Y87.34 E14.32842
G1 X168.22 Y87.125 E14.33569
G1 X168.107 Y86.939 E14.34293
G1 X167.934 Y86.806 E14.35019
G1 X167.66 Y86.74 E14.35956
G1 X161.7 Y86.74 E14.55779
G1 X162.21 Y86.188 E14.58279
G1 X162.705 Y85.801 E14.60369
G1 X163.242 Y85.492 E14.62429
G1 X163.632 Y85.335 E14.63828
G0 F1620 X163.812 Y85.263
G0 X164.401 Y85.117
G0 F9000 X163.992 Y84.795
G1 F1800 X164.648 Y84.678 E14.66044
G1 X165.324 Y84.654 E14.68294
G1 X165.987 Y84.722 E14.70511
G1 X166.637 Y84.883 E14.72738
G1 X167.26 Y85.134 E14.74972
G1 X167.853 Y85.477 E14.7725
G1 X168.374 Y85.884 E14.79449
G1 X168.84 Y86.368 E14.81684
G1 X169.227 Y86.898 E14.83867
G1 X169.547 Y87.498 E14.86128
G1 X169.774 Y88.121 E14.88334
G1 X169.913 Y88.769 E14.90538
G1 X169.962 Y89.451 E14.92812
G1 X169.913 Y90.129 E14.95073
G1 X169.775 Y90.778 E14.9728
G1 X169.547 Y91.404 E14.99496
G1 X169.229 Y92 E15.01743
G1 X168.84 Y92.534 E15.0394
G1 X168.374 Y93.018 E15.06175
G1 X167.86 Y93.42 E15.08345
G1 X167.86 Y87.34 E15.28567
G1 X167.821 Y87.221 E15.28984
G1 X167.66 Y87.14 E15.29583
G1 X160.957 Y87.14 E15.51877
G1 X161.27 Y86.64 E15.53839
G1 X161.713 Y86.113 E15.56129
G1 X162.206 Y85.669 E15.58336
G1 X162.772 Y85.289 E15.60603
G1 X163.239 Y85.06 E15.62333
G0 F1620 X163.353 Y85.004
G0 X163.992 Y84.795
G1 F2400 E12.42333
G0 F9000 X168.153 Y86.847
G0 X168.66 Y87.516
G1 F1440 E15.62333
G1 F1800 X168.922 Y88.088 E15.64426
G1 X169.077 Y88.63 E15.66301
G1 X169.151 Y89.168 E15.68107
G1 X169.151 Y89.734 E15.69989
G1 X169.077 Y90.272 E15.71796
G1 X168.922 Y90.814 E15.73671
G1 X168.696 Y91.324 E15.75526
G1 X168.66 Y91.386 E15.75764
G1 X168.66 Y88.054 E15.86847
G0 F1620 X168.66 Y87.516
G1 F2400 E12.66847
G0 F9000 X168.165 Y126.073
G0 X167.86 Y126.073
G1 F1440 E15.86847
G1 F1800 X168.539 Y126.454 E15.89436
G1 X169.059 Y126.86 E15.91631
G1 X169.534 Y127.353 E15.93908
G1 X169.913 Y127.876 E15.96056
G1 X170.232 Y128.473 E15.98307
G1 X170.46 Y129.098 E16.0052
G1 X170.598 Y129.735 E16.02688
G1 X170.648 Y130.428 E16.04999
G1 X170.6 Y131.1 E16.07239
G1 X170.465 Y131.74 E16.09415
G1 X170.238 Y132.367 E16.11633
G1 X169.925 Y132.961 E16.13866
G1 X169.527 Y133.511 E16.16124
G1 X169.049 Y134.005 E16.1841
G1 X168.541 Y134.4 E16.20551
G1 X167.948 Y134.744 E16.22831
G1 X167.321 Y134.997 E16.25079
G1 X166.679 Y135.155 E16.27279
G1 X166.005 Y135.225 E16.29532
G1 X165.336 Y135.2 E16.31759
G1 X164.677 Y135.083 E16.33985
G1 X164.046 Y134.877 E16.36193
G1 X163.458 Y134.59 E16.38369
G1 X162.889 Y134.208 E16.40648
G1 X162.388 Y133.753 E16.42899
G1 X161.967 Y133.253 E16.45073
G1 X161.713 Y132.86 E16.4663
G1 X167.66 Y132.86 E16.6641
G1 X167.779 Y132.821 E16.66826
G1 X167.86 Y132.66 E16.67426
G1 X167.86 Y126.873 E16.86673
G0 F1620 X167.86 Y126.073
G0 F9000 X168.26 Y126.751
G1 F1800 X168.798 Y127.163 E16.88927
G1 X169.224 Y127.605 E16.90969
G1 X169.574 Y128.089 E16.92955
G1 X169.863 Y128.628 E16.9499
G1 X170.074 Y129.206 E16.97036
G1 X170.202 Y129.794 E16.99038
G1 X170.247 Y130.428 E17.01152
G1 X170.203 Y131.048 E17.03219
G1 X170.082 Y131.623 E17.05173
G1 X169.872 Y132.207 E17.07237
G1 X169.58 Y132.757 E17.09308
G1 X169.229 Y133.243 E17.11302
G1 X168.774 Y133.714 E17.13481
G1 X168.313 Y134.071 E17.1542
G1 X167.77 Y134.385 E17.17506
G1 X167.2 Y134.615 E17.1955
G1 X166.613 Y134.76 E17.21561
G1 X165.991 Y134.825 E17.23642
G1 X165.377 Y134.802 E17.25685
G1 X164.783 Y134.697 E17.27691
G1 X164.19 Y134.503 E17.29767
G1 X163.657 Y134.243 E17.31739
G1 X163.128 Y133.887 E17.3386
G1 X162.681 Y133.479 E17.35873
G1 X162.482 Y133.26 E17.36857
G1 X167.66 Y133.26 E17.54079
G1 X167.875 Y133.22 E17.54806
G1 X168.061 Y133.107 E17.5553
G1 X168.194 Y132.934 E17.56256
G1 X168.26 Y132.66 E17.57193
G1 X168.26 Y127.551 E17.74186
G0 F1620 X168.26 Y126.751
G0 F9000 X168.66 Y127.586
G1 F1800 X169.076 Y128.065 E17.76296
G1 X169.38 Y128.551 E17.78203
G1 X169.605 Y129.059 E17.80051
G1 X169.762 Y129.604 E17.81937
G1 X169.838 Y130.158 E17.83797
G1 X169.838 Y130.701 E17.85603
G1 X169.76 Y131.26 E17.8748
G1 X169.603 Y131.803 E17.8936
G1 X169.369 Y132.323 E17.91257
G1 X169.079 Y132.786 E17.93074
G1 X168.733 Y133.196 E17.94858
G1 X168.314 Y133.577 E17.96742
G1 X167.84 Y133.895 E17.9864
G1 X167.362 Y134.13 E18.00412
G1 X166.823 Y134.307 E18.02299
G1 X166.279 Y134.404 E18.04137
G1 X165.718 Y134.425 E18.06004
G1 X165.147 Y134.365 E18.07913
G1 X164.63 Y134.237 E18.09685
G1 X164.104 Y134.027 E18.11569
G1 X163.605 Y133.738 E18.13487
G1 X163.497 Y133.66 E18.1393
G1 X167.66 Y133.66 E18.27776
G1 X167.939 Y133.62 E18.28713
G1 X168.196 Y133.504 E18.29651
G1 X168.411 Y133.321 E18.3059
G1 X168.565 Y133.085 E18.31528
G1 X168.66 Y132.66 E18.32976
G1 X168.66 Y128.386 E18.47191
G0 F1620 X168.66 Y127.586
G0 F9000 X169.06 Y128.807
G1 F1800 X169.311 Y129.445 E18.49472
G1 X169.438 Y130.17 E18.5192
G1 X169.438 Y130.684 E18.53629
G1 X169.312 Y131.403 E18.56057
G1 X169.141 Y131.88 E18.57743
G1 X169.06 Y132.045 E18.58354
G1 X169.06 Y129.244 E18.6767
G0 F1620 X169.06 Y128.807
G1 F2400 E15.4767
G0 F9000 X168.153 Y133.153
G0 X57.904 Y133.165
G0 X57.904 Y132.86
G1 F1440 E18.6767
G1 F1800 X57.5 Y133.422 E18.69972
G1 X57.044 Y133.895 E18.72157
G1 X56.515 Y134.31 E18.74394
G1 X55.923 Y134.652 E18.76668
G1 X55.302 Y134.904 E18.78897
G1 X54.641 Y135.066 E18.8116
G1 X53.986 Y135.133 E18.8335
G1 X53.337 Y135.111 E18.8551
G1 X52.661 Y134.993 E18.87792
G1 X52.012 Y134.782 E18.90062
