;FLAVOR:Marlin
;TIME:543
;Filament used: 0.181546m
;Layer height: 0.16
;MINX:91.154
;MINY:84.548
;MINZ:0.2
;MAXX:128.89
;MAXY:135.42
;MAXZ:1.92
;Generated with Cura_SteamEngine 4.10.0
M82 ;absolute extrusion mode
M201 X500.00 Y500.00 Z100.00 E5000.00 ;Setup machine max acceleration
M203 X500.00 Y500.00 Z10.00 E50.00 ;Setup machine max feedrate
M204 P500.00 R1000.00 T500.00 ;Setup Print/Retract/Travel acceleration
M205 X8.00 Y8.00 Z0.40 E5.00 ;Setup Jerk
M220 S100 ;Reset Feedrate
M221 S100 ;Reset Flowrate

;*** Start Dual Nozzle/Bed Preheating ***
M140 S50 ; start preheating the bed
M104 S195 ?T0 ; start preheating hotend
M190 S50 ; heat to Cura Bed setting and WAIT
M109 S195 ?T0 ; heat to Cura Hotend and WAIT
;*** End Preheating ***

;*** Single Print Start Tone
M300 S1000 P500 ; chirp to indicate starting to print
;*** End Single Start Tone

G28 ;Home

G92 E0 ;Reset Extruder
G1 Z2.0 F3000 ;Move Z Axis up

G1 X10.1 Y20 Z0.28 F5000.0 ;Move to start position
G1 X10.1 Y200.0 Z0.28 F1500.0 E15 ;Draw the first line
G1 X10.4 Y200.0 Z0.28 F5000.0 ;Move to side a little
G1 X10.4 Y20 Z0.28 F1500.0 E30 ;Draw the second line
G92 E0 ;Reset Extruder
G1 Z2.0 F3000 ;Move Z Axis up
G92 E0
G92 E0
G1 F2400 E-3.2
;LAYER_COUNT:11
;LAYER:0
M106 S63.8
M204 S500
M205 X6 Y6
G0 F9000 X93.763 Y88.247 Z0.2
;TYPE:SKIRT
G1 F1440 E0
G1 F1800 X94.393 Y87.575 E0.03064
G1 X95.079 Y86.961 E0.06126
G1 X95.815 Y86.409 E0.09186
G1 X96.597 Y85.922 E0.1225
G1 X97.418 Y85.506 E0.15311
G1 X98.272 Y85.162 E0.18373
G1 X99.152 Y84.893 E0.21434
G1 X100.053 Y84.702 E0.24497
G1 X100.967 Y84.59 E0.2756
G1 X101.503 Y84.561 E0.29345
G1 X102.121 Y84.548 E0.31401
G1 X117.584 Y84.548 E0.82831
G1 X118.434 Y84.559 E0.85659
G1 X119.353 Y84.612 E0.8872
G1 X120.264 Y84.745 E0.91782
G1 X121.16 Y84.956 E0.94844
G1 X122.034 Y85.244 E0.97905
G1 X122.881 Y85.607 E1.0097
G1 X123.692 Y86.042 E1.04031
G1 X124.462 Y86.546 E1.07091
G1 X125.186 Y87.115 E1.10154
G1 X125.858 Y87.745 E1.13218
G1 X126.473 Y88.43 E1.1628
G1 X127.026 Y89.166 E1.19342
G1 X127.513 Y89.947 E1.22403
G1 X127.93 Y90.768 E1.25466
G1 X128.275 Y91.622 E1.28529
G1 X128.544 Y92.502 E1.3159
G1 X128.736 Y93.403 E1.34654
G1 X128.849 Y94.316 E1.37713
G1 X128.877 Y94.848 E1.39485
G1 X128.89 Y95.624 E1.42067
G1 X128.88 Y96.294 E1.44295
G1 X128.872 Y96.579 E1.45244
G1 X128.837 Y97.42 E1.48043
G1 X128.752 Y101.433 E1.61394
G1 X128.75 Y107.822 E1.82643
G1 X128.738 Y108.629 E1.85328
G1 X128.671 Y111.755 E1.95727
G1 X128.654 Y112.011 E1.96581
G1 X128.639 Y113.085 E2.00153
G1 X128.63 Y113.384 E2.01148
G1 X128.599 Y114.107 E2.03555
G1 X128.522 Y116.795 E2.12499
G1 X128.522 Y119.33 E2.2093
G1 X128.53 Y120.038 E2.23285
G1 X128.529 Y121.523 E2.28225
G1 X128.519 Y122.245 E2.30626
G1 X128.466 Y123.164 E2.33688
G1 X128.334 Y124.075 E2.36749
G1 X128.123 Y124.971 E2.39811
G1 X127.835 Y125.846 E2.42875
G1 X127.473 Y126.692 E2.45936
G1 X127.038 Y127.504 E2.48999
G1 X126.535 Y128.274 E2.52058
G1 X125.682 Y129.317 E2.5654
G1 X124.856 Y130.206 E2.60576
G1 X124.356 Y130.756 E2.63048
G1 X123.67 Y131.491 E2.66392
G1 X123.013 Y132.136 E2.69454
G1 X122.303 Y132.721 E2.72514
G1 X121.545 Y133.243 E2.75575
G1 X120.744 Y133.697 E2.78638
G1 X119.906 Y134.08 E2.81702
G1 X119.039 Y134.389 E2.84763
G1 X118.148 Y134.621 E2.87826
G1 X117.241 Y134.776 E2.90886
G1 X116.153 Y134.855 E2.94514
G1 X113.997 Y134.902 E3.01687
G1 X113.195 Y134.916 E3.04355
G1 X110.653 Y135.024 E3.12817
G1 X108.164 Y135.2 E3.21116
G1 X107.544 Y135.262 E3.23189
G1 X106.276 Y135.371 E3.27422
G1 X105.677 Y135.406 E3.29417
G1 X105.025 Y135.42 E3.31586
G1 X104.724 Y135.419 E3.32588
G1 X104.05 Y135.41 E3.34829
G1 X103.131 Y135.358 E3.37891
G1 X102.22 Y135.226 E3.40953
G1 X101.324 Y135.016 E3.44013
G1 X100.449 Y134.728 E3.47077
G1 X99.739 Y134.43 E3.49638
G1 X99.685 Y134.405 E3.49836
G1 X98.867 Y133.982 E3.52899
G1 X98.089 Y133.49 E3.55961
G1 X97.356 Y132.933 E3.59023
G1 X96.675 Y132.313 E3.62086
G1 X95.907 Y131.465 E3.65891
G1 X95.368 Y130.799 E3.68741
G1 X94.106 Y129.197 E3.75524
G1 X93.557 Y128.478 E3.78533
G1 X93.031 Y127.723 E3.81593
G1 X92.573 Y126.924 E3.84656
G1 X92.186 Y126.089 E3.87717
G1 X91.873 Y125.223 E3.9078
G1 X91.636 Y124.333 E3.93843
G1 X91.477 Y123.426 E3.96906
G1 X91.398 Y122.509 E3.99967
G1 X91.403 Y121.488 E4.03363
G1 X91.458 Y120.46 E4.06787
G1 X91.564 Y117.804 E4.15628
G1 X91.594 Y115.324 E4.23877
G1 X91.551 Y112.747 E4.3245
G1 X91.439 Y110.256 E4.40743
G1 X91.257 Y107.754 E4.49087
G1 X91.185 Y106.924 E4.51858
G1 X91.154 Y105.59 E4.56296
G1 X91.253 Y103.097 E4.64594
G1 X91.273 Y99.178 E4.77629
G1 X91.271 Y98.965 E4.78337
G1 X91.242 Y97.682 E4.82606
G1 X91.196 Y96.135 E4.87753
G1 X91.192 Y95.663 E4.89323
G1 X91.202 Y94.998 E4.91535
G1 X91.256 Y94.079 E4.94597
G1 X91.389 Y93.168 E4.97659
G1 X91.601 Y92.272 E5.00722
G1 X91.89 Y91.397 E5.03787
G1 X92.254 Y90.552 E5.06847
G1 X92.689 Y89.741 E5.09908
G1 X93.194 Y88.97 E5.12973
G1 X93.269 Y88.875 E5.13376
G0 F1620 X93.763 Y88.247
G0 F9000 X94.157 Y88.404
G1 F1800 X94.784 Y87.754 E5.16379
G1 X95.466 Y87.162 E5.19383
G1 X96.198 Y86.633 E5.22387
G1 X96.974 Y86.171 E5.25391
G1 X97.788 Y85.78 E5.28394
G1 X98.633 Y85.461 E5.31398
G1 X99.503 Y85.219 E5.34402
G1 X100.391 Y85.055 E5.37405
G1 X101.514 Y84.961 E5.41154
G1 X102.121 Y84.948 E5.43173
G1 X117.584 Y84.948 E5.94603
G1 X118.428 Y84.959 E5.9741
G1 X119.33 Y85.012 E6.00416
G1 X120.223 Y85.144 E6.03418
G1 X121.101 Y85.355 E6.06421
G1 X121.957 Y85.643 E6.09425
G1 X122.784 Y86.005 E6.12428
G1 X123.576 Y86.44 E6.15433
G1 X124.327 Y86.942 E6.18438
G1 X125.03 Y87.509 E6.21442
G1 X125.68 Y88.136 E6.24446
G1 X126.272 Y88.818 E6.27449
G1 X126.802 Y89.549 E6.30452
G1 X127.264 Y90.325 E6.33456
G1 X127.657 Y91.138 E6.3646
G1 X127.975 Y91.983 E6.39462
G1 X128.218 Y92.853 E6.42467
G1 X128.383 Y93.741 E6.45471
G1 X128.478 Y94.86 E6.49206
G1 X128.49 Y95.618 E6.51728
G1 X128.48 Y96.288 E6.53956
G1 X128.472 Y96.562 E6.54868
G1 X128.437 Y97.394 E6.57638
G1 X128.352 Y101.425 E6.71048
G1 X128.35 Y107.816 E6.92304
G1 X128.338 Y108.621 E6.94982
G1 X128.271 Y111.747 E7.05382
G1 X128.254 Y111.996 E7.06212
G1 X128.239 Y113.079 E7.09814
G1 X128.231 Y113.367 E7.10772
G1 X128.197 Y114.168 E7.13439
G1 X128.122 Y116.784 E7.22143
G1 X128.122 Y119.34 E7.30645
G1 X128.13 Y120.041 E7.32976
G1 X128.129 Y121.517 E7.37885
G1 X128.119 Y122.239 E7.40287
G1 X128.067 Y123.141 E7.43292
G1 X127.935 Y124.034 E7.46295
G1 X127.724 Y124.912 E7.49298
G1 X127.437 Y125.769 E7.52304
G1 X127.075 Y126.596 E7.55306
G1 X126.641 Y127.388 E7.5831
G1 X126.139 Y128.139 E7.61315
G1 X125.389 Y129.045 E7.65227
G1 X124.549 Y129.949 E7.69331
G1 X124.064 Y130.483 E7.7173
G1 X123.378 Y131.218 E7.75074
G1 X122.733 Y131.85 E7.78078
G1 X122.035 Y132.423 E7.81081
G1 X121.289 Y132.931 E7.84083
G1 X120.5 Y133.372 E7.8709
G1 X119.676 Y133.742 E7.90094
G1 X118.823 Y134.037 E7.93096
G1 X117.946 Y134.255 E7.96101
G1 X117.054 Y134.395 E7.99105
G1 X116.144 Y134.456 E8.02138
G1 X113.99 Y134.503 E8.09304
G1 X113.171 Y134.517 E8.12028
G1 X110.606 Y134.626 E8.20567
G1 X108.135 Y134.801 E8.28806
G1 X107.362 Y134.877 E8.3139
G1 X106.242 Y134.973 E8.35129
G1 X105.666 Y135.006 E8.37048
G1 X105.025 Y135.02 E8.3918
G1 X104.73 Y135.019 E8.40161
G1 X104.056 Y135.01 E8.42403
G1 X103.154 Y134.958 E8.45408
G1 X102.261 Y134.826 E8.48411
G1 X101.382 Y134.616 E8.51416
G1 X100.526 Y134.329 E8.54419
G1 X99.907 Y134.067 E8.56655
G1 X99.853 Y134.042 E8.56853
G1 X99.051 Y133.627 E8.59856
G1 X98.289 Y133.142 E8.62861
G1 X97.573 Y132.592 E8.65863
G1 X96.908 Y131.981 E8.68867
G1 X96.217 Y131.213 E8.72303
G1 X95.774 Y130.667 E8.74642
G1 X94.32 Y128.82 E8.8246
G1 X93.875 Y128.236 E8.84902
G1 X93.36 Y127.494 E8.87906
G1 X92.913 Y126.71 E8.90908
G1 X92.536 Y125.889 E8.93913
G1 X92.234 Y125.038 E8.96916
G1 X92.008 Y124.163 E8.99922
G1 X91.861 Y123.272 E9.02925
G1 X91.793 Y122.372 E9.05927
G1 X91.803 Y121.51 E9.08794
G1 X91.857 Y120.5 E9.12159
G1 X91.964 Y117.825 E9.21063
G1 X91.994 Y115.322 E9.29388
G1 X91.951 Y112.757 E9.37921
G1 X91.837 Y110.21 E9.46401
G1 X91.651 Y107.666 E9.54885
G1 X91.584 Y106.889 E9.57478
G1 X91.554 Y105.605 E9.6175
G1 X91.653 Y103.114 E9.70042
G1 X91.673 Y99.173 E9.8315
G1 X91.671 Y98.958 E9.83865
G1 X91.643 Y97.748 E9.87891
G1 X91.595 Y96.123 E9.93298
G1 X91.592 Y95.669 E9.94808
G1 X91.602 Y95.004 E9.9702
G1 X91.656 Y94.102 E10.00025
G1 X91.789 Y93.209 E10.03028
G1 X92 Y92.331 E10.06031
G1 X92.289 Y91.475 E10.09036
G1 X92.652 Y90.648 E10.1204
G1 X93.086 Y89.857 E10.15041
G1 X93.589 Y89.106 E10.18048
G1 X93.654 Y89.025 E10.18393
G0 F1620 X94.157 Y88.404
G1 F2400 E6.98393
;MESH:FencingTrophy_NAF_letters_1st_2nd.stl
G0 F9000 X101.891 Y104.258
G0 X102.759 Y104.704
G0 X103.128 Y105.161
G0 X103.716 Y105.672
G0 X103.761 Y105.478
;TYPE:WALL-OUTER
G1 F1440 E10.18393
G1 F1800 X104.226 Y105.586 E10.19981
G1 X104.516 Y105.535 E10.2096
G1 X104.741 Y105.398 E10.21836
G1 X104.905 Y105.196 E10.22702
G1 X105.019 Y104.941 E10.23631
G1 X105.089 Y104.625 E10.24707
G1 X105.113 Y104.218 E10.26063
G1 X105.087 Y103.699 E10.27792
G1 X104.923 Y102.921 E10.30436
G1 X104.72 Y102.391 E10.32324
G1 X104.631 Y102.185 E10.3307
G1 X104.247 Y101.42 E10.35917
G1 X103.72 Y100.463 E10.39551
G1 X102.034 Y97.479 E10.5095
G1 X102.034 Y95.948 E10.56042
G1 X101.991 Y95.948 E10.56185
G1 X101.991 Y95.348 E10.58181
G1 X118.091 Y95.348 E11.1173
G1 X118.091 Y95.948 E11.13725
G1 X117.952 Y95.948 E11.14188
G1 X117.951 Y108.17 E11.54838
G1 X116.919 Y108.171 E11.58271
G1 X116.719 Y108.171 E11.58936
G1 X116.719 Y107.971 E11.59367
G1 X116.719 Y104.667 E11.70356
G1 X116.719 Y104.512 E11.70871
G1 X116.491 Y104.403 E11.71712
G1 X116.371 Y104.5 E11.72225
G1 X116.045 Y104.765 E11.73622
G1 X115.428 Y104.906 E11.75727
G1 X114.834 Y104.774 E11.77751
G1 X114.299 Y104.356 E11.80009
G1 X113.848 Y103.638 E11.8283
G1 X113.515 Y102.678 E11.86209
G1 X113.321 Y101.532 E11.90075
G1 X113.257 Y100.197 E11.9452
G1 X113.321 Y98.869 E11.98942
G1 X113.512 Y97.73 E12.02784
G1 X113.841 Y96.775 E12.06143
G1 X114.16 Y96.282 E12.08096
G1 X114.24 Y96.157 E12.0859
G1 X114.127 Y95.948 E12.0938
G1 X113.978 Y95.948 E12.09876
G1 X112.277 Y95.948 E12.15533
G1 X112.277 Y101.517 E12.34056
G1 X112.055 Y103.378 E12.40289
G1 X111.352 Y104.553 E12.44843
G1 X110.295 Y104.906 E12.4855
G1 X109.613 Y104.759 E12.5087
G1 X109.107 Y104.346 E12.53043
G1 X108.993 Y104.253 E12.53532
G1 X108.773 Y104.342 E12.54321
G1 X108.756 Y104.489 E12.54814
G1 X108.723 Y104.76 E12.55722
G1 X107.708 Y104.76 E12.59098
G1 X107.707 Y95.948 E12.88406
G1 X106.625 Y95.948 E12.92005
G1 X106.625 Y97.798 E12.98158
G1 X104.163 Y97.799 E13.06347
G1 X104.016 Y97.799 E13.06836
G1 X103.901 Y98 E13.07606
G1 X103.975 Y98.127 E13.08095
G1 X104.666 Y99.311 E13.12654
G1 X105.296 Y100.468 E13.17036
G1 X105.761 Y101.442 E13.20626
G1 X106.051 Y102.226 E13.23406
G1 X106.222 Y102.908 E13.25745
G1 X106.327 Y103.59 E13.2804
G1 X106.362 Y104.272 E13.30311
G1 X106.295 Y105.23 E13.33505
G1 X106.09 Y106.069 E13.36378
G1 X105.75 Y106.758 E13.38933
G1 X105.312 Y107.259 E13.41147
G1 X104.81 Y107.541 E13.43062
G1 X104.236 Y107.632 E13.44995
G1 X103.524 Y107.485 E13.47413
G1 X102.839 Y107.033 E13.50142
G1 X102.229 Y106.293 E13.53332
G1 X101.974 Y105.987 E13.54657
G1 X102.601 Y104.769 E13.59213
G1 X102.735 Y104.508 E13.60189
G1 X102.928 Y104.729 E13.60761
G1 X103.308 Y105.165 E13.62685
G1 X103.729 Y105.456 E13.64387
G0 F1620 X103.761 Y105.478
G0 F9000 X103.716 Y105.672
G0 X104.222 Y105.727
G0 X104.566 Y105.667
G0 X104.834 Y105.504
G0 X106.189 Y103.609
G0 X103.746 Y98
G0 X103.938 Y97.665
G0 X106.497 Y97.67
G0 X106.497 Y95.82
G0 X107.835 Y95.82
G0 X107.841 Y103.313
G0 X110.147 Y103.034
G0 X110.781 Y102.81
G0 X111.024 Y102.381
G0 X111.244 Y101.371
G0 X111.046 Y101.348
G1 F1800 X111.047 Y96.148 E13.81682
G1 X111.047 Y95.948 E13.82347
G1 X110.847 Y95.948 E13.82778
G1 X108.933 Y95.948 E13.89144
G1 X108.933 Y100.321 E14.03689
G1 X109.074 Y101.805 E14.08647
G1 X109.447 Y102.592 E14.11544
G1 X110.151 Y102.888 E14.14084
G1 X110.687 Y102.698 E14.15975
G1 X110.946 Y102.237 E14.17734
G1 X110.968 Y102.046 E14.18373
G0 F1620 X111.046 Y101.348
G0 F9000 X111.244 Y101.371
G0 X112.149 Y95.82
G0 X114.207 Y95.814
G0 X115.618 Y97.343
G0 X115.585 Y97.539
G1 F1800 X114.972 Y97.84 E14.20645
G1 X114.759 Y98.356 E14.22501
G1 X114.639 Y98.654 E14.2357
G1 X114.514 Y100.187 E14.28685
G1 X114.639 Y101.753 E14.33911
G1 X114.831 Y102.24 E14.35652
G1 X114.971 Y102.585 E14.3689
G1 X115.58 Y102.889 E14.39154
G1 X115.971 Y102.816 E14.40477
G1 X116.262 Y102.613 E14.41657
G1 X116.454 Y102.317 E14.4283
G1 X116.592 Y101.857 E14.44428
G1 X116.686 Y101.15 E14.468
G1 X116.719 Y100.181 E14.50025
G1 X116.719 Y99.911 E14.50923
G1 X116.677 Y99.081 E14.53687
G1 X116.584 Y98.469 E14.55746
G1 X116.453 Y98.066 E14.57155
G1 X116.299 Y97.839 E14.58068
G0 F1620 X116.268 Y97.792
G0 X115.982 Y97.606
G0 X115.585 Y97.539
G0 F9000 X115.618 Y97.343
G0 X115.156 Y96.731
G0 X114.808 Y95.748
;TYPE:WALL-INNER
G1 F1800 X117.352 Y95.748 E14.66529
G1 X117.552 Y95.748 E14.67194
G1 X117.552 Y95.948 E14.67625
G1 X117.551 Y107.77 E15.06945
G1 X117.319 Y107.771 E15.07717
G1 X117.119 Y107.771 E15.08382
G1 X117.119 Y107.571 E15.08813
G1 X117.119 Y104.26 E15.19825
G1 X116.435 Y103.933 E15.22347
G1 X115.865 Y104.396 E15.24789
G1 X115.426 Y104.496 E15.26287
G1 X115.009 Y104.404 E15.27707
G1 X114.602 Y104.085 E15.29427
G1 X114.211 Y103.463 E15.3187
G1 X113.903 Y102.576 E15.34993
G1 X113.72 Y101.495 E15.3864
G1 X113.658 Y100.197 E15.42962
G1 X113.72 Y98.904 E15.47267
G1 X113.9 Y97.83 E15.50889
G1 X114.203 Y96.952 E15.53979
G1 X114.704 Y96.175 E15.57054
G1 X114.632 Y96.042 E15.57557
G1 X114.473 Y95.748 E15.58668
G1 X114.807 Y95.748 E15.59302
G1 X114.808 Y95.748 E15.59305
G0 F9000 X114.374 Y100.187
G0 X114.503 Y101.785
G0 X114.863 Y102.684
G0 X115.427 Y102.965
G0 X116.129 Y103.193
G1 F1800 X116.555 Y102.896 E15.61033
G1 X116.821 Y102.487 E15.62655
G1 X116.984 Y101.941 E15.6455
G1 X117.085 Y101.183 E15.67094
G1 X117.119 Y100.188 E15.70405
G1 X117.119 Y99.901 E15.7136
G1 X117.075 Y99.041 E15.74224
G1 X116.975 Y98.377 E15.76457
G1 X116.816 Y97.889 E15.78164
G1 X116.554 Y97.501 E15.79721
G1 X116.13 Y97.225 E15.81404
G1 X115.524 Y97.123 E15.83448
G1 X114.66 Y97.548 E15.86651
G1 X114.389 Y98.205 E15.89014
G1 X114.245 Y98.561 E15.90292
G1 X114.113 Y100.187 E15.95718
G1 X114.245 Y101.844 E16.01246
G1 X114.46 Y102.389 E16.03195
G1 X114.657 Y102.875 E16.04939
G1 X115.359 Y103.226 E16.07549
G0 F1620 X115.521 Y103.307
G0 X116.129 Y103.193
G0 F9000 X113.651 Y102.648
G0 X114.395 Y96.163
G0 X114.207 Y95.814
G0 X112.149 Y95.82
G0 X111.717 Y100.596
G0 X110.273 Y104.492
G1 F1800 X109.792 Y104.388 E16.09186
G1 X109.062 Y103.793 E16.12319
G1 X108.475 Y104.032 E16.14427
G1 X108.404 Y104.06 E16.1468
G1 X108.368 Y104.36 E16.15685
G1 X108.108 Y104.36 E16.1655
G1 X108.108 Y104.061 E16.17258
G1 X108.108 Y103.984 E16.17487
G1 X108.107 Y95.948 E16.44215
G1 X108.107 Y95.748 E16.4488
G1 X108.307 Y95.748 E16.45311
G1 X108.533 Y95.748 E16.46062
G1 X108.533 Y100.34 E16.61335
G1 X108.682 Y101.913 E16.66591
G1 X109.151 Y102.901 E16.70228
G1 X110.139 Y103.317 E16.73794
G1 X110.962 Y103.025 E16.76698
G1 X111.334 Y102.362 E16.79227
G1 X111.446 Y101.37 E16.82547
G1 X111.447 Y95.748 E17.01246
G1 X111.877 Y95.748 E17.02676
G1 X111.877 Y101.495 E17.21791
G1 X111.668 Y103.246 E17.27656
G1 X111.085 Y104.221 E17.31434
G1 X111.031 Y104.239 E17.31624
G0 F1620 X110.273 Y104.492
G0 F9000 X109.015 Y104.099
G0 X107.835 Y95.82
G0 X106.497 Y95.82
G0 X106.497 Y97.67
G0 X103.938 Y97.665
G0 X103.746 Y98
G0 X106.148 Y105.252
G0 X104.415 Y105.679
G0 X102.451 Y105.935
G1 F1800 X102.741 Y105.37 E17.33736
G1 X102.764 Y105.325 E17.33904
G1 X102.821 Y105.216 E17.34313
G1 X103.039 Y105.466 E17.35014
G1 X103.081 Y105.494 E17.35168
G1 X103.596 Y105.85 E17.3725
G1 X104.215 Y105.994 E17.39364
G1 X104.66 Y105.916 E17.40867
G1 X105.008 Y105.704 E17.42222
G1 X105.249 Y105.407 E17.43494
G1 X105.401 Y105.067 E17.44733
G1 X105.486 Y104.68 E17.46051
G1 X105.514 Y104.22 E17.47583
G1 X105.485 Y103.647 E17.49492
G1 X105.308 Y102.808 E17.52344
G1 X105.091 Y102.24 E17.54366
G1 X104.994 Y102.016 E17.55178
G1 X104.601 Y101.234 E17.58089
