;FLAVOR:Marlin
;TIME:492
;Filament used: 0.139861m
;Layer height: 0.16
;MINX:89.152
;MINY:86.139
;MINZ:0.2
;MAXX:130.85
;MAXY:133.856
;MAXZ:1.8
;Generated with Cura_SteamEngine 4.10.0
M82 ;absolute extrusion mode
M201 X500.00 Y500.00 Z100.00 E5000.00 ;Setup machine max acceleration
M203 X500.00 Y500.00 Z10.00 E50.00 ;Setup machine max feedrate
M204 P500.00 R1000.00 T500.00 ;Setup Print/Retract/Travel acceleration
M205 X8.00 Y8.00 Z0.40 E5.00 ;Setup Jerk
M220 S100 ;Reset Feedrate
M221 S100 ;Reset Flowrate

;*** Start Dual Nozzle/Bed Preheating ***
M140 S50 ; start preheating the bed
M104 S195 ?T0 ; start preheating hotend
M190 S50 ; heat to Cura Bed setting and WAIT
M109 S195 ?T0 ; heat to Cura Hotend and WAIT
;*** End Preheating ***

;*** Single Print Start Tone
M300 S1000 P500 ; chirp to indicate starting to print
;*** End Single Start Tone

G28 ;Home

G92 E0 ;Reset Extruder
G1 Z2.0 F3000 ;Move Z Axis up

G1 X10.1 Y20 Z0.28 F5000.0 ;Move to start position
G1 X10.1 Y200.0 Z0.28 F1500.0 E15 ;Draw the first line
G1 X10.4 Y200.0 Z0.28 F5000.0 ;Move to side a little
G1 X10.4 Y20 Z0.28 F1500.0 E30 ;Draw the second line
G92 E0 ;Reset Extruder
G1 Z2.0 F3000 ;Move Z Axis up
G92 E0
G92 E0
G1 F2400 E-3.2
;LAYER_COUNT:11
;LAYER:0
M106 S63.8
M204 S500
M205 X6 Y6
G0 F9000 X92.195 Y89.686 Z0.2
;TYPE:SKIRT
G1 F1440 E0
G1 F1800 X92.839 Y89.027 E0.03065
G1 X93.536 Y88.427 E0.06124
G1 X94.284 Y87.889 E0.09188
G1 X95.075 Y87.418 E0.1225
G1 X95.904 Y87.018 E0.15311
G1 X96.765 Y86.691 E0.18375
G1 X97.65 Y86.44 E0.21434
G1 X98.555 Y86.267 E0.24499
G1 X99.721 Y86.161 E0.28393
G1 X100.041 Y86.152 E0.29458
G1 X100.712 Y86.144 E0.3169
G1 X104.572 Y86.143 E0.44528
G1 X105.285 Y86.139 E0.469
G1 X105.416 Y86.144 E0.47336
G1 X109.333 Y86.145 E0.60364
G1 X109.96 Y86.154 E0.62449
G1 X112.946 Y86.149 E0.72381
G1 X113.307 Y86.144 E0.73582
G1 X114.885 Y86.144 E0.7883
G1 X114.991 Y86.139 E0.79183
G1 X115.704 Y86.139 E0.81554
G1 X115.819 Y86.144 E0.81937
G1 X119.695 Y86.145 E0.94829
G1 X120.393 Y86.155 E0.97151
G1 X121.312 Y86.208 E1.00212
G1 X122.223 Y86.341 E1.03274
G1 X123.119 Y86.552 E1.06336
G1 X123.993 Y86.84 E1.09397
G1 X124.84 Y87.203 E1.12462
G1 X125.651 Y87.638 E1.15523
G1 X126.421 Y88.142 E1.18584
G1 X127.145 Y88.711 E1.21646
G1 X127.817 Y89.341 E1.2471
G1 X128.432 Y90.026 E1.27772
G1 X128.985 Y90.762 E1.30834
G1 X129.472 Y91.543 E1.33895
G1 X129.889 Y92.364 E1.36958
G1 X130.234 Y93.218 E1.40021
G1 X130.503 Y94.098 E1.43082
G1 X130.695 Y94.999 E1.46146
G1 X130.808 Y95.912 E1.49205
G1 X130.837 Y96.471 E1.51067
G1 X130.848 Y97.2 E1.53492
G1 X130.829 Y98.52 E1.57883
G1 X130.781 Y100.194 E1.63453
G1 X130.781 Y102.726 E1.71874
G1 X130.812 Y104.175 E1.76695
G1 X130.845 Y105.313 E1.80482
G1 X130.85 Y105.625 E1.81519
G1 X130.849 Y106.359 E1.83961
G1 X130.838 Y107.102 E1.86432
G1 X130.784 Y108.021 E1.89494
G1 X130.711 Y108.586 E1.91389
G1 X130.577 Y109.441 E1.94267
G1 X130.214 Y111.983 E2.02808
G1 X129.924 Y114.528 E2.11327
G1 X129.711 Y117.02 E2.19646
G1 X129.568 Y119.541 E2.28044
G1 X129.492 Y122.217 E2.36948
G1 X129.474 Y123.405 E2.409
G1 X129.42 Y124.324 E2.43962
G1 X129.287 Y125.235 E2.47024
G1 X129.075 Y126.131 E2.50086
G1 X128.786 Y127.006 E2.53151
G1 X128.423 Y127.851 E2.5621
G1 X127.987 Y128.662 E2.59273
G1 X127.483 Y129.433 E2.62336
G1 X126.914 Y130.156 E2.65396
G1 X126.284 Y130.828 E2.6846
G1 X125.598 Y131.442 E2.71522
G1 X124.862 Y131.995 E2.74584
G1 X124.08 Y132.481 E2.77646
G1 X123.259 Y132.898 E2.80709
G1 X122.405 Y133.242 E2.83771
G1 X121.525 Y133.511 E2.86832
G1 X120.624 Y133.702 E2.89895
G1 X119.71 Y133.814 E2.92958
G1 X119.174 Y133.843 E2.94743
G1 X118.556 Y133.856 E2.96799
G1 X104.426 Y133.855 E3.43796
G1 X103.727 Y133.844 E3.46121
G1 X102.808 Y133.789 E3.49183
G1 X101.897 Y133.655 E3.52246
G1 X101.002 Y133.443 E3.55305
G1 X100.128 Y133.153 E3.58368
G1 X99.282 Y132.789 E3.61431
G1 X98.471 Y132.353 E3.64493
G1 X97.701 Y131.848 E3.67556
G1 X96.978 Y131.278 E3.70618
G1 X96.307 Y130.648 E3.73679
G1 X95.694 Y129.962 E3.76739
G1 X95.142 Y129.225 E3.79802
G1 X94.656 Y128.443 E3.82864
G1 X94.24 Y127.621 E3.85928
G1 X93.896 Y126.767 E3.88991
G1 X93.628 Y125.886 E3.92053
G1 X93.448 Y125.048 E3.94904
G1 X93.344 Y124.445 E3.96939
G1 X92.863 Y121.878 E4.05626
G1 X92.33 Y119.418 E4.13998
G1 X91.718 Y116.939 E4.2249
G1 X91.049 Y114.523 E4.30828
G1 X90.31 Y112.118 E4.39197
G1 X89.923 Y110.974 E4.43213
G1 X89.674 Y110.204 E4.45905
G1 X89.429 Y109.316 E4.48969
G1 X89.262 Y108.411 E4.5203
G1 X89.165 Y107.256 E4.55885
G1 X89.152 Y106.492 E4.58426
G1 X89.157 Y106.123 E4.59654
G1 X89.16 Y103.603 E4.68035
G1 X89.188 Y102.85 E4.70541
G1 X89.25 Y101.998 E4.73383
G1 X89.403 Y99.366 E4.82151
G1 X89.451 Y97.819 E4.87299
G1 X89.501 Y96.385 E4.92072
G1 X89.573 Y95.467 E4.95134
G1 X89.725 Y94.559 E4.98196
G1 X89.954 Y93.667 E5.01259
G1 X90.261 Y92.799 E5.04322
G1 X90.641 Y91.96 E5.07385
G1 X91.092 Y91.158 E5.10445
G1 X91.612 Y90.398 E5.13508
G1 X91.689 Y90.305 E5.1391
G0 F1620 X92.195 Y89.686
G0 F9000 X92.586 Y89.851
G1 F1800 X93.226 Y89.214 E5.16913
G1 X93.92 Y88.636 E5.19917
G1 X94.662 Y88.121 E5.22921
G1 X95.447 Y87.674 E5.25926
G1 X96.269 Y87.299 E5.28931
G1 X97.12 Y86.998 E5.31933
G1 X97.995 Y86.773 E5.34938
G1 X98.886 Y86.626 E5.37941
G1 X99.735 Y86.56 E5.40774
G1 X100.047 Y86.552 E5.41812
G1 X100.712 Y86.544 E5.44024
G1 X104.574 Y86.543 E5.56869
G1 X105.287 Y86.539 E5.5924
G1 X105.416 Y86.544 E5.5967
G1 X109.327 Y86.545 E5.72678
G1 X109.954 Y86.554 E5.74763
G1 X112.888 Y86.549 E5.84522
G1 X113.307 Y86.544 E5.85916
G1 X114.84 Y86.544 E5.91014
G1 X114.991 Y86.539 E5.91517
G1 X115.704 Y86.539 E5.93888
G1 X115.817 Y86.544 E5.94265
G1 X119.689 Y86.545 E6.07143
G1 X120.387 Y86.555 E6.09465
G1 X121.289 Y86.608 E6.1247
G1 X122.182 Y86.74 E6.15472
G1 X123.06 Y86.951 E6.18476
G1 X123.916 Y87.239 E6.2148
G1 X124.743 Y87.601 E6.24482
G1 X125.535 Y88.036 E6.27488
G1 X126.286 Y88.538 E6.30492
G1 X126.989 Y89.105 E6.33496
G1 X127.639 Y89.732 E6.365
G1 X128.231 Y90.414 E6.39503
G1 X128.761 Y91.145 E6.42507
G1 X129.223 Y91.921 E6.4551
G1 X129.616 Y92.734 E6.48514
G1 X129.934 Y93.579 E6.51517
G1 X130.177 Y94.449 E6.54521
G1 X130.342 Y95.337 E6.57525
G1 X130.437 Y96.482 E6.61347
G1 X130.448 Y97.194 E6.63715
G1 X130.429 Y98.508 E6.68086
G1 X130.381 Y100.182 E6.73656
G1 X130.381 Y102.735 E6.82147
G1 X130.41 Y104.102 E6.86695
G1 X130.446 Y105.325 E6.90764
G1 X130.45 Y105.625 E6.91762
G1 X130.449 Y106.353 E6.94183
G1 X130.438 Y107.096 E6.96655
G1 X130.385 Y107.998 E6.9966
G1 X130.316 Y108.524 E7.01425
G1 X130.174 Y109.43 E7.04475
G1 X129.82 Y111.913 E7.12817
G1 X129.527 Y114.488 E7.21437
G1 X129.312 Y116.994 E7.29802
G1 X129.168 Y119.545 E7.383
G1 X129.092 Y122.198 E7.47128
G1 X129.074 Y123.399 E7.51123
G1 X129.02 Y124.301 E7.54128
G1 X128.887 Y125.194 E7.57131
G1 X128.676 Y126.072 E7.60135
G1 X128.388 Y126.928 E7.63139
G1 X128.025 Y127.755 E7.66142
G1 X127.59 Y128.547 E7.69148
G1 X127.087 Y129.297 E7.72151
G1 X126.52 Y129.999 E7.75153
G1 X125.893 Y130.649 E7.78157
G1 X125.21 Y131.241 E7.81163
G1 X124.479 Y131.77 E7.84164
G1 X123.703 Y132.232 E7.87168
G1 X122.889 Y132.624 E7.90173
G1 X122.044 Y132.942 E7.93176
G1 X121.174 Y133.185 E7.9618
G1 X120.286 Y133.349 E7.99183
G1 X119.163 Y133.443 E8.02932
G1 X118.556 Y133.456 E8.04951
G1 X104.433 Y133.455 E8.51924
G1 X103.734 Y133.444 E8.54249
G1 X102.832 Y133.39 E8.57255
G1 X101.939 Y133.256 E8.60258
G1 X101.061 Y133.044 E8.63262
G1 X100.205 Y132.755 E8.66267
G1 X99.379 Y132.391 E8.6927
G1 X98.587 Y131.956 E8.72275
G1 X97.838 Y131.452 E8.75278
G1 X97.135 Y130.885 E8.78282
G1 X96.486 Y130.257 E8.81285
G1 X95.895 Y129.574 E8.84289
G1 X95.367 Y128.842 E8.87291
G1 X94.905 Y128.065 E8.90298
G1 X94.514 Y127.251 E8.93301
G1 X94.196 Y126.406 E8.96304
G1 X93.955 Y125.536 E8.99307
G1 X93.843 Y124.98 E9.01193
G1 X93.737 Y124.368 E9.03259
G1 X93.262 Y121.833 E9.11837
G1 X92.714 Y119.302 E9.2045
G1 X92.115 Y116.875 E9.28765
G1 X91.434 Y114.413 E9.37261
G1 X90.684 Y111.978 E9.45735
G1 X90.304 Y110.85 E9.49694
G1 X90.055 Y110.08 E9.52386
G1 X89.815 Y109.21 E9.55388
G1 X89.654 Y108.321 E9.58393
G1 X89.564 Y107.244 E9.61987
G1 X89.552 Y106.498 E9.64469
G1 X89.557 Y106.13 E9.65693
G1 X89.56 Y103.603 E9.74098
G1 X89.587 Y102.879 E9.76507
G1 X89.647 Y102.052 E9.79265
G1 X89.804 Y99.363 E9.88224
G1 X89.851 Y97.833 E9.93315
G1 X89.901 Y96.399 E9.98088
G1 X89.973 Y95.498 E10.01094
G1 X90.123 Y94.608 E10.04096
G1 X90.352 Y93.734 E10.07101
G1 X90.658 Y92.884 E10.10106
G1 X91.037 Y92.065 E10.13107
G1 X91.487 Y91.282 E10.16111
G1 X92.005 Y90.542 E10.19115
G1 X92.071 Y90.463 E10.19458
G0 F1620 X92.586 Y89.851
G1 F2400 E6.99458
;MESH:FencingTrophy_NAF_letters_foil_epee.stl
G0 F9000 X105.652 Y96.079
G0 X105.652 Y97.058
G0 X108.276 Y97.49
G0 X108.813 Y105.12
G0 X109.562 Y106.272
G0 X112.404 Y106.272
G0 X113.144 Y105.435
G0 X113.333 Y105.121
G0 X113.388 Y104.668
G0 X113.377 Y102.429
G0 X110.923 Y101.352
G0 X111.204 Y98.49
G0 X111.395 Y98.547
;TYPE:WALL-OUTER
G1 F1440 E10.19458
G1 F1800 X111.303 Y99.055 E10.21175
G1 X111.271 Y99.715 E10.23372
G1 X111.308 Y100.387 E10.25611
G1 X111.415 Y100.939 E10.27481
G1 X111.596 Y101.355 E10.2899
G1 X111.878 Y101.653 E10.30355
G1 X112.267 Y101.827 E10.31772
G1 X112.747 Y101.883 E10.33379
G1 X113.249 Y101.883 E10.35049
G1 X113.249 Y97.818 E10.48569
G1 X113.249 Y97.618 E10.49234
G1 X113.049 Y97.618 E10.49665
G1 X112.608 Y97.619 E10.51132
G1 X112.173 Y97.675 E10.52591
G1 X111.813 Y97.856 E10.53931
G1 X111.56 Y98.156 E10.55236
G1 X111.442 Y98.435 E10.56244
G0 F1620 X111.395 Y98.547
G0 F9000 X111.212 Y98.47
G0 X111.131 Y99.715
G0 X111.17 Y100.403
G0 X111.281 Y100.98
G0 X111.984 Y102.32
G0 X113.377 Y102.429
G0 X113.388 Y104.668
G0 X113.333 Y105.121
G0 X113.144 Y105.435
G0 X112.97 Y105.523
G0 X112.448 Y105.649
G0 X112.276 Y105.487
G1 F1800 X112.799 Y105.455 E10.57986
G1 X113.046 Y105.33 E10.58907
G1 X113.199 Y105.076 E10.59893
G1 X113.249 Y104.66 E10.61287
G1 X113.249 Y102.557 E10.68281
G1 X112.669 Y102.557 E10.70211
G1 X112.275 Y102.53 E10.71524
G1 X111.942 Y102.452 E10.72662
G1 X111.646 Y102.321 E10.73738
G1 X111.156 Y101.941 E10.75801
G1 X110.797 Y101.414 E10.77921
G1 X110.569 Y100.748 E10.80263
G1 X110.46 Y100.012 E10.82737
G1 X110.46 Y99.23 E10.85338
G1 X110.577 Y98.49 E10.8783
G1 X110.81 Y97.883 E10.89993
G1 X111.148 Y97.432 E10.91867
G1 X111.599 Y97.125 E10.93682
G1 X112.148 Y96.965 E10.95584
G1 X112.486 Y96.944 E10.9671
G1 X114.791 Y96.944 E11.04377
G1 X114.791 Y97.518 E11.06286
G1 X114.451 Y97.547 E11.07421
G1 X114.185 Y97.691 E11.08427
G1 X114.042 Y97.953 E11.0942
G1 X113.989 Y98.363 E11.10795
G1 X113.989 Y104.601 E11.31542
G1 X114.039 Y105.042 E11.33018
G1 X114.189 Y105.309 E11.34037
G1 X114.449 Y105.458 E11.35034
G1 X114.791 Y105.487 E11.36175
G1 X114.791 Y106.144 E11.3836
G1 X115.435 Y106.144 E11.40502
G1 X115.436 Y106.144 E11.40506
G1 X115.64 Y106.144 E11.41184
G1 X115.636 Y105.94 E11.41621
G1 X115.635 Y105.939 E11.41626
G1 X115.597 Y104.591 E11.46111
G1 X115.595 Y104.492 E11.4644
G1 X115.575 Y103.798 E11.48749
G1 X115.897 Y103.796 E11.4982
G1 X115.973 Y104.481 E11.51825
G1 X115.997 Y104.577 E11.52145
G1 X116.066 Y104.848 E11.53075
G1 X116.243 Y105.143 E11.5422
G1 X116.429 Y105.292 E11.55012
G1 X116.688 Y105.376 E11.55918
G1 X116.819 Y105.386 E11.56355
G1 X118.508 Y105.386 E11.61973
G1 X118.508 Y101.633 E11.74455
G1 X116.465 Y101.633 E11.8125
G1 X116.465 Y100.96 E11.83489
G1 X118.508 Y100.96 E11.90284
G1 X118.508 Y97.618 E12.01399
G1 X117.016 Y97.618 E12.06362
G1 X116.768 Y97.66 E12.07198
G1 X116.563 Y97.782 E12.07992
G1 X116.364 Y98.057 E12.09121
G1 X116.272 Y98.401 E12.10305
G1 X116.24 Y98.523 E12.10724
G1 X116.183 Y99.2 E12.12984
G1 X115.859 Y99.198 E12.14062
G1 X115.871 Y98.517 E12.16031
G1 X115.873 Y98.39 E12.16437
G1 X115.9 Y96.944 E12.21248
G1 X120.05 Y96.944 E12.35051
G1 X120.05 Y97.518 E12.3696
G1 X119.702 Y97.548 E12.38121
G1 X119.447 Y97.696 E12.39102
G1 X119.297 Y97.97 E12.40141
G1 X119.247 Y98.417 E12.41637
G1 X119.247 Y104.651 E12.62371
G1 X119.304 Y105.069 E12.63775
G1 X119.455 Y105.333 E12.64786
G1 X119.712 Y105.457 E12.65735
G1 X120.05 Y105.487 E12.66864
G1 X120.05 Y106.744 E12.71045
G1 X99.95 Y106.744 E13.37897
G1 X99.95 Y106.144 E13.39893
G1 X100.017 Y106.144 E13.40116
G1 X99.976 Y104.574 E13.45339
G1 X99.974 Y104.49 E13.45619
G1 X99.955 Y103.798 E13.47921
G1 X100.278 Y103.796 E13.48996
G1 X100.355 Y104.479 E13.51007
G1 X100.375 Y104.56 E13.51278
G1 X100.451 Y104.855 E13.52291
G1 X100.624 Y105.142 E13.53405
G1 X100.818 Y105.296 E13.54229
G1 X101.068 Y105.376 E13.55102
G1 X101.201 Y105.386 E13.55546
G1 X102.889 Y105.386 E13.6116
G1 X102.889 Y101.633 E13.73643
G1 X100.847 Y101.633 E13.80434
G1 X100.847 Y100.96 E13.82673
G1 X102.889 Y100.96 E13.89465
G1 X102.889 Y97.618 E14.0058
G1 X101.408 Y97.618 E14.05506
G1 X101.141 Y97.664 E14.06407
G1 X100.945 Y97.783 E14.0717
G1 X100.748 Y98.05 E14.08273
G1 X100.653 Y98.409 E14.09508
G1 X100.621 Y98.532 E14.09931
G1 X100.607 Y98.656 E14.10346
G1 X100.564 Y99.2 E14.12161
G1 X100.241 Y99.198 E14.13236
G1 X100.249 Y98.651 E14.14791
G1 X100.252 Y98.526 E14.15175
G1 X100.254 Y98.398 E14.15585
G1 X100.281 Y96.944 E14.20421
G1 X104.431 Y96.944 E14.34224
G1 X104.431 Y97.518 E14.36133
G1 X104.076 Y97.551 E14.37319
G1 X103.827 Y97.697 E14.38279
G1 X103.679 Y97.963 E14.39292
G1 X103.629 Y98.418 E14.40814
G1 X103.629 Y104.651 E14.61545
G1 X103.687 Y105.075 E14.62969
G1 X103.836 Y105.333 E14.6396
G1 X104.099 Y105.458 E14.64928
G1 X104.431 Y105.487 E14.66037
G1 X104.431 Y106.144 E14.68222
G1 X105.075 Y106.144 E14.70364
G1 X105.076 Y106.144 E14.70367
G1 X105.28 Y106.144 E14.71046
G1 X105.276 Y105.94 E14.71482
G1 X105.275 Y105.939 E14.71487
G1 X105.237 Y104.574 E14.76029
G1 X105.235 Y104.5 E14.76275
G1 X105.215 Y103.798 E14.78611
G1 X105.537 Y103.796 E14.79682
G1 X105.615 Y104.489 E14.81716
G1 X105.636 Y104.559 E14.81953
G1 X105.755 Y104.953 E14.83322
G1 X105.974 Y105.229 E14.84494
G1 X106.185 Y105.346 E14.85296
G1 X106.459 Y105.386 E14.86217
G1 X108.148 Y105.386 E14.91835
G1 X108.148 Y101.633 E15.04318
G1 X106.106 Y101.633 E15.11109
G1 X106.106 Y100.96 E15.13348
G1 X108.148 Y100.96 E15.20139
G1 X108.148 Y97.618 E15.31255
G1 X106.656 Y97.618 E15.36217
G1 X106.4 Y97.664 E15.37082
G1 X106.198 Y97.787 E15.37869
G1 X106.006 Y98.051 E15.38955
G1 X105.913 Y98.401 E15.40159
G1 X105.881 Y98.524 E15.40582
G1 X105.824 Y99.2 E15.42838
G1 X105.5 Y99.198 E15.43916
G1 X105.512 Y98.518 E15.45882
G1 X105.514 Y98.39 E15.46292
G1 X105.54 Y96.944 E15.51102
G1 X109.69 Y96.944 E15.64905
G1 X109.69 Y97.518 E15.66814
G1 X109.341 Y97.548 E15.67979
G1 X109.088 Y97.696 E15.68954
G1 X108.938 Y97.962 E15.6997
G1 X108.888 Y98.418 E15.71496
G1 X108.888 Y104.663 E15.92267
G1 X108.946 Y105.075 E15.9365
G1 X109.091 Y105.33 E15.94626
G1 X109.352 Y105.457 E15.95591
G1 X109.69 Y105.487 E15.9672
G1 X109.69 Y106.144 E15.98905
G1 X112.133 Y106.144 E16.07031
G0 F1620 X112.276 Y106.144
G0 X112.276 Y105.487
G0 F9000 X112.448 Y105.649
G0 X114.391 Y105.855
;TYPE:WALL-INNER
G1 F1800 X114.391 Y106.344 E16.08657
G1 X112.676 Y106.344 E16.14361
G1 X112.676 Y105.863 E16.15961
G1 X112.906 Y105.849 E16.16727
G1 X113.329 Y105.635 E16.18304
G1 X113.443 Y105.446 E16.19038
G1 X113.586 Y105.209 E16.19959
G1 X113.591 Y105.16 E16.20123
G1 X113.622 Y104.911 E16.20957
G1 X113.651 Y105.167 E16.21035
G1 X113.786 Y105.408 E16.21633
G1 X113.894 Y105.601 E16.22369
G1 X114.355 Y105.837 E16.24091
G0 F1620 X114.391 Y105.855
G0 F9000 X114.663 Y106.272
G0 X115.771 Y106.271
G0 X118.636 Y105.514
G0 X118.918 Y105.2
G1 F1800 X119.169 Y105.639 E16.25773
G1 X119.65 Y105.853 E16.27524
G1 X119.65 Y106.344 E16.29157
G1 X116.045 Y106.344 E16.41147
G1 X116.03 Y105.79 E16.42991
G1 X116.027 Y105.656 E16.43436
G1 X116.022 Y105.478 E16.44029
G1 X116.236 Y105.65 E16.44435
G1 X116.363 Y105.691 E16.44792
G1 X116.61 Y105.771 E16.45655
G1 X116.804 Y105.786 E16.46302
G1 X118.908 Y105.786 E16.533
G1 X118.91 Y105.635 E16.53727
G1 X118.918 Y105.2 E16.54154
G0 F9000 X119.15 Y97.406
G1 F1800 X119.121 Y97.46 E16.54357
G1 X118.908 Y97.847 E16.55827
G1 X118.908 Y97.406 E16.56262
G1 X118.908 Y97.344 E16.56386
G1 X119.15 Y97.344 E16.56906
