;FLAVOR:Marlin
;TIME:9667
;Filament used: 10.7438m
;Layer height: 0.2
;MINX:37.388
;MINY:72.342
;MINZ:0.2
;MAXX:182.087
;MAXY:147.685
;MAXZ:14.96
;Generated with Cura_SteamEngine 4.10.0
M82 ;absolute extrusion mode
M201 X500.00 Y500.00 Z100.00 E5000.00 ;Setup machine max acceleration
M203 X500.00 Y500.00 Z10.00 E50.00 ;Setup machine max feedrate
M204 P500.00 R1000.00 T500.00 ;Setup Print/Retract/Travel acceleration
M205 X8.00 Y8.00 Z0.40 E5.00 ;Setup Jerk
M220 S100 ;Reset Feedrate
M221 S100 ;Reset Flowrate

;*** Start Dual Nozzle/Bed Preheating ***
M140 S50 ; start preheating the bed
M104 S195 ?T0 ; start preheating hotend
M190 S50 ; heat to Cura Bed setting and WAIT
M109 S195 ?T0 ; heat to Cura Hotend and WAIT
;*** End Preheating ***

;*** Single Print Start Tone
M300 S1000 P500 ; chirp to indicate starting to print
;*** End Single Start Tone

G28 ;Home

G92 E0 ;Reset Extruder
G1 Z2.0 F3000 ;Move Z Axis up

G1 X10.1 Y20 Z0.28 F5000.0 ;Move to start position
G1 X10.1 Y200.0 Z0.28 F1500.0 E15 ;Draw the first line
G1 X10.4 Y200.0 Z0.28 F5000.0 ;Move to side a little
G1 X10.4 Y20 Z0.28 F1500.0 E30 ;Draw the second line
G92 E0 ;Reset Extruder
G1 Z2.0 F3000 ;Move Z Axis up
G92 E0
G92 E0
G1 F2400 E-3.2
;LAYER_COUNT:70
;LAYER:0
M106 S63.8
M204 S500
M205 X6 Y6
G0 F9000 X44.972 Y75.352 Z0.2
;TYPE:SKIRT
G1 F1440 E0
G1 F1800 X45.302 Y75.166 E0.0126
G1 X45.995 Y74.81 E0.03851
G1 X46.297 Y74.669 E0.0496
G1 X46.91 Y74.406 E0.07178
G1 X47.403 Y74.214 E0.08938
G1 X48.259 Y73.924 E0.11944
G1 X48.795 Y73.784 E0.13787
G1 X49.311 Y73.664 E0.15549
G1 X50.005 Y73.528 E0.17901
G1 X50.329 Y73.476 E0.18992
G1 X51.011 Y73.39 E0.21278
G1 X51.348 Y73.359 E0.22404
G1 X52.057 Y73.318 E0.24766
G1 X52.42 Y73.31 E0.25974
G1 X53.162 Y73.321 E0.28442
G1 X53.517 Y73.339 E0.29624
G1 X54.222 Y73.399 E0.31978
G1 X54.595 Y73.444 E0.33227
G1 X55.244 Y73.544 E0.35411
G1 X55.528 Y73.597 E0.36372
G1 X56.261 Y73.762 E0.38871
G1 X58.115 Y74.252 E0.45249
G1 X58.472 Y74.338 E0.46471
G1 X59.098 Y74.507 E0.48627
G1 X61.621 Y75.115 E0.57259
G1 X64.017 Y75.618 E0.65402
G1 X66.551 Y76.077 E0.73967
G1 X69.089 Y76.463 E0.82506
G1 X71.581 Y76.77 E0.90857
G1 X74.085 Y77.008 E0.99223
G1 X76.645 Y77.177 E1.07756
G1 X79.216 Y77.275 E1.16313
G1 X81.349 Y77.3 E1.23408
G1 X134.904 Y77.3 E3.01533
G1 X137.51 Y77.263 E3.10201
G1 X140.078 Y77.154 E3.1875
G1 X142.58 Y76.977 E3.27092
G1 X145.092 Y76.728 E3.35488
G1 X147.655 Y76.4 E3.44082
G1 X150.14 Y76.009 E3.52449
G1 X152.623 Y75.548 E3.60849
G1 X155.104 Y75.014 E3.6929
G1 X157.584 Y74.406 E3.77782
G1 X160.063 Y73.724 E3.86334
G1 X162.191 Y73.077 E3.93732
G1 X162.339 Y73.03 E3.94248
G1 X163.105 Y72.819 E3.96891
G1 X163.618 Y72.699 E3.98643
G1 X164.325 Y72.56 E4.0104
G1 X164.649 Y72.508 E4.02131
G1 X165.331 Y72.422 E4.04417
G1 X165.668 Y72.391 E4.05543
G1 X166.377 Y72.35 E4.07905
G1 X166.74 Y72.342 E4.09113
G1 X167.482 Y72.353 E4.11581
G1 X167.837 Y72.371 E4.12763
G1 X168.542 Y72.431 E4.15116
G1 X168.915 Y72.476 E4.16366
G1 X169.564 Y72.576 E4.1855
G1 X169.848 Y72.629 E4.19511
G1 X170.604 Y72.8 E4.22089
G1 X171.133 Y72.941 E4.2391
G1 X171.994 Y73.212 E4.26912
G1 X172.461 Y73.395 E4.2858
G1 X172.946 Y73.599 E4.3033
G1 X173.553 Y73.878 E4.32552
G1 X173.859 Y74.031 E4.3369
G1 X174.527 Y74.397 E4.36223
G1 X174.81 Y74.566 E4.3732
G1 X175.413 Y74.955 E4.39706
G1 X175.72 Y75.169 E4.40951
G1 X176.284 Y75.593 E4.43298
G1 X176.7 Y75.928 E4.45074
G1 X177.378 Y76.525 E4.48079
G1 X177.751 Y76.903 E4.49845
G1 X178.071 Y77.245 E4.51403
G1 X178.51 Y77.746 E4.53619
G1 X178.747 Y78.035 E4.54862
G1 X179.182 Y78.605 E4.57247
G1 X179.491 Y79.041 E4.59024
G1 X179.98 Y79.8 E4.62027
G1 X180.229 Y80.253 E4.63746
G1 X180.529 Y80.833 E4.65918
G1 X180.839 Y81.488 E4.68328
G1 X180.876 Y81.574 E4.6864
G1 X181.148 Y82.277 E4.71147
G1 X181.294 Y82.7 E4.72635
G1 X181.493 Y83.346 E4.74883
G1 X181.623 Y83.823 E4.76528
G1 X181.751 Y84.345 E4.78315
G1 X181.764 Y84.405 E4.7852
G1 X181.914 Y85.283 E4.81482
G1 X181.978 Y85.788 E4.83175
G1 X182.043 Y86.493 E4.8553
G1 X182.071 Y86.987 E4.87176
G1 X182.087 Y87.612 E4.89255
G1 X182.05 Y88.485 E4.92161
G1 X182.005 Y89.009 E4.93911
G1 X181.924 Y89.68 E4.96159
G1 X181.856 Y90.124 E4.97653
G1 X181.74 Y90.753 E4.9978
G1 X181.633 Y91.244 E5.01451
G1 X181.124 Y93.759 E5.09986
G1 X180.687 Y96.28 E5.18496
G1 X180.33 Y98.755 E5.26813
G1 X180.034 Y101.311 E5.35371
G1 X179.812 Y103.867 E5.43904
G1 X179.665 Y106.374 E5.52257
G1 X179.589 Y108.898 E5.60656
G1 X179.583 Y111.468 E5.69203
G1 X179.65 Y113.971 E5.77531
G1 X179.789 Y116.523 E5.86032
G1 X180 Y119.061 E5.94503
G1 X180.283 Y121.589 E6.02963
G1 X180.631 Y124.068 E6.11289
G1 X181.296 Y127.842 E6.24035
G1 X181.674 Y129.757 E6.30527
G1 X181.778 Y130.389 E6.32658
G1 X181.844 Y130.942 E6.3451
G1 X181.887 Y131.452 E6.36212
G1 X181.892 Y131.53 E6.36472
G1 X181.912 Y132.319 E6.39097
G1 X181.903 Y132.995 E6.41346
G1 X181.851 Y133.896 E6.44347
G1 X181.778 Y134.456 E6.46226
G1 X181.681 Y135.068 E6.48287
G1 X181.547 Y135.759 E6.50628
G1 X181.46 Y136.137 E6.51918
G1 X181.273 Y136.835 E6.54321
G1 X181.258 Y136.884 E6.54492
G1 X181.036 Y137.53 E6.56764
G1 X180.847 Y138.026 E6.58529
G1 X180.583 Y138.657 E6.60804
G1 X180.376 Y139.107 E6.62452
G1 X179.941 Y139.947 E6.65598
G1 X179.652 Y140.426 E6.67459
G1 X179.36 Y140.883 E6.69262
G1 X178.972 Y141.448 E6.71542
G1 X178.651 Y141.869 E6.73303
G1 X178.275 Y142.325 E6.75269
G1 X178.16 Y142.458 E6.75853
G1 X177.671 Y142.985 E6.78244
G1 X177.426 Y143.231 E6.79399
G1 X176.917 Y143.708 E6.81719
G1 X176.46 Y144.108 E6.83739
G1 X175.755 Y144.672 E6.86742
G1 X175.314 Y144.977 E6.88526
G1 X174.9 Y145.247 E6.9017
G1 X174.345 Y145.584 E6.92329
G1 X174.014 Y145.771 E6.93594
G1 X173.312 Y146.132 E6.96219
G1 X173.025 Y146.266 E6.97273
G1 X172.408 Y146.53 E6.99505
G1 X172.025 Y146.679 E7.00872
G1 X171.333 Y146.92 E7.03309
G1 X170.905 Y147.052 E7.04798
G1 X170.051 Y147.275 E7.07734
G1 X169.773 Y147.335 E7.0868
G1 X169.085 Y147.459 E7.11005
G1 X168.885 Y147.488 E7.11677
G1 X168.315 Y147.555 E7.13586
G1 X167.781 Y147.602 E7.15369
G1 X167.069 Y147.639 E7.1774
G1 X166.347 Y147.63 E7.20142
G1 X165.812 Y147.604 E7.21924
G1 X165.085 Y147.543 E7.2435
G1 X164.712 Y147.498 E7.256
G1 X164.063 Y147.398 E7.27784
G1 X163.779 Y147.345 E7.28745
G1 X163.03 Y147.176 E7.31298
G1 X162.458 Y147.024 E7.33267
G1 X162.142 Y146.934 E7.3436
G1 X160.83 Y146.538 E7.38918
G1 X158.394 Y145.84 E7.47346
G1 X155.934 Y145.209 E7.55793
G1 X153.438 Y144.642 E7.64306
G1 X150.945 Y144.153 E7.72756
G1 X148.479 Y143.739 E7.81073
G1 X145.964 Y143.39 E7.89518
G1 X143.39 Y143.106 E7.98131
G1 X140.924 Y142.906 E8.0636
G1 X138.369 Y142.77 E8.1487
G1 X134.766 Y142.7 E8.26856
G1 X84.785 Y142.7 E9.93093
G1 X82.18 Y142.737 E10.01758
G1 X79.614 Y142.846 E10.10301
G1 X77.107 Y143.024 E10.1866
G1 X74.566 Y143.275 E10.27152
G1 X72.058 Y143.596 E10.35562
G1 X69.553 Y143.99 E10.43996
G1 X67.066 Y144.452 E10.52409
G1 X64.552 Y144.993 E10.60963
G1 X62.106 Y145.592 E10.69338
G1 X59.659 Y146.266 E10.7778
G1 X58.079 Y146.74 E10.83267
G1 X56.94 Y147.093 E10.87233
G1 X56.03 Y147.329 E10.9036
G1 X55.76 Y147.386 E10.91277
G1 X55.174 Y147.492 E10.93258
G1 X54.975 Y147.522 E10.93927
G1 X54.35 Y147.597 E10.96021
G1 X53.817 Y147.644 E10.97801
G1 X53.215 Y147.679 E10.99806
G1 X52.681 Y147.685 E11.01583
G1 X52.456 Y147.682 E11.02331
G1 X51.95 Y147.663 E11.04015
G1 X51.744 Y147.65 E11.04702
G1 X51.153 Y147.595 E11.06676
G1 X50.652 Y147.534 E11.08354
G1 X50.06 Y147.444 E11.10346
G1 X49.972 Y147.428 E11.10644
G1 X49.16 Y147.246 E11.13411
G1 X48.734 Y147.132 E11.14878
G1 X48.1 Y146.94 E11.17081
G1 X47.716 Y146.81 E11.1843
G1 X47.01 Y146.542 E11.20941
G1 X46.703 Y146.412 E11.2205
G1 X46.088 Y146.127 E11.24305
G1 X45.731 Y145.947 E11.25634
G1 X45.111 Y145.607 E11.27986
G1 X44.857 Y145.456 E11.28969
G1 X44.253 Y145.067 E11.31359
G1 X43.828 Y144.772 E11.33079
G1 X43.315 Y144.392 E11.35203
G1 X42.653 Y143.826 E11.381
G1 X42.344 Y143.538 E11.39504
G1 X41.859 Y143.054 E11.41783
G1 X41.435 Y142.602 E11.43845
G1 X40.847 Y141.917 E11.46847
G1 X40.533 Y141.495 E11.48597
G1 X40.167 Y140.975 E11.50712
G1 X39.827 Y140.46 E11.52764
G1 X39.798 Y140.413 E11.52948
G1 X39.405 Y139.716 E11.55609
G1 X39.195 Y139.307 E11.57138
G1 X38.886 Y138.648 E11.59559
G1 X38.724 Y138.268 E11.60933
G1 X38.481 Y137.642 E11.63167
G1 X38.325 Y137.197 E11.64735
G1 X38.024 Y136.168 E11.68301
G1 X37.914 Y135.67 E11.69997
G1 X37.813 Y135.158 E11.71733
G1 X37.683 Y134.316 E11.74567
G1 X37.661 Y134.119 E11.75226
G1 X37.613 Y133.534 E11.77178
G1 X37.589 Y133.087 E11.78667
G1 X37.576 Y132.358 E11.81092
G1 X37.58 Y132.134 E11.81837
G1 X37.615 Y131.443 E11.84139
G1 X37.662 Y130.896 E11.85965
G1 X37.74 Y130.241 E11.88158
G1 X37.819 Y129.772 E11.8974
G1 X38.059 Y128.527 E11.93957
G1 X38.127 Y128.2 E11.95068
G1 X38.577 Y125.719 E12.03455
G1 X38.958 Y123.222 E12.11856
G1 X39.273 Y120.681 E12.20372
G1 X39.513 Y118.152 E12.28821
G1 X39.679 Y115.66 E12.37128
G1 X39.777 Y113.092 E12.45676
G1 X39.803 Y110.508 E12.5427
G1 X39.757 Y108.025 E12.6253
G1 X39.638 Y105.484 E12.70991
G1 X39.446 Y102.912 E12.79569
G1 X39.187 Y100.415 E12.87919
G1 X38.856 Y97.906 E12.96336
G1 X38.453 Y95.408 E13.04752
G1 X37.927 Y92.658 E13.14064
G1 X37.677 Y91.442 E13.18193
G1 X37.543 Y90.619 E13.20967
G1 X37.496 Y90.233 E13.2226
G1 X37.437 Y89.575 E13.24457
G1 X37.404 Y88.991 E13.26403
G1 X37.388 Y88.389 E13.28406
G1 X37.425 Y87.516 E13.31312
G1 X37.47 Y86.992 E13.33061
G1 X37.552 Y86.312 E13.35339
G1 X37.619 Y85.877 E13.36803
G1 X37.755 Y85.164 E13.39217
G1 X37.773 Y85.085 E13.39487
G1 X37.956 Y84.394 E13.41864
G1 X38.089 Y83.955 E13.4339
G1 X38.315 Y83.291 E13.45723
G1 X38.506 Y82.788 E13.47513
G1 X38.79 Y82.113 E13.49948
G1 X39.12 Y81.459 E13.52385
G1 X39.358 Y81.026 E13.54028
G1 X39.725 Y80.411 E13.5641
G1 X39.912 Y80.121 E13.57558
G1 X40.31 Y79.548 E13.59878
G1 X40.616 Y79.138 E13.6158
G1 X41.087 Y78.553 E13.64078
G1 X41.133 Y78.5 E13.64311
G1 X41.588 Y78.009 E13.66538
G1 X41.992 Y77.601 E13.68447
G1 X42.5 Y77.122 E13.7077
G1 X42.895 Y76.785 E13.72497
G1 X43.322 Y76.443 E13.74316
G1 X44.011 Y75.953 E13.77128
G1 X44.291 Y75.771 E13.78239
G0 F1620 X44.415 Y75.69
G0 X44.972 Y75.352
G1 F2400 E10.58239
G0 F9000 X165.429 Y85.14
G1 F1440 E13.78239
G1 F1800 X165.847 Y84.926 E13.79801
G1 X166.399 Y84.766 E13.81712
G1 X166.985 Y84.723 E13.83667
G1 X167.577 Y84.805 E13.85654
G1 X168.131 Y85.008 E13.87617
G1 X168.634 Y85.325 E13.89594
G1 X168.8 Y85.47 E13.90327
G1 X168.57 Y85.337 E13.91211
G1 X168.173 Y85.201 E13.92607
G1 X167.66 Y85.14 E13.94325
G1 X165.917 Y85.14 E14.00122
G0 F1620 X165.429 Y85.14
G0 F9000 X165.315 Y84.74
G1 F1800 X165.907 Y84.478 E14.02276
G1 X166.548 Y84.341 E14.04456
G1 X166.999 Y84.323 E14.05957
G1 X167.67 Y84.416 E14.0821
G1 X168.303 Y84.646 E14.1045
G1 X168.873 Y85.004 E14.12689
G1 X169.343 Y85.458 E14.14862
G1 X169.723 Y86.021 E14.17121
G1 X169.978 Y86.659 E14.19407
G1 X170.087 Y87.288 E14.2153
G1 X170.063 Y87.98 E14.23833
G1 X169.907 Y88.601 E14.25962
G1 X169.601 Y89.229 E14.28286
G1 X169.46 Y89.432 E14.29108
G1 X169.46 Y87.34 E14.36066
G1 X169.42 Y86.963 E14.37327
G1 X169.302 Y86.603 E14.38587
G1 X169.112 Y86.276 E14.39845
G1 X168.857 Y85.995 E14.41107
G1 X168.548 Y85.775 E14.42369
G1 X168.201 Y85.623 E14.43629
G1 X167.66 Y85.54 E14.45449
G1 X164.387 Y85.54 E14.56335
G1 X164.68 Y85.224 E14.57768
G0 F1620 X164.754 Y85.144
G0 X165.315 Y84.74
G0 F9000 X165.107 Y84.398
G1 F1800 X165.787 Y84.096 E14.60243
G1 X166.507 Y83.942 E14.62692
G1 X167.012 Y83.923 E14.64373
G1 X167.517 Y83.975 E14.66061
G1 X168.007 Y84.096 E14.6774
G1 X168.475 Y84.285 E14.69419
G1 X168.916 Y84.541 E14.71115
G1 X169.491 Y85.025 E14.73615
G1 X169.953 Y85.618 E14.76115
G1 X170.277 Y86.285 E14.78581
G1 X170.417 Y86.765 E14.80244
G1 X170.487 Y87.261 E14.8191
G1 X170.487 Y87.776 E14.83623
G1 X170.356 Y88.513 E14.86113
G1 X170.179 Y88.998 E14.8783
G1 X169.81 Y89.635 E14.90278
G1 X169.299 Y90.201 E14.92815
G1 X169.06 Y90.395 E14.93838
G1 X169.06 Y87.34 E15.03999
G1 X169.02 Y87.008 E15.05112
G1 X168.903 Y86.696 E15.0622
G1 X168.715 Y86.419 E15.07333
G1 X168.467 Y86.196 E15.08443
G1 X168.173 Y86.037 E15.09554
G1 X167.66 Y85.94 E15.11291
G1 X163.665 Y85.94 E15.24578
G1 X163.984 Y85.407 E15.26644
G1 X164.465 Y84.873 E15.29035
G0 F1620 X164.495 Y84.839
G0 X165.107 Y84.398
G0 F9000 X164.908 Y84.051
G1 F1800 X165.383 Y83.818 E15.30794
G1 X165.922 Y83.641 E15.32681
G1 X166.466 Y83.544 E15.34519
G1 X167.027 Y83.523 E15.36386
G1 X167.598 Y83.583 E15.38296
G1 X168.115 Y83.711 E15.40067
G1 X168.641 Y83.921 E15.41951
G1 X169.145 Y84.212 E15.43887
G1 X169.574 Y84.548 E15.45699
G1 X169.96 Y84.949 E15.47551
G1 X170.298 Y85.415 E15.49465
G1 X170.549 Y85.889 E15.51249
G1 X170.742 Y86.424 E15.53141
G1 X170.856 Y86.954 E15.54944
G1 X170.897 Y87.52 E15.56831
G1 X170.857 Y88.082 E15.58705
G1 X170.741 Y88.621 E15.60539
G1 X170.55 Y89.15 E15.6241
G1 X170.286 Y89.643 E15.6427
G1 X169.956 Y90.095 E15.66131
G1 X169.574 Y90.492 E15.67964
G1 X169.145 Y90.828 E15.69776
G1 X168.66 Y91.109 E15.7164
G1 X168.66 Y87.34 E15.84176
G1 X168.62 Y87.061 E15.85113
G1 X168.504 Y86.804 E15.86051
G1 X168.321 Y86.589 E15.8699
G1 X168.085 Y86.435 E15.87928
G1 X167.66 Y86.34 E15.89376
G1 X163.079 Y86.34 E16.04613
G1 X163.371 Y85.632 E16.0716
G1 X163.665 Y85.164 E16.08998
G1 X164.024 Y84.738 E16.10851
G1 X164.264 Y84.522 E16.11925
G0 F1620 X164.434 Y84.368
G0 X164.908 Y84.051
G0 F9000 X164.699 Y83.709
G1 F1800 X165.239 Y83.445 E16.13924
G1 X165.83 Y83.252 E16.15992
G1 X166.427 Y83.146 E16.18009
G1 X167.041 Y83.123 E16.20052
G1 X167.664 Y83.188 E16.22136
G1 X168.249 Y83.333 E16.2414
G1 X168.819 Y83.563 E16.26184
G1 X169.354 Y83.87 E16.28236
G1 X169.849 Y84.257 E16.30326
G1 X170.263 Y84.688 E16.32314
G1 X170.628 Y85.187 E16.3437
G1 X170.918 Y85.733 E16.36426
G1 X171.129 Y86.32 E16.38501
G1 X171.252 Y86.9 E16.40473
G1 X171.296 Y87.52 E16.4254
G1 X171.251 Y88.146 E16.44628
G1 X171.125 Y88.739 E16.46644
G1 X170.913 Y89.317 E16.48692
G1 X170.623 Y89.858 E16.50733
G1 X170.265 Y90.351 E16.5276
G1 X169.849 Y90.783 E16.54754
G1 X169.354 Y91.17 E16.56844
G1 X168.817 Y91.479 E16.58905
G1 X168.26 Y91.703 E16.60902
G1 X168.26 Y87.34 E16.75413
G1 X168.22 Y87.125 E16.7614
G1 X168.107 Y86.939 E16.76864
G1 X167.934 Y86.806 E16.7759
G1 X167.66 Y86.74 E16.78527
G1 X162.569 Y86.74 E16.9546
G1 X162.771 Y85.995 E16.98027
G1 X163.015 Y85.45 E17.00014
G1 X163.335 Y84.938 E17.02022
G1 X163.738 Y84.457 E17.04109
G1 X164.051 Y84.176 E17.05508
G0 F1620 X164.186 Y84.055
G0 X164.699 Y83.709
G0 F9000 X164.507 Y83.358
G1 F1800 X165.095 Y83.071 E17.07684
G1 X165.727 Y82.865 E17.09895
G1 X166.386 Y82.748 E17.12121
G1 X167.055 Y82.723 E17.14348
G1 X167.73 Y82.793 E17.16605
G1 X168.37 Y82.951 E17.18797
G1 X168.995 Y83.203 E17.21039
G1 X169.588 Y83.546 E17.23317
G1 X170.109 Y83.953 E17.25516
G1 X170.575 Y84.436 E17.27748
G1 X170.974 Y84.986 E17.30008
G1 X171.284 Y85.571 E17.3221
G1 X171.511 Y86.199 E17.34431
G1 X171.649 Y86.844 E17.36625
G1 X171.697 Y87.52 E17.38879
G1 X171.648 Y88.198 E17.4114
G1 X171.51 Y88.847 E17.43347
G1 X171.281 Y89.475 E17.4557
G1 X170.964 Y90.068 E17.47807
G1 X170.575 Y90.603 E17.50007
G1 X170.348 Y90.856 E17.51137
G1 X169.856 Y91.3 E17.53342
G1 X169.287 Y91.682 E17.55621
G1 X168.706 Y91.967 E17.57773
G1 X168.067 Y92.176 E17.6001
G1 X167.86 Y92.22 E17.60713
G1 X167.86 Y87.34 E17.76944
G1 X167.821 Y87.221 E17.77361
G1 X167.66 Y87.14 E17.7796
G1 X162.114 Y87.14 E17.96406
G1 X162.2 Y86.528 E17.98462
G1 X162.386 Y85.883 E18.00695
G1 X162.664 Y85.257 E18.02973
G1 X163.016 Y84.696 E18.05176
G1 X163.448 Y84.182 E18.07409
G1 X163.853 Y83.817 E18.09222
G0 F1620 X163.941 Y83.738
G0 X164.507 Y83.358
G1 F2400 E14.89222
G0 F9000 X168.153 Y86.847
G0 X168.165 Y127.79
G0 X167.86 Y127.79
G1 F1440 E18.09222
G1 F1800 X168.529 Y128.004 E18.11558
G1 X169.12 Y128.292 E18.13745
G1 X169.687 Y128.673 E18.16017
G1 X170.178 Y129.117 E18.18219
G1 X170.608 Y129.625 E18.20432
G1 X170.955 Y130.177 E18.22601
G1 X171.242 Y130.819 E18.2494
G1 X171.422 Y131.445 E18.27106
G1 X171.518 Y132.113 E18.29351
G1 X171.518 Y132.788 E18.31596
G1 X171.424 Y133.451 E18.33823
G1 X171.239 Y134.097 E18.36058
