;FLAVOR:Marlin
;TIME:5806
;Filament used: 4.57027m
;Layer height: 0.2
;MINX:19.267
;MINY:32.766
;MINZ:0.2
;MAXX:198.223
;MAXY:186.623
;MAXZ:7.76
;Generated with Cura_SteamEngine 4.10.0
M82 ;absolute extrusion mode
M201 X500.00 Y500.00 Z100.00 E5000.00 ;Setup machine max acceleration
M203 X500.00 Y500.00 Z10.00 E50.00 ;Setup machine max feedrate
M204 P500.00 R1000.00 T500.00 ;Setup Print/Retract/Travel acceleration
M205 X8.00 Y8.00 Z0.40 E5.00 ;Setup Jerk
M220 S100 ;Reset Feedrate
M221 S100 ;Reset Flowrate

;*** Start Dual Nozzle/Bed Preheating ***
M140 S50 ; start preheating the bed
M104 S195 ?T0 ; start preheating hotend
M190 S50 ; heat to Cura Bed setting and WAIT
M109 S195 ?T0 ; heat to Cura Hotend and WAIT
;*** End Preheating ***

;*** Single Print Start Tone
M300 S1000 P500 ; chirp to indicate starting to print
;*** End Single Start Tone

G28 ;Home

G92 E0 ;Reset Extruder
G1 Z2.0 F3000 ;Move Z Axis up

G1 X10.1 Y20 Z0.28 F5000.0 ;Move to start position
G1 X10.1 Y200.0 Z0.28 F1500.0 E15 ;Draw the first line
G1 X10.4 Y200.0 Z0.28 F5000.0 ;Move to side a little
G1 X10.4 Y20 Z0.28 F1500.0 E30 ;Draw the second line
G92 E0 ;Reset Extruder
G1 Z2.0 F3000 ;Move Z Axis up
G92 E0
G92 E0
G1 F2400 E-3.2
;LAYER_COUNT:34
;LAYER:0
M106 S63.8
M204 S500
M205 X6 Y6
G0 F9000 X85.118 Y46.37 Z0.2
;TYPE:SKIRT
G1 F1440 E0
G1 F1800 X85.459 Y45.802 E0.02203
G1 X85.724 Y45.39 E0.03833
G1 X86.066 Y44.892 E0.05842
G1 X86.131 Y44.803 E0.06209
G1 X86.639 Y44.164 E0.08924
G1 X87.048 Y43.689 E0.11009
G1 X87.48 Y43.217 E0.13137
G1 X87.522 Y43.174 E0.13337
G1 X88.11 Y42.618 E0.16028
G1 X88.481 Y42.294 E0.17666
G1 X89.037 Y41.842 E0.2005
G1 X89.316 Y41.631 E0.21213
G1 X89.899 Y41.221 E0.23584
G1 X90.238 Y41 E0.2493
G1 X90.837 Y40.638 E0.27258
G1 X91.095 Y40.494 E0.2824
G1 X91.729 Y40.169 E0.3061
G1 X92.11 Y39.99 E0.3201
G1 X92.714 Y39.73 E0.34197
G1 X93.07 Y39.59 E0.35469
G1 X93.768 Y39.344 E0.37931
G1 X93.845 Y39.32 E0.38199
G1 X94.554 Y39.127 E0.40643
G1 X95.092 Y39.001 E0.42481
G1 X95.786 Y38.863 E0.44834
G1 X96.224 Y38.792 E0.4631
G1 X96.988 Y38.698 E0.4887
G1 X97.07 Y38.691 E0.49144
G1 X97.592 Y38.66 E0.50883
G1 X100.154 Y38.573 E0.5941
G1 X102.7 Y38.413 E0.67894
G1 X105.227 Y38.184 E0.76334
G1 X107.729 Y37.885 E0.84715
G1 X109.943 Y37.557 E0.92159
G1 X110.518 Y37.489 E0.94084
G1 X110.959 Y37.449 E0.95557
G1 X111.653 Y37.41 E0.97869
G1 X112.191 Y37.398 E0.99659
G1 X113.096 Y37.418 E1.0267
G1 X113.171 Y37.423 E1.0292
G1 X113.705 Y37.472 E1.04703
G1 X114.24 Y37.536 E1.06495
G1 X114.846 Y37.627 E1.08534
G1 X115.413 Y37.74 E1.10457
G1 X115.904 Y37.856 E1.12135
G1 X116.444 Y37.997 E1.13991
G1 X116.847 Y38.101 E1.15375
G1 X118.673 Y38.602 E1.21673
G1 X121.202 Y39.219 E1.30331
G1 X123.625 Y39.735 E1.38571
G1 X126.133 Y40.198 E1.47053
G1 X128.672 Y40.591 E1.55599
G1 X131.144 Y40.904 E1.63886
G1 X133.699 Y41.153 E1.72424
G1 X136.222 Y41.328 E1.80836
G1 X138.789 Y41.432 E1.89381
G1 X141.291 Y41.464 E1.97703
G1 X143.864 Y41.423 E2.06262
G1 X146.383 Y41.312 E2.14649
G1 X148.922 Y41.128 E2.23116
G1 X151.419 Y40.876 E2.31463
G1 X153.976 Y40.545 E2.40038
G1 X156.456 Y40.152 E2.4839
G1 X158.967 Y39.681 E2.56887
G1 X161.453 Y39.141 E2.65348
G1 X163.894 Y38.539 E2.7371
G1 X166.366 Y37.854 E2.82242
G1 X168.794 Y37.107 E2.90691
G1 X171.203 Y36.29 E2.99152
G1 X173.562 Y35.415 E3.0752
G1 X176.663 Y34.15 E3.18659
G1 X177.148 Y33.949 E3.20406
G1 X177.727 Y33.724 E3.22472
G1 X178.393 Y33.491 E3.24818
G1 X178.856 Y33.347 E3.26431
G1 X179.729 Y33.117 E3.29434
G1 X180.279 Y33.014 E3.31295
G1 X180.812 Y32.929 E3.3309
G1 X181.487 Y32.845 E3.35352
G1 X181.836 Y32.813 E3.36518
G1 X182.586 Y32.772 E3.39016
G1 X182.925 Y32.766 E3.40144
G1 X183.581 Y32.775 E3.42326
G1 X183.924 Y32.791 E3.43468
G1 X184.676 Y32.854 E3.45978
G1 X185.229 Y32.921 E3.47831
G1 X186.12 Y33.069 E3.50835
G1 X186.622 Y33.189 E3.52552
G1 X187.224 Y33.349 E3.54623
G1 X187.941 Y33.568 E3.57117
G1 X188.045 Y33.604 E3.57483
G1 X188.688 Y33.852 E3.59775
G1 X189.049 Y34.005 E3.61079
G1 X189.631 Y34.273 E3.6321
G1 X190.137 Y34.526 E3.65092
G1 X190.693 Y34.826 E3.67193
G1 X190.743 Y34.855 E3.67385
G1 X191.448 Y35.304 E3.70165
G1 X191.947 Y35.651 E3.72187
G1 X192.573 Y36.123 E3.74795
G1 X192.66 Y36.194 E3.75168
G1 X193.16 Y36.629 E3.77372
G1 X193.578 Y37.018 E3.79271
G1 X194.039 Y37.476 E3.81433
G1 X194.109 Y37.55 E3.81772
G1 X194.596 Y38.104 E3.84225
G1 X194.99 Y38.586 E3.86296
G1 X195.517 Y39.29 E3.8922
G1 X195.588 Y39.394 E3.89639
G1 X195.902 Y39.883 E3.91572
G1 X196.173 Y40.333 E3.93319
G1 X196.456 Y40.834 E3.95233
G1 X196.494 Y40.906 E3.95504
G1 X196.843 Y41.637 E3.98198
G1 X197.052 Y42.123 E3.99958
G1 X197.316 Y42.803 E4.02384
G1 X197.421 Y43.105 E4.03447
G1 X197.632 Y43.788 E4.05825
G1 X197.784 Y44.349 E4.07758
G1 X198.027 Y45.51 E4.11703
G1 X198.077 Y45.845 E4.1283
G1 X198.147 Y46.428 E4.14783
G1 X198.178 Y46.837 E4.16147
G1 X198.208 Y47.374 E4.17936
G1 X198.223 Y48.046 E4.20171
G1 X198.222 Y48.145 E4.20501
G1 X198.189 Y48.872 E4.22921
G1 X198.138 Y49.497 E4.25007
G1 X198.061 Y50.17 E4.2726
G1 X197.954 Y50.804 E4.29398
G1 X197.833 Y51.374 E4.31337
G1 X197.818 Y51.436 E4.31549
G1 X197.664 Y52 E4.33493
G1 X197.443 Y52.728 E4.36024
G1 X196.438 Y55.797 E4.46765
G1 X196.138 Y56.818 E4.50304
G1 X195.824 Y57.837 E4.5385
G1 X195.52 Y58.687 E4.56853
G1 X195.142 Y59.507 E4.59856
G1 X194.598 Y60.438 E4.63443
G1 X194.327 Y60.849 E4.6508
G1 X192.909 Y63.074 E4.73855
G1 X191.608 Y65.246 E4.82276
G1 X190.364 Y67.461 E4.90726
G1 X189.173 Y69.731 E4.99252
G1 X188.066 Y71.994 E5.07631
G1 X187.021 Y74.294 E5.16033
G1 X186.038 Y76.63 E5.24463
G1 X185.1 Y79.044 E5.33077
G1 X184.264 Y81.399 E5.41388
G1 X183.472 Y83.845 E5.4994
G1 X182.764 Y86.257 E5.583
G1 X182.114 Y88.73 E5.66805
G1 X181.546 Y91.173 E5.75147
G1 X181.033 Y93.692 E5.83697
G1 X180.602 Y96.183 E5.92106
G1 X180.237 Y98.704 E6.00578
G1 X179.945 Y101.227 E6.09025
G1 X179.725 Y103.744 E6.17429
G1 X179.574 Y106.286 E6.25899
G1 X179.498 Y108.81 E6.34297
G1 X179.491 Y111.35 E6.42745
G1 X179.558 Y113.947 E6.51386
G1 X179.623 Y115.277 E6.55815
G1 X179.635 Y115.848 E6.57714
G1 X179.598 Y116.716 E6.60604
G1 X179.553 Y117.243 E6.62363
G1 X179.471 Y117.929 E6.64661
G1 X179.403 Y118.37 E6.66145
G1 X179.268 Y119.077 E6.68539
G1 X179.253 Y119.143 E6.68764
G1 X179.07 Y119.835 E6.71145
G1 X178.871 Y120.493 E6.73431
G1 X178.756 Y120.851 E6.74682
G1 X178.571 Y121.39 E6.76577
G1 X178.346 Y122.012 E6.78777
G1 X177.552 Y124.408 E6.87173
G1 X176.814 Y126.86 E6.95689
G1 X176.156 Y129.3 E7.04095
G1 X175.837 Y130.648 E7.08702
G1 X175.776 Y130.862 E7.09442
G1 X175.61 Y131.545 E7.1178
G1 X175.473 Y132.037 E7.13479
G1 X175.3 Y132.606 E7.15457
G1 X175.076 Y133.262 E7.17762
G1 X174.913 Y133.691 E7.19289
G1 X174.674 Y134.266 E7.2136
G1 X174.456 Y134.726 E7.23053
G1 X174.126 Y135.355 E7.25415
G1 X174.038 Y135.511 E7.26011
G1 X173.71 Y136.053 E7.28118
G1 X173.427 Y136.489 E7.29847
G1 X173.102 Y136.962 E7.31756
G1 X172.536 Y137.681 E7.34799
G1 X172.25 Y138.013 E7.36257
G1 X171.753 Y138.55 E7.3869
G1 X171.357 Y138.948 E7.40558
G1 X170.692 Y139.56 E7.43564
G1 X170.297 Y139.876 E7.45246
G1 X169.889 Y140.186 E7.4695
G1 X169.277 Y140.616 E7.49438
G1 X168.937 Y140.837 E7.50787
G1 X168.352 Y141.19 E7.53059
G1 X167.26 Y141.8 E7.5722
G1 X167.081 Y141.898 E7.57898
G1 X166.256 Y142.337 E7.61007
G1 X164.065 Y143.584 E7.69391
G1 X161.9 Y144.899 E7.77816
G1 X159.741 Y146.293 E7.86364
G1 X157.667 Y147.72 E7.94737
G1 X155.614 Y149.217 E8.03188
G1 X153.607 Y150.771 E8.11631
G1 X151.639 Y152.384 E8.20094
G1 X149.716 Y154.056 E8.28569
G1 X147.844 Y155.777 E8.37027
G1 X146.045 Y157.527 E8.45374
G1 X144.273 Y159.353 E8.53837
G1 X142.537 Y161.244 E8.62375
G1 X140.884 Y163.152 E8.70772
G1 X139.393 Y164.967 E8.78584
G1 X139.205 Y165.201 E8.79582
G1 X138.778 Y165.72 E8.81818
G1 X138.174 Y166.392 E8.84823
G1 X137.513 Y167.007 E8.87826
G1 X136.8 Y167.561 E8.90829
G1 X136.04 Y168.051 E8.93837
G1 X135.241 Y168.471 E8.96839
G1 X134.605 Y168.744 E8.99141
G1 X133.793 Y169.059 E9.02038
G1 X132.357 Y169.595 E9.07136
G1 X131.689 Y169.834 E9.09495
G1 X130.826 Y170.1 E9.12499
G1 X129.943 Y170.289 E9.15502
G1 X129.047 Y170.399 E9.18505
G1 X128.144 Y170.429 E9.2151
G1 X126.851 Y170.333 E9.25822
G1 X125.979 Y170.211 E9.28751
G1 X124.343 Y169.96 E9.34256
G1 X123.653 Y169.846 E9.36582
G1 X122.967 Y169.708 E9.38909
G1 X122.386 Y169.566 E9.40899
G1 X119.942 Y168.925 E9.49302
G1 X117.37 Y168.288 E9.58115
G1 X114.901 Y167.75 E9.6652
G1 X112.397 Y167.276 E9.74996
G1 X109.907 Y166.882 E9.83381
G1 X107.401 Y166.555 E9.91787
G1 X104.861 Y166.297 E10.00278
G1 X102.323 Y166.11 E10.08742
G1 X99.791 Y165.997 E10.17172
G1 X97.222 Y165.954 E10.25718
G1 X94.731 Y165.983 E10.34004
G1 X92.154 Y166.087 E10.42582
G1 X89.654 Y166.258 E10.50916
G1 X87.091 Y166.506 E10.59481
G1 X84.607 Y166.818 E10.67807
G1 X82.075 Y167.209 E10.76329
G1 X79.572 Y167.667 E10.84792
G1 X77.116 Y168.19 E10.93144
G1 X74.626 Y168.794 E11.01666
G1 X72.175 Y169.462 E11.10115
G1 X69.768 Y170.192 E11.18481
G1 X67.328 Y171.01 E11.2704
G1 X64.947 Y171.881 E11.35473
G1 X62.585 Y172.823 E11.43931
G1 X60.279 Y173.819 E11.52285
G1 X57.967 Y174.897 E11.6077
G1 X55.683 Y176.039 E11.69263
G1 X53.46 Y177.233 E11.77656
G1 X51.251 Y178.5 E11.86126
G1 X49.068 Y179.837 E11.9464
G1 X46.975 Y181.2 E12.02947
G1 X44.824 Y182.689 E12.11648
G1 X43.572 Y183.598 E12.16794
G1 X43.065 Y183.948 E12.18843
G1 X42.632 Y184.231 E12.20564
G1 X42.069 Y184.574 E12.22757
G1 X41.738 Y184.761 E12.24021
G1 X41.036 Y185.122 E12.26647
G1 X40.749 Y185.256 E12.277
G1 X40.12 Y185.525 E12.29975
G1 X39.751 Y185.668 E12.31292
G1 X39.089 Y185.898 E12.33623
G1 X38.812 Y185.984 E12.34587
G1 X38.134 Y186.17 E12.36926
G1 X37.732 Y186.265 E12.38299
G1 X36.998 Y186.41 E12.40788
G1 X36.523 Y186.486 E12.42388
G1 X35.625 Y186.589 E12.45394
G1 X35.122 Y186.612 E12.47069
G1 X34.59 Y186.623 E12.48839
G1 X33.867 Y186.612 E12.51244
G1 X33.35 Y186.586 E12.52965
G1 X32.342 Y186.485 E12.56335
G1 X31.738 Y186.389 E12.58369
G1 X30.83 Y186.19 E12.61461
G1 X30.266 Y186.039 E12.63403
G1 X29.711 Y185.873 E12.65329
G1 X28.875 Y185.563 E12.68295
G1 X28.406 Y185.365 E12.69988
G1 X27.781 Y185.076 E12.72278
G1 X27.422 Y184.895 E12.73616
G1 X26.802 Y184.555 E12.75967
G1 X26.548 Y184.404 E12.7695
G1 X25.944 Y184.015 E12.7934
G1 X25.519 Y183.72 E12.8106
G1 X24.854 Y183.217 E12.83834
G1 X24.365 Y182.791 E12.85991
G1 X23.992 Y182.444 E12.87685
G1 X23.518 Y181.973 E12.89908
G1 X23.304 Y181.746 E12.90945
G1 X22.827 Y181.202 E12.93352
G1 X22.577 Y180.896 E12.94666
G1 X22.136 Y180.316 E12.97089
G1 X21.848 Y179.907 E12.98753
G1 X21.361 Y179.146 E13.01758
G1 X21.128 Y178.721 E13.0337
G1 X20.814 Y178.114 E13.05643
G1 X20.507 Y177.464 E13.08034
G1 X20.221 Y176.734 E13.10642
G1 X20.005 Y176.112 E13.12832
G1 X19.767 Y175.326 E13.15563
G1 X19.746 Y175.245 E13.15842
G1 X19.612 Y174.654 E13.17857
G1 X19.503 Y174.1 E13.19735
G1 X19.374 Y173.264 E13.22548
G1 X19.356 Y173.103 E13.23087
G1 X19.309 Y172.533 E13.2499
G1 X19.28 Y172.008 E13.26738
G1 X19.267 Y171.198 E13.29433
G1 X19.271 Y171.033 E13.29982
G1 X19.306 Y170.405 E13.32074
G1 X19.355 Y169.836 E13.33973
G1 X19.456 Y169.034 E13.36662
G1 X19.471 Y168.944 E13.36965
G1 X19.587 Y168.355 E13.38962
G1 X19.718 Y167.78 E13.40923
G1 X19.855 Y167.244 E13.42763
G1 X19.871 Y167.188 E13.42957
G1 X20.146 Y166.361 E13.45856
G1 X20.382 Y165.741 E13.48062
G1 X20.62 Y165.169 E13.50123
G1 X21.003 Y164.404 E13.52968
G1 X21.341 Y163.793 E13.55291
G1 X21.812 Y163.022 E13.58296
G1 X22.378 Y162.245 E13.61493
G1 X22.838 Y161.671 E13.6394
G1 X23.085 Y161.385 E13.65196
G1 X23.58 Y160.852 E13.67616
G1 X23.862 Y160.569 E13.68945
G1 X24.379 Y160.085 E13.713
G1 X24.686 Y159.817 E13.72656
G1 X25.206 Y159.392 E13.74889
G1 X25.244 Y159.363 E13.75048
G1 X25.859 Y158.929 E13.77552
G1 X26.325 Y158.625 E13.79402
G1 X26.929 Y158.26 E13.8175
G1 X27.18 Y158.12 E13.82705
G1 X27.797 Y157.803 E13.85013
G1 X28.346 Y157.544 E13.87032
G1 X28.803 Y157.341 E13.88695
G1 X28.974 Y157.27 E13.89311
G1 X30.168 Y156.787 E13.93595
G1 X32.445 Y155.79 E14.01862
G1 X34.778 Y154.691 E14.10439
G1 X37.035 Y153.547 E14.18855
G1 X39.245 Y152.347 E14.2722
G1 X41.478 Y151.051 E14.35807
G1 X43.625 Y149.725 E14.442
G1 X45.714 Y148.351 E14.52516
G1 X47.836 Y146.867 E14.61129
G1 X49.848 Y145.372 E14.69466
G1 X51.872 Y143.779 E14.78033
G1 X53.809 Y142.163 E14.86423
G1 X55.699 Y140.493 E14.94811
G1 X57.568 Y138.746 E15.0332
G1 X59.361 Y136.972 E15.1171
G1 X61.14 Y135.109 E15.20277
G1 X62.83 Y133.236 E15.28668
G1 X64.487 Y131.292 E15.37164
G1 X66.063 Y129.333 E15.45526
G1 X67.599 Y127.309 E15.53977
G1 X69.081 Y125.238 E15.62447
G1 X70.502 Y123.129 E15.70905
G1 X71.867 Y120.972 E15.79396
G1 X73.142 Y118.823 E15.87706
G1 X74.398 Y116.57 E15.96286
G1 X75.573 Y114.31 E16.04758
G1 X76.661 Y112.062 E16.13064
G1 X77.722 Y109.704 E16.21664
G1 X78.683 Y107.4 E16.29967
G1 X79.621 Y104.959 E16.38665
G1 X80.44 Y102.625 E16.46892
G1 X81.22 Y100.186 E16.55409
G1 X81.918 Y97.774 E16.6376
G1 X82.561 Y95.288 E16.72301
G1 X83.129 Y92.807 E16.80766
G1 X83.627 Y90.317 E16.89212
G1 X84.048 Y87.828 E16.97608
G1 X84.403 Y85.313 E17.06056
G1 X84.688 Y82.777 E17.14544
G1 X84.899 Y80.259 E17.22948
G1 X85.039 Y77.73 E17.31372
G1 X85.108 Y75.191 E17.3982
G1 X85.104 Y72.656 E17.48252
G1 X85.029 Y70.097 E17.56767
G1 X84.881 Y67.552 E17.65246
G1 X84.665 Y65.04 E17.73631
G1 X84.377 Y62.54 E17.82001
G1 X84.009 Y59.972 E17.9063
G1 X83.577 Y57.473 E17.99065
G1 X83.471 Y56.933 E18.00895
G1 X83.378 Y56.392 E18.02721
G1 X83.329 Y56.044 E18.0389
G1 X83.267 Y55.544 E18.05566
G1 X83.206 Y54.874 E18.07803
G1 X83.177 Y54.369 E18.09486
G1 X83.16 Y53.736 E18.11592
G1 X83.198 Y52.86 E18.14508
G1 X83.245 Y52.315 E18.16327
G1 X83.326 Y51.638 E18.18595
G1 X83.389 Y51.229 E18.19972
G1 X83.51 Y50.583 E18.22158
G1 X83.527 Y50.506 E18.2242
G1 X83.731 Y49.729 E18.25092
G1 X83.882 Y49.234 E18.26813
G1 X84.105 Y48.582 E18.29105
G1 X84.277 Y48.13 E18.30713
G1 X84.476 Y47.645 E18.32457
G1 X84.502 Y47.586 E18.32672
G1 X84.736 Y47.091 E18.34493
G1 X84.743 Y47.077 E18.34545
G0 F1620 X84.855 Y46.856
G0 X85.118 Y46.37
G1 F2400 E15.14545
G0 F9000 X184.656 Y46.384
G0 X185.896 Y48.393
G0 X186.816 Y52.617
G0 X186.737 Y55.111
G0 X167.098 Y121.754
G0 X166.361 Y123.767
G0 X162.075 Y130.34
G0 X160.662 Y130.81
G0 X158.043 Y128.172
G1 F1440 E18.34545
G1 F1800 X158.228 Y128.468 E18.35706
G1 X158.268 Y129.113 E18.37855
G1 X158.098 Y128.589 E18.39687
G1 X158.058 Y128.29 E18.40691
G0 F1620 X158.043 Y128.172
G0 F9000 X158.471 Y128.097
G1 F1800 X158.63 Y128.292 E18.41527
G1 X158.633 Y128.625 E18.42635
G1 X158.725 Y129.873 E18.46797
G1 X158.792 Y130.246 E18.48058
G1 X158.923 Y130.564 E18.49202
G1 X158.537 Y130.228 E18.50904
G1 X158.131 Y129.712 E18.53087
G1 X157.825 Y129.084 E18.55411
G1 X157.668 Y128.452 E18.57577
G1 X157.645 Y127.771 E18.59843
G1 X157.754 Y127.142 E18.61966
G1 X157.786 Y127.044 E18.62309
G1 X157.967 Y127.363 E18.63529
G1 X158.168 Y127.632 E18.64646
G0 F1620 X158.19 Y127.662
G0 X158.471 Y128.097
G0 F9000 X158.808 Y127.88
G1 F1800 X159.032 Y128.148 E18.65808
G1 X159.032 Y128.596 E18.67298
G1 X159.124 Y129.844 E18.7146
G1 X159.188 Y130.172 E18.72572
G1 X159.373 Y130.544 E18.73953
G1 X159.709 Y131.024 E18.75902
G1 X159.932 Y131.273 E18.77014
G1 X160.207 Y131.462 E18.78124
G1 X160.48 Y131.584 E18.79118
G1 X159.968 Y131.496 E18.80846
G1 X159.482 Y131.338 E18.82546
G1 X158.814 Y130.98 E18.85067
G1 X158.251 Y130.508 E18.8751
G1 X157.921 Y130.116 E18.89214
G1 X157.654 Y129.687 E18.90895
G1 X157.449 Y129.221 E18.92588
G1 X157.272 Y128.516 E18.95006
G1 X157.236 Y128.002 E18.9672
G1 X157.271 Y127.503 E18.98383
G1 X157.454 Y126.77 E19.00896
G1 X157.657 Y126.313 E19.02559
G1 X157.851 Y125.995 E19.03798
G1 X158.073 Y126.704 E19.06269
G1 X158.287 Y127.124 E19.07837
G1 X158.358 Y127.219 E19.08232
G0 F1620 X158.531 Y127.45
G0 X158.808 Y127.88
G0 F9000 X159.48 Y127.446
G1 F1800 X159.785 Y127.764 E19.09697
G1 X159.834 Y127.959 E19.10366
G1 X159.828 Y128.486 E19.12119
G1 X159.83 Y128.537 E19.12289
G1 X159.922 Y129.785 E19.16451
G1 X160.028 Y130.085 E19.17509
G1 X160.364 Y130.565 E19.19458
G1 X160.52 Y130.718 E19.20185
G1 X160.72 Y130.805 E19.2091
