;FLAVOR:Marlin
;TIME:1290
;Filament used: 0.374554m
;Layer height: 0.16
;MINX:64.401
;MINY:87.399
;MINZ:0.2
;MAXX:155.6
;MAXY:132.611
;MAXZ:1.8
;Generated with Cura_SteamEngine 4.10.0
M82 ;absolute extrusion mode
M201 X500.00 Y500.00 Z100.00 E5000.00 ;Setup machine max acceleration
M203 X500.00 Y500.00 Z10.00 E50.00 ;Setup machine max feedrate
M204 P500.00 R1000.00 T500.00 ;Setup Print/Retract/Travel acceleration
M205 X8.00 Y8.00 Z0.40 E5.00 ;Setup Jerk
M220 S100 ;Reset Feedrate
M221 S100 ;Reset Flowrate

;*** Start Dual Nozzle/Bed Preheating ***
M140 S50 ; start preheating the bed
M104 S195 ?T0 ; start preheating hotend
M190 S50 ; heat to Cura Bed setting and WAIT
M109 S195 ?T0 ; heat to Cura Hotend and WAIT
;*** End Preheating ***

;*** Single Print Start Tone
M300 S1000 P500 ; chirp to indicate starting to print
;*** End Single Start Tone

G28 ;Home

G92 E0 ;Reset Extruder
G1 Z2.0 F3000 ;Move Z Axis up

G1 X10.1 Y20 Z0.28 F5000.0 ;Move to start position
G1 X10.1 Y200.0 Z0.28 F1500.0 E15 ;Draw the first line
G1 X10.4 Y200.0 Z0.28 F5000.0 ;Move to side a little
G1 X10.4 Y20 Z0.28 F1500.0 E30 ;Draw the second line
G92 E0 ;Reset Extruder
G1 Z2.0 F3000 ;Move Z Axis up
G92 E0
G92 E0
G1 F2400 E-3.2
;LAYER_COUNT:11
;LAYER:0
M106 S63.8
M204 S500
M205 X6 Y6
G0 F9000 X74.205 Y90.153 Z0.2
;TYPE:SKIRT
G1 F1440 E0
G1 F1800 X74.933 Y89.59 E0.03061
G1 X75.707 Y89.092 E0.06122
G1 X76.694 Y88.583 E0.09816
G1 X77.16 Y88.378 E0.11509
G1 X77.378 Y88.287 E0.12295
G1 X78.242 Y87.97 E0.15356
G1 X79.13 Y87.728 E0.18417
G1 X79.995 Y87.571 E0.21341
G1 X80.631 Y87.489 E0.23474
G1 X80.862 Y87.465 E0.24246
G1 X82.005 Y87.408 E0.28053
G1 X83.023 Y87.414 E0.31438
G1 X84.008 Y87.431 E0.34715
G1 X86.531 Y87.407 E0.43107
G1 X87.918 Y87.416 E0.4772
G1 X88.335 Y87.424 E0.49107
G1 X90.09 Y87.401 E0.54945
G1 X91.28 Y87.399 E0.58903
G1 X94.1 Y87.43 E0.68283
G1 X95.722 Y87.408 E0.73678
G1 X96.078 Y87.408 E0.74862
G1 X96.638 Y87.428 E0.76726
G1 X97.192 Y87.462 E0.78572
G1 X99.778 Y87.583 E0.87183
G1 X102.324 Y87.629 E0.95652
G1 X104.819 Y87.605 E1.03951
G1 X108.224 Y87.46 E1.15286
G1 X108.703 Y87.431 E1.16882
G1 X109.669 Y87.416 E1.20096
G1 X110.851 Y87.452 E1.24029
G1 X111.005 Y87.447 E1.24541
G1 X112.416 Y87.488 E1.29236
G1 X113.81 Y87.493 E1.33873
G1 X115.348 Y87.516 E1.38989
G1 X117.351 Y87.573 E1.45653
G1 X119.907 Y87.575 E1.54155
G1 X121.431 Y87.54 E1.59225
G1 X122.342 Y87.511 E1.62256
G1 X122.65 Y87.506 E1.63281
G1 X123.884 Y87.504 E1.67385
G1 X124.449 Y87.51 E1.69265
G1 X124.977 Y87.505 E1.71021
G1 X126.734 Y87.517 E1.76865
G1 X128.383 Y87.497 E1.8235
G1 X128.599 Y87.504 E1.83069
G1 X129.534 Y87.497 E1.86178
G1 X130.169 Y87.497 E1.8829
G1 X130.351 Y87.489 E1.88896
G1 X131.068 Y87.494 E1.91281
G1 X131.589 Y87.49 E1.93014
G1 X131.834 Y87.491 E1.93829
G1 X132.389 Y87.499 E1.95675
G1 X134.427 Y87.506 E2.02454
G1 X135.291 Y87.504 E2.05327
G1 X135.403 Y87.499 E2.057
G1 X136.119 Y87.502 E2.08082
G1 X136.735 Y87.497 E2.1013
G1 X136.971 Y87.498 E2.10915
G1 X137.656 Y87.508 E2.13194
G1 X138.575 Y87.562 E2.16256
G1 X139.486 Y87.694 E2.19317
G1 X140.382 Y87.906 E2.2238
G1 X141.256 Y88.194 E2.25441
G1 X142.102 Y88.558 E2.28504
G1 X142.913 Y88.993 E2.31565
G1 X143.684 Y89.497 E2.34628
G1 X144.408 Y90.066 E2.37691
G1 X145.079 Y90.696 E2.40752
G1 X145.694 Y91.381 E2.43814
G1 X146.247 Y92.117 E2.46876
G1 X146.733 Y92.899 E2.49938
G1 X147.153 Y93.726 E2.53023
G1 X147.359 Y94.18 E2.54682
G1 X148.459 Y96.517 E2.63272
G1 X149.613 Y98.801 E2.71784
G1 X150.827 Y101.043 E2.80264
G1 X152.075 Y103.201 E2.88555
G1 X153.43 Y105.398 E2.9714
G1 X153.939 Y106.2 E3.003
G1 X154.398 Y106.998 E3.03361
G1 X154.786 Y107.832 E3.06421
G1 X155.101 Y108.698 E3.09486
G1 X155.339 Y109.587 E3.12547
G1 X155.499 Y110.494 E3.1561
G1 X155.585 Y111.567 E3.1919
G1 X155.598 Y112.329 E3.21725
G1 X155.58 Y113.592 E3.25926
G1 X155.532 Y115.281 E3.31546
G1 X155.53 Y117.812 E3.39964
G1 X155.562 Y119.286 E3.44868
G1 X155.595 Y120.412 E3.48615
G1 X155.6 Y120.727 E3.49663
G1 X155.599 Y121.421 E3.51971
G1 X155.589 Y122.148 E3.54389
G1 X155.536 Y123.067 E3.57451
G1 X155.404 Y123.978 E3.60512
G1 X155.193 Y124.874 E3.63574
G1 X154.906 Y125.749 E3.66637
G1 X154.543 Y126.595 E3.69699
G1 X154.109 Y127.407 E3.72761
G1 X153.605 Y128.178 E3.75825
G1 X153.037 Y128.902 E3.78885
G1 X152.408 Y129.574 E3.81947
G1 X151.723 Y130.189 E3.85009
G1 X150.987 Y130.742 E3.8807
G1 X150.206 Y131.23 E3.91133
G1 X149.386 Y131.648 E3.94195
G1 X148.532 Y131.993 E3.97258
G1 X147.652 Y132.262 E4.00319
G1 X146.751 Y132.455 E4.03383
G1 X145.838 Y132.568 E4.06443
G1 X145.288 Y132.598 E4.08275
G1 X144.67 Y132.611 E4.10331
G1 X75.57 Y132.61 E6.40159
G1 X74.872 Y132.601 E6.42481
G1 X73.953 Y132.549 E6.45542
G1 X73.042 Y132.418 E6.48603
G1 X72.146 Y132.208 E6.51664
G1 X71.271 Y131.921 E6.54727
G1 X70.424 Y131.559 E6.57791
G1 X69.612 Y131.125 E6.60853
G1 X68.841 Y130.623 E6.63913
G1 X68.116 Y130.055 E6.66976
G1 X67.443 Y129.426 E6.7004
G1 X66.828 Y128.742 E6.73099
G1 X66.274 Y128.007 E6.76161
G1 X65.786 Y127.226 E6.79224
G1 X65.367 Y126.406 E6.82286
G1 X65.021 Y125.553 E6.85348
G1 X64.751 Y124.673 E6.88409
G1 X64.558 Y123.772 E6.91474
G1 X64.444 Y122.859 E6.94534
G1 X64.412 Y122.269 E6.965
G1 X64.401 Y121.492 E6.99084
G1 X64.416 Y120.426 E7.0263
G1 X64.448 Y119.338 E7.0625
G1 X64.486 Y115.872 E7.17779
G1 X64.479 Y114.914 E7.20965
G1 X64.48 Y114.677 E7.21754
G1 X64.491 Y113.969 E7.24109
G1 X64.546 Y113.05 E7.27171
G1 X64.679 Y112.139 E7.30233
G1 X64.892 Y111.244 E7.33293
G1 X65.181 Y110.37 E7.36355
G1 X65.374 Y109.897 E7.38054
G1 X65.606 Y109.366 E7.39981
G1 X66.627 Y106.922 E7.48791
G1 X67.532 Y104.582 E7.57135
G1 X68.37 Y102.201 E7.65531
G1 X69.148 Y99.782 E7.73982
G1 X69.715 Y97.834 E7.8073
G1 X69.756 Y97.713 E7.81155
G1 X70.12 Y96.422 E7.85616
G1 X70.276 Y95.918 E7.87371
G1 X70.382 Y95.603 E7.88477
G1 X70.713 Y94.744 E7.91538
G1 X71.117 Y93.917 E7.946
G1 X71.408 Y93.417 E7.96524
G1 X71.624 Y93.067 E7.97892
G1 X72.141 Y92.305 E8.00955
G1 X72.983 Y91.309 E8.05292
G1 X73.201 Y91.081 E8.06342
G1 X73.614 Y90.692 E8.08229
G0 F1620 X74.017 Y90.312
G0 X74.205 Y90.153
G0 F9000 X74.463 Y90.459
G1 F1800 X75.178 Y89.907 E8.11233
G1 X75.939 Y89.42 E8.14238
G1 X76.858 Y88.948 E8.17674
G1 X77.532 Y88.656 E8.20117
G1 X78.38 Y88.346 E8.2312
G1 X79.252 Y88.111 E8.26124
G1 X80.051 Y87.967 E8.28824
G1 X80.672 Y87.887 E8.30907
G1 X80.903 Y87.863 E8.31679
G1 X82.003 Y87.808 E8.35342
G1 X83.016 Y87.814 E8.38712
G1 X84.005 Y87.832 E8.42002
G1 X86.529 Y87.807 E8.50397
G1 X87.91 Y87.816 E8.5499
G1 X88.333 Y87.824 E8.56397
G1 X90.091 Y87.801 E8.62245
G1 X91.281 Y87.799 E8.66203
G1 X94.1 Y87.83 E8.7558
G1 X95.727 Y87.808 E8.80992
G1 X96.075 Y87.808 E8.82149
G1 X96.614 Y87.827 E8.83943
G1 X97.151 Y87.86 E8.85732
G1 X99.786 Y87.983 E8.94506
G1 X102.285 Y88.029 E9.02819
G1 X104.84 Y88.004 E9.11317
G1 X108.264 Y87.858 E9.22716
G1 X108.727 Y87.83 E9.24259
G1 X109.657 Y87.816 E9.27352
G1 X110.777 Y87.85 E9.31079
G1 X110.994 Y87.846 E9.31801
G1 X112.442 Y87.888 E9.36619
G1 X113.804 Y87.893 E9.41149
G1 X115.337 Y87.916 E9.46249
G1 X117.339 Y87.973 E9.5291
G1 X119.916 Y87.975 E9.61481
G1 X121.443 Y87.94 E9.66561
G1 X122.354 Y87.911 E9.69593
G1 X122.651 Y87.906 E9.70581
G1 X123.88 Y87.904 E9.74668
G1 X124.45 Y87.91 E9.76564
G1 X124.974 Y87.905 E9.78307
G1 X126.736 Y87.917 E9.84168
G1 X128.388 Y87.897 E9.89663
G1 X128.6 Y87.904 E9.90368
G1 X129.537 Y87.897 E9.93485
G1 X130.079 Y87.897 E9.95288
G1 X130.348 Y87.889 E9.96183
G1 X131.068 Y87.894 E9.98577
G1 X131.592 Y87.89 E10.0032
G1 X131.828 Y87.891 E10.01105
G1 X132.382 Y87.899 E10.02948
G1 X134.427 Y87.906 E10.0975
G1 X135.234 Y87.904 E10.12434
G1 X135.401 Y87.899 E10.1299
G1 X136.12 Y87.902 E10.15381
G1 X136.738 Y87.897 E10.17437
G1 X136.965 Y87.898 E10.18192
G1 X137.65 Y87.908 E10.2047
G1 X138.551 Y87.961 E10.23472
G1 X139.445 Y88.094 E10.26478
G1 X140.323 Y88.305 E10.29482
G1 X141.179 Y88.593 E10.32485
G1 X142.006 Y88.956 E10.35489
G1 X142.798 Y89.39 E10.38493
G1 X143.548 Y89.893 E10.41497
G1 X144.251 Y90.46 E10.44501
G1 X144.901 Y91.087 E10.47504
G1 X145.493 Y91.769 E10.50508
G1 X146.022 Y92.501 E10.53512
G1 X146.485 Y93.276 E10.56515
G1 X146.789 Y93.892 E10.58799
G1 X147.004 Y94.367 E10.60534
G1 X148.097 Y96.69 E10.69072
G1 X149.262 Y98.994 E10.77659
G1 X150.463 Y101.213 E10.86052
G1 X151.732 Y103.406 E10.94479
G1 X153.108 Y105.637 E11.03197
G1 X153.601 Y106.414 E11.06257
G1 X154.051 Y107.197 E11.09261
G1 X154.43 Y108.017 E11.12266
G1 X154.735 Y108.867 E11.15269
G1 X154.963 Y109.741 E11.18274
G1 X155.113 Y110.631 E11.21275
G1 X155.186 Y111.579 E11.24438
G1 X155.198 Y112.323 E11.26913
G1 X155.18 Y113.581 E11.31097
G1 X155.132 Y115.269 E11.36714
G1 X155.13 Y117.82 E11.45199
G1 X155.16 Y119.212 E11.49829
G1 X155.196 Y120.424 E11.53862
G1 X155.2 Y120.727 E11.5487
G1 X155.199 Y121.415 E11.57158
G1 X155.189 Y122.142 E11.59577
G1 X155.137 Y123.044 E11.62582
G1 X155.005 Y123.937 E11.65584
G1 X154.794 Y124.816 E11.68591
G1 X154.507 Y125.672 E11.71594
G1 X154.145 Y126.499 E11.74596
G1 X153.711 Y127.291 E11.776
G1 X153.209 Y128.042 E11.80604
G1 X152.643 Y128.745 E11.83606
G1 X152.016 Y129.396 E11.86613
G1 X151.335 Y129.988 E11.89614
G1 X150.604 Y130.518 E11.92617
G1 X149.828 Y130.981 E11.95622
G1 X149.015 Y131.374 E11.98626
G1 X148.17 Y131.694 E12.01631
G1 X147.301 Y131.937 E12.04632
G1 X146.413 Y132.102 E12.07636
G1 X145.277 Y132.198 E12.11428
G1 X144.67 Y132.211 E12.13447
G1 X75.575 Y132.21 E14.43258
G1 X74.877 Y132.201 E14.4558
G1 X73.976 Y132.15 E14.48582
G1 X73.082 Y132.018 E14.51587
G1 X72.204 Y131.809 E14.54589
G1 X71.347 Y131.522 E14.57595
G1 X70.52 Y131.161 E14.60596
G1 X69.727 Y130.728 E14.63601
G1 X68.976 Y130.227 E14.66604
G1 X68.272 Y129.661 E14.69609
G1 X67.621 Y129.035 E14.72612
G1 X67.028 Y128.354 E14.75616
G1 X66.498 Y127.623 E14.78619
G1 X66.034 Y126.848 E14.81623
G1 X65.64 Y126.035 E14.84628
G1 X65.32 Y125.191 E14.8763
G1 X65.076 Y124.321 E14.90636
G1 X64.91 Y123.433 E14.9364
G1 X64.812 Y122.259 E14.97559
G1 X64.801 Y121.498 E15.0009
G1 X64.815 Y120.438 E15.03616
G1 X64.849 Y119.294 E15.07422
G1 X64.886 Y115.872 E15.18805
G1 X64.879 Y114.911 E15.22001
G1 X64.88 Y114.684 E15.22756
G1 X64.891 Y113.976 E15.25111
G1 X64.945 Y113.074 E15.28117
G1 X65.079 Y112.181 E15.3112
G1 X65.291 Y111.303 E15.34124
G1 X65.74 Y110.057 E15.38529
G1 X65.983 Y109.499 E15.40553
G1 X66.998 Y107.072 E15.49303
G1 X67.907 Y104.722 E15.57684
G1 X68.752 Y102.319 E15.66156
G1 X69.53 Y99.901 E15.74604
G1 X70.099 Y97.946 E15.81376
G1 X70.14 Y97.824 E15.81804
G1 X70.505 Y96.531 E15.86273
G1 X70.655 Y96.046 E15.87962
G1 X70.761 Y95.731 E15.89067
G1 X71.086 Y94.889 E15.92069
G1 X71.485 Y94.078 E15.95075
G1 X71.748 Y93.627 E15.96811
G1 X71.964 Y93.277 E15.98179
G1 X72.472 Y92.53 E16.01184
G1 X73.272 Y91.585 E16.05302
G1 X73.49 Y91.357 E16.06351
G1 X73.872 Y90.997 E16.08097
G0 F1620 X74.275 Y90.618
G0 X74.463 Y90.459
G1 F2400 E12.88097
;MESH:FencingTrophy_NAF_letters_tournament_date.stl
G0 F9000 X85.843 Y97.465
G0 X86.232 Y98.368
G0 X85.653 Y99.382
G0 X85.534 Y100.044
G0 X85.645 Y100.836
G0 X86.006 Y101.599
G0 X88.086 Y104.483
G0 X88.095 Y105.426
G0 X90.656 Y105.428
G0 X90.759 Y104.892
G0 X89.852 Y103.646
G0 X89.936 Y101.243
G0 X90.184 Y99.456
G0 X90.357 Y99.555
;TYPE:WALL-OUTER
G1 F1440 E16.08097
G1 F1800 X90.209 Y100.09 E16.09943
G1 X90.121 Y100.808 E16.12349
G1 X90.092 Y101.708 E16.15344
G1 X90.121 Y102.616 E16.18366
G1 X90.209 Y103.338 E16.20785
G1 X90.357 Y103.876 E16.22641
G1 X90.57 Y104.252 E16.24078
G1 X90.865 Y104.489 E16.25337
G1 X91.242 Y104.572 E16.26621
G1 X91.616 Y104.489 E16.27895
G1 X91.907 Y104.251 E16.29145
G1 X92.117 Y103.875 E16.30578
G1 X92.261 Y103.338 E16.32427
G1 X92.348 Y102.616 E16.34846
G1 X92.376 Y101.708 E16.37867
G1 X92.348 Y100.803 E16.40879
G1 X92.261 Y100.084 E16.43287
G1 X92.118 Y99.549 E16.45129
G1 X91.908 Y99.176 E16.46553
G1 X91.616 Y98.94 E16.47802
G1 X91.242 Y98.858 E16.49075
G1 X90.865 Y98.941 E16.50359
G1 X90.856 Y98.948 E16.50397
G0 F1620 X90.57 Y99.178
G0 X90.357 Y99.555
G0 F9000 X90.184 Y99.457
G0 X89.982 Y100.797
G0 X89.982 Y102.627
G0 X90.072 Y103.364
G0 X90.228 Y103.929
G0 X90.438 Y104.301
G0 X91.808 Y105.356
G0 X91.998 Y105.298
G1 F1800 X92.168 Y105.298 E16.50963
G1 X94.245 Y105.298 E16.57871
G1 X94.245 Y104.423 E16.60781
G1 X96.499 Y104.423 E16.68278
G1 X96.652 Y104.423 E16.68787
G1 X96.762 Y104.2 E16.69614
G1 X96.67 Y104.079 E16.70119
G1 X95.794 Y102.931 E16.74922
G1 X95.285 Y102.215 E16.77844
G1 X94.914 Y101.618 E16.80182
G1 X94.694 Y101.164 E16.8186
G1 X94.49 Y100.394 E16.84509
G1 X94.465 Y100.012 E16.85782
G1 X94.512 Y99.487 E16.87536
G1 X94.655 Y99.041 E16.89093
G1 X94.889 Y98.676 E16.90535
G1 X95.194 Y98.411 E16.91879
G1 X95.562 Y98.252 E16.93213
G1 X95.986 Y98.2 E16.94633
G1 X96.534 Y98.287 E16.96479
G1 X97.049 Y98.548 E16.98399
G1 X97.526 Y98.982 E17.00544
G1 X97.326 Y99.277 E17.01729
G1 X97.199 Y99.465 E17.02484
G1 X97.029 Y99.315 E17.02955
G1 X96.86 Y99.166 E17.03704
G1 X96.437 Y98.942 E17.05296
G1 X96.005 Y98.867 E17.06754
G1 X95.72 Y98.904 E17.0771
G1 X95.477 Y99.016 E17.086
G1 X95.284 Y99.2 E17.09487
G1 X95.146 Y99.437 E17.10399
G1 X95.064 Y99.717 E17.11369
G1 X95.037 Y100.045 E17.12464
G1 X95.063 Y100.431 E17.13751
G1 X95.143 Y100.796 E17.14994
G1 X95.274 Y101.139 E17.16215
G1 X95.49 Y101.527 E17.17692
G1 X95.818 Y102.028 E17.19684
G1 X96.259 Y102.641 E17.22195
G1 X97.586 Y104.439 E17.29628
G1 X97.586 Y105.298 E17.32485
G1 X104.749 Y105.298 E17.56309
G1 X105.016 Y105.298 E17.57197
G1 X104.94 Y105.042 E17.57729
G1 X104.865 Y104.789 E17.58607
G1 X104.731 Y104.236 E17.60499
G1 X104.686 Y104.048 E17.61142
G1 X104.73 Y103.964 E17.61458
G1 X104.924 Y103.964 E17.6191
G1 X105.462 Y103.964 E17.63699
G1 X105.562 Y104.697 E17.6616
G1 X105.659 Y105.298 E17.68184
G1 X108.878 Y105.298 E17.78891
G1 X109.038 Y105.298 E17.79423
G1 X109.14 Y105.05 E17.80315
G1 X109.027 Y104.938 E17.80763
G1 X108.722 Y104.636 E17.82191
G1 X108.472 Y104.182 E17.83915
G1 X108.318 Y103.614 E17.85872
G1 X108.267 Y102.947 E17.88097
G1 X108.314 Y102.345 E17.90105
G1 X108.455 Y101.831 E17.91878
G1 X108.685 Y101.417 E17.93453
G1 X108.989 Y101.116 E17.94876
G1 X109.352 Y100.94 E17.96218
G1 X109.78 Y100.881 E17.97655
G1 X110.238 Y100.965 E17.99203
G1 X110.605 Y101.219 E18.00688
G1 X110.654 Y101.295 E18.00989
G1 X110.688 Y101.347 E18.01195
G1 X110.749 Y101.442 E18.01571
G1 X111.045 Y101.34 E18.02612
G1 X111.03 Y101.166 E18.03193
G1 X110.996 Y100.782 E18.04475
G1 X110.842 Y100.084 E18.06853
G1 X110.595 Y99.55 E18.08809
G1 X110.252 Y99.174 E18.10502
G1 X109.802 Y98.943 E18.12185
G1 X109.261 Y98.867 E18.14002
G1 X108.916 Y98.904 E18.15156
G1 X108.699 Y98.926 E18.15881
G1 X108.698 Y98.708 E18.16339
G1 X108.697 Y98.707 E18.16343
G1 X108.691 Y98.275 E18.1778
G1 X109.036 Y98.21 E18.18948
G1 X109.265 Y98.2 E18.1971
G1 X110.578 Y98.638 E18.24314
G1 X111.377 Y99.967 E18.29471
G1 X111.648 Y102.223 E18.37029
G1 X111.593 Y103.125 E18.40035
G1 X111.43 Y103.867 E18.42561
G1 X111.156 Y104.466 E18.44752
G1 X110.798 Y104.897 E18.46616
G1 X110.768 Y104.916 E18.46734
G1 X110.619 Y105.005 E18.47311
G1 X110.7 Y105.298 E18.48322
G1 X110.874 Y105.298 E18.48833
G1 X114.162 Y105.298 E18.59769
G1 X114.162 Y98.297 E18.83055
G1 X114.634 Y98.297 E18.84625
G1 X116.052 Y99.677 E18.91206
G1 X115.876 Y99.954 E18.92297
G1 X115.742 Y100.166 E18.93131
G1 X115.566 Y99.988 E18.93637
G1 X115.236 Y99.652 E18.95204
G1 X114.994 Y99.38 E18.96415
G1 X114.882 Y99.255 E18.96973
G1 X114.609 Y99.383 E18.97976
G1 X114.635 Y99.549 E18.98468
G1 X114.684 Y99.86 E18.99516
G1 X114.693 Y100.411 E19.01348
G1 X114.696 Y101.188 E19.03933
G1 X114.697 Y105.298 E19.17603
G1 X123.722 Y105.298 E19.4762
G1 X123.722 Y102.482 E19.56986
G1 X122.052 Y98.594 E19.7106
G1 X121.939 Y98.33 E19.72015
G1 X122.226 Y98.318 E19.72578
G1 X122.227 Y98.317 E19.72582
G1 X122.52 Y98.303 E19.73558
G1 X123.819 Y101.574 E19.85264
G1 X123.878 Y101.723 E19.85797
G1 X124.15 Y101.723 E19.86702
G1 X124.209 Y101.574 E19.87155
G1 X125.497 Y98.303 E19.98848
G1 X125.791 Y98.317 E19.99827
G1 X125.792 Y98.318 E19.99831
G1 X126.079 Y98.329 E20.00787
G1 X125.967 Y98.594 E20.0135
G1 X124.295 Y102.53 E20.15573
