;FLAVOR:Marlin
;TIME:5420
;Filament used: 3.81985m
;Layer height: 0.2
;MINX:22.064
;MINY:33.051
;MINZ:0.2
;MAXX:194.07
;MAXY:183.629
;MAXZ:7.92
;Generated with Cura_SteamEngine 4.10.0
M82 ;absolute extrusion mode
M201 X500.00 Y500.00 Z100.00 E5000.00 ;Setup machine max acceleration
M203 X500.00 Y500.00 Z10.00 E50.00 ;Setup machine max feedrate
M204 P500.00 R1000.00 T500.00 ;Setup Print/Retract/Travel acceleration
M205 X8.00 Y8.00 Z0.40 E5.00 ;Setup Jerk
M220 S100 ;Reset Feedrate
M221 S100 ;Reset Flowrate

;*** Start Dual Nozzle/Bed Preheating ***
M140 S50 ; start preheating the bed
M104 S195 ?T0 ; start preheating hotend
M190 S50 ; heat to Cura Bed setting and WAIT
M109 S195 ?T0 ; heat to Cura Hotend and WAIT
;*** End Preheating ***

;*** Single Print Start Tone
M300 S1000 P500 ; chirp to indicate starting to print
;*** End Single Start Tone

G28 ;Home

G92 E0 ;Reset Extruder
G1 Z2.0 F3000 ;Move Z Axis up

G1 X10.1 Y20 Z0.28 F5000.0 ;Move to start position
G1 X10.1 Y200.0 Z0.28 F1500.0 E15 ;Draw the first line
G1 X10.4 Y200.0 Z0.28 F5000.0 ;Move to side a little
G1 X10.4 Y20 Z0.28 F1500.0 E30 ;Draw the second line
G92 E0 ;Reset Extruder
G1 Z2.0 F3000 ;Move Z Axis up
G92 E0
G92 E0
G1 F2400 E-3.2
;LAYER_COUNT:41
;LAYER:0
M106 S63.8
M204 S500
M205 X6 Y6
G0 F9000 X95.326 Y41.699 Z0.2
;TYPE:SKIRT
G1 F1440 E0
G1 F1800 X95.573 Y41.218 E0.01798
G1 X95.81 Y40.786 E0.03437
G1 X96.184 Y40.16 E0.05863
G1 X96.388 Y39.844 E0.07114
G1 X96.782 Y39.276 E0.09413
G1 X97.079 Y38.878 E0.11065
G1 X97.56 Y38.281 E0.13614
G1 X97.607 Y38.227 E0.13853
G1 X98.053 Y37.747 E0.16032
G1 X98.455 Y37.341 E0.17932
G1 X98.963 Y36.862 E0.20254
G1 X99.358 Y36.525 E0.21981
G1 X99.785 Y36.183 E0.23801
G1 X100.474 Y35.693 E0.26613
G1 X100.878 Y35.43 E0.28216
G1 X101.435 Y35.092 E0.30383
G1 X101.765 Y34.906 E0.31643
G1 X102.458 Y34.55 E0.34235
G1 X102.76 Y34.409 E0.35343
G1 X103.387 Y34.141 E0.37611
G1 X103.877 Y33.951 E0.39359
G1 X104.733 Y33.662 E0.42364
G1 X105.236 Y33.53 E0.44094
G1 X105.769 Y33.405 E0.45914
G1 X106.466 Y33.267 E0.48278
G1 X106.756 Y33.22 E0.49255
G1 X107.47 Y33.13 E0.51648
G1 X107.835 Y33.097 E0.52867
G1 X108.523 Y33.059 E0.55159
G1 X108.877 Y33.051 E0.56337
G1 X109.63 Y33.061 E0.58842
G1 X110 Y33.08 E0.60074
G1 X110.684 Y33.139 E0.62357
G1 X111.003 Y33.177 E0.63426
G1 X111.676 Y33.28 E0.6569
G1 X112.028 Y33.346 E0.66881
G1 X112.768 Y33.513 E0.69405
G1 X113.285 Y33.65 E0.71183
G1 X115.805 Y34.277 E0.7982
G1 X118.273 Y34.82 E0.88225
G1 X120.772 Y35.291 E0.96683
G1 X123.266 Y35.691 E1.05085
G1 X125.795 Y36.023 E1.13568
G1 X128.342 Y36.286 E1.22085
G1 X129.814 Y36.404 E1.26996
G1 X130.582 Y36.495 E1.29568
G1 X131.378 Y36.62 E1.32248
G1 X133.898 Y36.98 E1.40715
G1 X136.442 Y37.269 E1.49231
G1 X138.966 Y37.485 E1.57656
G1 X141.515 Y37.629 E1.66148
G1 X144.054 Y37.702 E1.74596
G1 X146.587 Y37.702 E1.83021
G1 X149.114 Y37.631 E1.91429
G1 X151.655 Y37.487 E1.99894
G1 X154.222 Y37.27 E2.08462
G1 X156.71 Y36.988 E2.16791
G1 X159.217 Y36.631 E2.25213
G1 X161.742 Y36.199 E2.33733
G1 X164.209 Y35.705 E2.42101
G1 X166.703 Y35.132 E2.50613
G1 X169.067 Y34.52 E2.58734
G1 X169.8 Y34.319 E2.61262
G1 X170.38 Y34.178 E2.63248
G1 X170.953 Y34.068 E2.65188
G1 X171.524 Y33.975 E2.67112
G1 X172.149 Y33.893 E2.69209
G1 X172.219 Y33.886 E2.69443
G1 X173.038 Y33.837 E2.72172
G1 X173.557 Y33.827 E2.73898
G1 X174.239 Y33.837 E2.76167
G1 X174.721 Y33.86 E2.77772
G1 X175.554 Y33.934 E2.80553
G1 X175.646 Y33.946 E2.80862
G1 X176.219 Y34.037 E2.82792
G1 X176.791 Y34.145 E2.84728
G1 X177.575 Y34.325 E2.87403
G1 X177.678 Y34.353 E2.87758
G1 X178.279 Y34.537 E2.89849
G1 X178.839 Y34.727 E2.91816
G1 X179.563 Y35.004 E2.94394
G1 X179.631 Y35.033 E2.9464
G1 X180.218 Y35.305 E2.96792
G1 X180.637 Y35.516 E2.98352
G1 X181.28 Y35.87 E3.00793
G1 X181.593 Y36.057 E3.02006
G1 X182.195 Y36.446 E3.0439
G1 X182.512 Y36.667 E3.05675
G1 X183.084 Y37.095 E3.08051
G1 X183.467 Y37.404 E3.09688
G1 X184.144 Y38.002 E3.12692
G1 X184.512 Y38.376 E3.14437
G1 X184.916 Y38.808 E3.16405
G1 X185.346 Y39.298 E3.18573
G1 X185.6 Y39.607 E3.19903
G1 X185.945 Y40.052 E3.21776
G1 X185.989 Y40.112 E3.22024
G1 X186.502 Y40.883 E3.25104
G1 X186.844 Y41.451 E3.27309
G1 X187.168 Y42.021 E3.2949
G1 X188.029 Y43.624 E3.35542
G1 X188.255 Y44.056 E3.37163
G1 X188.638 Y44.874 E3.40167
G1 X188.947 Y45.722 E3.43169
G1 X189.179 Y46.595 E3.46174
G1 X189.334 Y47.485 E3.49178
G1 X189.409 Y48.385 E3.52182
G1 X189.405 Y49.288 E3.55186
G1 X189.32 Y50.187 E3.58189
G1 X189.155 Y51.08 E3.61209
G1 X188.931 Y52.044 E3.64501
G1 X188.439 Y54.029 E3.71303
G1 X187.84 Y56.6 E3.80083
G1 X187.326 Y59.124 E3.8865
G1 X186.899 Y61.582 E3.96948
G1 X186.537 Y64.074 E4.05324
G1 X186.235 Y66.671 E4.14019
G1 X186.092 Y68.209 E4.19157
G1 X185.812 Y71.49 E4.30109
G1 X185.735 Y72.266 E4.32703
G1 X185.68 Y72.733 E4.34267
G1 X185.396 Y75.246 E4.42678
G1 X185.181 Y77.799 E4.512
G1 X185.039 Y80.329 E4.59628
G1 X184.969 Y82.86 E4.68049
G1 X184.971 Y85.394 E4.76477
G1 X185.046 Y87.973 E4.85059
G1 X185.187 Y90.45 E4.9331
G1 X185.408 Y93.027 E5.01913
G1 X185.694 Y95.53 E5.10292
G1 X186.054 Y98.039 E5.18723
G1 X186.49 Y100.578 E5.27291
G1 X186.979 Y103.014 E5.35555
G1 X187.558 Y105.519 E5.44106
G1 X188.192 Y107.951 E5.52465
G1 X188.902 Y110.386 E5.60901
G1 X189.693 Y112.841 E5.6948
G1 X190.538 Y115.229 E5.77905
G1 X191.436 Y117.556 E5.86201
G1 X192.439 Y119.952 E5.9484
G1 X192.829 Y120.818 E5.97999
G1 X193.206 Y121.681 E6.01132
G1 X193.531 Y122.524 E6.04137
G1 X193.779 Y123.392 E6.07139
G1 X193.95 Y124.279 E6.10144
G1 X194.058 Y125.61 E6.14585
G1 X194.07 Y126.492 E6.17519
G1 X194.069 Y129.1 E6.26193
G1 X194.059 Y129.802 E6.28528
G1 X194.006 Y130.704 E6.31534
G1 X193.905 Y131.428 E6.33965
G1 X193.761 Y132.115 E6.363
G1 X193.612 Y132.702 E6.38314
G1 X191.012 Y142.094 E6.70727
G1 X190.829 Y142.718 E6.72889
G1 X190.556 Y143.523 E6.75717
G1 X190.065 Y144.606 E6.79672
G1 X189.667 Y145.361 E6.8251
G1 X185.015 Y153.912 E7.14887
G1 X184.675 Y154.515 E7.1719
G1 X184.197 Y155.281 E7.20193
G1 X183.524 Y156.155 E7.23862
G1 X183.11 Y156.635 E7.2597
G1 X182.059 Y157.822 E7.31243
G1 X180.412 Y159.793 E7.39786
G1 X178.855 Y161.765 E7.48143
G1 X177.323 Y163.824 E7.56679
G1 X175.88 Y165.882 E7.65039
G1 X174.484 Y167.996 E7.73465
G1 X173.135 Y170.173 E7.81983
G1 X171.576 Y172.871 E7.92347
G1 X171.38 Y173.224 E7.9369
G1 X169.263 Y176.966 E8.0799
G1 X168.873 Y177.634 E8.10562
G1 X168.384 Y178.394 E8.13568
G1 X167.83 Y179.106 E8.16569
G1 X167.214 Y179.767 E8.19574
G1 X166.543 Y180.371 E8.22577
G1 X165.82 Y180.913 E8.25582
G1 X165.053 Y181.39 E8.28586
G1 X164.162 Y181.834 E8.31897
G1 X163.289 Y182.217 E8.35068
G1 X162.424 Y182.58 E8.38188
G1 X161.646 Y182.893 E8.40977
G1 X160.794 Y183.193 E8.43981
G1 X159.919 Y183.415 E8.46984
G1 X159.028 Y183.56 E8.49986
G1 X157.749 Y183.629 E8.54247
G1 X157.533 Y183.627 E8.54965
G1 X156.34 Y183.546 E8.58942
G1 X155.648 Y183.458 E8.61262
G1 X146.264 Y182.13 E8.92785
G1 X145.611 Y182.029 E8.94982
G1 X144.725 Y181.852 E8.97987
G1 X143.859 Y181.597 E9.0099
G1 X143.019 Y181.266 E9.03993
G1 X142.211 Y180.862 E9.06997
G1 X141.442 Y180.389 E9.1
G1 X140.718 Y179.849 E9.13004
G1 X140.195 Y179.391 E9.15317
G1 X139.525 Y178.763 E9.18371
G1 X139.386 Y178.63 E9.19011
G1 X136.987 Y176.294 E9.30148
G1 X136.503 Y175.808 E9.32429
G1 X135.894 Y175.14 E9.35436
G1 X135.234 Y174.255 E9.39107
G1 X134.868 Y173.701 E9.41316
G1 X133.952 Y172.28 E9.46939
G1 X132.497 Y170.159 E9.55494
G1 X131.008 Y168.116 E9.63902
G1 X129.464 Y166.115 E9.72308
G1 X127.85 Y164.144 E9.80781
G1 X126.181 Y162.219 E9.89255
G1 X124.452 Y160.334 E9.97763
G1 X122.698 Y158.529 E10.06134
G1 X120.89 Y156.771 E10.14521
G1 X118.986 Y155.021 E10.23123
G1 X117.09 Y153.375 E10.31474
G1 X115.144 Y151.778 E10.39847
G1 X113.107 Y150.202 E10.48413
G1 X111.063 Y148.711 E10.56828
G1 X108.974 Y147.277 E10.65255
G1 X106.833 Y145.893 E10.73734
G1 X104.656 Y144.572 E10.82204
G1 X102.479 Y143.334 E10.90534
G1 X100.199 Y142.121 E10.99123
G1 X97.946 Y141.003 E11.07489
G1 X95.63 Y139.935 E11.15971
G1 X93.291 Y138.935 E11.24432
G1 X90.9 Y137.991 E11.32982
G1 X88.552 Y137.143 E11.41285
G1 X86.159 Y136.352 E11.49668
G1 X83.705 Y135.617 E11.58188
G1 X81.243 Y134.956 E11.66667
G1 X78.765 Y134.365 E11.7514
G1 X76.26 Y133.84 E11.83652
G1 X73.799 Y133.399 E11.91968
G1 X71.316 Y133.026 E12.00319
G1 X68.747 Y132.713 E12.08927
G1 X66.23 Y132.478 E12.17335
G1 X63.685 Y132.314 E12.25817
G1 X61.138 Y132.222 E12.34294
G1 X59.154 Y132.2 E12.40893
G1 X58.119 Y132.2 E12.44336
G1 X55.514 Y132.237 E12.53001
G1 X52.948 Y132.346 E12.61543
G1 X50.441 Y132.524 E12.69902
G1 X47.9 Y132.775 E12.78395
G1 X45.392 Y133.096 E12.86805
G1 X42.903 Y133.487 E12.95185
G1 X40.557 Y133.919 E13.03119
G1 X40.038 Y134.016 E13.04875
G1 X39.548 Y134.096 E13.06526
G1 X38.825 Y134.187 E13.0895
G1 X38.461 Y134.22 E13.10165
G1 X37.767 Y134.259 E13.12477
G1 X37.229 Y134.271 E13.14267
G1 X36.22 Y134.244 E13.17624
G1 X35.711 Y134.196 E13.19325
G1 X35.16 Y134.13 E13.2117
G1 X34.59 Y134.045 E13.23087
G1 X33.995 Y133.927 E13.25105
G1 X33.42 Y133.789 E13.27072
G1 X32.665 Y133.563 E13.29693
G1 X32.225 Y133.413 E13.31239
G1 X31.551 Y133.157 E13.33637
G1 X31.186 Y133.003 E13.34955
G1 X30.589 Y132.728 E13.37141
G1 X30.303 Y132.585 E13.38204
G1 X29.637 Y132.22 E13.4073
G1 X29.312 Y132.026 E13.41989
G1 X28.692 Y131.625 E13.44445
G1 X28.289 Y131.343 E13.46081
G1 X27.625 Y130.836 E13.4886
G1 X27.537 Y130.763 E13.4924
G1 X27.125 Y130.403 E13.5106
G1 X26.741 Y130.048 E13.52799
G1 X26.279 Y129.592 E13.54958
G1 X25.92 Y129.203 E13.56719
G1 X25.58 Y128.81 E13.58447
G1 X25.522 Y128.74 E13.58749
G1 X25.033 Y128.1 E13.61428
G1 X24.739 Y127.682 E13.63128
G1 X24.341 Y127.071 E13.65553
G1 X24.163 Y126.775 E13.66702
G1 X23.834 Y126.185 E13.68949
G1 X23.605 Y125.74 E13.70613
G1 X23.303 Y125.099 E13.7297
G1 X23.024 Y124.383 E13.75526
G1 X22.841 Y123.855 E13.77385
G1 X22.639 Y123.201 E13.79661
G1 X22.526 Y122.787 E13.81089
G1 X22.37 Y122.131 E13.83331
G1 X22.357 Y122.067 E13.83548
G1 X22.234 Y121.32 E13.86066
G1 X22.172 Y120.831 E13.87706
G1 X22.107 Y120.11 E13.90114
G1 X22.08 Y119.621 E13.91743
G1 X22.064 Y119.059 E13.93613
G1 X22.064 Y118.992 E13.93835
G1 X22.101 Y118.125 E13.96722
G1 X22.147 Y117.586 E13.98521
G1 X22.226 Y116.919 E14.00755
G1 X22.287 Y116.518 E14.02104
G1 X22.423 Y115.797 E14.04544
G1 X22.44 Y115.722 E14.048
G1 X22.626 Y115.019 E14.07219
G1 X22.779 Y114.514 E14.08974
G1 X23.017 Y113.821 E14.11411
G1 X23.137 Y113.508 E14.12526
G1 X23.401 Y112.882 E14.14785
G1 X23.613 Y112.423 E14.16467
G1 X23.976 Y111.712 E14.19122
G1 X24.013 Y111.646 E14.19374
G1 X24.331 Y111.117 E14.21427
G1 X24.648 Y110.624 E14.23376
G1 X25.114 Y109.959 E14.26077
G1 X25.226 Y109.812 E14.26692
G1 X25.62 Y109.326 E14.28773
G1 X25.912 Y108.988 E14.30258
G1 X26.299 Y108.565 E14.32165
G1 X26.387 Y108.474 E14.32586
G1 X27.009 Y107.883 E14.3544
G1 X27.428 Y107.517 E14.3729
G1 X27.984 Y107.065 E14.39673
G1 X28.329 Y106.804 E14.41112
G1 X29.025 Y106.321 E14.4393
G1 X29.52 Y106.024 E14.4585
G1 X30.001 Y105.754 E14.47685
G1 X30.681 Y105.406 E14.50225
G1 X30.951 Y105.28 E14.51216
G1 X31.564 Y105.018 E14.53434
G1 X32.088 Y104.814 E14.55304
G1 X32.703 Y104.597 E14.57473
G1 X33.906 Y104.23 E14.61656
G1 X34.354 Y104.104 E14.63204
G1 X36.755 Y103.345 E14.71579
G1 X39.185 Y102.499 E14.80137
G1 X41.499 Y101.62 E14.8837
G1 X43.883 Y100.637 E14.96947
G1 X46.204 Y99.601 E15.05401
G1 X48.509 Y98.494 E15.13906
G1 X50.749 Y97.339 E15.22288
G1 X52.974 Y96.111 E15.30741
G1 X55.152 Y94.826 E15.39152
G1 X57.31 Y93.471 E15.47627
G1 X59.435 Y92.051 E15.56127
G1 X61.467 Y90.608 E15.64416
G1 X63.542 Y89.044 E15.73059
G1 X65.504 Y87.476 E15.81412
G1 X67.43 Y85.847 E15.89802
G1 X69.348 Y84.128 E15.98369
G1 X71.183 Y82.389 E16.06777
G1 X72.966 Y80.597 E16.15185
G1 X74.726 Y78.729 E16.23721
G1 X76.39 Y76.858 E16.32049
G1 X78.034 Y74.901 E16.4055
G1 X79.623 Y72.897 E16.49057
G1 X81.132 Y70.878 E16.5744
G1 X82.593 Y68.805 E16.65875
G1 X84.01 Y66.67 E16.74398
G1 X85.341 Y64.533 E16.82772
G1 X86.617 Y62.351 E16.91179
G1 X87.853 Y60.092 E16.99744
G1 X89.005 Y57.838 E17.08163
G1 X90.093 Y55.55 E17.16589
G1 X91.117 Y53.231 E17.25021
G1 X92.083 Y50.867 E17.33515
G1 X92.958 Y48.538 E17.4179
G1 X93.811 Y46.055 E17.50522
G1 X94.396 Y44.204 E17.56978
G1 X94.551 Y43.694 E17.58751
G1 X94.768 Y43.056 E17.60993
G1 X94.962 Y42.543 E17.62817
G1 X95.01 Y42.433 E17.63216
G0 F1620 X95.326 Y41.699
G1 F2400 E14.43216
G0 F9000 X36.385 Y116.429
G1 F1440 E17.63216
G1 F1800 X36.977 Y116.305 E17.65228
G1 X37.353 Y116.293 E17.66479
G1 X37.951 Y116.379 E17.68488
G1 X38.482 Y116.575 E17.70371
G1 X38.604 Y116.64 E17.70831
G1 X35.97 Y116.64 E17.79591
G1 X35.887 Y116.648 E17.79869
G1 X36.05 Y116.576 E17.80461
G0 F1620 X36.385 Y116.429
G0 F9000 X36.05 Y116.125
G1 F1800 X36.69 Y115.941 E17.82676
G1 X37.365 Y115.893 E17.84927
G1 X38.028 Y115.986 E17.87154
G1 X38.653 Y116.214 E17.89367
G1 X39.218 Y116.566 E17.91581
G1 X39.702 Y117.031 E17.93813
G1 X39.709 Y117.04 E17.93851
G1 X35.97 Y117.04 E18.06287
G1 X35.593 Y117.08 E18.07548
G1 X35.233 Y117.198 E18.08808
G1 X34.906 Y117.388 E18.10066
G1 X34.625 Y117.643 E18.11328
G1 X34.405 Y117.952 E18.12589
G1 X34.253 Y118.299 E18.13849
G1 X34.17 Y118.84 E18.1567
G1 X34.17 Y119.941 E18.19332
G1 X34.063 Y119.318 E18.21434
G1 X34.087 Y118.635 E18.23707
G1 X34.243 Y118.006 E18.25863
G1 X34.547 Y117.384 E18.28165
G1 X34.96 Y116.858 E18.3039
G1 X35.36 Y116.524 E18.32123
G0 F1620 X35.471 Y116.432
G0 X36.05 Y116.125
G0 F9000 X35.906 Y115.752
G1 F1800 X36.391 Y115.595 E18.33818
G1 X36.898 Y115.509 E18.35529
G1 X37.378 Y115.493 E18.37126
G1 X38.134 Y115.6 E18.39666
G1 X38.83 Y115.854 E18.4213
G1 X39.47 Y116.256 E18.44644
G1 X39.846 Y116.593 E18.46323
G1 X40.303 Y117.179 E18.48795
G1 X40.451 Y117.44 E18.49793
G1 X35.97 Y117.44 E18.64697
G1 X35.638 Y117.48 E18.65809
G1 X35.326 Y117.597 E18.66917
G1 X35.049 Y117.785 E18.6803
G1 X34.826 Y118.033 E18.6914
G1 X34.667 Y118.327 E18.70251
G1 X34.57 Y118.84 E18.71988
G1 X34.57 Y121.486 E18.80789
G1 X34.204 Y121.002 E18.82807
G1 X33.96 Y120.542 E18.84539
G1 X33.787 Y120.06 E18.86242
G1 X33.663 Y119.345 E18.88656
G1 X33.663 Y118.834 E18.90355
G1 X33.796 Y118.089 E18.92872
G1 X34.076 Y117.399 E18.95349
G1 X34.344 Y116.97 E18.97031
G1 X34.666 Y116.585 E18.98701
G1 X35.206 Y116.136 E19.01036
G0 F1620 X35.254 Y116.096
G0 X35.906 Y115.752
G0 F9000 X36.026 Y115.283
G1 F1800 X36.55 Y115.152 E19.02833
G1 X37.106 Y115.093 E19.04693
G1 X37.391 Y115.093 E19.05641
G1 X37.941 Y115.15 E19.0748
G1 X38.493 Y115.286 E19.0937
G1 X39.001 Y115.492 E19.11194
G1 X39.49 Y115.773 E19.1307
G1 X39.937 Y116.125 E19.14962
G1 X40.32 Y116.522 E19.16797
G1 X40.648 Y116.977 E19.18662
G1 X40.91 Y117.471 E19.20522
G1 X41.05 Y117.84 E19.21835
G1 X35.97 Y117.84 E19.38731
G1 X35.691 Y117.88 E19.39668
G1 X35.434 Y117.996 E19.40606
G1 X35.219 Y118.179 E19.41545
G1 X35.065 Y118.415 E19.42482
G1 X34.97 Y118.84 E19.43931
G1 X34.97 Y122.16 E19.54973
G1 X35.004 Y122.396 E19.55766
G1 X34.573 Y122.057 E19.5759
G1 X34.187 Y121.658 E19.59437
G1 X33.86 Y121.207 E19.61289
G1 X33.592 Y120.699 E19.632
G1 X33.409 Y120.19 E19.64999
G1 X33.293 Y119.651 E19.66833
G1 X33.253 Y119.09 E19.68703
G1 X33.292 Y118.537 E19.70547
G1 X33.414 Y117.968 E19.72483
G1 X33.6 Y117.462 E19.74276
G1 X33.858 Y116.978 E19.761
G1 X34.184 Y116.526 E19.77953
G1 X34.577 Y116.117 E19.7984
G1 X35.027 Y115.767 E19.81736
G1 X35.298 Y115.611 E19.82776
G0 F1620 X35.507 Y115.491
G0 X36.026 Y115.283
G0 F9000 X36.189 Y114.821
G1 F1800 X36.806 Y114.713 E19.84859
G1 X37.404 Y114.693 E19.86849
G1 X38.007 Y114.755 E19.88866
G1 X38.611 Y114.904 E19.90935
G1 X39.184 Y115.136 E19.92991
G1 X39.707 Y115.438 E19.95
G1 X40.202 Y115.824 E19.97087
G1 X40.629 Y116.267 E19.99134
G1 X40.972 Y116.74 E20.01077
G1 X41.275 Y117.306 E20.03212
G1 X41.484 Y117.885 E20.0526
G1 X41.569 Y118.24 E20.06474
G1 X35.97 Y118.24 E20.25096
G1 X35.755 Y118.28 E20.25824
G1 X35.569 Y118.393 E20.26547
G1 X35.436 Y118.566 E20.27273
G1 X35.37 Y118.84 E20.28211
G1 X35.37 Y122.16 E20.39253
G1 X35.41 Y122.375 E20.3998
G1 X35.523 Y122.561 E20.40704
G1 X35.696 Y122.694 E20.4143
G1 X35.97 Y122.76 E20.42367
