;FLAVOR:Marlin
;TIME:2164
;Filament used: 3.87895m
;Layer height: 0.28
;MINX:68.45
;MINY:60.321
;MINZ:0.28
;MAXX:151.551
;MAXY:160.556
;MAXZ:19.88
;Generated with Cura_SteamEngine main
M82 ;absolute extrusion mode
M201 X500.00 Y500.00 Z100.00 E5000.00 ;Setup machine max acceleration
M203 X500.00 Y500.00 Z10.00 E50.00 ;Setup machine max feedrate
M204 P500.00 R1000.00 T500.00 ;Setup Print/Retract/Travel acceleration
M205 X8.00 Y8.00 Z0.40 E5.00 ;Setup Jerk
M220 S100 ;Reset Feedrate
M221 S100 ;Reset Flowrate

;*** Start Dual Nozzle/Bed Preheating ***
M140 S60 ; start preheating the bed
M104 S200 ?T0 ; start preheating hotend
M190 S60 ; heat to Cura Bed setting and WAIT
M109 S200 ?T0 ; heat to Cura Hotend and WAIT
;*** End Preheating ***


;*** Single Print Start Tone
M300 S1000 P500 ; chirp to indicate starting to print
;*** End Single Start Tone

G28 ;Home

G92 E0 ;Reset Extruder
G1 Z2.0 F3000 ;Move Z Axis up
G1 X10.1 Y20 Z0.28 F5000.0 ;Move to start position
G1 X10.1 Y200.0 Z0.28 F1500.0 E15 ;Draw the first line
G1 X10.4 Y200.0 Z0.28 F5000.0 ;Move to side a little
G1 X10.4 Y20 Z0.28 F1500.0 E30 ;Draw the second line
G92 E0 ;Reset Extruder
G1 Z2.0 F3000 ;Move Z Axis up
G92 E0
G92 E0
G1 F1500 E-3.05
;LAYER_COUNT:71
;LAYER:0
M107
M204 S500
M205 X5 Y5
;MESH:spray_can_holder.stl
G0 F7500 X77.461 Y72.54 Z0.28
M205 X8 Y8
;TYPE:WALL-INNER
G1 F1500 E0
G1 X77.266 Y72.896 E0.02132
G1 X76.924 Y73.191 E0.04505
G1 X76.529 Y73.351 E0.06743
G1 X76.333 Y73.39 E0.07793
G1 X70.224 Y73.39 E0.39884
G1 X69.656 Y73.248 E0.4296
G1 X69.575 Y73.204 E0.43444
G1 X69.575 Y152.208 E4.58454
G1 X71.387 Y152.208 E4.67972
G1 X71.743 Y152.246 E4.69853
G1 X72.142 Y152.448 E4.72202
G1 X72.477 Y152.762 E4.74614
G1 X72.657 Y153.099 E4.76621
G1 X72.729 Y153.471 E4.78611
G1 X72.729 Y153.681 E4.79714
G1 X72.035 Y158.555 E5.05576
G1 X74.45 Y158.555 E5.18262
G1 X73.755 Y153.679 E5.44135
G1 X73.778 Y153.317 E5.4604
G1 X73.86 Y153.051 E5.47502
G1 X74.016 Y152.748 E5.49292
G1 X74.175 Y152.565 E5.50566
G1 X74.448 Y152.373 E5.52319
G1 X74.922 Y152.202 E5.54966
G1 X76.875 Y152.202 E5.65225
G1 X76.875 Y133.192 E6.65085
G1 X76.981 Y132.85 E6.66966
G1 X77.107 Y132.597 E6.68451
G1 X77.297 Y132.362 E6.70038
G1 X80.18 Y129.883 E6.90012
G1 X79.403 Y128.849 E6.96806
G1 X77.912 Y126.573 E7.11099
G1 X76.609 Y124.273 E7.24985
G1 X75.49 Y121.97 E7.38435
G1 X74.451 Y119.431 E7.52846
G1 X73.613 Y116.928 E7.66712
G1 X72.955 Y114.459 E7.80134
G1 X72.425 Y111.817 E7.94289
G1 X72.077 Y109.167 E8.08329
G1 X71.901 Y106.606 E8.21814
G1 X71.888 Y103.954 E8.35745
G1 X72.048 Y101.246 E8.49995
G1 X72.364 Y98.698 E8.63482
G1 X72.873 Y96.016 E8.77822
G1 X73.513 Y93.525 E8.91332
G1 X74.355 Y90.948 E9.05574
G1 X75.335 Y88.494 E9.19455
G1 X76.439 Y86.168 E9.3298
G1 X77.719 Y83.863 E9.46829
G1 X79.165 Y81.609 E9.60897
G1 X80.759 Y79.447 E9.75007
G1 X82.461 Y77.424 E9.88894
G1 X84.293 Y75.513 E10.02801
G1 X86.239 Y73.727 E10.16676
G1 X88.235 Y72.111 E10.30166
G1 X90.415 Y70.566 E10.44202
G1 X92.697 Y69.162 E10.58277
G1 X95.032 Y67.922 E10.72165
G1 X97.387 Y66.86 E10.85736
G1 X99.908 Y65.91 E10.99887
G1 X102.433 Y65.139 E11.13756
G1 X105.021 Y64.527 E11.27726
G1 X107.601 Y64.091 E11.41471
G1 X110.225 Y63.816 E11.5533
G1 X112.84 Y63.709 E11.69078
G1 X115.501 Y63.77 E11.8306
G1 X118.128 Y64 E11.96913
G1 X120.749 Y64.397 E12.10838
G1 X123.316 Y64.956 E12.24638
G1 X125.924 Y65.705 E12.38892
G1 X128.405 Y66.594 E12.52736
G1 X130.827 Y67.639 E12.66593
G1 X133.178 Y68.838 E12.80456
G1 X135.448 Y70.186 E12.94324
G1 X137.624 Y71.671 E13.08163
G1 X139.705 Y73.3 E13.22046
G1 X141.676 Y75.05 E13.35891
G1 X143.531 Y76.928 E13.49758
G1 X145.272 Y78.926 E13.63679
G1 X146.865 Y81.015 E13.77479
G1 X148.298 Y83.16 E13.9103
G1 X148.542 Y83.46 E13.93061
G1 X148.772 Y83.632 E13.9457
G1 X149.031 Y83.737 E13.96038
G1 X149.314 Y83.775 E13.97538
G1 X149.566 Y83.743 E13.98872
G1 X149.811 Y83.65 E14.00249
G1 X150.035 Y83.498 E14.01671
G1 X150.212 Y83.303 E14.03054
G1 X150.339 Y83.073 E14.04434
G1 X150.413 Y82.806 E14.0589
G1 X150.421 Y82.543 E14.07272
G1 X150.367 Y82.279 E14.08687
G1 X150.227 Y81.979 E14.10427
G1 X148.831 Y79.875 E14.2369
G1 X147.279 Y77.812 E14.37252
G1 X145.612 Y75.85 E14.50776
G1 X143.821 Y73.979 E14.64381
G1 X141.927 Y72.222 E14.77952
G1 X139.933 Y70.581 E14.91518
G1 X137.853 Y69.066 E15.05035
G1 X135.679 Y67.672 E15.18601
G1 X133.425 Y66.407 E15.32179
G1 X131.098 Y65.277 E15.45768
G1 X128.697 Y64.282 E15.5942
G1 X126.269 Y63.444 E15.72913
G1 X123.789 Y62.747 E15.86445
G1 X121.258 Y62.191 E16.00058
G1 X118.707 Y61.791 E16.13622
G1 X116.145 Y61.544 E16.27143
G1 X113.557 Y61.447 E16.40747
G1 X110.984 Y61.503 E16.54266
G1 X108.406 Y61.713 E16.67853
G1 X105.843 Y62.075 E16.8145
G1 X103.324 Y62.584 E16.9495
G1 X100.813 Y63.247 E17.08593
G1 X98.356 Y64.055 E17.22179
G1 X95.969 Y65.004 E17.35673
G1 X93.593 Y66.112 E17.49444
G1 X91.349 Y67.327 E17.62849
G1 X89.179 Y68.671 E17.76257
G1 X87.001 Y70.206 E17.90255
G1 X86.105 Y70.765 E17.95802
G1 X85.037 Y71.189 E18.01838
G1 X83.924 Y71.413 E18.07802
G1 X82.823 Y71.436 E18.13587
G1 X81.671 Y71.256 E18.19712
G1 X80.605 Y70.877 E18.25655
G1 X79.634 Y70.333 E18.31502
G1 X78.782 Y69.632 E18.37297
G1 X78.035 Y68.75 E18.43369
G1 X77.468 Y67.774 E18.49298
G1 F1540 X77.394 Y67.529 E18.50608
G1 F1623.4 X77.32 Y67.284 E18.5185
G1 F1720.2 X77.246 Y67.039 E18.53022
G1 F1824.8 X77.171 Y66.794 E18.54129
G1 F1928 X77.108 Y66.481 E18.55433
G1 F1973.7 X76.73 Y66.48 E18.56943
G1 F1953.1 X76.787 Y66.842 E18.58421
G1 F1847.3 X76.852 Y67.164 E18.59822
G1 F1689.2 X76.917 Y67.487 E18.61359
G1 F1559.3 X76.982 Y67.81 E18.63024
G1 F1500 X77.56 Y71.853 E18.84478
G1 X77.552 Y72.23 E18.86459
G1 X77.461 Y72.54 E18.88156
M205 X5 Y5
G0 F7500 X77.002 Y72.811
G0 X76.384 Y73.054
G0 X70.011 Y73.053
G0 X69.705 Y72.96
G0 X69.799 Y72.784
M205 X8 Y8
G1 F1552.8 X69.625 Y72.526 E18.89735
G1 F1670.4 X69.451 Y72.267 E18.91207
G1 F1798.6 X69.427 Y72.019 E18.92298
G1 F1824.8 X69.454 Y71.759 E18.93427
G1 F1748.3 X69.481 Y71.498 E18.9461
G1 F1677.9 X69.509 Y71.238 E18.95838
G1 F1609.4 X69.536 Y70.977 E18.97123
G1 F1549.6 X69.563 Y70.717 E18.98452
G1 F1494 X69.591 Y70.456 E18.99836
G1 F1442.3 X69.618 Y70.195 E19.0127
G1 F1391.5 X69.646 Y69.935 E19.0275
G1 F1346.5 X69.673 Y69.674 E19.04286
G1 F1304.3 X69.7 Y69.414 E19.05865
G1 F1262.6 X69.728 Y69.153 E19.07503
G1 F1225.5 X69.755 Y68.893 E19.09184
G1 F1190.5 X69.782 Y68.632 E19.10921
G1 F1157.4 X69.81 Y68.371 E19.12708
G1 F1139.8 X69.811 Y68.365 E19.1275
G1 F1295.3 X69.953 Y67.932 E19.15522
G1 F1500 X70.225 Y66.04 E19.25563
G1 X69.075 Y66.04 E19.31604
G1 X69.076 Y67.87 E19.41217
G1 F1295.3 X69.157 Y68.319 E19.43992
G1 F1157.4 X69.148 Y68.582 E19.45784
G1 F1190.5 X69.139 Y68.846 E19.47532
G1 F1225.5 X69.129 Y69.11 E19.49231
G1 F1262.6 X69.12 Y69.374 E19.50879
G1 F1304.3 X69.111 Y69.638 E19.52475
G1 F1346.5 X69.101 Y69.902 E19.54021
G1 F1391.5 X69.092 Y70.166 E19.55517
G1 F1442.3 X69.083 Y70.429 E19.56954
G1 F1494 X69.073 Y70.693 E19.58348
G1 F1549.6 X69.064 Y70.957 E19.59691
G1 F1609.4 X69.055 Y71.221 E19.60984
G1 F1677.9 X69.045 Y71.485 E19.62225
G1 F1748.3 X69.036 Y71.749 E19.63415
G1 F1824.8 X69.027 Y72.013 E19.64556
G1 F1811.6 X69.038 Y72.303 E19.65818
G1 F1712.3 X69.05 Y72.588 E19.67131
G1 F1619.9 X69.062 Y72.873 E19.68518
G1 F1540 X69.075 Y73.157 E19.69973
G1 F1500 X69.075 Y152.708 E23.87856
G1 X71.387 Y152.708 E24.00001
G1 X71.655 Y152.76 E24.01435
G1 X71.901 Y152.893 E24.02904
G1 X72.074 Y153.059 E24.04164
G1 X72.168 Y153.234 E24.05207
G1 X72.242 Y153.563 E24.06979
G1 X71.458 Y159.055 E24.36121
G1 X75.026 Y159.055 E24.54863
G1 X74.253 Y153.635 E24.83623
G1 X74.267 Y153.423 E24.84739
G1 X74.424 Y153.037 E24.86928
G1 X74.676 Y152.818 E24.88682
G1 X74.993 Y152.702 E24.90455
G1 X77.375 Y152.702 E25.02968
G1 X77.375 Y133.345 E26.0465
G1 X77.403 Y133.147 E26.05701
G1 X77.6 Y132.76 E26.07982
G1 X80.861 Y129.957 E26.30571
G1 X79.803 Y128.549 E26.39822
G1 X78.347 Y126.326 E26.53781
G1 X77.08 Y124.094 E26.67264
G1 X75.94 Y121.752 E26.80946
G1 X74.925 Y119.271 E26.95027
G1 X74.096 Y116.799 E27.08724
G1 X73.438 Y114.33 E27.22146
G1 X72.913 Y111.701 E27.36229
G1 X72.58 Y109.176 E27.49608
G1 X72.4 Y106.571 E27.63324
G1 X72.389 Y103.912 E27.77292
G1 X72.545 Y101.307 E27.91001
G1 X72.861 Y98.759 E28.04488
G1 X73.357 Y96.14 E28.1849
G1 X73.997 Y93.649 E28.32001
G1 X74.819 Y91.133 E28.45905
G1 X75.769 Y88.749 E28.59386
G1 X76.891 Y86.382 E28.73146
G1 X78.156 Y84.106 E28.86824
G1 X79.592 Y81.871 E29.00779
G1 X81.142 Y79.768 E29.14503
G1 X82.792 Y77.803 E29.27981
G1 X84.6 Y75.912 E29.41724
G1 X86.554 Y74.115 E29.5567
G1 X88.56 Y72.492 E29.69224
G1 X90.694 Y70.981 E29.8296
G1 X92.893 Y69.625 E29.96531
G1 X95.211 Y68.392 E30.10323
G1 X97.634 Y67.299 E30.24286
G1 X100.064 Y66.385 E30.37924
G1 X102.578 Y65.618 E30.51731
G1 X105.121 Y65.017 E30.65457
G1 X107.671 Y64.586 E30.79042
G1 X110.294 Y64.313 E30.92896
G1 X112.86 Y64.209 E31.06386
G1 X115.482 Y64.27 E31.20163
G1 X118.118 Y64.502 E31.34063
G1 X120.671 Y64.891 E31.47629
G1 X123.209 Y65.445 E31.61275
G1 X125.769 Y66.181 E31.75268
G1 X128.213 Y67.057 E31.88906
G1 X130.609 Y68.09 E32.02612
G1 X132.933 Y69.275 E32.16316
G1 X135.178 Y70.607 E32.30028
G1 X137.329 Y72.076 E32.43711
G1 X139.387 Y73.686 E32.57437
G1 X141.335 Y75.417 E32.71126
G1 X143.17 Y77.274 E32.8484
G1 X144.891 Y79.25 E32.98605
G1 X146.465 Y81.316 E33.12248
G1 X147.895 Y83.457 E33.25773
G1 X148.193 Y83.824 E33.28257
G1 X148.525 Y84.071 E33.3043
G1 X148.902 Y84.224 E33.32567
G1 X149.312 Y84.279 E33.34741
G1 X149.688 Y84.232 E33.36731
G1 X150.043 Y84.096 E33.38728
G1 X150.365 Y83.879 E33.40768
G1 X150.622 Y83.595 E33.4278
G1 X150.807 Y83.26 E33.4479
G1 X150.911 Y82.881 E33.46855
G1 X150.923 Y82.499 E33.48862
G1 X150.845 Y82.119 E33.509
G1 X150.664 Y81.733 E33.53139
G1 X149.24 Y79.586 E33.66673
G1 X147.67 Y77.5 E33.80387
G1 X145.983 Y75.515 E33.94072
G1 X144.172 Y73.622 E34.07833
G1 X142.256 Y71.845 E34.21561
G1 X140.24 Y70.186 E34.35275
G1 X138.136 Y68.654 E34.48947
G1 X135.937 Y67.243 E34.62672
G1 X133.657 Y65.963 E34.76407
G1 X131.303 Y64.82 E34.90154
G1 X128.875 Y63.814 E35.03959
G1 X126.418 Y62.966 E35.17613
G1 X123.91 Y62.261 E35.31298
G1 X121.35 Y61.7 E35.45065
G1 X118.77 Y61.294 E35.58785
G1 X116.179 Y61.045 E35.72458
G1 X113.561 Y60.946 E35.8622
G1 X110.958 Y61.004 E35.99897
G1 X108.399 Y61.211 E36.13384
G1 X105.758 Y61.582 E36.27393
G1 X103.21 Y62.097 E36.41049
G1 X100.671 Y62.767 E36.54843
G1 X98.185 Y63.585 E36.6859
G1 X95.771 Y64.545 E36.82237
G1 X93.398 Y65.65 E36.95988
G1 X91.098 Y66.894 E37.09724
G1 X88.884 Y68.268 E37.23411
G1 X86.718 Y69.794 E37.3733
G1 X85.9 Y70.303 E37.42391
G1 X84.89 Y70.71 E37.48111
G1 X83.865 Y70.914 E37.53601
G1 X82.852 Y70.935 E37.58923
G1 X81.795 Y70.769 E37.64544
G1 X80.817 Y70.427 E37.69986
G1 X79.911 Y69.915 E37.75453
G1 X79.132 Y69.272 E37.80759
G1 X78.445 Y68.46 E37.86346
G1 X77.936 Y67.586 E37.91659
G1 X77.57 Y66.575 E37.97307
G1 X77.479 Y66.041 E38.00153
G1 X76.223 Y66.04 E38.06751
G1 X77.064 Y71.922 E38.37963
G1 X77.06 Y72.142 E38.39119
G1 X76.93 Y72.503 E38.41135
G1 X76.675 Y72.758 E38.43029
G1 X76.356 Y72.886 E38.44835
G1 X70.224 Y72.89 E38.77046
G1 X69.799 Y72.784 E38.79347
M205 X5 Y5
G0 F7500 X69.994 Y72.323
M205 X8 Y8
;TYPE:WALL-OUTER
G1 F1503.3 X69.882 Y72.172 E38.80234
G1 X69.853 Y72.019 E38.80968
G1 F1500 X70.36 Y68.444 E38.98039
G1 X70.773 Y65.565 E39.1179
G1 X68.6 Y65.565 E39.22063
G1 X68.6 Y153.183 E43.36296
G1 X71.436 Y153.188 E43.49704
G1 X71.636 Y153.287 E43.50759
G1 X71.722 Y153.396 E43.51416
G1 X71.761 Y153.574 E43.52277
G1 X70.911 Y159.53 E43.80721
G1 X75.574 Y159.53 E44.02766
G1 X74.726 Y153.593 E44.31119
G1 X74.812 Y153.312 E44.32509
G1 X75.052 Y153.181 E44.33801
G1 X77.85 Y153.177 E44.4703
G1 X77.853 Y133.306 E45.40974
G1 X77.944 Y133.09 E45.42082
G1 X81.508 Y130.028 E45.64296
G1 X80.175 Y128.252 E45.74795
G1 X78.76 Y126.092 E45.87003
G1 X77.486 Y123.847 E45.99206
G1 X76.361 Y121.531 E46.11379
G1 X75.375 Y119.12 E46.23694
G1 X74.555 Y116.676 E46.35882
G1 X73.894 Y114.194 E46.48025
G1 X73.384 Y111.639 E46.60343
G1 X73.05 Y109.1 E46.7245
G1 X72.874 Y106.539 E46.84586
G1 X72.863 Y103.94 E46.96873
G1 X73.016 Y101.366 E47.09064
G1 X73.334 Y98.804 E47.21269
G1 X73.814 Y96.273 E47.33448
G1 X74.462 Y93.754 E47.45745
G1 X75.26 Y91.309 E47.57905
G1 X76.216 Y88.912 E47.70105
G1 X77.327 Y86.573 E47.82347
G1 X78.578 Y84.325 E47.9451
G1 X79.974 Y82.153 E48.06717
G1 X81.506 Y80.074 E48.18926
G1 X83.166 Y78.098 E48.31127
G1 X84.953 Y76.231 E48.43345
G1 X86.853 Y74.485 E48.55545
G1 X88.86 Y72.861 E48.6775
G1 X90.966 Y71.371 E48.79947
G1 X93.155 Y70.023 E48.92101
G1 X95.447 Y68.805 E49.04372
G1 X97.801 Y67.744 E49.16579
G1 X100.218 Y66.835 E49.28787
G1 X102.688 Y66.081 E49.40997
G1 X105.222 Y65.482 E49.53307
G1 X107.746 Y65.056 E49.65409
G1 X110.313 Y64.788 E49.77611
G1 X112.895 Y64.684 E49.89827
G1 X115.475 Y64.745 E50.02028
G1 X118.046 Y64.972 E50.14231
G1 X120.611 Y65.363 E50.26497
G1 X123.121 Y65.913 E50.38645
G1 X125.608 Y66.629 E50.50881
G1 X128.033 Y67.498 E50.63059
G1 X130.405 Y68.52 E50.7527
G1 X132.704 Y69.693 E50.87472
G1 X134.926 Y71.012 E50.99689
G1 X137.055 Y72.465 E51.11875
G1 X139.091 Y74.059 E51.24099
G1 X141.019 Y75.772 E51.36293
G1 X142.833 Y77.611 E51.48505
G1 X144.535 Y79.568 E51.60767
G1 X146.093 Y81.613 E51.72921
G1 X147.512 Y83.739 E51.85005
G1 X147.861 Y84.169 E51.87623
G1 X148.291 Y84.489 E51.90158
G1 X148.779 Y84.686 E51.92646
G1 X149.31 Y84.759 E51.9518
G1 X149.804 Y84.696 E51.97534
G1 X150.264 Y84.521 E51.99861
G1 X150.678 Y84.24 E52.02226
G1 X151.012 Y83.873 E52.04572
G1 X151.252 Y83.438 E52.06921
G1 X151.384 Y82.951 E52.09307
G1 X151.4 Y82.457 E52.11643
G1 X151.299 Y81.968 E52.14004
G1 X151.079 Y81.5 E52.16449
G1 X149.628 Y79.311 E52.28865
G1 X148.041 Y77.203 E52.4134
G1 X146.336 Y75.197 E52.53786
G1 X144.506 Y73.284 E52.66302
G1 X142.568 Y71.487 E52.78797
G1 X140.531 Y69.81 E52.91271
G1 X138.404 Y68.261 E53.03711
G1 X136.182 Y66.835 E53.16193
G1 X133.877 Y65.542 E53.28688
G1 X131.498 Y64.387 E53.41191
G1 X129.044 Y63.369 E53.53751
G1 X126.56 Y62.512 E53.66174
G1 X124.025 Y61.8 E53.78623
G1 X121.438 Y61.233 E53.91144
G1 X118.83 Y60.823 E54.03625
G1 X116.21 Y60.57 E54.16069
G1 X113.565 Y60.471 E54.28583
G1 X110.933 Y60.529 E54.41029
G1 X108.298 Y60.743 E54.53528
G1 X105.678 Y61.113 E54.66037
G1 X103.103 Y61.634 E54.78458
G1 X100.536 Y62.311 E54.91009
G1 X98.023 Y63.138 E55.03517
G1 X95.583 Y64.108 E55.1593
G1 X93.13 Y65.254 E55.28731
G1 X90.859 Y66.483 E55.40939
G1 X88.622 Y67.871 E55.53385
G1 X86.44 Y69.408 E55.66003
G1 X85.669 Y69.887 E55.70294
G1 X84.771 Y70.246 E55.74867
G1 X83.831 Y70.436 E55.79401
G1 X82.889 Y70.459 E55.83855
G1 X81.897 Y70.301 E55.88604
G1 X81.013 Y69.991 E55.93033
G1 X80.167 Y69.51 E55.97634
G1 X79.482 Y68.945 E56.01832
G1 X78.824 Y68.167 E56.06649
G1 X78.378 Y67.4 E56.10844
G1 X78.037 Y66.471 E56.15523
G1 X77.88 Y65.566 E56.19865
G1 X75.676 Y65.565 E56.30285
G1 X76.6 Y72.036 E56.61188
G1 X76.52 Y72.264 E56.62331
G1 X76.438 Y72.346 E56.62879
G1 X76.251 Y72.414 E56.6382
G1 X70.224 Y72.415 E56.92314
G1 X69.994 Y72.323 E56.93485
M205 X5 Y5
G0 F7500 X69.882 Y72.172
G0 X69.88 Y72.161
G0 X69.25 Y72.316
G0 X69.517 Y67.87
M205 X8 Y8
;TYPE:WALL-INNER
G1 F1875 X69.535 Y67.611 E56.94576
G1 F1716.2 X69.553 Y67.352 E56.95768
G1 F1578.9 X69.572 Y67.092 E56.97069
G1 F1464.8 X69.59 Y66.833 E56.98465
G1 F1366.1 X69.609 Y66.574 E56.99963
M205 X5 Y5
G0 F7500 X69.201 Y72.055
G0 X69.351 Y72.699
G0 X70.011 Y73.053
G0 X76.384 Y73.054
G0 X77.002 Y72.811
G0 X77.256 Y72.108
G0 X77.228 Y67.804
G0 X77.545 Y68.207
G0 X77.388 Y68.298
M205 X8 Y8
;TYPE:SKIN
G1 F1500 X77.887 Y71.798 E57.16678
G1 X77.875 Y72.305 E57.19075
G1 X77.78 Y72.634 E57.20694
G1 X77.603 Y73.029 E57.22741
G1 X77.306 Y73.331 E57.24743
G1 X77.02 Y73.53 E57.2639
G1 X76.472 Y73.723 E57.29137
G1 X70.211 Y73.722 E57.58737
G1 X69.908 Y73.646 E57.60214
G1 X69.907 Y151.876 E61.30064
G1 X71.406 Y151.877 E61.37151
G1 X71.741 Y151.918 E61.38746
G1 X72.027 Y152.013 E61.40171
G1 X72.469 Y152.262 E61.42569
G1 X72.748 Y152.569 E61.44531
G1 X72.959 Y152.976 E61.46698
G1 F1551.7 X73.038 Y153.337 E61.48387
