;FLAVOR:Marlin
;TIME:3216
;Filament used: 3.4677m
;Layer height: 0.2
;MINX:69.421
;MINY:69.421
;MINZ:0.24
;MAXX:150.579
;MAXY:150.579
;MAXZ:3.08
;Generated with Cura_SteamEngine 4.8.0
M82 ;absolute extrusion mode
M201 X500.00 Y500.00 Z100.00 E5000.00 ;Setup machine max acceleration
M203 X500.00 Y500.00 Z10.00 E50.00 ;Setup machine max feedrate
M204 P500.00 R1000.00 T500.00 ;Setup Print/Retract/Travel acceleration
M205 X8.00 Y8.00 Z0.40 E5.00 ;Setup Jerk
M220 S100 ;Reset Feedrate
M221 S100 ;Reset Flowrate

;*** Start Dual Nozzle/Bed Preheating ***
M140 S50 ; start preheating the bed
M104 S215 ﻿T0 ; start preheating hotend
G28 ; home
M190 S50 ; heat to Cura Bed setting and WAIT
M109 S215 ﻿T0 ; heat to Cura Hotend and WAIT
;*** End Preheating ***


G92 E0 ;Reset Extruder
G1 Z2.0 F3000 ;Move Z Axis up

;*** Single Print Start Tone
M300 S1000 P500 ; chirp to indicate starting to print
;*** End Single Start Tone

G1 X10.1 Y20 Z0.28 F5000.0 ;Move to start position
G1 X10.1 Y200.0 Z0.28 F1500.0 E15 ;Draw the first line
G1 X10.4 Y200.0 Z0.28 F5000.0 ;Move to side a little
G1 X10.4 Y20 Z0.28 F1500.0 E30 ;Draw the second line
G92 E0 ;Reset Extruder
G1 Z2.0 F3000 ;Move Z Axis up
G92 E0
G92 E0
G1 F2400 E-3
;LAYER_COUNT:13
;LAYER:0
M106 S63.8
M204 S500
M205 X6 Y6
G1 F300 Z0.44
G0 F9000 X81.387 Y81.225 Z0.44
;TYPE:SKIRT
G1 F300 Z0.24
G1 F2400 E0
G1 F1800 X82.254 Y80.405 E0.04763
G1 X82.418 Y80.253 E0.05655
G1 X83.328 Y79.428 E0.10558
G1 X83.859 Y78.961 E0.1338
G1 X84.344 Y78.561 E0.15889
G1 X85.282 Y77.833 E0.20628
G1 X85.47 Y77.691 E0.21569
G1 X86.611 Y76.846 E0.27236
G1 X87.007 Y76.562 E0.2918
G1 X87.536 Y76.207 E0.31723
G1 X88.576 Y75.552 E0.36629
G1 X88.774 Y75.43 E0.37557
G1 X89.912 Y74.749 E0.4285
G1 X90.384 Y74.475 E0.45028
G1 X90.976 Y74.156 E0.47712
G1 X92.069 Y73.611 E0.52587
G1 X92.267 Y73.515 E0.53465
G1 X93.476 Y72.944 E0.58802
G1 X93.981 Y72.715 E0.61015
G1 X94.571 Y72.469 E0.63566
G1 X95.708 Y72.034 E0.68425
G1 X95.927 Y71.953 E0.69357
G1 X97.177 Y71.507 E0.74654
G1 X97.685 Y71.333 E0.76797
G1 X98.333 Y71.134 E0.79503
G1 X99.533 Y70.807 E0.84467
G1 X99.741 Y70.753 E0.85324
G1 X101.026 Y70.431 E0.90612
G1 X101.545 Y70.309 E0.9274
G1 X102.197 Y70.177 E0.95395
G1 X103.399 Y69.973 E1.00261
G1 X103.616 Y69.939 E1.01137
G1 X104.923 Y69.746 E1.0641
G1 X105.465 Y69.673 E1.08593
G1 X106.148 Y69.603 E1.11334
G1 X107.376 Y69.518 E1.16246
G1 X107.583 Y69.506 E1.17074
G1 X108.9 Y69.442 E1.22337
G1 X109.463 Y69.423 E1.24585
G1 X110.122 Y69.421 E1.27215
G1 X111.355 Y69.456 E1.32138
G1 X112.716 Y69.521 E1.37577
G1 X113.418 Y69.563 E1.40383
G1 X114.105 Y69.628 E1.43138
G1 X115.312 Y69.782 E1.47994
G1 X116.792 Y70 E1.53965
G1 X117.352 Y70.09 E1.56229
G1 X118.044 Y70.225 E1.59043
G1 X119.271 Y70.507 E1.64067
G1 X119.474 Y70.556 E1.64901
G1 X120.764 Y70.88 E1.7021
G1 X121.245 Y71.008 E1.72196
G1 X121.881 Y71.199 E1.74847
G1 X123.056 Y71.592 E1.79792
G1 X124.423 Y72.079 E1.85583
G1 X125.011 Y72.297 E1.88086
G1 X125.63 Y72.551 E1.90757
G1 X126.756 Y73.055 E1.95681
G1 X126.956 Y73.147 E1.96559
G1 X128.168 Y73.721 E2.01912
G1 X128.618 Y73.941 E2.03911
G1 X129.225 Y74.263 E2.06653
G1 X130.309 Y74.883 E2.11638
G1 X130.496 Y74.992 E2.12501
G1 X131.527 Y75.61 E2.17299
G1 X132.085 Y75.955 E2.19917
G1 X132.644 Y76.326 E2.22595
G1 X133.794 Y77.145 E2.2823
G1 X134.911 Y77.974 E2.33782
G1 X135.305 Y78.275 E2.35761
G1 X135.825 Y78.699 E2.38439
G1 X136.768 Y79.519 E2.43426
G1 X136.932 Y79.664 E2.443
G1 X137.932 Y80.572 E2.49691
G1 X138.306 Y80.921 E2.51733
G1 X138.775 Y81.387 E2.54372
G1 X139.595 Y82.254 E2.59135
G1 X139.747 Y82.418 E2.60027
G1 X140.572 Y83.328 E2.64929
G1 X141.039 Y83.859 E2.67752
G1 X141.439 Y84.344 E2.70261
G1 X142.167 Y85.282 E2.75
G1 X142.309 Y85.47 E2.7594
G1 X143.154 Y86.611 E2.81607
G1 X143.438 Y87.007 E2.83552
G1 X143.793 Y87.536 E2.86095
G1 X144.448 Y88.576 E2.91
G1 X144.57 Y88.774 E2.91929
G1 X145.251 Y89.912 E2.97222
G1 X145.525 Y90.384 E2.994
G1 X145.844 Y90.976 E3.02084
G1 X146.389 Y92.069 E3.06959
G1 X146.485 Y92.267 E3.07837
G1 X147.056 Y93.476 E3.13173
G1 X147.285 Y93.981 E3.15386
G1 X147.531 Y94.571 E3.17938
G1 X147.966 Y95.708 E3.22797
G1 X148.047 Y95.927 E3.23728
G1 X148.493 Y97.177 E3.29026
G1 X148.667 Y97.685 E3.31169
G1 X148.866 Y98.333 E3.33874
G1 X149.193 Y99.533 E3.38838
G1 X149.247 Y99.741 E3.39696
G1 X149.569 Y101.026 E3.44983
G1 X149.691 Y101.545 E3.47111
G1 X149.823 Y102.197 E3.49766
G1 X150.027 Y103.399 E3.54632
G1 X150.061 Y103.616 E3.55509
G1 X150.253 Y104.918 E3.60762
G1 X150.326 Y105.458 E3.62937
G1 X150.397 Y106.147 E3.65701
G1 X150.482 Y107.377 E3.70622
G1 X150.494 Y107.582 E3.71442
G1 X150.557 Y108.873 E3.766
G1 X150.577 Y109.458 E3.78937
G1 X150.579 Y110.121 E3.81583
G1 X150.544 Y111.355 E3.8651
G1 X150.479 Y112.716 E3.91948
G1 X150.437 Y113.418 E3.94755
G1 X150.372 Y114.105 E3.97509
G1 X150.218 Y115.312 E4.02366
G1 X150 Y116.792 E4.08336
G1 X149.91 Y117.352 E4.106
G1 X149.775 Y118.044 E4.13414
G1 X149.493 Y119.271 E4.18439
G1 X149.444 Y119.474 E4.19273
G1 X149.12 Y120.764 E4.24581
G1 X148.992 Y121.245 E4.26568
G1 X148.801 Y121.881 E4.29218
G1 X148.408 Y123.056 E4.34163
G1 X147.921 Y124.423 E4.39955
G1 X147.706 Y125.004 E4.42428
G1 X147.45 Y125.628 E4.4512
G1 X146.945 Y126.756 E4.50052
G1 X146.853 Y126.956 E4.50931
G1 X146.279 Y128.168 E4.56283
G1 X146.059 Y128.618 E4.58283
G1 X145.737 Y129.225 E4.61025
G1 X145.117 Y130.309 E4.66009
G1 X145.008 Y130.496 E4.66873
G1 X144.39 Y131.527 E4.71671
G1 X144.045 Y132.085 E4.74289
G1 X143.674 Y132.644 E4.76967
G1 X142.855 Y133.794 E4.82602
G1 X142.026 Y134.911 E4.88154
G1 X141.725 Y135.305 E4.90133
G1 X141.301 Y135.825 E4.9281
G1 X140.481 Y136.768 E4.97798
G1 X140.336 Y136.932 E4.98672
G1 X139.428 Y137.932 E5.04063
G1 X139.079 Y138.306 E5.06105
G1 X138.613 Y138.775 E5.08743
G1 X137.746 Y139.595 E5.13506
G1 X137.582 Y139.747 E5.14399
G1 X136.672 Y140.572 E5.19301
G1 X136.141 Y141.039 E5.22123
G1 X135.656 Y141.439 E5.24633
G1 X134.718 Y142.167 E5.29372
G1 X134.535 Y142.306 E5.30289
G1 X133.539 Y143.045 E5.35239
G1 X132.984 Y143.444 E5.37967
G1 X132.464 Y143.793 E5.40467
G1 X131.424 Y144.448 E5.45372
G1 X131.226 Y144.57 E5.463
G1 X130.088 Y145.251 E5.51593
G1 X129.616 Y145.525 E5.53772
G1 X129.024 Y145.844 E5.56456
G1 X127.931 Y146.389 E5.6133
G1 X127.733 Y146.485 E5.62209
G1 X126.524 Y147.056 E5.67545
G1 X126.019 Y147.285 E5.69758
G1 X125.429 Y147.531 E5.72309
G1 X124.292 Y147.966 E5.77168
G1 X124.073 Y148.047 E5.781
G1 X122.823 Y148.493 E5.83397
G1 X122.315 Y148.667 E5.8554
G1 X121.667 Y148.866 E5.88246
G1 X120.467 Y149.193 E5.9321
G1 X120.259 Y149.247 E5.94068
G1 X118.974 Y149.569 E5.99355
G1 X118.455 Y149.691 E6.01483
G1 X117.803 Y149.823 E6.04138
G1 X116.601 Y150.027 E6.09004
G1 X116.384 Y150.061 E6.09881
G1 X115.077 Y150.254 E6.15154
G1 X114.535 Y150.327 E6.17337
G1 X113.852 Y150.397 E6.20077
G1 X112.624 Y150.482 E6.2499
G1 X112.417 Y150.494 E6.25817
G1 X111.1 Y150.558 E6.3108
G1 X110.537 Y150.577 E6.33328
G1 X109.878 Y150.579 E6.35959
G1 X108.645 Y150.544 E6.40882
G1 X107.284 Y150.479 E6.4632
G1 X106.582 Y150.437 E6.49127
G1 X105.895 Y150.372 E6.51881
G1 X104.688 Y150.218 E6.56737
G1 X103.208 Y150 E6.62708
G1 X102.648 Y149.91 E6.64972
G1 X101.956 Y149.775 E6.67786
G1 X100.729 Y149.493 E6.72811
G1 X100.526 Y149.444 E6.73644
G1 X99.236 Y149.12 E6.78953
G1 X98.755 Y148.992 E6.80939
G1 X98.119 Y148.801 E6.8359
G1 X96.944 Y148.408 E6.88535
G1 X95.577 Y147.921 E6.94327
G1 X94.989 Y147.703 E6.9683
G1 X94.37 Y147.449 E6.995
G1 X93.244 Y146.945 E7.04424
G1 X93.044 Y146.853 E7.05303
G1 X91.832 Y146.279 E7.10655
G1 X91.38 Y146.058 E7.12663
G1 X90.772 Y145.736 E7.15409
G1 X89.69 Y145.117 E7.20384
G1 X89.504 Y145.008 E7.21245
G1 X88.473 Y144.39 E7.26042
G1 X87.915 Y144.045 E7.28661
G1 X87.356 Y143.674 E7.31339
G1 X86.206 Y142.855 E7.36974
G1 X85.086 Y142.024 E7.4254
G1 X84.691 Y141.722 E7.44524
G1 X84.174 Y141.3 E7.47188
G1 X83.232 Y140.481 E7.5217
G1 X83.068 Y140.336 E7.53044
G1 X82.068 Y139.428 E7.58435
G1 X81.694 Y139.079 E7.60476
G1 X81.225 Y138.613 E7.63115
G1 X80.405 Y137.746 E7.67878
G1 X80.253 Y137.582 E7.6877
G1 X79.428 Y136.672 E7.73673
G1 X78.961 Y136.141 E7.76495
G1 X78.561 Y135.656 E7.79004
G1 X77.833 Y134.718 E7.83743
G1 X77.691 Y134.53 E7.84684
G1 X76.849 Y133.393 E7.90331
G1 X76.564 Y132.996 E7.92281
G1 X76.204 Y132.461 E7.94855
G1 X75.55 Y131.422 E7.99755
G1 X75.43 Y131.226 E8.00672
G1 X74.747 Y130.085 E8.0598
G1 X74.472 Y129.611 E8.08167
G1 X74.155 Y129.022 E8.10837
G1 X73.611 Y127.931 E8.15702
G1 X73.515 Y127.733 E8.1658
G1 X72.945 Y126.525 E8.21912
G1 X72.715 Y126.018 E8.24134
G1 X72.467 Y125.425 E8.26699
G1 X72.033 Y124.29 E8.31549
G1 X71.953 Y124.073 E8.32472
G1 X71.507 Y122.823 E8.37769
G1 X71.333 Y122.315 E8.39912
G1 X71.134 Y121.667 E8.42618
G1 X70.807 Y120.467 E8.47582
G1 X70.753 Y120.259 E8.4844
G1 X70.431 Y118.974 E8.53727
G1 X70.309 Y118.455 E8.55855
G1 X70.177 Y117.803 E8.5851
G1 X69.973 Y116.601 E8.63376
G1 X69.939 Y116.384 E8.64253
G1 X69.746 Y115.077 E8.69526
G1 X69.673 Y114.535 E8.71708
G1 X69.603 Y113.852 E8.74449
G1 X69.518 Y112.624 E8.79362
G1 X69.506 Y112.417 E8.80189
G1 X69.442 Y111.1 E8.85452
G1 X69.423 Y110.538 E8.87696
G1 X69.421 Y109.879 E8.90326
G1 X69.456 Y108.645 E8.95254
G1 X69.521 Y107.284 E9.00692
G1 X69.563 Y106.582 E9.03499
G1 X69.628 Y105.895 E9.06253
G1 X69.782 Y104.688 E9.11109
G1 X70 Y103.208 E9.1708
G1 X70.09 Y102.648 E9.19344
G1 X70.225 Y101.956 E9.22158
G1 X70.507 Y100.729 E9.27183
G1 X70.556 Y100.526 E9.28016
G1 X70.88 Y99.236 E9.33325
G1 X71.008 Y98.755 E9.35311
G1 X71.199 Y98.119 E9.37962
G1 X71.592 Y96.944 E9.42907
G1 X72.079 Y95.577 E9.48699
G1 X72.294 Y94.996 E9.51171
G1 X72.55 Y94.372 E9.53863
G1 X73.055 Y93.244 E9.58796
G1 X73.147 Y93.044 E9.59675
G1 X73.721 Y91.832 E9.65027
G1 X73.941 Y91.382 E9.67026
G1 X74.263 Y90.775 E9.69769
G1 X74.883 Y89.691 E9.74753
G1 X74.992 Y89.504 E9.75617
G1 X75.61 Y88.473 E9.80414
G1 X75.955 Y87.915 E9.83033
G1 X76.326 Y87.356 E9.8571
G1 X77.145 Y86.206 E9.91345
G1 X77.974 Y85.089 E9.96897
G1 X78.275 Y84.695 E9.98876
G1 X78.699 Y84.175 E10.01554
G1 X79.519 Y83.232 E10.06542
G1 X79.664 Y83.068 E10.07415
G1 X80.572 Y82.068 E10.12806
G1 X80.921 Y81.694 E10.14848
G1 X81.387 Y81.225 E10.17487
G0 F9000 X81.662 Y81.515
G1 F1800 X82.529 Y80.695 E10.2225
G1 X82.687 Y80.549 E10.23108
G1 X83.727 Y79.608 E10.28706
G1 X84.122 Y79.262 E10.30802
G1 X84.589 Y78.877 E10.33218
G1 X85.527 Y78.149 E10.37957
G1 X85.708 Y78.012 E10.38863
G1 X86.845 Y77.171 E10.44507
G1 X87.241 Y76.887 E10.46452
G1 X87.749 Y76.545 E10.48896
G1 X88.789 Y75.89 E10.53802
G1 X88.98 Y75.773 E10.54696
G1 X90.113 Y75.095 E10.59966
G1 X90.585 Y74.821 E10.62144
G1 X91.154 Y74.514 E10.64725
G1 X92.247 Y73.969 E10.69599
G1 X92.438 Y73.876 E10.70447
G1 X93.642 Y73.308 E10.7576
G1 X94.147 Y73.079 E10.77973
G1 X94.714 Y72.842 E10.80426
G1 X95.851 Y72.407 E10.85285
G1 X96.062 Y72.329 E10.86183
G1 X97.307 Y71.885 E10.91458
G1 X97.815 Y71.711 E10.93602
G1 X98.438 Y71.52 E10.96202
G1 X99.638 Y71.193 E11.01167
G1 X99.838 Y71.141 E11.01991
G1 X101.118 Y70.821 E11.07257
G1 X101.637 Y70.699 E11.09385
G1 X102.264 Y70.572 E11.11938
G1 X103.466 Y70.368 E11.16805
G1 X103.675 Y70.335 E11.17649
G1 X104.976 Y70.142 E11.22898
G1 X105.518 Y70.069 E11.25081
G1 X106.176 Y70.002 E11.27721
G1 X107.404 Y69.917 E11.32634
G1 X108.753 Y69.849 E11.38025
G1 X109.477 Y69.823 E11.40916
G1 X110.11 Y69.821 E11.43443
G1 X111.343 Y69.856 E11.48366
G1 X111.553 Y69.864 E11.49205
G1 X112.829 Y69.928 E11.54304
G1 X113.394 Y69.963 E11.56563
G1 X114.054 Y70.025 E11.59209
G1 X115.261 Y70.179 E11.64066
G1 X115.466 Y70.207 E11.64891
G1 X116.729 Y70.395 E11.69988
G1 X117.289 Y70.485 E11.72252
G1 X117.955 Y70.615 E11.7496
G1 X119.182 Y70.897 E11.79985
G1 X119.377 Y70.944 E11.80785
G1 X120.661 Y71.267 E11.8607
G1 X121.142 Y71.395 E11.88056
G1 X121.754 Y71.579 E11.90607
G1 X122.929 Y71.972 E11.95552
G1 X123.127 Y72.04 E11.96388
G1 X124.427 Y72.506 E12.01899
G1 X124.871 Y72.672 E12.03791
G1 X125.466 Y72.916 E12.06358
G1 X126.592 Y73.42 E12.11282
G1 X126.785 Y73.509 E12.1213
G1 X127.992 Y74.08 E12.17459
G1 X128.442 Y74.3 E12.19459
G1 X129.026 Y74.61 E12.22097
G1 X130.11 Y75.23 E12.27082
G1 X130.29 Y75.335 E12.27913
G1 X131.447 Y76.03 E12.333
G1 X131.875 Y76.295 E12.35309
G1 X132.413 Y76.652 E12.37886
G1 X133.556 Y77.466 E12.43487
G1 X134.546 Y78.199 E12.48404
G1 X135.062 Y78.593 E12.50995
G1 X135.563 Y79.001 E12.53573
G1 X136.506 Y79.821 E12.58561
G1 X136.663 Y79.961 E12.59401
G1 X137.659 Y80.865 E12.64769
G1 X138.033 Y81.214 E12.66811
G1 X138.485 Y81.662 E12.69351
G1 X139.305 Y82.529 E12.74114
G1 X139.451 Y82.687 E12.74972
G1 X140.392 Y83.727 E12.8057
G1 X140.738 Y84.122 E12.82666
G1 X141.123 Y84.589 E12.85082
G1 X141.851 Y85.527 E12.89821
G1 X141.988 Y85.708 E12.90727
G1 X142.829 Y86.845 E12.96371
G1 X143.113 Y87.241 E12.98316
G1 X143.455 Y87.749 E13.0076
G1 X144.11 Y88.789 E13.05666
G1 X144.227 Y88.98 E13.0656
G1 X144.905 Y90.113 E13.1183
G1 X145.179 Y90.585 E13.14008
G1 X145.486 Y91.154 E13.16589
G1 X146.031 Y92.247 E13.21463
G1 X146.124 Y92.438 E13.22311
G1 X146.692 Y93.642 E13.27624
G1 X146.921 Y94.147 E13.29837
G1 X147.158 Y94.714 E13.3229
G1 X147.593 Y95.851 E13.37149
G1 X147.671 Y96.062 E13.38047
G1 X148.115 Y97.307 E13.43322
G1 X148.289 Y97.815 E13.45466
G1 X148.48 Y98.438 E13.48066
G1 X148.807 Y99.638 E13.53031
G1 X148.859 Y99.838 E13.53855
G1 X149.179 Y101.118 E13.59121
G1 X149.301 Y101.637 E13.61249
G1 X149.428 Y102.264 E13.63802
G1 X149.632 Y103.466 E13.68669
G1 X149.665 Y103.675 E13.69513
G1 X149.857 Y104.972 E13.74746
G1 X149.93 Y105.512 E13.76921
G1 X149.998 Y106.175 E13.79581
G1 X150.083 Y107.405 E13.84502
G1 X150.15 Y108.729 E13.89793
G1 X150.177 Y109.471 E13.92756
G1 X150.179 Y110.109 E13.95303
G1 X150.144 Y111.343 E14.0023
G1 X150.136 Y111.553 E14.01069
G1 X150.072 Y112.829 E14.06168
G1 X150.037 Y113.394 E14.08427
G1 X149.975 Y114.054 E14.11073
G1 X149.821 Y115.261 E14.1593
G1 X149.793 Y115.466 E14.16755
G1 X149.605 Y116.729 E14.21852
G1 X149.515 Y117.289 E14.24116
G1 X149.385 Y117.955 E14.26824
G1 X149.103 Y119.182 E14.31849
G1 X149.056 Y119.377 E14.32649
G1 X148.733 Y120.661 E14.37934
G1 X148.605 Y121.142 E14.3992
G1 X148.421 Y121.754 E14.42471
G1 X148.028 Y122.929 E14.47416
G1 X147.96 Y123.127 E14.48252
G1 X147.496 Y124.422 E14.53742
G1 X147.331 Y124.864 E14.55625
G1 X147.085 Y125.465 E14.58217
G1 X146.58 Y126.593 E14.6315
G1 X145.977 Y127.872 E14.68793
G1 X145.7 Y128.442 E14.71323
G1 X145.39 Y129.026 E14.73962
G1 X144.77 Y130.11 E14.78946
G1 X144.665 Y130.29 E14.79777
G1 X143.97 Y131.447 E14.85164
G1 X143.705 Y131.875 E14.87173
G1 X143.348 Y132.413 E14.8975
G1 X142.534 Y133.556 E14.95351
G1 X141.801 Y134.546 E15.00268
G1 X141.407 Y135.062 E15.02859
G1 X140.999 Y135.563 E15.05438
G1 X140.179 Y136.506 E15.10425
G1 X140.039 Y136.663 E15.11265
G1 X139.135 Y137.659 E15.16633
G1 X138.786 Y138.033 E15.18675
G1 X138.338 Y138.485 E15.21215
G1 X137.471 Y139.305 E15.25978
G1 X137.313 Y139.451 E15.26837
G1 X136.273 Y140.392 E15.32434
G1 X135.878 Y140.738 E15.3453
G1 X135.411 Y141.123 E15.36946
G1 X134.473 Y141.851 E15.41685
G1 X134.297 Y141.984 E15.42565
G1 X133.159 Y142.827 E15.48218
G1 X132.751 Y143.119 E15.5022
G1 X132.251 Y143.455 E15.52625
G1 X131.211 Y144.11 E15.5753
G1 X131.02 Y144.227 E15.58424
G1 X129.887 Y144.905 E15.63694
G1 X129.415 Y145.179 E15.65872
G1 X128.846 Y145.486 E15.68453
G1 X127.753 Y146.031 E15.73327
G1 X127.562 Y146.124 E15.74175
G1 X126.358 Y146.692 E15.79488
G1 X125.853 Y146.921 E15.81702
G1 X125.286 Y147.158 E15.84154
G1 X124.149 Y147.593 E15.89013
G1 X123.938 Y147.671 E15.89911
G1 X122.693 Y148.115 E15.95187
G1 X122.185 Y148.289 E15.9733
G1 X121.562 Y148.48 E15.99931
G1 X120.362 Y148.807 E16.04895
G1 X120.162 Y148.859 E16.05719
G1 X118.882 Y149.179 E16.10985
G1 X118.363 Y149.301 E16.13113
G1 X117.736 Y149.428 E16.15667
G1 X116.534 Y149.632 E16.20533
G1 X116.325 Y149.665 E16.21377
G1 X115.024 Y149.858 E16.26627
G1 X114.482 Y149.931 E16.28809
G1 X113.824 Y149.998 E16.31449
G1 X112.596 Y150.083 E16.36362
G1 X111.247 Y150.151 E16.41753
G1 X110.523 Y150.177 E16.44645
G1 X109.89 Y150.179 E16.47171
