;FLAVOR:Marlin
;TIME:286
;Filament used: 0.345617m
;Layer height: 0.2
;MINX:35.2
;MINY:35.2
;MINZ:0.28
;MAXX:184.8
;MAXY:184.8
;MAXZ:1
;Generated with Cura_SteamEngine 4.5.0
M140 S110
M105
M190 S110
M104 S240
M105
M109 S240
M82 ;absolute extrusion mode
M201 X500.00 Y500.00 Z100.00 E5000.00 ;Setup machine max acceleration
M203 X500.00 Y500.00 Z10.00 E50.00 ;Setup machine max feedrate
M204 P500.00 R1000.00 T500.00 ;Setup Print/Retract/Travel acceleration
M205 X8.00 Y8.00 Z0.40 E5.00 ;Setup Jerk
M220 S100 ;Reset Feedrate
M221 S100 ;Reset Flowrate

G28 ;Home

G92 E0 ;Reset Extruder
G1 Z2.0 F3000 ;Move Z Axis up
G1 X10.1 Y20 Z0.28 F5000.0 ;Move to start position
G1 X10.1 Y200.0 Z0.28 F1500.0 E15 ;Draw the first line
G1 X10.4 Y200.0 Z0.28 F5000.0 ;Move to side a little
G1 X10.4 Y20 Z0.28 F1500.0 E30 ;Draw the second line
G92 E0 ;Reset Extruder
G1 Z2.0 F3000 ;Move Z Axis up

G92 E0
G92 E0
G1 F1800 E-3
;LAYER_COUNT:5
;LAYER:0
M107
;MESH:Object 1
G0 F9000 X35.8 Y184.2 Z0.28
;TYPE:WALL-OUTER
G1 F1800 E0
G1 F2400 X184.2 Y184.2 E6.91013
G1 X184.2 Y35.8 E13.82025
G1 X35.8 Y35.8 E20.73038
G1 X35.8 Y184.2 E27.6405
G0 F9000 X35.2 Y184.8
G1 F2400 X35.2 Y35.2 E34.60651
G1 X184.8 Y35.2 E41.57251
G1 X184.8 Y184.8 E48.53851
G1 X35.2 Y184.8 E55.50451
G0 F9000 X35.566 Y184.624
;TYPE:SKIN
G1 F2400 X35.374 Y184.432 E55.51084
G0 F9000 X35.611 Y184.386
G1 F2400 X36.006 Y184.499 E55.52278
G1 X91.161 Y184.499 E57.12624
G1 X146.315 Y184.499 E58.72967
G1 X184.499 Y184.499 E59.83975
G1 X184.499 Y129.345 E61.44318
G1 X184.499 Y74.19 E63.04664
G1 X184.499 Y36.007 E64.15669
G1 X184.387 Y35.612 E64.16862
G1 X183.709 Y35.499 E64.18861
G1 X128.554 Y35.499 E65.79207
G1 X73.4 Y35.499 E67.3955
G1 X35.499 Y35.499 E68.49735
G1 X35.499 Y90.653 E70.10078
G1 X35.499 Y145.808 E71.70424
G1 X35.499 Y183.991 E72.81429
G1 F1800 E69.81429
G0 F9000 X35.6 Y184.117
G0 X35.672 Y35.672
G0 X184.433 Y35.4
G0 X184.433 Y35.375
G1 F1800 E72.81429
G1 F2400 X184.624 Y35.566 E72.82058
G0 F9000 X184.582 Y35.418
G1 F1800 E69.82058
G0 F9000 X85.6 Y35.7
G0 X85.6 Y36.665
G0 X85.6 Y84.335
G0 X85.6 Y85.32
G0 X85.6 Y134.2
G0 X85.8 Y134.2
;TYPE:WALL-OUTER
G1 F1800 E72.82058
G1 F2400 X134.2 Y134.2 E75.07428
G1 X134.2 Y85.8 E77.32799
G1 X85.8 Y85.8 E79.5817
G1 X85.8 Y134.2 E81.8354
G0 F9000 X85.2 Y134.8
G1 F2400 X85.2 Y85.2 E84.14499
G1 X134.8 Y85.2 E86.45457
G1 X134.8 Y134.8 E88.76416
G1 X85.2 Y134.8 E91.07374
G0 F9000 X85.392 Y134.606
;TYPE:SKIN
G1 F2400 X85.533 Y134.465 E91.07954
G1 X85.499 Y132.451 E91.13809
G1 X85.499 Y85.499 E92.50295
G1 X134.148 Y85.499 E93.91715
G1 X134.499 Y85.85 E93.93158
G1 X134.499 Y134.499 E95.34577
G1 X85.85 Y134.499 E96.75997
G1 F1800 E93.75997
G0 F9000 X85.725 Y134.4
G0 X134.328 Y134.328
G0 X134.6 Y85.692
G0 X134.624 Y85.692
G1 F1800 E96.75997
G1 F2400 X134.306 Y85.374 E96.77044
G0 F9000 X134.589 Y85.374
G1 F2400 X134.624 Y85.41 E96.77161
G1 F1800 E93.77161
;MESH:NONMESH
G0 F300 X134.624 Y85.41 Z0.52
G0 F9000 X134.6 Y85.41
G0 X134.328 Y134.328
G0 X85.32 Y134.68
G0 X84.335 Y134.68
G0 X36.665 Y134.68
G0 X35.7 Y134.68
G0 X35.6 Y184.2
G0 X35.8 Y184.2
;TIME_ELAPSED:74.302548
;LAYER:1
M140 S105
M106 S2.6
;TYPE:WALL-OUTER
;MESH:Object 1
G1 F1800 E96.77161
G1 F2400 X184.2 Y184.2 E102.69457
G1 X184.2 Y35.8 E108.61754
G1 X35.8 Y35.8 E114.5405
G1 X35.8 Y184.2 E120.46347
G0 F9000 X35.2 Y184.8
G1 F2400 X35.2 Y35.2 E126.43433
G1 X184.8 Y35.2 E132.40519
G1 X184.8 Y184.8 E138.37605
G1 X35.2 Y184.8 E144.34691
G0 F9000 X35.551 Y184.499
;TYPE:SKIN
G1 F2400 X35.499 Y184.268 E144.3528
G1 X35.499 Y129.114 E145.7266
G1 X35.499 Y73.959 E147.10042
G1 X35.499 Y35.776 E148.0515
G1 X35.776 Y35.499 E148.06126
G1 X90.93 Y35.499 E149.43506
G1 X146.085 Y35.499 E150.80888
G1 X184.269 Y35.499 E151.75998
G1 X184.499 Y35.552 E151.76586
G1 X184.499 Y90.706 E153.13966
G1 X184.499 Y145.86 E154.51346
G1 X184.499 Y184.044 E155.46456
G1 X184.413 Y184.413 E155.474
G1 X183.478 Y184.499 E155.49739
G1 X128.324 Y184.499 E156.87119
G1 X73.169 Y184.499 E158.24501
G1 X35.834 Y184.499 E159.17497
G1 F1800 E156.17497
G0 F9000 X35.709 Y184.6
G0 X184.484 Y184.6
G0 X184.484 Y184.624
G1 F1800 E159.17497
G1 F2400 X184.624 Y184.485 E159.1789
G1 F1800 E156.1789
G0 F9000 X184.6 Y184.485
G0 X184.328 Y35.672
G0 X35.619 Y35.4
G0 X35.619 Y35.374
G1 F1800 E159.1789
G1 F2400 X35.375 Y35.618 E159.18579
G0 F9000 X35.418 Y35.418
G1 F1800 E156.18579
G0 F9000 X35.7 Y134.2
G0 X36.665 Y134.2
G0 X84.335 Y134.2
G0 X85.32 Y134.2
G0 X85.6 Y134.2
G0 X85.8 Y134.2
;TYPE:WALL-OUTER
G1 F1800 E159.18579
G1 F2400 X134.2 Y134.2 E161.11754
G1 X134.2 Y85.8 E163.04929
G1 X85.8 Y85.8 E164.98103
G1 X85.8 Y134.2 E166.91278
G0 F9000 X85.2 Y134.8
G1 F2400 X85.2 Y85.2 E168.89243
G1 X134.8 Y85.2 E170.87207
G1 X134.8 Y134.8 E172.85171
G1 X85.2 Y134.8 E174.83136
G0 F9000 X85.551 Y134.499
;TYPE:SKIN
G1 F2400 X85.499 Y134.268 E174.83726
G1 X85.499 Y85.902 E176.04354
G1 X85.902 Y85.499 E176.05775
G1 X134.268 Y85.499 E177.26403
G1 X134.499 Y85.551 E177.26993
G1 X134.499 Y134.2 E178.48327
G1 X134.2 Y134.499 E178.49381
G1 X85.834 Y134.499 E179.70009
G1 F1800 E176.70009
G0 F9000 X85.709 Y134.6
G0 X134.358 Y134.6
G0 X134.358 Y134.624
G1 F1800 E179.70009
G1 F2400 X134.624 Y134.358 E179.7076
G1 F1800 E176.7076
G0 F9000 X134.6 Y134.358
G0 X134.328 Y85.672
G0 X85.745 Y85.4
G0 X85.745 Y85.374
G1 F1800 E179.7076
G1 F2400 X85.374 Y85.745 E179.71807
G0 F9000 X85.374 Y85.462
G1 F2400 X85.462 Y85.374 E179.72055
G1 F1800 E176.72055
;MESH:NONMESH
G0 F300 X85.462 Y85.374 Z0.76
G0 F9000 X85.462 Y85.4
G0 X85.32 Y134.68
G0 X84.335 Y134.68
G0 X36.665 Y134.68
G0 X35.7 Y134.68
G0 X35.6 Y184.2
G0 X35.8 Y184.2
;TIME_ELAPSED:146.162850
;LAYER:2
M106 S5.2
;TYPE:WALL-OUTER
;MESH:Object 1
G1 F1800 E179.72055
G1 F2400 X184.2 Y184.2 E185.64352
G1 X184.2 Y35.8 E191.56648
G1 X35.8 Y35.8 E197.48945
G1 X35.8 Y184.2 E203.41241
G0 F9000 X35.2 Y184.8
G1 F2400 X35.2 Y35.2 E209.38327
G1 X184.8 Y35.2 E215.35413
G1 X184.8 Y184.8 E221.32499
G1 X35.2 Y184.8 E227.29585
G0 F9000 X35.566 Y184.624
;TYPE:SKIN
G1 F2400 X35.374 Y184.432 E227.30127
G0 F9000 X35.611 Y184.386
G1 F2400 X36.006 Y184.499 E227.31151
G1 X91.161 Y184.499 E228.6859
G1 X146.315 Y184.499 E230.06027
G1 X184.499 Y184.499 E231.01176
G1 X184.499 Y129.345 E232.38613
G1 X184.499 Y74.19 E233.76053
G1 X184.499 Y36.007 E234.712
G1 X184.387 Y35.612 E234.72223
G1 X183.709 Y35.499 E234.73936
G1 X128.554 Y35.499 E236.11375
G1 X73.4 Y35.499 E237.48812
G1 X35.499 Y35.499 E238.43256
G1 X35.499 Y90.653 E239.80693
G1 X35.499 Y145.808 E241.18133
G1 X35.499 Y183.991 E242.1328
G1 F1800 E239.1328
G0 F9000 X35.6 Y184.117
G0 X35.672 Y35.672
G0 X184.433 Y35.4
G0 X184.433 Y35.375
G1 F1800 E242.1328
G1 F2400 X184.624 Y35.566 E242.13819
G0 F9000 X184.582 Y35.418
G1 F1800 E239.13819
G0 F9000 X85.6 Y35.7
G0 X85.6 Y36.665
G0 X85.6 Y84.335
G0 X85.6 Y85.32
G0 X85.6 Y134.2
G0 X85.8 Y134.2
;TYPE:WALL-OUTER
G1 F1800 E242.13819
G1 F2400 X134.2 Y134.2 E244.06994
G1 X134.2 Y85.8 E246.00169
G1 X85.8 Y85.8 E247.93344
G1 X85.8 Y134.2 E249.86518
G0 F9000 X85.2 Y134.8
G1 F2400 X85.2 Y85.2 E251.84483
G1 X134.8 Y85.2 E253.82447
G1 X134.8 Y134.8 E255.80411
G1 X85.2 Y134.8 E257.78376
G0 F9000 X85.392 Y134.606
;TYPE:SKIN
G1 F2400 X85.533 Y134.465 E257.78873
G1 X85.499 Y132.451 E257.83891
G1 X85.499 Y85.499 E259.0088
G1 X134.148 Y85.499 E260.22097
G1 X134.499 Y85.85 E260.23333
G1 X134.499 Y134.499 E261.4455
G1 X85.85 Y134.499 E262.65767
G1 F1800 E259.65767
G0 F9000 X85.725 Y134.4
G0 X134.328 Y134.328
G0 X134.6 Y85.692
G0 X134.624 Y85.692
G1 F1800 E262.65767
G1 F2400 X134.306 Y85.374 E262.66664
G0 F9000 X134.589 Y85.374
G1 F2400 X134.624 Y85.41 E262.66764
G1 F1800 E259.66764
;MESH:NONMESH
G0 F300 X134.624 Y85.41 Z1
G0 F9000 X134.6 Y85.41
G0 X134.328 Y134.328
G0 X85.32 Y134.68
G0 X84.335 Y134.68
G0 X36.665 Y134.68
G0 X35.7 Y134.68
G0 X35.6 Y184.2
G0 X35.8 Y184.2
;TIME_ELAPSED:216.225314
;LAYER:3
M106 S7.8
;TYPE:WALL-OUTER
;MESH:Object 1
G1 F1800 E262.66764
G1 F2400 X184.2 Y184.2 E268.59061
G1 X184.2 Y35.8 E274.51357
G1 X35.8 Y35.8 E280.43654
G1 X35.8 Y184.2 E286.3595
G0 F9000 X35.2 Y184.8
G1 F2400 X35.2 Y35.2 E292.33036
G1 X184.8 Y35.2 E298.30122
G1 X184.8 Y184.8 E304.27208
G1 X35.2 Y184.8 E310.24294
G0 F9000 X35.551 Y184.499
;TYPE:SKIN
G1 F2400 X35.499 Y184.268 E310.24884
G1 X35.499 Y129.114 E311.62264
G1 X35.499 Y73.959 E312.99646
G1 X35.499 Y35.776 E313.94754
G1 X35.776 Y35.499 E313.9573
G1 X90.93 Y35.499 E315.33109
G1 X146.085 Y35.499 E316.70492
G1 X184.269 Y35.499 E317.65602
G1 X184.499 Y35.552 E317.6619
G1 X184.499 Y90.706 E319.0357
G1 X184.499 Y145.86 E320.4095
G1 X184.499 Y184.044 E321.3606
G1 X184.413 Y184.413 E321.37004
G1 X183.478 Y184.499 E321.39342
G1 X128.324 Y184.499 E322.76722
G1 X73.169 Y184.499 E324.14105
G1 X35.834 Y184.499 E325.071
G1 F1800 E322.071
G0 F9000 X35.709 Y184.6
G0 X184.484 Y184.6
G0 X184.484 Y184.624
G1 F1800 E325.071
G1 F2400 X184.624 Y184.485 E325.07494
G1 F1800 E322.07494
G0 F9000 X184.6 Y184.485
G0 X184.328 Y35.672
G0 X35.619 Y35.4
G0 X35.619 Y35.374
G1 F1800 E325.07494
G1 F2400 X35.375 Y35.618 E325.08183
G0 F9000 X35.418 Y35.418
G1 F1800 E322.08183
G0 F9000 X35.7 Y134.2
G0 X36.665 Y134.2
G0 X84.335 Y134.2
G0 X85.32 Y134.2
G0 X85.6 Y134.2
G0 X85.8 Y134.2
;TYPE:WALL-OUTER
G1 F1800 E325.08183
G1 F2400 X134.2 Y134.2 E327.01357
G1 X134.2 Y85.8 E328.94532
G1 X85.8 Y85.8 E330.87707
G1 X85.8 Y134.2 E332.80882
G0 F9000 X85.2 Y134.8
G1 F2400 X85.2 Y85.2 E334.78846
G1 X134.8 Y85.2 E336.76811
G1 X134.8 Y134.8 E338.74775
G1 X85.2 Y134.8 E340.72739
G0 F9000 X85.551 Y134.499
;TYPE:SKIN
G1 F2400 X85.499 Y134.268 E340.7333
G1 X85.499 Y85.902 E341.93957
G1 X85.902 Y85.499 E341.95379
G1 X134.268 Y85.499 E343.16006
G1 X134.499 Y85.551 E343.16597
G1 X134.499 Y134.2 E344.3793
G1 X134.2 Y134.499 E344.38985
G1 X85.834 Y134.499 E345.59613
G1 F1800 E342.59613
G0 F9000 X85.709 Y134.6
G0 X134.358 Y134.6
G0 X134.358 Y134.624
G1 F1800 E345.59613
G1 F2400 X134.624 Y134.358 E345.60363
G1 F1800 E342.60363
G0 F9000 X134.6 Y134.358
G0 X134.328 Y85.672
G0 X85.745 Y85.4
G0 X85.745 Y85.374
G1 F1800 E345.60363
G1 F2400 X85.374 Y85.745 E345.6141
G0 F9000 X85.374 Y85.462
G1 F2400 X85.462 Y85.374 E345.61659
;TIME_ELAPSED:286.037269
G1 F1800 E342.61659
M140 S0
M107
G91 ;Relative positioning
G1 E-2 F2700 ;Retract a bit
G1 E-2 Z0.2 F2400 ;Retract and raise Z
G1 X5 Y5 F3000 ;Wipe out
G1 Z10 ;Raise Z more
G90 ;Absolute positionning

G1 X0 Y0 ;Present print
M106 S0 ;Turn-off fan
M104 S0 ;Turn-off hotend
M140 S0 ;Turn-off bed

M84 X Y E ;Disable all steppers but Z

M82 ;absolute extrusion mode
M104 S0
;End of Gcode
;SETTING_3 {"extruder_quality": ["[general]\\nversion = 4\\nname = ABS_NoStringi
;SETTING_3 ng\\ndefinition = creality_ender5\\n\\n[metadata]\\nsetting_version =
;SETTING_3  11\\ntype = quality_changes\\nintent_category = default\\nposition =
;SETTING_3  0\\nquality_type = adaptive\\n\\n[values]\\nbottom_layers = 3\\nbrim
;SETTING_3 _width = 6\\ncool_fan_full_layer = 50\\ncool_fan_speed = 80\\ncool_fa
;SETTING_3 n_speed_min = 50\\ninfill_sparse_density = 10\\nmaterial_print_temper
;SETTING_3 ature = 240\\nmeshfix_maximum_resolution = 0.5\\nmeshfix_maximum_trav
;SETTING_3 el_resolution = 0.05\\nretraction_amount = 3\\nretraction_extrusion_w
;SETTING_3 indow = 5\\nretraction_speed = 30\\nskirt_line_count = 2\\nspeed_laye
;SETTING_3 r_0 = 40\\nspeed_travel = 150\\nsupport_angle = 50\\ntop_layers = 3\\
;SETTING_3 nwall_line_count = 3\\n\\n"], "global_quality": "[general]\\nversion 
;SETTING_3 = 4\\nname = ABS_NoStringing\\ndefinition = creality_ender5\\n\\n[met
;SETTING_3 adata]\\nsetting_version = 11\\ntype = quality_changes\\nquality_type
;SETTING_3  = adaptive\\n\\n[values]\\nadhesion_type = none\\nlayer_height = 0.2
;SETTING_3 \\nlayer_height_0 = 0.28\\nmaterial_bed_temperature = 105\\nmaterial_
;SETTING_3 bed_temperature_layer_0 = 110\\nsupport_enable = False\\nsupport_type
;SETTING_3  = buildplate\\n\\n"}
