;FLAVOR:Marlin
;TIME:268
;Filament used: 0.317968m
;Layer height: 0.2
;MINX:35.2
;MINY:35.2
;MINZ:0.2
;MAXX:184.8
;MAXY:184.8
;MAXZ:0.92
;Generated with Cura_SteamEngine 4.5.0
M140 S115
M105
M190 S115
M104 S230
M105
M109 S230
M82 ;absolute extrusion mode
M201 X500.00 Y500.00 Z100.00 E5000.00 ;Setup machine max acceleration
M203 X500.00 Y500.00 Z10.00 E50.00 ;Setup machine max feedrate
M204 P500.00 R1000.00 T500.00 ;Setup Print/Retract/Travel acceleration
M205 X8.00 Y8.00 Z0.40 E5.00 ;Setup Jerk
M220 S100 ;Reset Feedrate
M221 S100 ;Reset Flowrate

G28 ;Home

G92 E0 ;Reset Extruder
G1 Z2.0 F3000 ;Move Z Axis up
G1 X10.1 Y20 Z0.28 F5000.0 ;Move to start position
G1 X10.1 Y200.0 Z0.28 F1500.0 E15 ;Draw the first line
G1 X10.4 Y200.0 Z0.28 F5000.0 ;Move to side a little
G1 X10.4 Y20 Z0.28 F1500.0 E30 ;Draw the second line
G92 E0 ;Reset Extruder
G1 Z2.0 F3000 ;Move Z Axis up

G92 E0
G92 E0
G1 F1800 E-3
;LAYER_COUNT:5
;LAYER:0
M107
;MESH:Object 1
G0 F9000 X35.8 Y184.2 Z0.2
;TYPE:WALL-OUTER
G1 F1800 E0
G1 F3000 X184.2 Y184.2 E4.9358
G1 X184.2 Y35.8 E9.87161
G1 X35.8 Y35.8 E14.80741
G1 X35.8 Y184.2 E19.74322
G0 F9000 X35.2 Y184.8
G1 F3000 X35.2 Y35.2 E24.71893
G1 X184.8 Y35.2 E29.69465
G1 X184.8 Y184.8 E34.67036
G1 X35.2 Y184.8 E39.64608
G0 F9000 X35.566 Y184.624
;TYPE:SKIN
G1 F3000 X35.374 Y184.432 E39.6506
G0 F9000 X35.611 Y184.386
G1 F3000 X36.006 Y184.499 E39.65913
G1 X91.161 Y184.499 E40.80446
G1 X146.315 Y184.499 E41.94976
G1 X184.499 Y184.499 E42.74268
G1 X184.499 Y129.345 E43.88798
G1 X184.499 Y74.19 E45.03331
G1 X184.499 Y36.007 E45.82621
G1 X184.387 Y35.612 E45.83473
G1 X183.709 Y35.499 E45.849
G1 X128.554 Y35.499 E46.99433
G1 X73.4 Y35.499 E48.13964
G1 X35.499 Y35.499 E48.92668
G1 X35.499 Y90.653 E50.07198
G1 X35.499 Y145.808 E51.21731
G1 X35.499 Y183.991 E52.01021
G1 F1800 E49.01021
G0 F9000 X35.6 Y184.117
G0 X35.672 Y35.672
G0 X184.433 Y35.4
G0 X184.433 Y35.375
G1 F1800 E52.01021
G1 F3000 X184.624 Y35.566 E52.0147
G0 F9000 X184.582 Y35.418
G1 F1800 E49.0147
G0 F9000 X85.6 Y35.7
G0 X85.6 Y36.665
G0 X85.6 Y84.335
G0 X85.6 Y85.32
G0 X85.6 Y134.2
G0 X85.8 Y134.2
;TYPE:WALL-OUTER
G1 F1800 E52.0147
G1 F3000 X134.2 Y134.2 E53.62449
G1 X134.2 Y85.8 E55.23428
G1 X85.8 Y85.8 E56.84407
G1 X85.8 Y134.2 E58.45386
G0 F9000 X85.2 Y134.8
G1 F3000 X85.2 Y85.2 E60.10356
G1 X134.8 Y85.2 E61.75327
G1 X134.8 Y134.8 E63.40297
G1 X85.2 Y134.8 E65.05267
G0 F9000 X85.392 Y134.606
;TYPE:SKIN
G1 F3000 X85.533 Y134.465 E65.05681
G1 X85.499 Y132.451 E65.09864
G1 X85.499 Y85.499 E66.07354
G1 X134.148 Y85.499 E67.08368
G1 X134.499 Y85.85 E67.09398
G1 X134.499 Y134.499 E68.10412
G1 X85.85 Y134.499 E69.11426
G1 F1800 E66.11426
G0 F9000 X85.725 Y134.4
G0 X134.328 Y134.328
G0 X134.6 Y85.692
G0 X134.624 Y85.692
G1 F1800 E69.11426
G1 F3000 X134.306 Y85.374 E69.12174
G0 F9000 X134.589 Y85.374
G1 F3000 X134.624 Y85.41 E69.12258
G1 F1800 E66.12258
;MESH:NONMESH
G0 F300 X134.624 Y85.41 Z0.44
G0 F9000 X134.6 Y85.41
G0 X134.328 Y134.328
G0 X85.32 Y134.68
G0 X84.335 Y134.68
G0 X36.665 Y134.68
G0 X35.7 Y134.68
G0 X35.6 Y184.2
G0 X35.8 Y184.2
;TIME_ELAPSED:62.872247
;LAYER:1
M140 S105
M106 S2.2
;TYPE:WALL-OUTER
;MESH:Object 1
G1 F1800 E69.12258
G1 F2700 X184.2 Y184.2 E75.04554
G1 X184.2 Y35.8 E80.96851
G1 X35.8 Y35.8 E86.89147
G1 X35.8 Y184.2 E92.81444
G0 F9000 X35.2 Y184.8
G1 F2700 X35.2 Y35.2 E98.7853
G1 X184.8 Y35.2 E104.75616
G1 X184.8 Y184.8 E110.72701
G1 X35.2 Y184.8 E116.69787
G0 F9000 X35.551 Y184.499
;TYPE:SKIN
G1 F2700 X35.499 Y184.268 E116.70377
G1 X35.499 Y129.114 E118.07757
G1 X35.499 Y73.959 E119.45139
G1 X35.499 Y35.776 E120.40247
G1 X35.776 Y35.499 E120.41223
G1 X90.93 Y35.499 E121.78603
G1 X146.085 Y35.499 E123.15985
G1 X184.269 Y35.499 E124.11095
G1 X184.499 Y35.552 E124.11683
G1 X184.499 Y90.706 E125.49063
G1 X184.499 Y145.86 E126.86443
G1 X184.499 Y184.044 E127.81553
G1 X184.413 Y184.413 E127.82497
G1 X183.478 Y184.499 E127.84836
G1 X128.324 Y184.499 E129.22216
G1 X73.169 Y184.499 E130.59598
G1 X35.834 Y184.499 E131.52594
G1 F1800 E128.52594
G0 F9000 X35.709 Y184.6
G0 X184.484 Y184.6
G0 X184.484 Y184.624
G1 F1800 E131.52594
G1 F2700 X184.624 Y184.485 E131.52987
G1 F1800 E128.52987
G0 F9000 X184.6 Y184.485
G0 X184.328 Y35.672
G0 X35.619 Y35.4
G0 X35.619 Y35.374
G1 F1800 E131.52987
G1 F2700 X35.375 Y35.618 E131.53676
G0 F9000 X35.418 Y35.418
G1 F1800 E128.53676
G0 F9000 X35.7 Y134.2
G0 X36.665 Y134.2
G0 X84.335 Y134.2
G0 X85.32 Y134.2
G0 X85.6 Y134.2
G0 X85.8 Y134.2
;TYPE:WALL-OUTER
G1 F1800 E131.53676
G1 F2700 X134.2 Y134.2 E133.46851
G1 X134.2 Y85.8 E135.40026
G1 X85.8 Y85.8 E137.332
G1 X85.8 Y134.2 E139.26375
G0 F9000 X85.2 Y134.8
G1 F2700 X85.2 Y85.2 E141.2434
G1 X134.8 Y85.2 E143.22304
G1 X134.8 Y134.8 E145.20268
G1 X85.2 Y134.8 E147.18233
G0 F9000 X85.551 Y134.499
;TYPE:SKIN
G1 F2700 X85.499 Y134.268 E147.18823
G1 X85.499 Y85.902 E148.39451
G1 X85.902 Y85.499 E148.40872
G1 X134.268 Y85.499 E149.615
G1 X134.499 Y85.551 E149.6209
G1 X134.499 Y134.2 E150.83424
G1 X134.2 Y134.499 E150.84478
G1 X85.834 Y134.499 E152.05106
G1 F1800 E149.05106
G0 F9000 X85.709 Y134.6
G0 X134.358 Y134.6
G0 X134.358 Y134.624
G1 F1800 E152.05106
G1 F2700 X134.624 Y134.358 E152.05857
G1 F1800 E149.05857
G0 F9000 X134.6 Y134.358
G0 X134.328 Y85.672
G0 X85.745 Y85.4
G0 X85.745 Y85.374
G1 F1800 E152.05857
G1 F2700 X85.374 Y85.745 E152.06904
G0 F9000 X85.374 Y85.462
G1 F2700 X85.462 Y85.374 E152.07152
G1 F1800 E149.07152
;MESH:NONMESH
G0 F300 X85.462 Y85.374 Z0.68
G0 F9000 X85.462 Y85.4
G0 X85.32 Y134.68
G0 X84.335 Y134.68
G0 X36.665 Y134.68
G0 X35.7 Y134.68
G0 X35.6 Y184.2
G0 X35.8 Y184.2
;TIME_ELAPSED:128.351681
;LAYER:2
M106 S4.3
;TYPE:WALL-OUTER
;MESH:Object 1
G1 F1800 E152.07152
G1 F2400 X184.2 Y184.2 E157.99449
G1 X184.2 Y35.8 E163.91745
G1 X35.8 Y35.8 E169.84042
G1 X35.8 Y184.2 E175.76338
G0 F9000 X35.2 Y184.8
G1 F2400 X35.2 Y35.2 E181.73424
G1 X184.8 Y35.2 E187.7051
G1 X184.8 Y184.8 E193.67596
G1 X35.2 Y184.8 E199.64682
G0 F9000 X35.566 Y184.624
;TYPE:SKIN
G1 F2400 X35.374 Y184.432 E199.65224
G0 F9000 X35.611 Y184.386
G1 F2400 X36.006 Y184.499 E199.66247
G1 X91.161 Y184.499 E201.03687
G1 X146.315 Y184.499 E202.41124
G1 X184.499 Y184.499 E203.36273
G1 X184.499 Y129.345 E204.7371
G1 X184.499 Y74.19 E206.1115
G1 X184.499 Y36.007 E207.06297
G1 X184.387 Y35.612 E207.0732
G1 X183.709 Y35.499 E207.09033
G1 X128.554 Y35.499 E208.46472
G1 X73.4 Y35.499 E209.83909
G1 X35.499 Y35.499 E210.78353
G1 X35.499 Y90.653 E212.1579
G1 X35.499 Y145.808 E213.5323
G1 X35.499 Y183.991 E214.48377
G1 F1800 E211.48377
G0 F9000 X35.6 Y184.117
G0 X35.672 Y35.672
G0 X184.433 Y35.4
G0 X184.433 Y35.375
G1 F1800 E214.48377
G1 F2400 X184.624 Y35.566 E214.48916
G0 F9000 X184.582 Y35.418
G1 F1800 E211.48916
G0 F9000 X85.6 Y35.7
G0 X85.6 Y36.665
G0 X85.6 Y84.335
G0 X85.6 Y85.32
G0 X85.6 Y134.2
G0 X85.8 Y134.2
;TYPE:WALL-OUTER
G1 F1800 E214.48916
G1 F2400 X134.2 Y134.2 E216.42091
G1 X134.2 Y85.8 E218.35266
G1 X85.8 Y85.8 E220.2844
G1 X85.8 Y134.2 E222.21615
G0 F9000 X85.2 Y134.8
G1 F2400 X85.2 Y85.2 E224.1958
G1 X134.8 Y85.2 E226.17544
G1 X134.8 Y134.8 E228.15508
G1 X85.2 Y134.8 E230.13473
G0 F9000 X85.392 Y134.606
;TYPE:SKIN
G1 F2400 X85.533 Y134.465 E230.13969
G1 X85.499 Y132.451 E230.18988
G1 X85.499 Y85.499 E231.35977
G1 X134.148 Y85.499 E232.57193
G1 X134.499 Y85.85 E232.5843
G1 X134.499 Y134.499 E233.79647
G1 X85.85 Y134.499 E235.00864
G1 F1800 E232.00864
G0 F9000 X85.725 Y134.4
G0 X134.328 Y134.328
G0 X134.6 Y85.692
G0 X134.624 Y85.692
G1 F1800 E235.00864
G1 F2400 X134.306 Y85.374 E235.01761
G0 F9000 X134.589 Y85.374
G1 F2400 X134.624 Y85.41 E235.01861
G1 F1800 E232.01861
;MESH:NONMESH
G0 F300 X134.624 Y85.41 Z0.92
G0 F9000 X134.6 Y85.41
G0 X134.328 Y134.328
G0 X85.32 Y134.68
G0 X84.335 Y134.68
G0 X36.665 Y134.68
G0 X35.7 Y134.68
G0 X35.6 Y184.2
G0 X35.8 Y184.2
;TIME_ELAPSED:198.414145
;LAYER:3
M106 S6.5
;TYPE:WALL-OUTER
;MESH:Object 1
G1 F1800 E235.01861
G1 F2400 X184.2 Y184.2 E240.94158
G1 X184.2 Y35.8 E246.86454
G1 X35.8 Y35.8 E252.78751
G1 X35.8 Y184.2 E258.71047
G0 F9000 X35.2 Y184.8
G1 F2400 X35.2 Y35.2 E264.68133
G1 X184.8 Y35.2 E270.65219
G1 X184.8 Y184.8 E276.62305
G1 X35.2 Y184.8 E282.59391
G0 F9000 X35.551 Y184.499
;TYPE:SKIN
G1 F2400 X35.499 Y184.268 E282.59981
G1 X35.499 Y129.114 E283.97361
G1 X35.499 Y73.959 E285.34743
G1 X35.499 Y35.776 E286.29851
G1 X35.776 Y35.499 E286.30827
G1 X90.93 Y35.499 E287.68206
G1 X146.085 Y35.499 E289.05589
G1 X184.269 Y35.499 E290.00699
G1 X184.499 Y35.552 E290.01287
G1 X184.499 Y90.706 E291.38667
G1 X184.499 Y145.86 E292.76047
G1 X184.499 Y184.044 E293.71157
G1 X184.413 Y184.413 E293.72101
G1 X183.478 Y184.499 E293.74439
G1 X128.324 Y184.499 E295.11819
G1 X73.169 Y184.499 E296.49202
G1 X35.834 Y184.499 E297.42197
G1 F1800 E294.42197
G0 F9000 X35.709 Y184.6
G0 X184.484 Y184.6
G0 X184.484 Y184.624
G1 F1800 E297.42197
G1 F2400 X184.624 Y184.485 E297.42591
G1 F1800 E294.42591
G0 F9000 X184.6 Y184.485
G0 X184.328 Y35.672
G0 X35.619 Y35.4
G0 X35.619 Y35.374
G1 F1800 E297.42591
G1 F2400 X35.375 Y35.618 E297.43279
G0 F9000 X35.418 Y35.418
G1 F1800 E294.43279
G0 F9000 X35.7 Y134.2
G0 X36.665 Y134.2
G0 X84.335 Y134.2
G0 X85.32 Y134.2
G0 X85.6 Y134.2
G0 X85.8 Y134.2
;TYPE:WALL-OUTER
G1 F1800 E297.43279
G1 F2400 X134.2 Y134.2 E299.36454
G1 X134.2 Y85.8 E301.29629
G1 X85.8 Y85.8 E303.22804
G1 X85.8 Y134.2 E305.15979
G0 F9000 X85.2 Y134.8
G1 F2400 X85.2 Y85.2 E307.13943
G1 X134.8 Y85.2 E309.11908
G1 X134.8 Y134.8 E311.09872
G1 X85.2 Y134.8 E313.07836
G0 F9000 X85.551 Y134.499
;TYPE:SKIN
G1 F2400 X85.499 Y134.268 E313.08427
G1 X85.499 Y85.902 E314.29054
G1 X85.902 Y85.499 E314.30476
G1 X134.268 Y85.499 E315.51103
G1 X134.499 Y85.551 E315.51694
G1 X134.499 Y134.2 E316.73027
G1 X134.2 Y134.499 E316.74082
G1 X85.834 Y134.499 E317.9471
G1 F1800 E314.9471
G0 F9000 X85.709 Y134.6
G0 X134.358 Y134.6
G0 X134.358 Y134.624
G1 F1800 E317.9471
G1 F2400 X134.624 Y134.358 E317.9546
G1 F1800 E314.9546
G0 F9000 X134.6 Y134.358
G0 X134.328 Y85.672
G0 X85.745 Y85.4
G0 X85.745 Y85.374
G1 F1800 E317.9546
G1 F2400 X85.374 Y85.745 E317.96507
G0 F9000 X85.374 Y85.462
G1 F2400 X85.462 Y85.374 E317.96756
;TIME_ELAPSED:268.226100
G1 F1800 E314.96756
M140 S0
M107
G91 ;Relative positioning
G1 E-2 F2700 ;Retract a bit
G1 E-2 Z0.2 F2400 ;Retract and raise Z
G1 X5 Y5 F3000 ;Wipe out
G1 Z10 ;Raise Z more
G90 ;Absolute positionning

G1 X0 Y0 ;Present print
M106 S0 ;Turn-off fan
M104 S0 ;Turn-off hotend
M140 S0 ;Turn-off bed

M84 X Y E ;Disable all steppers but Z

M82 ;absolute extrusion mode
M104 S0
;End of Gcode
;SETTING_3 {"extruder_quality": ["[general]\\nversion = 4\\nname = ABS_NoStringi
;SETTING_3 ng\\ndefinition = creality_ender5\\n\\n[metadata]\\nposition = 0\\nse
;SETTING_3 tting_version = 11\\ntype = quality_changes\\nintent_category = defau
;SETTING_3 lt\\nquality_type = adaptive\\n\\n[values]\\nbottom_layers = 3\\nbrim
;SETTING_3 _width = 6\\ncool_fan_full_layer = 60\\ncool_fan_speed = 80\\ncool_fa
;SETTING_3 n_speed_min = 50\\ninfill_sparse_density = 10\\nmaterial_print_temper
;SETTING_3 ature = 230\\nmeshfix_maximum_resolution = 0.5\\nmeshfix_maximum_trav
;SETTING_3 el_resolution = 0.05\\nretraction_amount = 3\\nretraction_extrusion_w
;SETTING_3 indow = 5\\nretraction_speed = 30\\nskirt_line_count = 2\\nspeed_laye
;SETTING_3 r_0 = 50\\nspeed_travel = 150\\nsupport_angle = 50\\ntop_layers = 3\\
;SETTING_3 nwall_line_count = 3\\n\\n"], "global_quality": "[general]\\nversion 
;SETTING_3 = 4\\nname = ABS_NoStringing\\ndefinition = creality_ender5\\n\\n[met
;SETTING_3 adata]\\nsetting_version = 11\\ntype = quality_changes\\nquality_type
;SETTING_3  = adaptive\\n\\n[values]\\nadhesion_type = none\\nlayer_height = 0.2
;SETTING_3 \\nlayer_height_0 = 0.2\\nmaterial_bed_temperature = 105\\nmaterial_b
;SETTING_3 ed_temperature_layer_0 = 115\\nsupport_enable = False\\nsupport_type 
;SETTING_3 = buildplate\\n\\n"}
