;FLAVOR:Marlin
;TIME:80
;Filament used: 0.281906m
;Layer height: 0.32
;MINX:35.25
;MINY:35.25
;MINZ:0.32
;MAXX:184.749
;MAXY:184.75
;MAXZ:0.96
;Generated with Cura_SteamEngine main
M82 ;absolute extrusion mode
M201 X500.00 Y500.00 Z100.00 E5000.00 ;Setup machine max acceleration
M203 X500.00 Y500.00 Z10.00 E50.00 ;Setup machine max feedrate
M204 P500.00 R1000.00 T500.00 ;Setup Print/Retract/Travel acceleration
M205 X8.00 Y8.00 Z0.40 E5.00 ;Setup Jerk
M220 S100 ;Reset Feedrate
M221 S100 ;Reset Flowrate

;*** Start Dual Nozzle/Bed Preheating ***
M140 S60 ; start preheating the bed
M104 S200 ?T0 ; start preheating hotend
M190 S60 ; heat to Cura Bed setting and WAIT
M109 S200 ?T0 ; heat to Cura Hotend and WAIT
;*** End Preheating ***


;*** Single Print Start Tone
M300 S1000 P500 ; chirp to indicate starting to print
;*** End Single Start Tone

G28 ;Home

G92 E0 ;Reset Extruder
G1 Z2.0 F3000 ;Move Z Axis up
G1 X10.1 Y20 Z0.28 F5000.0 ;Move to start position
G1 X10.1 Y200.0 Z0.28 F1500.0 E15 ;Draw the first line
G1 X10.4 Y200.0 Z0.28 F5000.0 ;Move to side a little
G1 X10.4 Y20 Z0.28 F1500.0 E30 ;Draw the second line
G92 E0 ;Reset Extruder
G1 Z2.0 F3000 ;Move Z Axis up
G92 E0
G92 E0
G1 F2400 E-2
;LAYER_COUNT:3
;LAYER:0
M106 S127.5
M204 S500
M205 X11 Y11
;MESH:Bed_Calibration_Leveling.3mf
G0 F8100 X35.5 Y36 Z0.32
M205 X12 Y12
;TYPE:WALL-OUTER
G1 F1440 E0
G1 F2401.2 X35.5 Y183.814 E15.039
G1 F2391 X35.502 Y184.059 E15.06404
G1 F2755.5 X35.408 Y184.128 E15.07438
G1 F3638.2 X35.359 Y184.356 E15.09004
G1 F3983 X35.368 Y184.632 E15.10697
G1 F3864 X35.586 Y184.632 E15.12076
G1 F2964.4 X36 Y184.5 E15.15657
G1 F2737.5 X35.782 Y184.343 E15.18054
G1 F3220 X35.609 Y184.091 E15.20373
G1 F2755.5 X35.502 Y184.059 E15.21364
G1 F2391 X35.5 Y183.814 E15.23867
M205 X11 Y11
G0 F8100 X35.501 Y184.014
G0 X36 Y184.5
M205 X12 Y12
G1 F2401.2 X37.322 Y184.5 E15.37318
G1 X38.644 Y184.5 E15.50768
G1 X39.966 Y184.5 E15.64218
G1 X41.288 Y184.5 E15.77669
G1 X42.61 Y184.5 E15.91119
G1 X43.932 Y184.5 E16.04569
G1 X45.254 Y184.5 E16.1802
G1 X46.576 Y184.5 E16.3147
G1 X47.898 Y184.5 E16.44921
G1 X49.22 Y184.5 E16.58371
G1 X50.542 Y184.5 E16.71821
G1 X51.864 Y184.5 E16.85272
G1 X53.186 Y184.5 E16.98722
G1 X54.508 Y184.5 E17.12173
G1 X55.83 Y184.5 E17.25623
G1 X57.152 Y184.5 E17.39073
G1 X58.474 Y184.5 E17.52524
G1 X59.796 Y184.5 E17.65974
G1 X61.118 Y184.5 E17.79425
G1 F2397.8 X62.44 Y184.5 E17.92894
G1 X63.762 Y184.5 E18.06364
G1 X65.084 Y184.5 E18.19833
G1 X66.406 Y184.5 E18.33303
G1 X67.728 Y184.5 E18.46773
G1 X69.05 Y184.5 E18.60242
G1 X70.372 Y184.5 E18.73712
G1 X71.694 Y184.5 E18.87181
G1 X73.016 Y184.5 E19.00651
G1 X74.338 Y184.5 E19.14121
G1 X75.66 Y184.5 E19.2759
G1 X76.982 Y184.5 E19.4106
G1 X78.304 Y184.5 E19.54529
G1 X79.626 Y184.5 E19.67999
G1 X80.948 Y184.5 E19.81469
G1 X82.27 Y184.5 E19.94938
G1 X83.592 Y184.5 E20.08408
G1 X84.914 Y184.5 E20.21877
G1 F2394.4 X86.236 Y184.5 E20.35366
G1 X87.558 Y184.5 E20.48855
G1 X88.88 Y184.5 E20.62344
G1 X90.202 Y184.5 E20.75833
G1 X91.524 Y184.5 E20.89322
G1 X92.846 Y184.5 E21.0281
G1 X94.168 Y184.5 E21.16299
G1 X95.49 Y184.5 E21.29788
G1 X96.812 Y184.5 E21.43277
G1 X98.134 Y184.5 E21.56766
G1 X99.456 Y184.5 E21.70255
G1 X100.778 Y184.5 E21.83743
G1 X102.1 Y184.5 E21.97232
G1 X103.422 Y184.5 E22.10721
G1 X104.744 Y184.5 E22.2421
G1 X106.066 Y184.5 E22.37699
G1 X107.388 Y184.5 E22.51187
G1 X108.71 Y184.5 E22.64676
G1 X110.032 Y184.499 E22.78165
G1 F2391 X111.354 Y184.499 E22.91673
G1 X112.676 Y184.499 E23.05181
G1 X113.998 Y184.499 E23.18689
G1 X115.32 Y184.499 E23.32197
G1 X116.642 Y184.499 E23.45705
G1 X117.964 Y184.499 E23.59213
G1 X119.286 Y184.499 E23.72721
G1 X120.608 Y184.499 E23.86229
G1 X121.93 Y184.499 E23.99737
G1 X123.252 Y184.499 E24.13245
G1 X124.574 Y184.499 E24.26753
G1 X125.896 Y184.499 E24.40262
G1 X127.218 Y184.499 E24.5377
G1 X128.54 Y184.499 E24.67278
G1 X129.862 Y184.499 E24.80786
G1 X131.184 Y184.499 E24.94294
G1 X132.506 Y184.499 E25.07802
G1 X133.828 Y184.499 E25.2131
G1 X135.15 Y184.499 E25.34818
G1 F2387.6 X136.472 Y184.499 E25.48345
G1 X137.794 Y184.499 E25.61872
G1 X139.116 Y184.499 E25.754
G1 X140.438 Y184.499 E25.88927
G1 X141.76 Y184.499 E26.02454
G1 X143.082 Y184.499 E26.15981
G1 X144.404 Y184.499 E26.29509
G1 X145.726 Y184.499 E26.43036
G1 X147.048 Y184.499 E26.56563
G1 X148.37 Y184.499 E26.7009
G1 X149.692 Y184.499 E26.83618
G1 X151.014 Y184.499 E26.97145
G1 X152.336 Y184.499 E27.10672
G1 X153.658 Y184.499 E27.24199
G1 X154.98 Y184.499 E27.37727
G1 X156.302 Y184.499 E27.51254
G1 X157.624 Y184.499 E27.64781
G1 X158.946 Y184.499 E27.78308
G1 F2384.2 X160.268 Y184.499 E27.91855
G1 X161.59 Y184.499 E28.05401
G1 X162.912 Y184.499 E28.18948
G1 X164.234 Y184.499 E28.32494
G1 X165.556 Y184.499 E28.46041
G1 X166.878 Y184.499 E28.59587
G1 X168.2 Y184.499 E28.73134
G1 X169.522 Y184.499 E28.8668
G1 X170.844 Y184.499 E29.00227
G1 X172.166 Y184.499 E29.13773
G1 X173.488 Y184.499 E29.27319
G1 X174.81 Y184.499 E29.40866
G1 X176.132 Y184.499 E29.54412
G1 X177.454 Y184.499 E29.67959
G1 X178.776 Y184.499 E29.81505
G1 X180.098 Y184.499 E29.95052
G1 X181.42 Y184.499 E30.08598
G1 X182.742 Y184.499 E30.22145
G1 X184.064 Y184.498 E30.35691
G1 F2130.3 X184.414 Y184.414 E30.39819
G1 F2133 X184.498 Y184.06 E30.43986
G1 F2391 X184.498 Y182.086 E30.64156
G1 X184.498 Y180.112 E30.84326
G1 X184.498 Y178.138 E31.04496
G1 X184.498 Y176.164 E31.24666
G1 X184.498 Y174.19 E31.44836
G1 X184.498 Y172.216 E31.65007
G1 X184.498 Y170.242 E31.85177
G1 X184.498 Y168.268 E32.05347
G1 X184.498 Y166.294 E32.25517
G1 X184.498 Y164.32 E32.45687
G1 X184.498 Y162.346 E32.65857
G1 X184.498 Y160.372 E32.86027
G1 X184.498 Y158.398 E33.06197
G1 X184.498 Y156.424 E33.26367
G1 X184.498 Y154.45 E33.46537
G1 X184.498 Y152.476 E33.66707
G1 X184.498 Y150.502 E33.86878
G1 X184.498 Y148.528 E34.07048
G1 X184.498 Y146.554 E34.27218
G1 F2394.4 X184.498 Y144.58 E34.47359
G1 X184.498 Y142.606 E34.67501
G1 X184.498 Y140.632 E34.87642
G1 X184.498 Y138.658 E35.07783
G1 X184.498 Y136.684 E35.27925
G1 X184.498 Y134.71 E35.48066
G1 X184.498 Y132.736 E35.68208
G1 X184.498 Y130.762 E35.88349
G1 X184.498 Y128.788 E36.0849
G1 X184.498 Y126.814 E36.28632
G1 X184.498 Y124.84 E36.48773
G1 X184.498 Y122.866 E36.68915
G1 X184.498 Y120.892 E36.89056
G1 X184.498 Y118.918 E37.09197
G1 X184.498 Y116.944 E37.29339
G1 X184.498 Y114.97 E37.4948
G1 X184.498 Y112.996 E37.69622
G1 X184.498 Y111.022 E37.89763
G1 X184.499 Y109.048 E38.09904
G1 F2397.8 X184.499 Y107.074 E38.30017
G1 X184.499 Y105.1 E38.5013
G1 X184.499 Y103.126 E38.70243
G1 X184.499 Y101.152 E38.90355
G1 X184.499 Y99.178 E39.10468
G1 X184.499 Y97.204 E39.30581
G1 X184.499 Y95.23 E39.50693
G1 X184.499 Y93.256 E39.70806
G1 X184.499 Y91.282 E39.90919
G1 X184.499 Y89.308 E40.11032
G1 X184.499 Y87.334 E40.31144
G1 X184.499 Y85.36 E40.51257
G1 X184.499 Y83.386 E40.7137
G1 X184.499 Y81.412 E40.91482
G1 X184.499 Y79.438 E41.11595
G1 X184.499 Y77.464 E41.31708
G1 X184.499 Y75.49 E41.5182
G1 X184.499 Y73.516 E41.71933
G1 F2401.2 X184.499 Y71.542 E41.92017
G1 X184.499 Y69.568 E42.12101
G1 X184.499 Y67.594 E42.32185
G1 X184.499 Y65.62 E42.52269
G1 X184.499 Y63.646 E42.72353
G1 X184.499 Y61.672 E42.92437
G1 X184.499 Y59.698 E43.12521
G1 X184.499 Y57.724 E43.32605
G1 X184.499 Y55.75 E43.52689
G1 X184.499 Y53.776 E43.72773
G1 X184.499 Y51.802 E43.92857
G1 X184.499 Y49.828 E44.12941
G1 X184.499 Y47.854 E44.33025
G1 X184.499 Y45.88 E44.53109
G1 X184.499 Y43.906 E44.73193
G1 X184.499 Y41.932 E44.93277
G1 X184.499 Y39.958 E45.13362
G1 X184.499 Y37.984 E45.33446
G1 X184.499 Y36.01 E45.5353
M205 X11 Y11
G0 F8100 X184 Y35.5
M205 X12 Y12
G1 F2733.1 X184.219 Y35.656 E45.55933
G1 F3480 X184.263 Y35.742 E45.56611
G1 F3409.4 X184.369 Y35.801 E45.5748
G1 F2689.3 X184.5 Y36.001 E45.59652
G1 F2959.2 X184.632 Y35.586 E45.63248
G1 F3855.1 X184.632 Y35.368 E45.64629
G1 X184.414 Y35.368 E45.66011
G1 F2959.2 X184 Y35.5 E45.69598
M205 X11 Y11
G0 F8100 X184.163 Y35.616
G0 X184 Y35.5
M205 X12 Y12
G1 F2401.2 X36.186 Y35.5 E60.73498
G1 F2391 X35.941 Y35.502 E60.76002
G1 F2755.5 X35.872 Y35.408 E60.77036
G1 F3638.2 X35.644 Y35.359 E60.78602
G1 F3983 X35.368 Y35.368 E60.80295
G1 F3864 X35.368 Y35.586 E60.81674
G1 F2964.4 X35.5 Y36 E60.85255
G1 F2737.5 X35.657 Y35.782 E60.87652
G1 F3220 X35.909 Y35.609 E60.89971
G1 F2755.5 X35.941 Y35.502 E60.90962
G1 F2391 X36.186 Y35.5 E60.93465
M205 X11 Y11
G0 F8100 X35.986 Y35.501
G1 F2400 E58.93465
G0 F8100 X36.503 Y36.503
G0 X84.485 Y86
G0 X85.5 Y86
M205 X12 Y12
G1 F1440 E60.93465
G1 F2401.2 X85.5 Y133.814 E65.79938
G1 F2391 X85.502 Y134.059 E65.82441
G1 F2755.5 X85.408 Y134.128 E65.83475
G1 F3638.2 X85.359 Y134.356 E65.85041
G1 F3983 X85.368 Y134.632 E65.86735
G1 F3864 X85.586 Y134.632 E65.88113
G1 F2964.4 X86 Y134.5 E65.91694
G1 F2737.5 X85.782 Y134.343 E65.94092
G1 F3220 X85.609 Y134.091 E65.96411
G1 F2755.5 X85.502 Y134.059 E65.97401
G1 F2391 X85.5 Y133.814 E65.99905
M205 X11 Y11
G0 F8100 X85.501 Y134.014
G0 X86 Y134.5
M205 X12 Y12
G1 F2401.2 X87.299 Y134.5 E66.13121
G1 X88.598 Y134.5 E66.26337
G1 X89.897 Y134.5 E66.39554
G1 X91.196 Y134.5 E66.5277
G1 X92.495 Y134.5 E66.65987
G1 X93.794 Y134.5 E66.79203
G1 F2397.8 X95.093 Y134.5 E66.92438
G1 X96.392 Y134.5 E67.05674
G1 X97.691 Y134.5 E67.18909
G1 X98.99 Y134.5 E67.32144
G1 X100.289 Y134.5 E67.45379
G1 X101.588 Y134.5 E67.58615
G1 F2394.4 X102.887 Y134.5 E67.71869
G1 X104.186 Y134.5 E67.85123
G1 X105.485 Y134.5 E67.98377
G1 X106.784 Y134.5 E68.11631
G1 X108.083 Y134.5 E68.24885
G1 X109.382 Y134.5 E68.38139
G1 F2391 X110.681 Y134.499 E68.51412
G1 X111.98 Y134.499 E68.64685
G1 X113.279 Y134.499 E68.77959
G1 X114.578 Y134.499 E68.91232
G1 X115.877 Y134.499 E69.04505
G1 X117.176 Y134.499 E69.17778
G1 X118.475 Y134.499 E69.31051
G1 F2387.6 X119.774 Y134.499 E69.44343
G1 X121.073 Y134.499 E69.57634
G1 X122.372 Y134.499 E69.70926
G1 X123.671 Y134.499 E69.84218
G1 X124.97 Y134.499 E69.9751
G1 X126.269 Y134.499 E70.10802
G1 F2384.2 X127.568 Y134.499 E70.24113
G1 X128.867 Y134.499 E70.37424
G1 X130.166 Y134.499 E70.50734
G1 X131.465 Y134.499 E70.64045
G1 X132.764 Y134.499 E70.77356
G1 X134.063 Y134.498 E70.90667
G1 F2130.3 X134.414 Y134.414 E70.94806
G1 F2133 X134.498 Y134.06 E70.98973
G1 F2391 X134.498 Y132.138 E71.18611
G1 X134.498 Y130.216 E71.3825
G1 X134.498 Y128.294 E71.57889
G1 X134.498 Y126.372 E71.77528
G1 X134.498 Y124.45 E71.97167
G1 X134.498 Y122.528 E72.16805
G1 F2394.4 X134.498 Y120.606 E72.36416
G1 X134.498 Y118.684 E72.56027
G1 X134.498 Y116.762 E72.75638
G1 X134.498 Y114.84 E72.95249
G1 X134.498 Y112.918 E73.14859
G1 X134.498 Y110.996 E73.3447
G1 X134.499 Y109.074 E73.54081
G1 F2397.8 X134.499 Y107.152 E73.73664
G1 X134.499 Y105.23 E73.93247
G1 X134.499 Y103.308 E74.1283
G1 X134.499 Y101.386 E74.32413
G1 X134.499 Y99.464 E74.51996
G1 X134.499 Y97.542 E74.71578
G1 F2401.2 X134.499 Y95.62 E74.91133
G1 X134.499 Y93.698 E75.10688
G1 X134.499 Y91.776 E75.30243
G1 X134.499 Y89.854 E75.49798
G1 X134.499 Y87.932 E75.69353
G1 X134.499 Y86.01 E75.88908
M205 X11 Y11
G0 F8100 X134 Y85.5
M205 X12 Y12
G1 F2733.1 X134.219 Y85.656 E75.91312
G1 F3480 X134.263 Y85.742 E75.9199
G1 F3409.4 X134.369 Y85.801 E75.92859
G1 F2689.3 X134.5 Y86.001 E75.95031
G1 F2959.2 X134.632 Y85.586 E75.98626
G1 F3855.1 X134.632 Y85.368 E76.00008
G1 X134.414 Y85.368 E76.01389
G1 F2959.2 X134 Y85.5 E76.04977
M205 X11 Y11
G0 F8100 X134.163 Y85.616
G0 X134 Y85.5
M205 X12 Y12
G1 F2401.2 X86.186 Y85.5 E80.91449
G1 F2391 X85.941 Y85.502 E80.93953
G1 F2755.5 X85.872 Y85.408 E80.94987
G1 F3638.2 X85.644 Y85.359 E80.96553
G1 F3983 X85.368 Y85.368 E80.98247
G1 F3864 X85.368 Y85.586 E80.99625
G1 F2964.4 X85.5 Y86 E81.03206
G1 F2737.5 X85.657 Y85.782 E81.05603
G1 F3220 X85.909 Y85.609 E81.07923
G1 F2755.5 X85.941 Y85.502 E81.08913
G1 F2391 X86.186 Y85.5 E81.11416
M104 S200
M205 X11 Y11
G0 F8100 X85.986 Y85.501
G1 F2400 E79.11416
;MESH:NONMESH
G0 F600 X85.986 Y85.501 Z0.64
G0 F8100 X35.293 Y35.293
;TIME_ELAPSED:27.774660
;LAYER:1
M140 S40
M106 S191.2
M205 X16 Y16
;TYPE:WALL-OUTER
;MESH:Bed_Calibration_Leveling.3mf
G1 F1440 E81.11416
G1 F3271.8 X35.293 Y35.586 E81.13583
G1 F3531.4 X35.25 Y36 E81.16434
G1 F3828 X35.25 Y37.974 E81.28908
G1 X35.25 Y39.948 E81.41383
G1 X35.25 Y41.922 E81.53857
G1 X35.25 Y43.896 E81.66332
G1 X35.25 Y45.87 E81.78807
G1 X35.25 Y47.844 E81.91281
G1 X35.25 Y49.818 E82.03756
G1 X35.25 Y51.792 E82.1623
G1 X35.25 Y53.766 E82.28705
G1 X35.25 Y55.74 E82.41179
G1 X35.25 Y57.714 E82.53654
G1 X35.25 Y59.688 E82.66128
G1 X35.25 Y61.662 E82.78603
G1 X35.25 Y63.636 E82.91077
G1 X35.25 Y65.61 E83.03552
G1 X35.25 Y67.584 E83.16027
G1 X35.25 Y69.558 E83.28501
G1 X35.25 Y71.532 E83.40976
G1 X35.25 Y73.506 E83.5345
G1 F3820.4 X35.25 Y75.48 E83.6595
G1 X35.25 Y77.454 E83.78449
G1 X35.25 Y79.428 E83.90949
G1 X35.25 Y81.402 E84.03448
G1 X35.25 Y83.376 E84.15948
G1 X35.25 Y85.35 E84.28447
G1 X35.25 Y87.324 E84.40947
G1 X35.25 Y89.298 E84.53446
G1 X35.25 Y91.272 E84.65946
G1 X35.25 Y93.246 E84.78445
G1 X35.25 Y95.22 E84.90945
G1 X35.25 Y97.194 E85.03444
G1 X35.25 Y99.168 E85.15944
G1 X35.25 Y101.142 E85.28443
G1 X35.25 Y103.116 E85.40943
G1 X35.25 Y105.09 E85.53442
G1 X35.25 Y107.064 E85.65942
G1 X35.25 Y109.038 E85.78441
G1 F3812.7 X35.251 Y111.012 E85.90966
G1 X35.251 Y112.986 E86.0349
G1 X35.251 Y114.96 E86.16014
G1 X35.251 Y116.934 E86.28539
G1 X35.251 Y118.908 E86.41063
G1 X35.251 Y120.882 E86.53588
G1 X35.251 Y122.856 E86.66112
G1 X35.251 Y124.83 E86.78637
G1 X35.251 Y126.804 E86.91161
G1 X35.251 Y128.778 E87.03686
G1 X35.251 Y130.752 E87.1621
G1 X35.251 Y132.726 E87.28734
G1 X35.251 Y134.7 E87.41259
G1 X35.251 Y136.674 E87.53783
G1 X35.251 Y138.648 E87.66308
G1 X35.251 Y140.622 E87.78832
G1 X35.251 Y142.596 E87.91357
G1 X35.251 Y144.57 E88.03881
G1 X35.251 Y146.544 E88.16406
G1 F3805.2 X35.251 Y148.518 E88.28955
G1 X35.251 Y150.492 E88.41504
G1 X35.251 Y152.466 E88.54054
G1 X35.251 Y154.44 E88.66603
G1 X35.251 Y156.414 E88.79153
G1 X35.251 Y158.388 E88.91702
G1 X35.251 Y160.362 E89.04251
G1 X35.251 Y162.336 E89.16801
G1 X35.251 Y164.31 E89.2935
G1 X35.251 Y166.284 E89.419
G1 X35.251 Y168.258 E89.54449
G1 X35.251 Y170.232 E89.66998
G1 X35.251 Y172.206 E89.79548
G1 X35.251 Y174.18 E89.92097
G1 X35.251 Y176.154 E90.04646
G1 X35.251 Y178.128 E90.17196
G1 X35.251 Y180.102 E90.29745
G1 X35.251 Y182.076 E90.42295
G1 X35.251 Y184.05 E90.54844
G1 F3518.4 X35.293 Y184.414 E90.57363
G1 F3271.8 X35.293 Y184.707 E90.5953
G1 X35.586 Y184.707 E90.61696
G1 F3531.4 X36 Y184.75 E90.64547
G1 F3828 X37.974 Y184.75 E90.77022
G1 X39.948 Y184.75 E90.89496
G1 X41.922 Y184.75 E91.01971
G1 X43.896 Y184.75 E91.14446
G1 X45.87 Y184.75 E91.2692
G1 X47.844 Y184.75 E91.39395
G1 X49.818 Y184.75 E91.51869
G1 X51.792 Y184.75 E91.64344
G1 X53.766 Y184.75 E91.76818
G1 X55.74 Y184.75 E91.89293
G1 X57.714 Y184.75 E92.01767
G1 X59.688 Y184.75 E92.14242
G1 X61.662 Y184.75 E92.26716
G1 X63.636 Y184.75 E92.39191
G1 X65.61 Y184.75 E92.51666
G1 X67.584 Y184.75 E92.6414
G1 X69.558 Y184.75 E92.76615
G1 X71.532 Y184.75 E92.89089
G1 X73.506 Y184.75 E93.01564
G1 F3820.4 X75.48 Y184.75 E93.14063
G1 X77.454 Y184.75 E93.26563
G1 X79.428 Y184.75 E93.39062
G1 X81.402 Y184.75 E93.51562
G1 X83.376 Y184.75 E93.64061
G1 X85.35 Y184.75 E93.76561
G1 X87.324 Y184.75 E93.8906
G1 X89.298 Y184.75 E94.0156
G1 X91.272 Y184.75 E94.14059
G1 X93.246 Y184.75 E94.26559
G1 X95.22 Y184.75 E94.39058
G1 X97.194 Y184.75 E94.51558
G1 X99.168 Y184.75 E94.64057
G1 X101.142 Y184.75 E94.76557
G1 X103.116 Y184.75 E94.89056
G1 X105.09 Y184.75 E95.01556
G1 X107.064 Y184.75 E95.14055
G1 X109.038 Y184.75 E95.26555
G1 F3812.7 X111.012 Y184.749 E95.39079
G1 X112.986 Y184.749 E95.51604
G1 X114.96 Y184.749 E95.64128
G1 X116.934 Y184.749 E95.76652
G1 X118.908 Y184.749 E95.89177
G1 X120.882 Y184.749 E96.01701
G1 X122.856 Y184.749 E96.14226
G1 X124.83 Y184.749 E96.2675
G1 X126.804 Y184.749 E96.39275
G1 X128.778 Y184.749 E96.51799
G1 X130.752 Y184.749 E96.64324
G1 X132.726 Y184.749 E96.76848
G1 X134.7 Y184.749 E96.89372
G1 X136.674 Y184.749 E97.01897
G1 X138.648 Y184.749 E97.14421
G1 X140.622 Y184.749 E97.26946
G1 X142.596 Y184.749 E97.3947
