;FLAVOR:Marlin
;TIME:1122
;Filament used: 0.449059m
;Layer height: 0.2
;MINX:24.1
;MINY:24.1
;MINZ:0.2
;MAXX:195.9
;MAXY:195.9
;MAXZ:0.92
;Generated with Cura_SteamEngine 4.5.0
M140 S70
M105
M190 S70
M104 S200
M105
M109 S200
M82 ;absolute extrusion mode
M201 X500.00 Y500.00 Z100.00 E5000.00 ;Setup machine max acceleration
M203 X500.00 Y500.00 Z10.00 E50.00 ;Setup machine max feedrate
M204 P500.00 R1000.00 T500.00 ;Setup Print/Retract/Travel acceleration
M205 X8.00 Y8.00 Z0.40 E5.00 ;Setup Jerk
M220 S100 ;Reset Feedrate
M221 S100 ;Reset Flowrate

G28 ;Home

G92 E0 ;Reset Extruder
G1 Z2.0 F3000 ;Move Z Axis up
G1 X10.1 Y20 Z0.28 F5000.0 ;Move to start position
G1 X10.1 Y200.0 Z0.28 F1500.0 E15 ;Draw the first line
G1 X10.4 Y200.0 Z0.28 F5000.0 ;Move to side a little
G1 X10.4 Y20 Z0.28 F1500.0 E30 ;Draw the second line
G92 E0 ;Reset Extruder
G1 Z2.0 F3000 ;Move Z Axis up

G92 E0
G92 E0
;LAYER_COUNT:5
;LAYER:0
M107
G0 F6000 X27.296 Y27.307 Z0.2
;TYPE:SKIRT
G1 F3000 X27.983 Y26.676 E0.05631
G1 X28.722 Y26.105 E0.11269
G1 X29.507 Y25.6 E0.16903
G1 X30.332 Y25.163 E0.22539
G1 X31.192 Y24.799 E0.28177
G1 X32.08 Y24.51 E0.33814
G1 X32.989 Y24.298 E0.39449
G1 X33.913 Y24.164 E0.45085
G1 X34.704 Y24.113 E0.4987
G1 X35.33 Y24.1 E0.5365
G1 X184.293 Y24.1 E9.52897
G1 X185.147 Y24.111 E9.58053
G1 X186.079 Y24.164 E9.63688
G1 X187.003 Y24.297 E9.69323
G1 X187.913 Y24.509 E9.74964
G1 X188.801 Y24.797 E9.80599
G1 X189.66 Y25.161 E9.86231
G1 X190.486 Y25.597 E9.9187
G1 X191.272 Y26.101 E9.97506
G1 X192.011 Y26.671 E10.0314
G1 X192.699 Y27.303 E10.0878
G1 X193.33 Y27.991 E10.14415
G1 X193.9 Y28.73 E10.20049
G1 X194.405 Y29.515 E10.25684
G1 X194.84 Y30.341 E10.31319
G1 X195.204 Y31.201 E10.36957
G1 X195.492 Y32.089 E10.42592
G1 X195.704 Y32.998 E10.48227
G1 X195.837 Y33.922 E10.53862
G1 X195.887 Y34.704 E10.58593
G1 X195.9 Y35.33 E10.62373
G1 X195.9 Y184.264 E19.61445
G1 X195.89 Y185.126 E19.66649
G1 X195.839 Y186.058 E19.72283
G1 X195.708 Y186.982 E19.77917
G1 X195.498 Y187.892 E19.83555
G1 X195.211 Y188.781 E19.89194
G1 X194.849 Y189.641 E19.94827
G1 X194.415 Y190.468 E20.00465
G1 X193.912 Y191.254 E20.06098
G1 X193.343 Y191.995 E20.11738
G1 X192.713 Y192.684 E20.17374
G1 X192.027 Y193.316 E20.23005
G1 X191.288 Y193.888 E20.28646
G1 X190.504 Y194.394 E20.34279
G1 X189.679 Y194.831 E20.39915
G1 X188.82 Y195.196 E20.45549
G1 X187.933 Y195.487 E20.51184
G1 X187.024 Y195.7 E20.5682
G1 X186.1 Y195.834 E20.62457
G1 X185.296 Y195.887 E20.67321
G1 X184.67 Y195.9 E20.71101
G1 X35.707 Y195.9 E29.70348
G1 X34.868 Y195.89 E29.75413
G1 X33.936 Y195.838 E29.81048
G1 X33.012 Y195.707 E29.86682
G1 X32.102 Y195.496 E29.92321
G1 X31.214 Y195.209 E29.97954
G1 X30.354 Y194.847 E30.03587
G1 X29.527 Y194.412 E30.09228
G1 X28.741 Y193.909 E30.14861
G1 X28.001 Y193.34 E30.20496
G1 X27.312 Y192.709 E30.26136
G1 X26.68 Y192.022 E30.31771
G1 X26.109 Y191.284 E30.37404
G1 X25.603 Y190.499 E30.43042
G1 X25.166 Y189.674 E30.48678
G1 X24.802 Y188.815 E30.5431
G1 X24.512 Y187.927 E30.59949
G1 X24.299 Y187.018 E30.65585
G1 X24.165 Y186.094 E30.71222
G1 X24.113 Y185.285 E30.76115
G1 X24.1 Y184.658 E30.79901
G1 X24.1 Y35.674 E39.79275
G1 X24.11 Y34.861 E39.84183
G1 X24.163 Y33.929 E39.89819
G1 X24.295 Y33.005 E39.95453
G1 X24.506 Y32.096 E40.01086
G1 X24.793 Y31.208 E40.0672
G1 X25.156 Y30.347 E40.12361
G1 X25.591 Y29.521 E40.17996
G1 X26.095 Y28.736 E40.23628
G1 X26.665 Y27.996 E40.29266
G1 X26.936 Y27.7 E40.31689
G0 F2700 X27.296 Y27.307
G0 F6000 X27.883 Y27.572
G1 F3000 X28.565 Y26.973 E40.37169
G1 X29.298 Y26.437 E40.4265
G1 X30.074 Y25.968 E40.48124
G1 X30.889 Y25.569 E40.53602
G1 X31.736 Y25.243 E40.59081
G1 X32.609 Y24.993 E40.64562
G1 X33.5 Y24.82 E40.70042
G1 X34.72 Y24.713 E40.77435
G1 X35.33 Y24.7 E40.81118
G1 X184.293 Y24.7 E49.80365
G1 X185.139 Y24.711 E49.85473
G1 X186.045 Y24.764 E49.90951
G1 X186.942 Y24.897 E49.96425
G1 X187.825 Y25.108 E50.01906
G1 X188.686 Y25.395 E50.07385
G1 X189.518 Y25.758 E50.12864
G1 X190.314 Y26.192 E50.18337
G1 X191.07 Y26.695 E50.23819
G1 X191.778 Y27.263 E50.29298
G1 X192.434 Y27.89 E50.34776
G1 X193.032 Y28.573 E50.40257
G1 X193.567 Y29.306 E50.45735
G1 X194.036 Y30.083 E50.51213
G1 X194.435 Y30.898 E50.56691
G1 X194.76 Y31.745 E50.62168
G1 X195.009 Y32.618 E50.67648
G1 X195.181 Y33.509 E50.73126
G1 X195.287 Y34.72 E50.80465
G1 X195.3 Y35.33 E50.84148
G1 X195.3 Y184.264 E59.8322
G1 X195.29 Y185.119 E59.88382
G1 X195.239 Y186.025 E59.9386
G1 X195.108 Y186.923 E59.99338
G1 X194.899 Y187.806 E60.04816
G1 X194.613 Y188.667 E60.10292
G1 X194.252 Y189.5 E60.15773
G1 X193.819 Y190.297 E60.21248
G1 X193.318 Y191.054 E60.26728
G1 X192.752 Y191.763 E60.32205
G1 X192.125 Y192.42 E60.37687
G1 X191.444 Y193.019 E60.43162
G1 X190.712 Y193.556 E60.48643
G1 X189.936 Y194.026 E60.54119
G1 X189.121 Y194.427 E60.59603
G1 X188.275 Y194.753 E60.65076
G1 X187.403 Y195.005 E60.70555
G1 X186.512 Y195.178 E60.76034
G1 X185.28 Y195.287 E60.83501
G1 X184.67 Y195.3 E60.87184
G1 X35.707 Y195.3 E69.86431
G1 X34.876 Y195.29 E69.91448
G1 X33.97 Y195.238 E69.96926
G1 X33.072 Y195.107 E70.02404
G1 X32.189 Y194.898 E70.07882
G1 X31.328 Y194.611 E70.13361
G1 X30.496 Y194.249 E70.18838
G1 X29.698 Y193.816 E70.24319
G1 X28.942 Y193.315 E70.29794
G1 X28.233 Y192.748 E70.35274
G1 X27.576 Y192.122 E70.40753
G1 X26.978 Y191.44 E70.46228
G1 X26.441 Y190.708 E70.51709
G1 X25.971 Y189.931 E70.5719
G1 X25.571 Y189.117 E70.62666
G1 X25.245 Y188.27 E70.68144
G1 X24.994 Y187.398 E70.73622
G1 X24.821 Y186.507 E70.79101
G1 X24.713 Y185.269 E70.86603
G1 X24.7 Y184.658 E70.90292
G1 X24.7 Y35.674 E79.89666
G1 X24.71 Y34.87 E79.9452
G1 X24.762 Y33.964 E79.99998
G1 X24.894 Y33.066 E80.05478
G1 X25.104 Y32.183 E80.10957
G1 X25.392 Y31.322 E80.16437
G1 X25.753 Y30.49 E80.21912
G1 X26.187 Y29.693 E80.27391
G1 X26.689 Y28.937 E80.32869
G1 X27.256 Y28.228 E80.38349
G1 X27.515 Y27.957 E80.40612
G0 F2700 X27.883 Y27.572
;MESH:Object 1
G0 F6000 X35.42 Y34.46
G0 X35.42 Y35.42
G0 X35.5 Y184.3
G0 X35.7 Y184.3
;TYPE:WALL-OUTER
G1 F600 X184.3 Y184.3 E89.37668
G1 X184.3 Y35.7 E98.34724
G1 X35.7 Y35.7 E107.3178
G1 X35.7 Y183.767 E116.25618
G0 F540 X35.7 Y184.3
G0 F6000 X35.3 Y184.7
G1 F600 X35.3 Y35.3 E125.27503
G1 X184.7 Y35.3 E134.29388
G1 X184.7 Y184.7 E143.31273
G1 X35.833 Y184.7 E152.29941
G0 F540 X35.3 Y184.7
G0 F6000 X35.5 Y184.53
G0 X35.6 Y134.3
G0 X36.54 Y134.3
G0 X84.46 Y134.3
G0 X85.42 Y134.3
G0 X85.5 Y134.3
G0 X85.7 Y134.3
G1 F600 X134.3 Y134.3 E155.23325
G1 X134.3 Y85.7 E158.16709
G1 X85.7 Y85.7 E161.10094
G1 X85.7 Y133.767 E164.00261
G0 F540 X85.7 Y134.3
G0 F6000 X85.3 Y134.7
G1 F600 X85.3 Y85.3 E166.98474
G1 X134.7 Y85.3 E169.96688
G1 X134.7 Y134.7 E172.94902
G1 X85.833 Y134.7 E175.89898
G0 F540 X85.3 Y134.7
;MESH:NONMESH
G0 F300 X85.3 Y134.7 Z0.44
G0 F6000 X85.5 Y134.53
G0 X85.414 Y134.586
G0 X84.46 Y134.586
G0 X36.54 Y134.586
G0 X35.6 Y134.586
G0 X35.5 Y184.2
G0 X35.8 Y184.2
;TIME_ELAPSED:190.809621
;LAYER:1
M140 S40
M106 S85
;TYPE:WALL-OUTER
;MESH:Object 1
G1 F525 X184.2 Y184.2 E182.41424
G1 X184.2 Y35.8 E188.9295
G1 X35.8 Y35.8 E195.44476
G1 X35.8 Y183.535 E201.93083
G0 F472.5 X35.8 Y184.2
G0 F7500 X35.2 Y184.8
G1 F525 X35.2 Y35.2 E208.49877
G1 X184.8 Y35.2 E215.06672
G1 X184.8 Y184.8 E221.63466
G1 X35.865 Y184.8 E228.17341
G0 F472.5 X35.2 Y184.8
G0 F7500 X35.551 Y184.499
;TYPE:SKIN
G1 F525 X35.499 Y184.268 E228.1799
G1 X35.499 Y129.114 E229.69108
G1 X35.499 Y73.959 E231.20228
G1 X35.499 Y35.776 E232.24847
G1 X35.776 Y35.499 E232.2592
G1 X90.93 Y35.499 E233.77038
G1 X146.085 Y35.499 E235.28159
G1 X184.269 Y35.499 E236.3278
G1 X184.499 Y35.552 E236.33427
G1 X184.499 Y90.706 E237.84545
G1 X184.499 Y145.86 E239.35662
G1 X184.499 Y184.044 E240.40284
G1 X184.413 Y184.413 E240.41322
G1 X183.478 Y184.499 E240.43894
G1 X128.324 Y184.499 E241.95012
G1 X73.169 Y184.499 E243.46133
G1 X37.164 Y184.499 E244.44784
G0 F472.5 X35.834 Y184.499
G0 F7500 X35.709 Y184.6
G0 X184.484 Y184.6
G0 X184.484 Y184.624
G1 F525 X184.624 Y184.485 E244.45217
G0 F7500 X184.6 Y184.485
G0 X184.328 Y35.672
G0 X35.619 Y35.4
G0 X35.619 Y35.374
G1 F525 X35.375 Y35.618 E244.45974
G0 F7500 X35.418 Y35.418
G0 X35.7 Y134.2
G0 X36.54 Y134.2
G0 X84.46 Y134.2
G0 X85.32 Y134.2
G0 X85.6 Y134.2
G0 X85.8 Y134.2
;TYPE:WALL-OUTER
G1 F525 X134.2 Y134.2 E246.58467
G1 X134.2 Y85.8 E248.70959
G1 X85.8 Y85.8 E250.83451
G1 X85.8 Y133.535 E252.93024
G0 F472.5 X85.8 Y134.2
G0 F7500 X85.2 Y134.8
G1 F525 X85.2 Y85.2 E255.10785
G1 X134.8 Y85.2 E257.28546
G1 X134.8 Y134.8 E259.46306
G1 X85.865 Y134.8 E261.61148
G0 F472.5 X85.2 Y134.8
G0 F7500 X85.551 Y134.499
;TYPE:SKIN
G1 F525 X85.499 Y134.268 E261.61797
G1 X85.499 Y85.902 E262.94488
G1 X85.902 Y85.499 E262.96051
G1 X134.268 Y85.499 E264.28742
G1 X134.499 Y85.551 E264.29391
G1 X134.499 Y134.2 E265.62858
G1 X134.2 Y134.499 E265.64018
G1 X87.164 Y134.499 E266.9306
G0 F472.5 X85.834 Y134.499
G0 F7500 X85.709 Y134.6
G0 X134.358 Y134.6
G0 X134.358 Y134.624
G1 F525 X134.624 Y134.358 E266.93885
G0 F7500 X134.6 Y134.358
G0 X134.328 Y85.672
G0 X85.745 Y85.4
G0 X85.745 Y85.374
G1 F525 X85.374 Y85.745 E266.95037
G0 F7500 X85.374 Y85.462
G1 F525 X85.462 Y85.374 E266.9531
;MESH:NONMESH
G0 F300 X85.462 Y85.374 Z0.68
G0 F7500 X85.462 Y85.4
G0 X85.32 Y134.68
G0 X84.46 Y134.68
G0 X36.54 Y134.68
G0 X35.7 Y134.68
G0 X35.6 Y184.2
G0 X35.8 Y184.2
;TIME_ELAPSED:472.593831
;LAYER:2
M106 S170
;TYPE:WALL-OUTER
;MESH:Object 1
G1 F450 X184.2 Y184.2 E273.46836
G1 X184.2 Y35.8 E279.98363
G1 X35.8 Y35.8 E286.49889
G1 X35.8 Y183.535 E292.98495
G0 F405 X35.8 Y184.2
G0 F9000 X35.2 Y184.8
G1 F450 X35.2 Y35.2 E299.5529
G1 X184.8 Y35.2 E306.12084
G1 X184.8 Y184.8 E312.68879
G1 X35.865 Y184.8 E319.22754
G0 F405 X35.2 Y184.8
G0 F9000 X35.566 Y184.624
;TYPE:SKIN
G1 F450 X35.374 Y184.432 E319.2335
G0 F9000 X35.611 Y184.386
G1 F450 X36.006 Y184.499 E319.24476
G1 X91.161 Y184.499 E320.75659
G1 X146.315 Y184.499 E322.2684
G1 X184.499 Y184.499 E323.31505
G1 X184.499 Y129.345 E324.82685
G1 X184.499 Y74.19 E326.33868
G1 X184.499 Y36.007 E327.3853
G1 X184.387 Y35.612 E327.39656
G1 X183.709 Y35.499 E327.4154
G1 X128.554 Y35.499 E328.92723
G1 X73.4 Y35.499 E330.43904
G1 X35.499 Y35.499 E331.47793
G1 X35.499 Y90.653 E332.98973
G1 X35.499 Y145.808 E334.50156
G1 X35.499 Y182.661 E335.51173
G0 F405 X35.499 Y183.991
G0 F9000 X35.6 Y184.117
G0 X35.672 Y35.672
G0 X184.433 Y35.4
G0 X184.433 Y35.375
G1 F450 X184.624 Y35.566 E335.51766
G0 F9000 X184.582 Y35.418
G0 X85.6 Y35.7
G0 X85.6 Y36.54
G0 X85.6 Y84.46
G0 X85.6 Y85.32
G0 X85.6 Y134.2
G0 X85.8 Y134.2
;TYPE:WALL-OUTER
G1 F450 X134.2 Y134.2 E337.64258
G1 X134.2 Y85.8 E339.7675
G1 X85.8 Y85.8 E341.89243
G1 X85.8 Y133.535 E343.98816
G0 F405 X85.8 Y134.2
G0 F9000 X85.2 Y134.8
G1 F450 X85.2 Y85.2 E346.16576
G1 X134.8 Y85.2 E348.34337
G1 X134.8 Y134.8 E350.52098
G1 X85.865 Y134.8 E352.66939
G0 F405 X85.2 Y134.8
G0 F9000 X85.392 Y134.606
;TYPE:SKIN
G1 F450 X85.533 Y134.465 E352.67486
G1 X85.499 Y132.451 E352.73006
G1 X85.499 Y85.499 E354.01694
G1 X134.148 Y85.499 E355.35032
G1 X134.499 Y85.85 E355.36392
G1 X134.499 Y134.499 E356.69731
G1 X87.18 Y134.499 E357.99424
G0 F405 X85.85 Y134.499
G0 F9000 X85.725 Y134.4
G0 X134.328 Y134.328
G0 X134.6 Y85.692
G0 X134.624 Y85.692
G1 F450 X134.306 Y85.374 E358.00411
G0 F9000 X134.589 Y85.374
G1 F450 X134.624 Y85.41 E358.00521
;MESH:NONMESH
G0 F300 X134.624 Y85.41 Z0.92
G0 F9000 X134.6 Y85.41
G0 X134.328 Y134.328
G0 X85.32 Y134.68
G0 X84.46 Y134.68
G0 X36.54 Y134.68
G0 X35.7 Y134.68
G0 X35.6 Y184.2
G0 X35.8 Y184.2
;TIME_ELAPSED:797.737741
;LAYER:3
M106 S255
;TYPE:WALL-OUTER
;MESH:Object 1
G1 F450 X184.2 Y184.2 E364.52047
G1 X184.2 Y35.8 E371.03574
G1 X35.8 Y35.8 E377.551
G1 X35.8 Y183.535 E384.03706
G0 F405 X35.8 Y184.2
G0 F9000 X35.2 Y184.8
G1 F450 X35.2 Y35.2 E390.60501
G1 X184.8 Y35.2 E397.17295
G1 X184.8 Y184.8 E403.7409
G1 X35.865 Y184.8 E410.27965
G0 F405 X35.2 Y184.8
G0 F9000 X35.551 Y184.499
;TYPE:SKIN
G1 F450 X35.499 Y184.268 E410.28614
G1 X35.499 Y129.114 E411.79731
G1 X35.499 Y73.959 E413.30852
G1 X35.499 Y35.776 E414.35471
G1 X35.776 Y35.499 E414.36544
G1 X90.93 Y35.499 E415.87662
G1 X146.085 Y35.499 E417.38782
G1 X184.269 Y35.499 E418.43404
G1 X184.499 Y35.552 E418.4405
G1 X184.499 Y90.706 E419.95168
G1 X184.499 Y145.86 E421.46286
G1 X184.499 Y184.044 E422.50907
G1 X184.413 Y184.413 E422.51945
G1 X183.478 Y184.499 E422.54518
G1 X128.324 Y184.499 E424.05636
G1 X73.169 Y184.499 E425.56756
G1 X37.164 Y184.499 E426.55407
G0 F405 X35.834 Y184.499
G0 F9000 X35.709 Y184.6
G0 X184.484 Y184.6
G0 X184.484 Y184.624
G1 F450 X184.624 Y184.485 E426.5584
G0 F9000 X184.6 Y184.485
G0 X184.328 Y35.672
G0 X35.619 Y35.4
G0 X35.619 Y35.374
G1 F450 X35.375 Y35.618 E426.56598
G0 F9000 X35.418 Y35.418
G0 X35.7 Y134.2
G0 X36.54 Y134.2
G0 X84.46 Y134.2
G0 X85.32 Y134.2
G0 X85.6 Y134.2
G0 X85.8 Y134.2
;TYPE:WALL-OUTER
G1 F450 X134.2 Y134.2 E428.6909
G1 X134.2 Y85.8 E430.81583
G1 X85.8 Y85.8 E432.94075
G1 X85.8 Y133.535 E435.03648
G0 F405 X85.8 Y134.2
G0 F9000 X85.2 Y134.8
G1 F450 X85.2 Y85.2 E437.21409
G1 X134.8 Y85.2 E439.39169
G1 X134.8 Y134.8 E441.5693
G1 X85.865 Y134.8 E443.71771
G0 F405 X85.2 Y134.8
G0 F9000 X85.551 Y134.499
;TYPE:SKIN
G1 F450 X85.499 Y134.268 E443.72421
G1 X85.499 Y85.902 E445.05111
G1 X85.902 Y85.499 E445.06675
G1 X134.268 Y85.499 E446.39365
G1 X134.499 Y85.551 E446.40015
G1 X134.499 Y134.2 E447.73482
G1 X134.2 Y134.499 E447.74642
G1 X87.164 Y134.499 E449.03683
G0 F405 X85.834 Y134.499
G0 F9000 X85.709 Y134.6
G0 X134.358 Y134.6
G0 X134.358 Y134.624
G1 F450 X134.624 Y134.358 E449.04509
G0 F9000 X134.6 Y134.358
G0 X134.328 Y85.672
G0 X85.745 Y85.4
G0 X85.745 Y85.374
G1 F450 X85.374 Y85.745 E449.05661
G0 F9000 X85.374 Y85.462
G1 F450 X85.462 Y85.374 E449.05934
;TIME_ELAPSED:1122.239667
M140 S0
M107
G91 ;Relative positioning
G1 E-2 F2700 ;Retract a bit
G1 E-2 Z0.2 F2400 ;Retract and raise Z
G1 X5 Y5 F3000 ;Wipe out
G1 Z10 ;Raise Z more
G90 ;Absolute positionning

G1 X0 Y0 ;Present print
M106 S0 ;Turn-off fan
M104 S0 ;Turn-off hotend
M140 S0 ;Turn-off bed

M84 X Y E ;Disable all steppers but Z

M82 ;absolute extrusion mode
M104 S0
;End of Gcode
;SETTING_3 {"extruder_quality": ["[general]\\nversion = 4\\nname = TPU_NoStringi
;SETTING_3 ng\\ndefinition = creality_ender5\\n\\n[metadata]\\nintent_category =
;SETTING_3  default\\nposition = 0\\nsetting_version = 11\\nquality_type = adapt
;SETTING_3 ive\\ntype = quality_changes\\n\\n[values]\\nbottom_layers = 3\\nbrim
;SETTING_3 _line_count = 10\\ncoasting_enable = True\\ncool_fan_speed = 100\\nin
;SETTING_3 fill_sparse_density = 100\\ninitial_layer_line_width_factor = 150\\nm
;SETTING_3 aterial_flow = 110\\nmaterial_flow_layer_0 = 110\\nmaterial_print_tem
;SETTING_3 perature = 200\\nmeshfix_maximum_resolution = 0.5\\nmeshfix_maximum_t
;SETTING_3 ravel_resolution = 0.05\\nretraction_amount = 3\\nretraction_enable =
;SETTING_3  False\\nretraction_speed = 30\\nskirt_brim_speed = 50\\nskirt_line_c
;SETTING_3 ount = 2\\nspeed_layer_0 = 10\\nspeed_print = 15\\nspeed_support = 60
;SETTING_3 \\nspeed_travel = 150\\nsupport_angle = 50\\nsupport_infill_rate = 10
;SETTING_3 \\ntop_bottom_thickness = 1\\ntop_layers = 3\\ntravel_avoid_distance 
;SETTING_3 = 0.5\\nwall_line_count = 3\\n\\n"], "global_quality": "[general]\\nv
;SETTING_3 ersion = 4\\nname = TPU_NoStringing\\ndefinition = creality_ender5\\n
;SETTING_3 \\n[metadata]\\nsetting_version = 11\\nquality_type = adaptive\\ntype
;SETTING_3  = quality_changes\\n\\n[values]\\nacceleration_enabled = False\\nadh
;SETTING_3 esion_type = skirt\\nlayer_height = 0.2\\nlayer_height_0 = 0.2\\nmate
;SETTING_3 rial_bed_temperature = 40\\nmaterial_bed_temperature_layer_0 = 70\\ns
;SETTING_3 upport_enable = False\\nsupport_type = buildplate\\n\\n"}
