;FLAVOR:Marlin
;TIME:438
;Filament used: 0.345616m
;Layer height: 0.2
;MINX:35.2
;MINY:35.2
;MINZ:0.2
;MAXX:184.8
;MAXY:184.8
;MAXZ:1
;Generated with Cura_SteamEngine 4.4.1
M140 S80
M105
M190 S80
M104 S230
M105
M109 S230
M82 ;absolute extrusion mode
M201 X500.00 Y500.00 Z100.00 E5000.00 ;Setup machine max acceleration
M203 X500.00 Y500.00 Z10.00 E50.00 ;Setup machine max feedrate
M204 P500.00 R1000.00 T500.00 ;Setup Print/Retract/Travel acceleration
M205 X8.00 Y8.00 Z0.40 E5.00 ;Setup Jerk
M220 S100 ;Reset Feedrate
M221 S100 ;Reset Flowrate

G28 ;Home

G92 E0 ;Reset Extruder
G1 Z2.0 F3000 ;Move Z Axis up
G1 X10.1 Y20 Z0.28 F5000.0 ;Move to start position
G1 X10.1 Y200.0 Z0.28 F1500.0 E15 ;Draw the first line
G1 X10.4 Y200.0 Z0.28 F5000.0 ;Move to side a little
G1 X10.4 Y20 Z0.28 F1500.0 E30 ;Draw the second line
G92 E0 ;Reset Extruder
G1 Z2.0 F3000 ;Move Z Axis up

G92 E0
G92 E0
G1 F1500 E-6
;LAYER_COUNT:5
;LAYER:0
M107
;MESH:DrVax_2_Box_Calibration_Model.stl
G0 F6000 X35.8 Y184.2 Z0.2
;TYPE:WALL-OUTER
G1 F1500 E0
G1 F1200 X184.2 Y184.2 E4.9358
G1 X184.2 Y35.8 E9.87161
G1 X35.8 Y35.8 E14.80741
G1 X35.8 Y184.2 E19.74322
G0 F6000 X35.2 Y184.8
G1 F1200 X35.2 Y35.2 E24.71893
G1 X184.8 Y35.2 E29.69465
G1 X184.8 Y184.8 E34.67036
G1 X35.2 Y184.8 E39.64608
G0 F6000 X35.566 Y184.624
;TYPE:SKIN
G1 F1200 X35.374 Y184.432 E39.6506
G0 F6000 X35.611 Y184.386
G1 F1200 X36.006 Y184.499 E39.65913
G1 X91.161 Y184.499 E40.80446
G1 X146.315 Y184.499 E41.94976
G1 X184.499 Y184.499 E42.74268
G1 X184.499 Y129.345 E43.88798
G1 X184.499 Y74.19 E45.03331
G1 X184.499 Y36.007 E45.82621
G1 X184.387 Y35.612 E45.83473
G1 X183.709 Y35.499 E45.849
G1 X128.554 Y35.499 E46.99433
G1 X73.4 Y35.499 E48.13964
G1 X35.499 Y35.499 E48.92668
G1 X35.499 Y90.653 E50.07198
G1 X35.499 Y145.808 E51.21731
G1 X35.499 Y183.991 E52.01021
G1 F1500 E46.01021
G0 F6000 X35.6 Y184.117
G0 X35.672 Y35.672
G0 X184.433 Y35.4
G0 X184.433 Y35.375
G1 F1500 E52.01021
G1 F1200 X184.624 Y35.566 E52.0147
G0 F6000 X184.582 Y35.418
G1 F1500 E46.0147
G0 F6000 X85.6 Y35.7
G0 X85.6 Y36.665
G0 X85.6 Y84.335
G0 X85.6 Y85.32
G0 X85.6 Y134.2
G0 X85.8 Y134.2
;TYPE:WALL-OUTER
G1 F1500 E52.0147
G1 F1200 X134.2 Y134.2 E53.62449
G1 X134.2 Y85.8 E55.23428
G1 X85.8 Y85.8 E56.84407
G1 X85.8 Y134.2 E58.45386
G0 F6000 X85.2 Y134.8
G1 F1200 X85.2 Y85.2 E60.10356
G1 X134.8 Y85.2 E61.75327
G1 X134.8 Y134.8 E63.40297
G1 X85.2 Y134.8 E65.05267
G0 F6000 X85.392 Y134.606
;TYPE:SKIN
G1 F1200 X85.533 Y134.465 E65.05681
G1 X85.499 Y132.451 E65.09864
G1 X85.499 Y85.499 E66.07354
G1 X134.148 Y85.499 E67.08368
G1 X134.499 Y85.85 E67.09398
G1 X134.499 Y134.499 E68.10412
G1 X85.85 Y134.499 E69.11426
G1 F1500 E63.11426
G0 F6000 X85.725 Y134.4
G0 X134.328 Y134.328
G0 X134.6 Y85.692
G0 X134.624 Y85.692
G1 F1500 E69.11426
G1 F1200 X134.306 Y85.374 E69.12174
G0 F6000 X134.589 Y85.374
G1 F1200 X134.624 Y85.41 E69.12258
G1 F1500 E63.12258
;MESH:NONMESH
G0 F300 X134.624 Y85.41 Z0.4
G0 F6000 X134.6 Y85.41
G0 X134.328 Y134.328
G0 X85.32 Y134.68
G0 X84.335 Y134.68
G0 X36.665 Y134.68
G0 X35.7 Y134.68
G0 X35.6 Y184.2
G0 X35.8 Y184.2
;TIME_ELAPSED:135.315544
;LAYER:1
M140 S80
M106 S85
;TYPE:WALL-OUTER
;MESH:DrVax_2_Box_Calibration_Model.stl
G1 F1500 E69.12258
G1 F1800 X184.2 Y184.2 E74.05838
G1 X184.2 Y35.8 E78.99419
G1 X35.8 Y35.8 E83.92999
G1 X35.8 Y184.2 E88.86579
G0 F9000 X35.2 Y184.8
G1 F1800 X35.2 Y35.2 E93.84151
G1 X184.8 Y35.2 E98.81723
G1 X184.8 Y184.8 E103.79294
G1 X35.2 Y184.8 E108.76866
G0 F9000 X35.551 Y184.499
;TYPE:SKIN
G1 F1800 X35.499 Y184.268 E108.77357
G1 X35.499 Y129.114 E109.9184
G1 X35.499 Y73.959 E111.06326
G1 X35.499 Y35.776 E111.85582
G1 X35.776 Y35.499 E111.86395
G1 X90.93 Y35.499 E113.00879
G1 X146.085 Y35.499 E114.15364
G1 X184.269 Y35.499 E114.94622
G1 X184.499 Y35.552 E114.95112
G1 X184.499 Y90.706 E116.09596
G1 X184.499 Y145.86 E117.24079
G1 X184.499 Y184.044 E118.03337
G1 X184.413 Y184.413 E118.04124
G1 X183.478 Y184.499 E118.06073
G1 X128.324 Y184.499 E119.20556
G1 X73.169 Y184.499 E120.35041
G1 X35.834 Y184.499 E121.12538
G1 F1500 E115.12538
G0 F9000 X35.709 Y184.6
G0 X184.484 Y184.6
G0 X184.484 Y184.624
G1 F1500 E121.12538
G1 F1800 X184.624 Y184.485 E121.12866
G1 F1500 E115.12866
G0 F9000 X184.6 Y184.485
G0 X184.328 Y35.672
G0 X35.619 Y35.4
G0 X35.619 Y35.374
G1 F1500 E121.12866
G1 F1800 X35.375 Y35.618 E121.13439
G0 F9000 X35.418 Y35.418
G1 F1500 E115.13439
G0 F9000 X35.7 Y134.2
G0 X36.665 Y134.2
G0 X84.335 Y134.2
G0 X85.32 Y134.2
G0 X85.6 Y134.2
G0 X85.8 Y134.2
;TYPE:WALL-OUTER
G1 F1500 E121.13439
G1 F1800 X134.2 Y134.2 E122.74419
G1 X134.2 Y85.8 E124.35398
G1 X85.8 Y85.8 E125.96377
G1 X85.8 Y134.2 E127.57356
G0 F9000 X85.2 Y134.8
G1 F1800 X85.2 Y85.2 E129.22326
G1 X134.8 Y85.2 E130.87296
G1 X134.8 Y134.8 E132.52266
G1 X85.2 Y134.8 E134.17237
G0 F9000 X85.551 Y134.499
;TYPE:SKIN
G1 F1800 X85.499 Y134.268 E134.17729
G1 X85.499 Y85.902 E135.18252
G1 X85.902 Y85.499 E135.19436
G1 X134.268 Y85.499 E136.19959
G1 X134.499 Y85.551 E136.20452
G1 X134.499 Y134.2 E137.21563
G1 X134.2 Y134.499 E137.22442
G1 X85.834 Y134.499 E138.22965
G1 F1500 E132.22965
G0 F9000 X85.709 Y134.6
G0 X134.358 Y134.6
G0 X134.358 Y134.624
G1 F1500 E138.22965
G1 F1800 X134.624 Y134.358 E138.2359
G1 F1500 E132.2359
G0 F9000 X134.6 Y134.358
G0 X134.328 Y85.672
G0 X85.745 Y85.4
G0 X85.745 Y85.374
G1 F1500 E138.2359
G1 F1800 X85.374 Y85.745 E138.24463
G0 F9000 X85.374 Y85.462
G1 F1800 X85.462 Y85.374 E138.2467
G1 F1500 E132.2467
;MESH:NONMESH
G0 F300 X85.462 Y85.374 Z0.6
G0 F9000 X85.462 Y85.4
G0 X85.32 Y134.68
G0 X84.335 Y134.68
G0 X36.665 Y134.68
G0 X35.7 Y134.68
G0 X35.6 Y184.2
G0 X35.8 Y184.2
;TIME_ELAPSED:227.688995
;LAYER:2
M106 S170
;TYPE:WALL-OUTER
;MESH:DrVax_2_Box_Calibration_Model.stl
G1 F1500 E138.2467
G1 F2400 X184.2 Y184.2 E143.1825
G1 X184.2 Y35.8 E148.1183
G1 X35.8 Y35.8 E153.05411
G1 X35.8 Y184.2 E157.98991
G0 F12000 X35.2 Y184.8
G1 F2400 X35.2 Y35.2 E162.96563
G1 X184.8 Y35.2 E167.94135
G1 X184.8 Y184.8 E172.91706
G1 X35.2 Y184.8 E177.89278
G0 F12000 X35.566 Y184.624
;TYPE:SKIN
G1 F2400 X35.374 Y184.432 E177.89729
G0 F12000 X35.611 Y184.386
G1 F2400 X36.006 Y184.499 E177.90582
G1 X91.161 Y184.499 E179.05115
G1 X146.315 Y184.499 E180.19646
G1 X184.499 Y184.499 E180.98937
G1 X184.499 Y129.345 E182.13468
G1 X184.499 Y74.19 E183.28001
G1 X184.499 Y36.007 E184.0729
G1 X184.387 Y35.612 E184.08143
G1 X183.709 Y35.499 E184.0957
G1 X128.554 Y35.499 E185.24103
G1 X73.4 Y35.499 E186.38634
G1 X35.499 Y35.499 E187.17337
G1 X35.499 Y90.653 E188.31868
G1 X35.499 Y145.808 E189.46401
G1 X35.499 Y183.991 E190.2569
G1 F1500 E184.2569
G0 F12000 X35.6 Y184.117
G0 X35.672 Y35.672
G0 X184.433 Y35.4
G0 X184.433 Y35.375
G1 F1500 E190.2569
G1 F2400 X184.624 Y35.566 E190.26139
G0 F12000 X184.582 Y35.418
G1 F1500 E184.26139
G0 F12000 X85.6 Y35.7
G0 X85.6 Y36.665
G0 X85.6 Y84.335
G0 X85.6 Y85.32
G0 X85.6 Y134.2
G0 X85.8 Y134.2
;TYPE:WALL-OUTER
G1 F1500 E190.26139
G1 F2400 X134.2 Y134.2 E191.87119
G1 X134.2 Y85.8 E193.48098
G1 X85.8 Y85.8 E195.09077
G1 X85.8 Y134.2 E196.70056
G0 F12000 X85.2 Y134.8
G1 F2400 X85.2 Y85.2 E198.35026
G1 X134.8 Y85.2 E199.99996
G1 X134.8 Y134.8 E201.64967
G1 X85.2 Y134.8 E203.29937
G0 F12000 X85.392 Y134.606
;TYPE:SKIN
G1 F2400 X85.533 Y134.465 E203.30351
G1 X85.499 Y132.451 E203.34533
G1 X85.499 Y85.499 E204.32024
G1 X134.148 Y85.499 E205.33037
G1 X134.499 Y85.85 E205.34068
G1 X134.499 Y134.499 E206.35082
G1 X85.85 Y134.499 E207.36096
G1 F1500 E201.36096
G0 F12000 X85.725 Y134.4
G0 X134.328 Y134.328
G0 X134.6 Y85.692
G0 X134.624 Y85.692
G1 F1500 E207.36096
G1 F2400 X134.306 Y85.374 E207.36844
G0 F12000 X134.589 Y85.374
G1 F2400 X134.624 Y85.41 E207.36927
G1 F1500 E201.36927
;MESH:NONMESH
G0 F300 X134.624 Y85.41 Z0.8
G0 F12000 X134.6 Y85.41
G0 X134.328 Y134.328
G0 X85.32 Y134.68
G0 X84.335 Y134.68
G0 X36.665 Y134.68
G0 X35.7 Y134.68
G0 X35.6 Y184.2
G0 X35.8 Y184.2
;TIME_ELAPSED:298.040757
;LAYER:3
M106 S255
;TYPE:WALL-OUTER
;MESH:DrVax_2_Box_Calibration_Model.stl
G1 F1500 E207.36927
G1 F2400 X184.2 Y184.2 E212.30508
G1 X184.2 Y35.8 E217.24088
G1 X35.8 Y35.8 E222.17669
G1 X35.8 Y184.2 E227.11249
G0 F12000 X35.2 Y184.8
G1 F2400 X35.2 Y35.2 E232.08821
G1 X184.8 Y35.2 E237.06392
G1 X184.8 Y184.8 E242.03964
G1 X35.2 Y184.8 E247.01535
G0 F12000 X35.551 Y184.499
;TYPE:SKIN
G1 F2400 X35.499 Y184.268 E247.02027
G1 X35.499 Y129.114 E248.1651
G1 X35.499 Y73.959 E249.30995
G1 X35.499 Y35.776 E250.10252
G1 X35.776 Y35.499 E250.11065
G1 X90.93 Y35.499 E251.25548
G1 X146.085 Y35.499 E252.40034
G1 X184.269 Y35.499 E253.19292
G1 X184.499 Y35.552 E253.19782
G1 X184.499 Y90.706 E254.34265
G1 X184.499 Y145.86 E255.48748
G1 X184.499 Y184.044 E256.28007
G1 X184.413 Y184.413 E256.28793
G1 X183.478 Y184.499 E256.30742
G1 X128.324 Y184.499 E257.45226
G1 X73.169 Y184.499 E258.59711
G1 X35.834 Y184.499 E259.37207
G1 F1500 E253.37207
G0 F12000 X35.709 Y184.6
G0 X184.484 Y184.6
G0 X184.484 Y184.624
G1 F1500 E259.37207
G1 F2400 X184.624 Y184.485 E259.37535
G1 F1500 E253.37535
G0 F12000 X184.6 Y184.485
G0 X184.328 Y35.672
G0 X35.619 Y35.4
G0 X35.619 Y35.374
G1 F1500 E259.37535
G1 F2400 X35.375 Y35.618 E259.38109
G0 F12000 X35.418 Y35.418
G1 F1500 E253.38109
G0 F12000 X35.7 Y134.2
G0 X36.665 Y134.2
G0 X84.335 Y134.2
G0 X85.32 Y134.2
G0 X85.6 Y134.2
G0 X85.8 Y134.2
;TYPE:WALL-OUTER
G1 F1500 E259.38109
G1 F2400 X134.2 Y134.2 E260.99088
G1 X134.2 Y85.8 E262.60067
G1 X85.8 Y85.8 E264.21046
G1 X85.8 Y134.2 E265.82025
G0 F12000 X85.2 Y134.8
G1 F2400 X85.2 Y85.2 E267.46996
G1 X134.8 Y85.2 E269.11966
G1 X134.8 Y134.8 E270.76936
G1 X85.2 Y134.8 E272.41906
G0 F12000 X85.551 Y134.499
;TYPE:SKIN
G1 F2400 X85.499 Y134.268 E272.42399
G1 X85.499 Y85.902 E273.42922
G1 X85.902 Y85.499 E273.44106
G1 X134.268 Y85.499 E274.44629
G1 X134.499 Y85.551 E274.45121
G1 X134.499 Y134.2 E275.46232
G1 X134.2 Y134.499 E275.47111
G1 X85.834 Y134.499 E276.47634
G1 F1500 E270.47634
G0 F12000 X85.709 Y134.6
G0 X134.358 Y134.6
G0 X134.358 Y134.624
G1 F1500 E276.47634
G1 F2400 X134.624 Y134.358 E276.4826
G1 F1500 E270.4826
G0 F12000 X134.6 Y134.358
G0 X134.328 Y85.672
G0 X85.745 Y85.4
G0 X85.745 Y85.374
G1 F1500 E276.4826
G1 F2400 X85.374 Y85.745 E276.49132
G0 F12000 X85.374 Y85.462
G1 F2400 X85.462 Y85.374 E276.49339
G1 F1500 E270.49339
;MESH:NONMESH
G0 F300 X85.462 Y85.374 Z1
G0 F12000 X85.462 Y85.4
G0 X85.32 Y134.68
G0 X84.335 Y134.68
G0 X36.665 Y134.68
G0 X35.7 Y134.68
G0 X35.6 Y184.2
G0 X35.8 Y184.2
;TIME_ELAPSED:370.555086
;LAYER:4
;TYPE:WALL-OUTER
;MESH:DrVax_2_Box_Calibration_Model.stl
G1 F1500 E276.49339
G1 F2400 X184.2 Y184.2 E281.4292
G1 X184.2 Y35.8 E286.365
G1 X35.8 Y35.8 E291.30081
G1 X35.8 Y184.2 E296.23661
G0 F12000 X35.2 Y184.8
G1 F2400 X35.2 Y35.2 E301.21233
G1 X184.8 Y35.2 E306.18804
G1 X184.8 Y184.8 E311.16376
G1 X35.2 Y184.8 E316.13947
G0 F12000 X35.566 Y184.624
;TYPE:SKIN
G1 F2400 X35.374 Y184.432 E316.14399
G0 F12000 X35.611 Y184.386
G1 F2400 X36.006 Y184.499 E316.15252
G1 X91.161 Y184.499 E317.29785
G1 X146.315 Y184.499 E318.44316
G1 X184.499 Y184.499 E319.23607
G1 X184.499 Y129.345 E320.38138
G1 X184.499 Y74.19 E321.52671
G1 X184.499 Y36.007 E322.3196
G1 X184.387 Y35.612 E322.32813
G1 X183.709 Y35.499 E322.3424
G1 X128.554 Y35.499 E323.48773
G1 X73.4 Y35.499 E324.63303
G1 X35.499 Y35.499 E325.42007
G1 X35.499 Y90.653 E326.56538
G1 X35.499 Y145.808 E327.71071
G1 X35.499 Y183.991 E328.5036
G1 F1500 E322.5036
G0 F12000 X35.6 Y184.117
G0 X35.672 Y35.672
G0 X184.433 Y35.4
G0 X184.433 Y35.375
G1 F1500 E328.5036
G1 F2400 X184.624 Y35.566 E328.50809
G0 F12000 X184.582 Y35.418
G1 F1500 E322.50809
G0 F12000 X85.6 Y35.7
G0 X85.6 Y36.665
G0 X85.6 Y84.335
G0 X85.6 Y85.32
G0 X85.6 Y134.2
G0 X85.8 Y134.2
;TYPE:WALL-OUTER
G1 F1500 E328.50809
G1 F2400 X134.2 Y134.2 E330.11788
G1 X134.2 Y85.8 E331.72767
G1 X85.8 Y85.8 E333.33746
G1 X85.8 Y134.2 E334.94725
G0 F12000 X85.2 Y134.8
G1 F2400 X85.2 Y85.2 E336.59696
G1 X134.8 Y85.2 E338.24666
G1 X134.8 Y134.8 E339.89636
G1 X85.2 Y134.8 E341.54606
G0 F12000 X85.392 Y134.606
;TYPE:SKIN
G1 F2400 X85.533 Y134.465 E341.55021
G1 X85.499 Y132.451 E341.59203
G1 X85.499 Y85.499 E342.56693
G1 X134.148 Y85.499 E343.57707
G1 X134.499 Y85.85 E343.58738
G1 X134.499 Y134.499 E344.59752
G1 X85.85 Y134.499 E345.60766
G1 F1500 E339.60766
G0 F12000 X85.725 Y134.4
G0 X134.328 Y134.328
G0 X134.6 Y85.692
G0 X134.624 Y85.692
G1 F1500 E345.60766
G1 F2400 X134.306 Y85.374 E345.61514
G0 F12000 X134.589 Y85.374
G1 F2400 X134.624 Y85.41 E345.61597
;TIME_ELAPSED:438.541939
G1 F1500 E339.61597
M140 S0
M107
G91 ;Relative positioning
G1 E-2 F2700 ;Retract a bit
G1 E-2 Z0.2 F2400 ;Retract and raise Z
G1 X5 Y5 F3000 ;Wipe out
G1 Z10 ;Raise Z more
G90 ;Absolute positionning

G1 X0 Y0 ;Present print
M106 S0 ;Turn-off fan
M104 S0 ;Turn-off hotend
M140 S0 ;Turn-off bed

M84 X Y E ;Disable all steppers but Z

M82 ;absolute extrusion mode
M104 S0
;End of Gcode
;SETTING_3 {"global_quality": "[general]\\nversion = 4\\nname = Standard Quality
;SETTING_3  #2\\ndefinition = creality_ender5\\n\\n[metadata]\\nquality_type = s
;SETTING_3 tandard\\ntype = quality_changes\\n\\n[values]\\nadhesion_type = none
;SETTING_3 \\n\\n", "extruder_quality": ["[general]\\nversion = 4\\nname = Stand
;SETTING_3 ard Quality #2\\ndefinition = creality_ender5\\n\\n[metadata]\\nposit
;SETTING_3 ion = 0\\nquality_type = standard\\ntype = quality_changes\\n\\n[valu
;SETTING_3 es]\\nretraction_amount = 6\\nretraction_count_max = 90\\nsupport_ang
;SETTING_3 le = 70\\n\\n"]}
