;FLAVOR:Marlin
;TIME:1363
;Filament used: 0.607151m
;Layer height: 0.2
;MINX:101.1
;MINY:88.6
;MINZ:0.24
;MAXX:118.9
;MAXY:131.4
;MAXZ:32
;Generated with Cura_SteamEngine 4.8.0
M140 S50
M105
M190 S50
M104 S215
M105
M109 S215
M82 ;absolute extrusion mode
M201 X500.00 Y500.00 Z100.00 E5000.00 ;Setup machine max acceleration
M203 X500.00 Y500.00 Z10.00 E50.00 ;Setup machine max feedrate
M204 P500.00 R1000.00 T500.00 ;Setup Print/Retract/Travel acceleration
M205 X8.00 Y8.00 Z0.40 E5.00 ;Setup Jerk
M220 S100 ;Reset Feedrate
M221 S100 ;Reset Flowrate

;*** Start Dual Nozzle/Bed Preheating ***
M140 S50 ; start preheating the bed
M104 S215 ﻿T0 ; start preheating hotend
M190 S50 ; heat to Cura Bed setting and WAIT
M109 S215 ﻿T0 ; heat to Cura Hotend and WAIT
;*** End Preheating ***

G28 ; home

G92 E0 ;Reset Extruder
G1 Z2.0 F3000 ;Move Z Axis up

;*** Single Print Start Tone
M300 S1000 P500 ; chirp to indicate starting to print
;*** End Single Start Tone

G1 X10.1 Y20 Z0.28 F5000.0 ;Move to start position
G1 X10.1 Y200.0 Z0.28 F1500.0 E15 ;Draw the first line
G1 X10.4 Y200.0 Z0.28 F5000.0 ;Move to side a little
G1 X10.4 Y20 Z0.28 F1500.0 E30 ;Draw the second line
G92 E0 ;Reset Extruder
G1 Z2.0 F3000 ;Move Z Axis up
G92 E0
G92 E0
G1 F2400 E-2
;LAYER_COUNT:134
;LAYER:0
M106 S63.8
M204 S500
M205 X6 Y6
G1 F300 Z0.44
G0 F9000 X101.627 Y89.01 Z0.44
;TYPE:SKIRT
G1 F300 Z0.24
G1 F1200 E0
G1 F1800 X101.89 Y88.804 E0.01333
G1 X102.194 Y88.665 E0.02668
G1 X102.617 Y88.6 E0.04376
G1 X117.383 Y88.6 E0.6331
G1 X117.715 Y88.64 E0.64645
G1 X118.027 Y88.757 E0.65975
G1 X118.49 Y89.127 E0.6834
G1 X118.696 Y89.39 E0.69673
G1 X118.835 Y89.694 E0.71008
G1 X118.9 Y90.117 E0.72716
G1 X118.9 Y129.883 E2.3143
G1 X118.86 Y130.215 E2.32765
G1 X118.743 Y130.527 E2.34095
G1 X118.373 Y130.99 E2.3646
G1 X118.11 Y131.196 E2.37794
G1 X117.806 Y131.335 E2.39128
G1 X117.383 Y131.4 E2.40836
G1 X102.617 Y131.4 E2.9977
G1 X102.285 Y131.36 E3.01105
G1 X101.973 Y131.243 E3.02435
G1 X101.51 Y130.873 E3.048
G1 X101.304 Y130.61 E3.06134
G1 X101.165 Y130.306 E3.07468
G1 X101.1 Y129.883 E3.09176
G1 X101.1 Y90.117 E4.67891
G1 X101.14 Y89.785 E4.69225
G1 X101.257 Y89.473 E4.70555
G1 X101.627 Y89.01 E4.72921
G0 F9000 X101.91 Y89.293
G1 F1800 X102.136 Y89.124 E4.74047
G1 X102.4 Y89.024 E4.75174
G1 X102.617 Y89 E4.76045
G1 X117.383 Y89 E5.3498
G1 X117.662 Y89.04 E5.36105
G1 X117.919 Y89.156 E5.3723
G1 X118.207 Y89.41 E5.38763
G1 X118.376 Y89.636 E5.39889
G1 X118.476 Y89.9 E5.41016
G1 X118.5 Y90.117 E5.41887
G1 X118.5 Y129.883 E7.00602
G1 X118.46 Y130.162 E7.01727
G1 X118.344 Y130.419 E7.02852
G1 X118.09 Y130.707 E7.04385
G1 X117.864 Y130.876 E7.05511
G1 X117.6 Y130.976 E7.06638
G1 X117.383 Y131 E7.07509
G1 X102.617 Y131 E7.66443
G1 X102.338 Y130.96 E7.67568
G1 X102.081 Y130.844 E7.68694
G1 X101.793 Y130.59 E7.70226
G1 X101.624 Y130.364 E7.71353
G1 X101.524 Y130.1 E7.72479
G1 X101.5 Y129.883 E7.73351
G1 X101.5 Y90.117 E9.32066
G1 X101.54 Y89.838 E9.3319
G1 X101.656 Y89.581 E9.34316
G1 X101.91 Y89.293 E9.35849
G0 F9000 X102.193 Y89.576
G1 F1800 X102.372 Y89.452 E9.36718
G1 X102.617 Y89.4 E9.37717
G1 X117.383 Y89.4 E9.96652
G1 X117.598 Y89.44 E9.97524
G1 X117.924 Y89.693 E9.99171
G1 X118.048 Y89.872 E10.00041
G1 X118.1 Y90.117 E10.0104
G1 X118.1 Y129.883 E11.59755
G1 X118.06 Y130.098 E11.60628
G1 X117.807 Y130.424 E11.62275
G1 X117.628 Y130.548 E11.63144
G1 X117.383 Y130.6 E11.64143
G1 X102.617 Y130.6 E12.23078
G1 X102.402 Y130.56 E12.23951
G1 X102.076 Y130.307 E12.25598
G1 X101.952 Y130.128 E12.26467
G1 X101.9 Y129.883 E12.27466
G1 X101.9 Y90.117 E13.86181
G1 X101.94 Y89.902 E13.87054
G1 X102.193 Y89.576 E13.88701
G0 F9000 X102.476 Y89.859
G1 F1800 X102.617 Y89.8 E13.89311
G1 X117.383 Y89.8 E14.48245
G1 X117.524 Y89.859 E14.48855
G1 X117.641 Y89.976 E14.49516
G1 X117.7 Y90.117 E14.50126
G1 X117.7 Y129.883 E16.0884
G1 X117.641 Y130.024 E16.0945
G1 X117.524 Y130.141 E16.10111
G1 X117.383 Y130.2 E16.10721
G1 X102.617 Y130.2 E16.69655
G1 X102.476 Y130.141 E16.70265
G1 X102.359 Y130.024 E16.70926
G1 X102.3 Y129.883 E16.71536
G1 X102.3 Y90.117 E18.3025
G1 X102.359 Y89.976 E18.3086
G1 X102.476 Y89.859 E18.31521
G1 F2400 E16.31521
G1 F300 Z0.44
;MESH:Retraction.stl
G0 F9000 X117.3 Y90.2 Z0.44
;TYPE:WALL-OUTER
G1 F300 Z0.24
G1 F1200 E18.31521
G1 F1800 X117.3 Y129.8 E19.89573
G1 X102.7 Y129.8 E20.47845
G1 X102.7 Y90.2 E22.05897
G1 X117.3 Y90.2 E22.64169
G1 F2400 E20.64169
G1 F300 Z0.44
G0 F9000 X103.1 Y90.6 Z0.44
;TYPE:WALL-INNER
G1 F300 Z0.24
G1 F1200 E22.64169
G1 F1800 X116.9 Y90.6 E23.19247
G1 X116.9 Y129.4 E24.74107
G1 X103.1 Y129.4 E25.29185
G1 X103.1 Y90.6 E26.84045
G0 F9000 X103.5 Y91
G1 F1800 X116.5 Y91 E27.3593
G1 X116.5 Y129 E28.87597
G1 X103.5 Y129 E29.39482
G1 X103.5 Y91 E30.91149
G0 F9000 X103.89 Y91.39
;TYPE:SKIN
G1 F1800 X116.11 Y91.39 E31.39921
G1 X116.11 Y128.61 E32.88474
G1 X103.89 Y128.61 E33.37247
G1 X103.89 Y91.39 E34.858
G1 F2400 E32.858
G1 F300 Z0.44
G0 F9000 X115.949 Y91.625 Z0.44
G1 F300 Z0.24
G1 F1200 E34.858
G1 F1800 X115.875 Y91.55 E34.86221
G0 F9000 X115.309 Y91.55
G1 F1800 X115.949 Y92.191 E34.89836
G0 F9000 X115.949 Y92.756
G1 F1800 X114.743 Y91.55 E34.96643
G0 F9000 X114.177 Y91.55
G1 F1800 X115.949 Y93.322 E35.06645
G0 F9000 X115.949 Y93.888
G1 F1800 X113.612 Y91.55 E35.19839
G0 F9000 X113.046 Y91.55
G1 F1800 X115.949 Y94.453 E35.36225
G0 F9000 X115.949 Y95.019
G1 F1800 X112.48 Y91.55 E35.55805
G0 F9000 X111.915 Y91.55
G1 F1800 X115.949 Y95.585 E35.78578
G0 F9000 X115.949 Y96.15
G1 F1800 X111.349 Y91.55 E36.04542
G0 F9000 X110.783 Y91.55
G1 F1800 X115.949 Y96.716 E36.33701
G0 F9000 X115.949 Y97.282
G1 F1800 X110.218 Y91.55 E36.66052
G0 F9000 X109.652 Y91.55
G1 F1800 X115.949 Y97.848 E37.01598
G0 F9000 X115.949 Y98.413
G1 F1800 X109.086 Y91.55 E37.40336
G0 F9000 X108.521 Y91.55
G1 F1800 X115.949 Y98.979 E37.82265
G0 F9000 X115.949 Y99.545
G1 F1800 X107.955 Y91.55 E38.2739
G0 F9000 X107.389 Y91.55
G1 F1800 X115.949 Y100.11 E38.75706
G0 F9000 X115.949 Y100.676
G1 F1800 X106.824 Y91.55 E39.27214
G0 F9000 X106.258 Y91.55
G1 F1800 X115.949 Y101.242 E39.81917
G0 F9000 X115.949 Y101.807
G1 F1800 X105.692 Y91.55 E40.39812
G0 F9000 X105.126 Y91.55
G1 F1800 X115.949 Y102.373 E41.00902
G0 F9000 X115.949 Y102.939
G1 F1800 X104.561 Y91.55 E41.65184
G0 F9000 X104.049 Y91.604
G1 F1800 X115.949 Y103.504 E42.32352
G0 F9000 X115.949 Y104.07
G1 F1800 X104.049 Y92.169 E42.99524
G0 F9000 X104.049 Y92.735
G1 F1800 X115.949 Y104.636 E43.66696
G0 F9000 X115.949 Y105.201
G1 F1800 X104.049 Y93.301 E44.33864
G0 F9000 X104.049 Y93.867
G1 F1800 X115.949 Y105.767 E45.01033
G0 F9000 X115.949 Y106.333
G1 F1800 X104.049 Y94.432 E45.68205
G0 F9000 X104.049 Y94.998
G1 F1800 X115.949 Y106.898 E46.35373
G0 F9000 X115.949 Y107.464
G1 F1800 X104.049 Y95.564 E47.02542
G0 F9000 X104.049 Y96.129
G1 F1800 X115.949 Y108.03 E47.69714
G0 F9000 X115.949 Y108.596
G1 F1800 X104.049 Y96.695 E48.36885
G0 F9000 X104.049 Y97.261
G1 F1800 X115.949 Y109.161 E49.04054
G0 F9000 X115.949 Y109.727
G1 F1800 X104.049 Y97.826 E49.71226
G0 F9000 X104.049 Y98.392
G1 F1800 X115.949 Y110.293 E50.38397
G0 F9000 X115.949 Y110.858
G1 F1800 X104.049 Y98.958 E51.05566
G0 F9000 X104.049 Y99.523
G1 F1800 X115.949 Y111.424 E51.72737
G0 F9000 X115.949 Y111.99
G1 F1800 X104.049 Y100.089 E52.39909
G0 F9000 X104.049 Y100.655
G1 F1800 X115.949 Y112.555 E53.07078
G0 F9000 X115.949 Y113.121
G1 F1800 X104.049 Y101.22 E53.74249
G0 F9000 X104.049 Y101.786
G1 F1800 X115.949 Y113.687 E54.41421
G0 F9000 X115.949 Y114.252
G1 F1800 X104.049 Y102.352 E55.0859
G0 F9000 X104.049 Y102.917
G1 F1800 X115.949 Y114.818 E55.75761
G0 F9000 X115.949 Y115.384
G1 F1800 X104.049 Y103.483 E56.42933
G0 F9000 X104.049 Y104.049
G1 F1800 X115.949 Y115.949 E57.10101
G0 F9000 X115.949 Y116.515
G1 F1800 X104.049 Y104.615 E57.7727
G0 F9000 X104.049 Y105.18
G1 F1800 X115.949 Y117.081 E58.44442
G0 F9000 X115.949 Y117.647
G1 F1800 X104.049 Y105.746 E59.11613
G0 F9000 X104.049 Y106.312
G1 F1800 X115.949 Y118.212 E59.78782
G0 F9000 X115.949 Y118.778
G1 F1800 X104.049 Y106.877 E60.45954
G0 F9000 X104.049 Y107.443
G1 F1800 X115.949 Y119.344 E61.13125
G0 F9000 X115.949 Y119.909
G1 F1800 X104.049 Y108.009 E61.80294
G0 F9000 X104.049 Y108.574
G1 F1800 X115.949 Y120.475 E62.47465
G0 F9000 X115.949 Y121.041
G1 F1800 X104.049 Y109.14 E63.14637
G0 F9000 X104.049 Y109.706
G1 F1800 X115.949 Y121.606 E63.81806
G0 F9000 X115.949 Y122.172
G1 F1800 X104.049 Y110.271 E64.48977
G0 F9000 X104.049 Y110.837
G1 F1800 X115.949 Y122.738 E65.16149
G0 F9000 X115.949 Y123.303
G1 F1800 X104.049 Y111.403 E65.83318
G0 F9000 X104.049 Y111.968
G1 F1800 X115.949 Y123.869 E66.50489
G0 F9000 X115.949 Y124.435
G1 F1800 X104.049 Y112.534 E67.17661
G0 F9000 X104.049 Y113.1
G1 F1800 X115.949 Y125 E67.8483
G0 F9000 X115.949 Y125.566
G1 F1800 X104.049 Y113.666 E68.51998
G0 F9000 X104.049 Y114.231
G1 F1800 X115.949 Y126.132 E69.1917
G0 F9000 X115.949 Y126.697
G1 F1800 X104.049 Y114.797 E69.86339
G0 F9000 X104.049 Y115.363
G1 F1800 X115.949 Y127.263 E70.53507
G0 F9000 X115.949 Y127.829
G1 F1800 X104.049 Y115.928 E71.20679
G0 F9000 X104.049 Y116.494
G1 F1800 X115.949 Y128.395 E71.8785
G0 F9000 X115.438 Y128.448
G1 F1800 X104.049 Y117.06 E72.52132
G0 F9000 X104.049 Y117.625
G1 F1800 X114.872 Y128.448 E73.13222
G0 F9000 X114.306 Y128.448
G1 F1800 X104.049 Y118.191 E73.71117
G0 F9000 X104.049 Y118.757
G1 F1800 X113.74 Y128.448 E74.25817
G0 F9000 X113.175 Y128.448
G1 F1800 X104.049 Y119.322 E74.77328
G0 F9000 X104.049 Y119.888
G1 F1800 X112.609 Y128.448 E75.25644
G0 F9000 X112.043 Y128.448
G1 F1800 X104.049 Y120.454 E75.70766
G0 F9000 X104.049 Y121.019
G1 F1800 X111.478 Y128.448 E76.12698
G0 F9000 X110.912 Y128.448
G1 F1800 X104.049 Y121.585 E76.51436
G0 F9000 X104.049 Y122.151
G1 F1800 X110.346 Y128.448 E76.86979
G0 F9000 X109.781 Y128.448
G1 F1800 X104.049 Y122.716 E77.19333
G0 F9000 X104.049 Y123.282
G1 F1800 X109.215 Y128.448 E77.48492
G0 F9000 X108.649 Y128.448
G1 F1800 X104.049 Y123.848 E77.74457
G0 F9000 X104.049 Y124.414
G1 F1800 X108.084 Y128.448 E77.97229
G0 F9000 X107.518 Y128.448
G1 F1800 X104.049 Y124.979 E78.1681
G0 F9000 X104.049 Y125.545
G1 F1800 X106.952 Y128.448 E78.33195
G0 F9000 X106.387 Y128.448
G1 F1800 X104.049 Y126.111 E78.46389
G0 F9000 X104.049 Y126.676
G1 F1800 X105.821 Y128.448 E78.56391
G0 F9000 X105.255 Y128.448
G1 F1800 X104.049 Y127.242 E78.63198
G0 F9000 X104.049 Y127.808
G1 F1800 X104.689 Y128.448 E78.66811
G0 F9000 X104.124 Y128.448
G1 F1800 X104.049 Y128.373 E78.67234
G1 F2400 E76.67234
G1 F300 Z0.44
;MESH:NONMESH
G0 F9000 X117.3 Y90.2 Z0.44
;TIME_ELAPSED:82.257097
;LAYER:1
M140 S40
M106 S127.5
;MESH:Retraction.stl
G0 X117.3 Y90.2 Z0.68
;TYPE:WALL-OUTER
G1 F300 Z0.48
G1 F1200 E78.67234
G1 F2100 X117.3 Y129.8 E80.25286
G1 X102.7 Y129.8 E80.83558
G1 X102.7 Y90.2 E82.4161
G1 X117.3 Y90.2 E82.99882
G1 F2400 E80.99882
G1 F300 Z0.68
G0 F9000 X103.1 Y90.6 Z0.68
;TYPE:WALL-INNER
G1 F300 Z0.48
G1 F1200 E82.99882
G1 F2100 X116.9 Y90.6 E83.54961
G1 X116.9 Y129.4 E85.0982
G1 X103.1 Y129.4 E85.64899
G1 X103.1 Y90.6 E87.19758
G0 F9000 X103.5 Y91
G1 F2100 X116.5 Y91 E87.71644
G1 X116.5 Y129 E89.2331
G1 X103.5 Y129 E89.75196
G1 X103.5 Y91 E91.26862
G0 F9000 X103.89 Y91.39
;TYPE:SKIN
G1 F2100 X116.11 Y91.39 E91.75635
G1 X116.11 Y128.61 E93.24188
G1 X103.89 Y128.61 E93.7296
G1 X103.89 Y91.39 E95.21513
G0 F9000 X104.05 Y91.677
G1 F2100 X104.177 Y91.549 E95.22233
G0 F9000 X104.743 Y91.549
G1 F2100 X104.05 Y92.242 E95.26145
G0 F9000 X104.05 Y92.808
G1 F2100 X105.308 Y91.549 E95.33248
G0 F9000 X105.874 Y91.549
G1 F2100 X104.05 Y93.374 E95.43546
G0 F9000 X104.05 Y93.939
G1 F2100 X106.44 Y91.549 E95.57037
G0 F9000 X107.005 Y91.549
G1 F2100 X104.05 Y94.505 E95.73719
G0 F9000 X104.05 Y95.071
G1 F2100 X107.571 Y91.549 E95.93596
G0 F9000 X108.137 Y91.549
G1 F2100 X104.05 Y95.636 E96.16664
G0 F9000 X104.05 Y96.202
G1 F2100 X108.702 Y91.549 E96.42925
G0 F9000 X109.268 Y91.549
G1 F2100 X104.05 Y96.768 E96.72381
G0 F9000 X104.05 Y97.333
G1 F2100 X109.834 Y91.549 E97.05028
G0 F9000 X110.399 Y91.549
G1 F2100 X104.05 Y97.899 E97.40867
G0 F9000 X104.05 Y98.465
G1 F2100 X110.965 Y91.549 E97.79901
G0 F9000 X111.531 Y91.549
G1 F2100 X104.05 Y99.031 E98.2213
G0 F9000 X104.05 Y99.596
G1 F2100 X112.096 Y91.549 E98.67548
G0 F9000 X112.662 Y91.549
G1 F2100 X104.05 Y100.162 E99.16161
G0 F9000 X104.05 Y100.728
G1 F2100 X113.228 Y91.549 E99.67968
G0 F9000 X113.793 Y91.549
G1 F2100 X104.05 Y101.293 E100.22965
G0 F9000 X104.05 Y101.859
G1 F2100 X114.359 Y91.549 E100.81156
G0 F9000 X114.925 Y91.549
G1 F2100 X104.05 Y102.425 E101.42542
G0 F9000 X104.05 Y102.99
G1 F2100 X115.491 Y91.549 E102.0712
G0 F9000 X115.949 Y91.657
G1 F2100 X104.05 Y103.556 E102.74283
G0 F9000 X104.05 Y104.122
G1 F2100 X115.949 Y92.222 E103.41449
G0 F9000 X115.949 Y92.788
G1 F2100 X104.05 Y104.687 E104.08612
G0 F9000 X104.05 Y105.253
G1 F2100 X115.949 Y93.354 E104.75775
G0 F9000 X115.949 Y93.92
G1 F2100 X104.05 Y105.819 E105.42938
G0 F9000 X104.05 Y106.384
G1 F2100 X115.949 Y94.485 E106.10101
G0 F9000 X115.949 Y95.051
G1 F2100 X104.05 Y106.95 E106.77264
G0 F9000 X104.05 Y107.516
G1 F2100 X115.949 Y95.617 E107.44428
G0 F9000 X115.949 Y96.182
G1 F2100 X104.05 Y108.081 E108.11591
G0 F9000 X104.05 Y108.647
G1 F2100 X115.949 Y96.748 E108.78754
G0 F9000 X115.949 Y97.314
G1 F2100 X104.05 Y109.213 E109.45917
G0 F9000 X104.05 Y109.779
G1 F2100 X115.949 Y97.879 E110.13083
G0 F9000 X115.949 Y98.445
G1 F2100 X104.05 Y110.344 E110.80246
G0 F9000 X104.05 Y110.91
G1 F2100 X115.949 Y99.011 E111.47409
G0 F9000 X115.949 Y99.576
G1 F2100 X104.05 Y111.476 E112.14575
G0 F9000 X104.05 Y112.041
G1 F2100 X115.949 Y100.142 E112.81738
G0 F9000 X115.949 Y100.708
G1 F2100 X104.05 Y112.607 E113.48901
G0 F9000 X104.05 Y113.173
G1 F2100 X115.949 Y101.273 E114.16067
G0 F9000 X115.949 Y101.839
G1 F2100 X104.05 Y113.738 E114.8323
G0 F9000 X104.05 Y114.304
G1 F2100 X115.949 Y102.405 E115.50393
G0 F9000 X115.949 Y102.971
G1 F2100 X104.05 Y114.87 E116.17556
G0 F9000 X104.05 Y115.435
G1 F2100 X115.949 Y103.536 E116.84719
G0 F9000 X115.949 Y104.102
G1 F2100 X104.05 Y116.001 E117.51882
G0 F9000 X104.05 Y116.567
G1 F2100 X115.949 Y104.668 E118.19046
G0 F9000 X115.949 Y105.233
G1 F2100 X104.05 Y117.132 E118.86209
G0 F9000 X104.05 Y117.698
G1 F2100 X115.949 Y105.799 E119.53372
G0 F9000 X115.949 Y106.365
G1 F2100 X104.05 Y118.264 E120.20535
G0 F9000 X104.05 Y118.83
G1 F2100 X115.949 Y106.93 E120.87701
G0 F9000 X115.949 Y107.496
G1 F2100 X104.05 Y119.395 E121.54864
G0 F9000 X104.05 Y119.961
G1 F2100 X115.949 Y108.062 E122.22027
G0 F9000 X115.949 Y108.627
G1 F2100 X104.05 Y120.527 E122.89193
G0 F9000 X104.05 Y121.092
G1 F2100 X115.949 Y109.193 E123.56356
G0 F9000 X115.949 Y109.759
G1 F2100 X104.05 Y121.658 E124.23519
G0 F9000 X104.05 Y122.224
G1 F2100 X115.949 Y110.324 E124.90685
G0 F9000 X115.949 Y110.89
G1 F2100 X104.05 Y122.789 E125.57848
G0 F9000 X104.05 Y123.355
G1 F2100 X115.949 Y111.456 E126.25011
G0 F9000 X115.949 Y112.021
G1 F2100 X104.05 Y123.921 E126.92177
G0 F9000 X104.05 Y124.486
G1 F2100 X115.949 Y112.587 E127.5934
G0 F9000 X115.949 Y113.153
G1 F2100 X104.05 Y125.052 E128.26503
G0 F9000 X104.05 Y125.618
G1 F2100 X115.949 Y113.719 E128.93666
G0 F9000 X115.949 Y114.284
G1 F2100 X104.05 Y126.183 E129.60829
G0 F9000 X104.05 Y126.749
G1 F2100 X115.949 Y114.85 E130.27993
G0 F9000 X115.949 Y115.416
G1 F2100 X104.05 Y127.315 E130.95156
G0 F9000 X104.05 Y127.88
G1 F2100 X115.949 Y115.981 E131.62319
G0 F9000 X115.949 Y116.547
G1 F2100 X104.05 Y128.446 E132.29482
G0 F9000 X104.612 Y128.449
G1 F2100 X115.949 Y117.113 E132.9347
G0 F9000 X115.949 Y117.678
G1 F2100 X105.178 Y128.449 E133.54266
G0 F9000 X105.744 Y128.449
G1 F2100 X115.949 Y118.244 E134.11868
G0 F9000 X115.949 Y118.81
G1 F2100 X106.309 Y128.449 E134.66277
G0 F9000 X106.875 Y128.449
G1 F2100 X115.949 Y119.375 E135.17495
G0 F9000 X115.949 Y119.941
G1 F2100 X107.441 Y128.449 E135.65518
G0 F9000 X108.007 Y128.449
G1 F2100 X115.949 Y120.507 E136.10346
G0 F9000 X115.949 Y121.072
G1 F2100 X108.572 Y128.449 E136.51985
G0 F9000 X109.138 Y128.449
G1 F2100 X115.949 Y121.638 E136.90429
G0 F9000 X115.949 Y122.204
