;FLAVOR:Marlin
;TIME:804
;Filament used: 0.294143m
;Layer height: 0.2
;MINX:102.106
;MINY:85.942
;MINZ:0.2
;MAXX:130.306
;MAXY:137.142
;MAXZ:23
;Generated with Cura_SteamEngine 4.4.1
M140 S40
M105
M190 S40
M104 S215
M105
M109 S215
M82 ;absolute extrusion mode
M201 X500.00 Y500.00 Z100.00 E5000.00 ;Setup machine max acceleration
M203 X500.00 Y500.00 Z10.00 E50.00 ;Setup machine max feedrate
M204 P500.00 R1000.00 T500.00 ;Setup Print/Retract/Travel acceleration
M205 X8.00 Y8.00 Z0.40 E5.00 ;Setup Jerk
M220 S100 ;Reset Feedrate
M221 S100 ;Reset Flowrate

G28 ;Home

G92 E0 ;Reset Extruder
G1 Z2.0 F3000 ;Move Z Axis up
G1 X10.1 Y20 Z0.28 F5000.0 ;Move to start position
G1 X10.1 Y200.0 Z0.28 F1500.0 E15 ;Draw the first line
G1 X10.4 Y200.0 Z0.28 F5000.0 ;Move to side a little
G1 X10.4 Y20 Z0.28 F1500.0 E30 ;Draw the second line
G92 E0 ;Reset Extruder
G1 Z2.0 F3000 ;Move Z Axis up

G92 E0
G92 E0
G1 F1800 E-3
;LAYER_COUNT:97
;LAYER:0
M107
G0 F6000 X104.667 Y89.653 Z0.2
;TYPE:SKIRT
G1 F1800 E0
G1 F1200 X105.295 Y88.981 E0.03059
G1 X105.98 Y88.365 E0.06123
G1 X106.716 Y87.812 E0.09185
G1 X107.497 Y87.324 E0.12248
G1 X108.317 Y86.906 E0.15309
G1 X109.171 Y86.561 E0.18373
G1 X110.051 Y86.291 E0.21434
G1 X110.951 Y86.099 E0.24495
G1 X111.865 Y85.985 E0.27559
G1 X112.418 Y85.955 E0.29401
G1 X112.739 Y85.946 E0.30469
G1 X113.036 Y85.942 E0.31457
G1 X118.999 Y85.942 E0.5129
G1 X119.151 Y85.943 E0.51795
G1 X119.849 Y85.953 E0.54117
G1 X120.768 Y86.006 E0.57179
G1 X121.679 Y86.139 E0.60241
G1 X122.575 Y86.35 E0.63302
G1 X123.449 Y86.638 E0.66363
G1 X124.296 Y87.001 E0.69428
G1 X125.107 Y87.436 E0.72489
G1 X125.877 Y87.94 E0.7555
G1 X126.601 Y88.509 E0.78613
G1 X127.273 Y89.139 E0.81676
G1 X127.888 Y89.824 E0.84738
G1 X128.441 Y90.56 E0.878
G1 X128.928 Y91.341 E0.90861
G1 X129.345 Y92.162 E0.93924
G1 X129.69 Y93.016 E0.96987
G1 X129.959 Y93.896 E1.00048
G1 X130.151 Y94.797 E1.03112
G1 X130.264 Y95.71 E1.06172
G1 X130.293 Y96.254 E1.07984
G1 X130.302 Y96.574 E1.09049
G1 X130.306 Y96.872 E1.1004
G1 X130.306 Y125.806 E2.06275
G1 X130.305 Y125.937 E2.0671
G1 X130.296 Y126.664 E2.09129
G1 X130.245 Y127.583 E2.1219
G1 X130.114 Y128.495 E2.15254
G1 X129.904 Y129.391 E2.18315
G1 X129.618 Y130.266 E2.21377
G1 X129.257 Y131.113 E2.24439
G1 X128.823 Y131.925 E2.27502
G1 X128.321 Y132.697 E2.30564
G1 X127.753 Y133.422 E2.33628
G1 X127.125 Y134.095 E2.36689
G1 X126.441 Y134.711 E2.39751
G1 X125.706 Y135.265 E2.42812
G1 X124.926 Y135.754 E2.45874
G1 X124.106 Y136.173 E2.48937
G1 X123.253 Y136.519 E2.51998
G1 X122.373 Y136.79 E2.55061
G1 X121.473 Y136.983 E2.58122
G1 X120.559 Y137.098 E2.61186
G1 X119.994 Y137.129 E2.63068
G1 X119.673 Y137.138 E2.64136
G1 X119.376 Y137.142 E2.65124
G1 X113.413 Y137.142 E2.84957
G1 X113.276 Y137.141 E2.85413
G1 X112.578 Y137.132 E2.87735
G1 X111.659 Y137.08 E2.90796
G1 X110.748 Y136.949 E2.93857
G1 X109.852 Y136.739 E2.96918
G1 X108.977 Y136.452 E2.99981
G1 X108.13 Y136.09 E3.03045
G1 X107.318 Y135.656 E3.06107
G1 X106.547 Y135.154 E3.09167
G1 X105.822 Y134.586 E3.1223
G1 X105.149 Y133.957 E3.15294
G1 X104.534 Y133.273 E3.18354
G1 X103.98 Y132.538 E3.21415
G1 X103.492 Y131.757 E3.24478
G1 X103.073 Y130.937 E3.27541
G1 X102.727 Y130.084 E3.30602
G1 X102.457 Y129.204 E3.33664
G1 X102.264 Y128.303 E3.36729
G1 X102.15 Y127.39 E3.39789
G1 X102.119 Y126.819 E3.41691
G1 X102.11 Y126.486 E3.42799
G1 X102.106 Y126.2 E3.4375
G1 X102.106 Y97.216 E4.40151
G1 X102.107 Y97.073 E4.40627
G1 X102.116 Y96.408 E4.42839
G1 X102.168 Y95.488 E4.45904
G1 X102.3 Y94.577 E4.48965
G1 X102.511 Y93.681 E4.52027
G1 X102.798 Y92.806 E4.5509
G1 X103.161 Y91.96 E4.58152
G1 X103.595 Y91.148 E4.61214
G1 X104.098 Y90.377 E4.64276
G1 X104.667 Y89.653 E4.67338
G0 F6000 X105.061 Y89.809
G1 F1200 X105.687 Y89.159 E4.7034
G1 X106.368 Y88.566 E4.73343
G1 X107.1 Y88.036 E4.76349
G1 X107.875 Y87.573 E4.79352
G1 X108.688 Y87.18 E4.82355
G1 X109.533 Y86.86 E4.8536
G1 X110.402 Y86.617 E4.88362
G1 X111.29 Y86.451 E4.91366
G1 X112.429 Y86.355 E4.95168
G1 X112.75 Y86.346 E4.96236
G1 X113.036 Y86.342 E4.97187
G1 X118.999 Y86.342 E5.1702
G1 X119.145 Y86.343 E5.17506
G1 X119.843 Y86.353 E5.19828
G1 X120.745 Y86.406 E5.22833
G1 X121.638 Y86.538 E5.25835
G1 X122.516 Y86.749 E5.28839
G1 X123.372 Y87.037 E5.31843
G1 X124.199 Y87.399 E5.34845
G1 X124.991 Y87.834 E5.37851
G1 X125.742 Y88.336 E5.40855
G1 X126.445 Y88.903 E5.43859
G1 X127.095 Y89.53 E5.46863
G1 X127.687 Y90.212 E5.49867
G1 X128.217 Y90.943 E5.5287
G1 X128.679 Y91.719 E5.55874
G1 X129.072 Y92.532 E5.58877
G1 X129.39 Y93.377 E5.6188
G1 X129.633 Y94.247 E5.64884
G1 X129.798 Y95.135 E5.67888
G1 X129.893 Y96.265 E5.7166
G1 X129.902 Y96.585 E5.72725
G1 X129.906 Y96.872 E5.73679
G1 X129.906 Y125.806 E6.69914
G1 X129.905 Y125.932 E6.70333
G1 X129.896 Y126.659 E6.72751
G1 X129.845 Y127.561 E6.75756
G1 X129.714 Y128.455 E6.78762
G1 X129.505 Y129.333 E6.81763
G1 X129.219 Y130.19 E6.84768
G1 X128.858 Y131.018 E6.87773
G1 X128.426 Y131.81 E6.90773
G1 X127.925 Y132.562 E6.93779
G1 X127.359 Y133.266 E6.96783
G1 X126.734 Y133.917 E6.99785
G1 X126.053 Y134.511 E7.0279
G1 X125.322 Y135.042 E7.05795
G1 X124.548 Y135.506 E7.08797
G1 X123.735 Y135.9 E7.11802
G1 X122.891 Y136.22 E7.14804
G1 X122.021 Y136.465 E7.1781
G1 X121.134 Y136.631 E7.20811
G1 X119.983 Y136.729 E7.24653
G1 X119.662 Y136.738 E7.25722
G1 X119.376 Y136.742 E7.26673
G1 X113.413 Y136.742 E7.46506
G1 X113.281 Y136.741 E7.46945
G1 X112.583 Y136.732 E7.49267
G1 X111.682 Y136.681 E7.52268
G1 X110.788 Y136.549 E7.55274
G1 X109.91 Y136.34 E7.58276
G1 X109.053 Y136.053 E7.61282
G1 X108.226 Y135.692 E7.64283
G1 X107.433 Y135.259 E7.67288
G1 X106.682 Y134.758 E7.70291
G1 X105.978 Y134.192 E7.73295
G1 X105.327 Y133.566 E7.76299
G1 X104.734 Y132.885 E7.79302
G1 X104.204 Y132.154 E7.82306
G1 X103.74 Y131.379 E7.8531
G1 X103.346 Y130.566 E7.88315
G1 X103.026 Y129.722 E7.91317
G1 X102.782 Y128.852 E7.94322
G1 X102.616 Y127.964 E7.97327
G1 X102.519 Y126.809 E8.01182
G1 X102.51 Y126.476 E8.0229
G1 X102.506 Y126.2 E8.03208
G1 X102.506 Y97.216 E8.99609
G1 X102.507 Y97.078 E9.00068
G1 X102.516 Y96.413 E9.0228
G1 X102.568 Y95.511 E9.05285
G1 X102.7 Y94.618 E9.08288
G1 X102.91 Y93.74 E9.1129
G1 X103.197 Y92.883 E9.14296
G1 X103.559 Y92.056 E9.17299
G1 X103.992 Y91.264 E9.20301
G1 X104.494 Y90.513 E9.23305
G1 X105.061 Y89.809 E9.26312
G1 F1800 E6.26312
;MESH:Object 2
G0 F6000 X112.041 Y96.956
G0 X113.12 Y96.956
G0 X113.706 Y125.542
;TYPE:WALL-INNER
G1 F1800 E9.26312
G1 F1200 X113.706 Y97.542 E10.1944
G1 X118.706 Y97.542 E10.3607
G1 X118.706 Y125.542 E11.29199
G1 X113.706 Y125.542 E11.45829
G0 F6000 X113.306 Y125.942
G1 F1200 X113.306 Y97.142 E12.41618
G1 X119.106 Y97.142 E12.60909
G1 X119.106 Y125.942 E13.56698
G1 X113.306 Y125.942 E13.75989
G0 F6000 X112.906 Y126.342
;TYPE:WALL-OUTER
G1 F1200 X112.906 Y96.742 E14.74439
G1 X119.506 Y96.742 E14.96391
G1 X119.506 Y126.342 E15.94841
G1 X112.906 Y126.342 E16.16792
G0 F6000 X113.176 Y126.072
G0 X113.816 Y125.152
G0 X114.096 Y125.152
;TYPE:SKIN
G1 F1200 X114.096 Y97.932 E17.07326
G1 X118.316 Y97.932 E17.21362
G1 X118.316 Y125.152 E18.11896
G1 X114.096 Y125.152 E18.25932
G0 F6000 X114.808 Y124.991
G1 F1200 X114.255 Y124.437 E18.28536
G0 F6000 X114.255 Y123.871
G1 F1200 X115.374 Y124.991 E18.33801
G0 F6000 X115.94 Y124.991
G1 F1200 X114.255 Y123.305 E18.41729
G0 F6000 X114.255 Y122.74
G1 F1200 X116.505 Y124.991 E18.52315
G0 F6000 X117.071 Y124.991
G1 F1200 X114.255 Y122.174 E18.65563
G0 F6000 X114.255 Y121.608
G1 F1200 X117.637 Y124.991 E18.81473
G0 F6000 X118.156 Y124.944
G1 F1200 X114.255 Y121.043 E18.99822
G0 F6000 X114.255 Y120.477
G1 F1200 X118.156 Y124.378 E19.18171
G0 F6000 X118.156 Y123.812
G1 F1200 X114.255 Y119.911 E19.36521
G0 F6000 X114.255 Y119.346
G1 F1200 X118.156 Y123.247 E19.5487
G0 F6000 X118.156 Y122.681
G1 F1200 X114.255 Y118.78 E19.73219
G0 F6000 X114.255 Y118.214
G1 F1200 X118.156 Y122.115 E19.91568
G0 F6000 X118.156 Y121.55
G1 F1200 X114.255 Y117.649 E20.09917
G0 F6000 X114.255 Y117.083
G1 F1200 X118.156 Y120.984 E20.28266
G0 F6000 X118.156 Y120.418
G1 F1200 X114.255 Y116.517 E20.46615
G0 F6000 X114.255 Y115.952
G1 F1200 X118.156 Y119.853 E20.64964
G0 F6000 X118.156 Y119.287
G1 F1200 X114.255 Y115.386 E20.83313
G0 F6000 X114.255 Y114.82
G1 F1200 X118.156 Y118.721 E21.01663
G0 F6000 X118.156 Y118.156
G1 F1200 X114.255 Y114.255 E21.20012
G0 F6000 X114.255 Y113.689
G1 F1200 X118.156 Y117.59 E21.38361
G0 F6000 X118.156 Y117.024
G1 F1200 X114.255 Y113.123 E21.5671
G0 F6000 X114.255 Y112.557
G1 F1200 X118.156 Y116.459 E21.75061
G0 F6000 X118.156 Y115.893
G1 F1200 X114.255 Y111.992 E21.9341
G0 F6000 X114.255 Y111.426
G1 F1200 X118.156 Y115.327 E22.1176
G0 F6000 X118.156 Y114.762
G1 F1200 X114.255 Y110.86 E22.30111
G0 F6000 X114.255 Y110.295
G1 F1200 X118.156 Y114.196 E22.4846
G0 F6000 X118.156 Y113.63
G1 F1200 X114.255 Y109.729 E22.66809
G0 F6000 X114.255 Y109.163
G1 F1200 X118.156 Y113.064 E22.85158
G0 F6000 X118.156 Y112.499
G1 F1200 X114.255 Y108.598 E23.03507
G0 F6000 X114.255 Y108.032
G1 F1200 X118.156 Y111.933 E23.21857
G0 F6000 X118.156 Y111.367
G1 F1200 X114.255 Y107.466 E23.40206
G0 F6000 X114.255 Y106.901
G1 F1200 X118.156 Y110.802 E23.58555
G0 F6000 X118.156 Y110.236
G1 F1200 X114.255 Y106.335 E23.76904
G0 F6000 X114.255 Y105.769
G1 F1200 X118.156 Y109.67 E23.95253
G0 F6000 X118.156 Y109.105
G1 F1200 X114.255 Y105.204 E24.13602
G0 F6000 X114.255 Y104.638
G1 F1200 X118.156 Y108.539 E24.31951
G0 F6000 X118.156 Y107.973
G1 F1200 X114.255 Y104.072 E24.503
G0 F6000 X114.255 Y103.506
G1 F1200 X118.156 Y107.408 E24.68652
G0 F6000 X118.156 Y106.842
G1 F1200 X114.255 Y102.941 E24.87001
G0 F6000 X114.255 Y102.375
G1 F1200 X118.156 Y106.276 E25.0535
G0 F6000 X118.156 Y105.711
G1 F1200 X114.255 Y101.809 E25.23701
G0 F6000 X114.255 Y101.244
G1 F1200 X118.156 Y105.145 E25.42051
G0 F6000 X118.156 Y104.579
G1 F1200 X114.255 Y100.678 E25.604
G0 F6000 X114.255 Y100.112
G1 F1200 X118.156 Y104.013 E25.78749
G0 F6000 X118.156 Y103.448
G1 F1200 X114.255 Y99.547 E25.97098
G0 F6000 X114.255 Y98.981
G1 F1200 X118.156 Y102.882 E26.15447
G0 F6000 X118.156 Y102.316
G1 F1200 X114.255 Y98.415 E26.33796
G0 F6000 X114.496 Y98.091
G1 F1200 X118.156 Y101.751 E26.51012
G0 F6000 X118.156 Y101.185
G1 F1200 X115.062 Y98.091 E26.65565
G0 F6000 X115.628 Y98.091
G1 F1200 X118.156 Y100.619 E26.77456
G0 F6000 X118.156 Y100.054
G1 F1200 X116.193 Y98.091 E26.86689
G0 F6000 X116.759 Y98.091
G1 F1200 X118.156 Y99.488 E26.9326
G0 F6000 X118.156 Y98.922
G1 F1200 X117.325 Y98.091 E26.97169
G0 F6000 X117.89 Y98.091
G1 F1200 X118.156 Y98.357 E26.9842
G0 F6000 X118.896 Y98.357
G1 F1800 E23.9842
;MESH:NONMESH
G0 F300 X118.896 Y98.357 Z0.44
G0 F6000 X118.524 Y125.36
G0 X113.706 Y125.542
;TIME_ELAPSED:51.228300
;LAYER:1
M140 S40
M106 S85
;TYPE:WALL-INNER
;MESH:Object 2
G1 F1800 E26.9842
G1 X113.706 Y97.542 E28.10174
G1 X118.706 Y97.542 E28.3013
G1 X118.706 Y125.542 E29.41884
G1 X113.706 Y125.542 E29.6184
G0 F7500 X113.306 Y125.942
G1 F1800 X113.306 Y97.142 E30.76787
G1 X119.106 Y97.142 E30.99936
G1 X119.106 Y125.942 E32.14883
G1 X113.306 Y125.942 E32.38033
G0 F7500 X112.906 Y126.342
;TYPE:WALL-OUTER
G1 F1800 X112.906 Y96.742 E33.56173
G1 X119.506 Y96.742 E33.82515
G1 X119.506 Y126.342 E35.00655
G1 X112.906 Y126.342 E35.26997
G0 F7500 X113.176 Y126.072
G0 X113.816 Y125.152
G0 X114.096 Y125.152
;TYPE:SKIN
G1 F1800 X114.096 Y97.932 E36.35638
G1 X118.316 Y97.932 E36.5248
G1 X118.316 Y125.152 E37.61121
G1 X114.096 Y125.152 E37.77964
G0 F7500 X113.816 Y125.152
G0 X113.88 Y125.339
G0 X117.688 Y125.432
G0 X117.688 Y124.991
G1 F1800 X118.155 Y124.523 E37.80603
G0 F7500 X118.155 Y123.957
G1 F1800 X117.122 Y124.991 E37.86437
G0 F7500 X116.556 Y124.991
G1 F1800 X118.155 Y123.392 E37.95462
G0 F7500 X118.155 Y122.826
G1 F1800 X115.99 Y124.991 E38.07682
G0 F7500 X115.425 Y124.991
G1 F1800 X118.155 Y122.26 E38.23094
G0 F7500 X118.155 Y121.695
G1 F1800 X114.859 Y124.991 E38.41698
G0 F7500 X114.293 Y124.991
G1 F1800 X118.155 Y121.129 E38.63497
G0 F7500 X118.155 Y120.563
G1 F1800 X114.255 Y124.463 E38.8551
G0 F7500 X114.255 Y123.897
G1 F1800 X118.155 Y119.998 E39.07521
G0 F7500 X118.155 Y119.432
G1 F1800 X114.255 Y123.332 E39.29534
G0 F7500 X114.255 Y122.766
G1 F1800 X118.155 Y118.866 E39.51548
G0 F7500 X118.155 Y118.301
G1 F1800 X114.255 Y122.2 E39.73558
G0 F7500 X114.255 Y121.635
G1 F1800 X118.155 Y117.735 E39.95571
G0 F7500 X118.155 Y117.169
G1 F1800 X114.255 Y121.069 E40.17585
G0 F7500 X114.255 Y120.503
G1 F1800 X118.155 Y116.604 E40.39595
G0 F7500 X118.155 Y116.038
G1 F1800 X114.255 Y119.938 E40.61608
G0 F7500 X114.255 Y119.372
G1 F1800 X118.155 Y115.472 E40.83622
G0 F7500 X118.155 Y114.906
G1 F1800 X114.255 Y118.806 E41.05635
G0 F7500 X114.255 Y118.24
G1 F1800 X118.155 Y114.341 E41.27645
G0 F7500 X118.155 Y113.775
G1 F1800 X114.255 Y117.675 E41.49659
G0 F7500 X114.255 Y117.109
G1 F1800 X118.155 Y113.209 E41.71672
G0 F7500 X118.155 Y112.644
G1 F1800 X114.255 Y116.543 E41.93682
G0 F7500 X114.255 Y115.978
G1 F1800 X118.155 Y112.078 E42.15696
G0 F7500 X118.155 Y111.512
G1 F1800 X114.255 Y115.412 E42.37709
G0 F7500 X114.255 Y114.846
G1 F1800 X118.155 Y110.947 E42.59719
G0 F7500 X118.155 Y110.381
G1 F1800 X114.255 Y114.281 E42.81733
G0 F7500 X114.255 Y113.715
G1 F1800 X118.155 Y109.815 E43.03746
G0 F7500 X118.155 Y109.25
G1 F1800 X114.255 Y113.149 E43.25756
G0 F7500 X114.255 Y112.584
G1 F1800 X118.155 Y108.684 E43.4777
G0 F7500 X118.155 Y108.118
G1 F1800 X114.255 Y112.018 E43.69783
G0 F7500 X114.255 Y111.452
G1 F1800 X118.155 Y107.553 E43.91793
G0 F7500 X118.155 Y106.987
G1 F1800 X114.255 Y110.887 E44.13807
G0 F7500 X114.255 Y110.321
G1 F1800 X118.155 Y106.421 E44.3582
G0 F7500 X118.155 Y105.856
G1 F1800 X114.255 Y109.755 E44.5783
G0 F7500 X114.255 Y109.19
G1 F1800 X118.155 Y105.29 E44.79844
G0 F7500 X118.155 Y104.724
G1 F1800 X114.255 Y108.624 E45.01857
G0 F7500 X114.255 Y108.058
G1 F1800 X118.155 Y104.158 E45.2387
G0 F7500 X118.155 Y103.593
G1 F1800 X114.255 Y107.492 E45.45881
G0 F7500 X114.255 Y106.927
G1 F1800 X118.155 Y103.027 E45.67894
G0 F7500 X118.155 Y102.461
G1 F1800 X114.255 Y106.361 E45.89907
G0 F7500 X114.255 Y105.795
G1 F1800 X118.155 Y101.896 E46.11918
G0 F7500 X118.155 Y101.33
G1 F1800 X114.255 Y105.23 E46.33931
G0 F7500 X114.255 Y104.664
G1 F1800 X118.155 Y100.764 E46.55944
G0 F7500 X118.155 Y100.199
G1 F1800 X114.255 Y104.098 E46.77955
G0 F7500 X114.255 Y103.533
G1 F1800 X118.155 Y99.633 E46.99968
G0 F7500 X118.155 Y99.067
G1 F1800 X114.255 Y102.967 E47.21981
G0 F7500 X114.255 Y102.401
G1 F1800 X118.155 Y98.502 E47.43992
G0 F7500 X117.999 Y98.091
G1 F1800 X114.255 Y101.836 E47.65127
G0 F7500 X114.255 Y101.27
G1 F1800 X117.434 Y98.091 E47.83071
G0 F7500 X116.868 Y98.091
G1 F1800 X114.255 Y100.704 E47.9782
G0 F7500 X114.255 Y100.139
G1 F1800 X116.302 Y98.091 E48.09377
G0 F7500 X115.737 Y98.091
G1 F1800 X114.255 Y99.573 E48.17742
G0 F7500 X114.255 Y99.007
G1 F1800 X115.171 Y98.091 E48.22912
G0 F7500 X114.605 Y98.091
G1 F1800 X114.255 Y98.441 E48.24888
G0 F7500 X113.516 Y98.441
;MESH:NONMESH
G0 F300 X113.516 Y98.441 Z0.68
G0 F7500 X113.706 Y125.542
;TIME_ELAPSED:75.345100
;LAYER:2
M106 S170
;TYPE:WALL-INNER
;MESH:Object 2
G1 F2400 X113.706 Y97.542 E49.36642
G1 X118.706 Y97.542 E49.56598
G1 X118.706 Y125.542 E50.68352
G1 X113.706 Y125.542 E50.88308
G0 F9000 X113.306 Y125.942
G1 F2400 X113.306 Y97.142 E52.03255
G1 X119.106 Y97.142 E52.26404
G1 X119.106 Y125.942 E53.41351
G1 X113.306 Y125.942 E53.645
G0 F9000 X112.906 Y126.342
;TYPE:WALL-OUTER
G1 F2400 X112.906 Y96.742 E54.8264
G1 X119.506 Y96.742 E55.08982
G1 X119.506 Y126.342 E56.27122
G1 X112.906 Y126.342 E56.53464
G0 F9000 X113.176 Y126.072
G0 X113.816 Y125.152
G0 X114.096 Y125.152
;TYPE:SKIN
G1 F2400 X114.096 Y97.932 E57.62105
G1 X118.316 Y97.932 E57.78948
G1 X118.316 Y125.152 E58.87589
G1 X114.096 Y125.152 E59.04432
G0 F9000 X114.808 Y124.991
G1 F2400 X114.255 Y124.437 E59.07556
G0 F9000 X114.255 Y123.871
G1 F2400 X115.374 Y124.991 E59.13875
G0 F9000 X115.94 Y124.991
G1 F2400 X114.255 Y123.305 E59.23389
G0 F9000 X114.255 Y122.74
G1 F2400 X116.505 Y124.991 E59.36092
G0 F9000 X117.071 Y124.991
