;FLAVOR:Marlin
;TIME:1854
;Filament used: 1.29803m
;Layer height: 0.16
;MINX:89.572
;MINY:89.575
;MINZ:0.24
;MAXX:130.424
;MAXY:130.425
;MAXZ:19.04
;Generated with Cura_SteamEngine 4.5.0
M140 S50
M105
M190 S50
M104 S215
M105
M109 S215
M82 ;absolute extrusion mode
M201 X500.00 Y500.00 Z100.00 E5000.00 ;Setup machine max acceleration
M203 X500.00 Y500.00 Z10.00 E50.00 ;Setup machine max feedrate
M204 P500.00 R1000.00 T500.00 ;Setup Print/Retract/Travel acceleration
M205 X8.00 Y8.00 Z0.40 E5.00 ;Setup Jerk
M220 S100 ;Reset Feedrate
M221 S100 ;Reset Flowrate

G28 ;Home

G92 E0 ;Reset Extruder
G1 Z2.0 F3000 ;Move Z Axis up
G1 X10.1 Y20 Z0.28 F5000.0 ;Move to start position
G1 X10.1 Y200.0 Z0.28 F1500.0 E15 ;Draw the first line
G1 X10.4 Y200.0 Z0.28 F5000.0 ;Move to side a little
G1 X10.4 Y20 Z0.28 F1500.0 E30 ;Draw the second line
G92 E0 ;Reset Extruder
G1 Z2.0 F3000 ;Move Z Axis up

G92 E0
G92 E0
G1 F1800 E-3
;LAYER_COUNT:131
;LAYER:0
M106 S63.8
M204 S500
M205 X6 Y6
G0 F9000 X92.906 Y92.652 Z0.24
;TYPE:SKIRT
G1 F1800 E0
G1 F3000 X93.604 Y92.032 E0.05589
G1 X94.353 Y91.474 E0.11181
G1 X95.146 Y90.983 E0.16765
G1 X95.979 Y90.561 E0.22355
G1 X96.845 Y90.211 E0.27947
G1 X97.737 Y89.937 E0.33534
G1 X98.65 Y89.741 E0.39124
G1 X99.576 Y89.623 E0.44713
G1 X100.327 Y89.586 E0.49215
G1 X101.013 Y89.576 E0.53322
G1 X118.816 Y89.575 E1.59905
G1 X119.666 Y89.586 E1.64995
G1 X120.598 Y89.64 E1.70584
G1 X121.522 Y89.773 E1.76173
G1 X122.432 Y89.984 E1.81765
G1 X123.32 Y90.273 E1.87356
G1 X124.179 Y90.636 E1.92939
G1 X125.005 Y91.072 E1.98531
G1 X125.79 Y91.577 E2.04119
G1 X126.53 Y92.147 E2.09711
G1 X127.217 Y92.779 E2.153
G1 X127.849 Y93.466 E2.20888
G1 X128.419 Y94.206 E2.2648
G1 X128.923 Y94.991 E2.32065
G1 X129.359 Y95.817 E2.37657
G1 X129.722 Y96.677 E2.43246
G1 X130.011 Y97.565 E2.48836
G1 X130.222 Y98.474 E2.54423
G1 X130.355 Y99.398 E2.60012
G1 X130.405 Y100.191 E2.64769
G1 X130.424 Y100.895 E2.68985
G1 X130.423 Y118.835 E3.76389
G1 X130.413 Y119.643 E3.81226
G1 X130.36 Y120.575 E3.86815
G1 X130.228 Y121.499 E3.92403
G1 X130.017 Y122.409 E3.97996
G1 X129.729 Y123.297 E4.03585
G1 X129.367 Y124.157 E4.09171
G1 X128.932 Y124.983 E4.1476
G1 X128.427 Y125.769 E4.20353
G1 X127.858 Y126.509 E4.25941
G1 X127.227 Y127.197 E4.3153
G1 X126.54 Y127.829 E4.37119
G1 X125.801 Y128.399 E4.42706
G1 X125.016 Y128.905 E4.48298
G1 X124.19 Y129.341 E4.5389
G1 X123.331 Y129.705 E4.59475
G1 X122.443 Y129.994 E4.65066
G1 X121.534 Y130.206 E4.70654
G1 X120.492 Y130.351 E4.76952
G1 X119.181 Y130.425 E4.84813
G1 X101.183 Y130.425 E5.92564
G1 X100.344 Y130.415 E5.97587
G1 X99.412 Y130.363 E6.03176
G1 X98.488 Y130.232 E6.08763
G1 X97.578 Y130.021 E6.14356
G1 X96.69 Y129.734 E6.19943
G1 X95.83 Y129.372 E6.25529
G1 X95.003 Y128.937 E6.31123
G1 X94.217 Y128.434 E6.3671
G1 X93.477 Y127.865 E6.42298
G1 X92.788 Y127.234 E6.47892
G1 X92.156 Y126.547 E6.5348
G1 X91.585 Y125.809 E6.59067
G1 X91.079 Y125.024 E6.64658
G1 X90.642 Y124.199 E6.70247
G1 X90.278 Y123.34 E6.75833
G1 X89.988 Y122.452 E6.81425
G1 X89.775 Y121.543 E6.87015
G1 X89.641 Y120.619 E6.92604
G1 X89.589 Y119.81 E6.97458
G1 X89.576 Y119.185 E7.012
G1 X89.572 Y100.943 E8.10412
G1 X89.591 Y100.151 E8.15155
G1 X89.66 Y99.219 E8.2075
G1 X89.808 Y98.298 E8.26334
G1 X90.034 Y97.392 E8.31925
G1 X90.337 Y96.509 E8.37514
G1 X90.715 Y95.655 E8.43105
G1 X91.164 Y94.837 E8.48691
G1 X91.681 Y94.06 E8.54279
G1 X92.263 Y93.33 E8.59868
G1 X92.906 Y92.652 E8.65462
G0 F9000 X93.489 Y92.927
G1 F3000 X94.181 Y92.34 E8.70895
G1 X94.923 Y91.817 E8.7633
G1 X95.707 Y91.361 E8.8176
G1 X96.529 Y90.975 E8.87196
G1 X97.381 Y90.664 E8.92626
G1 X98.258 Y90.429 E8.98062
G1 X99.152 Y90.272 E9.03496
G1 X100.336 Y90.186 E9.10603
G1 X101.022 Y90.176 E9.14711
G1 X118.816 Y90.175 E10.2124
G1 X119.658 Y90.186 E10.26281
G1 X120.564 Y90.239 E10.31715
G1 X121.461 Y90.372 E10.37144
G1 X122.344 Y90.583 E10.42579
G1 X123.205 Y90.871 E10.48014
G1 X124.037 Y91.233 E10.53446
G1 X124.833 Y91.668 E10.58877
G1 X125.589 Y92.171 E10.64313
G1 X126.297 Y92.738 E10.69744
G1 X126.953 Y93.366 E10.75181
G1 X127.55 Y94.049 E10.80611
G1 X128.086 Y94.781 E10.86043
G1 X128.554 Y95.559 E10.91479
G1 X128.953 Y96.374 E10.96911
G1 X129.278 Y97.221 E11.02343
G1 X129.528 Y98.094 E11.07779
G1 X129.699 Y98.985 E11.13211
G1 X129.805 Y100.207 E11.20554
G1 X129.824 Y100.911 E11.2477
G1 X129.823 Y118.835 E12.32078
G1 X129.813 Y119.635 E12.36868
G1 X129.761 Y120.541 E12.42301
G1 X129.629 Y121.439 E12.47735
G1 X129.419 Y122.322 E12.53169
G1 X129.131 Y123.182 E12.58598
G1 X128.769 Y124.015 E12.64036
G1 X128.336 Y124.812 E12.69466
G1 X127.833 Y125.568 E12.74903
G1 X127.267 Y126.276 E12.80329
G1 X126.64 Y126.932 E12.85762
G1 X125.957 Y127.531 E12.91201
G1 X125.225 Y128.067 E12.96632
G1 X124.448 Y128.536 E13.02066
G1 X123.633 Y128.935 E13.07498
G1 X122.786 Y129.261 E13.12932
G1 X121.914 Y129.512 E13.18364
G1 X121.023 Y129.684 E13.23797
G1 X120.438 Y129.753 E13.27324
G1 X119.181 Y129.825 E13.34861
G1 X101.183 Y129.825 E14.42612
G1 X100.352 Y129.815 E14.47588
G1 X99.446 Y129.763 E14.53021
G1 X98.548 Y129.632 E14.58454
G1 X97.665 Y129.423 E14.63886
G1 X96.804 Y129.136 E14.6932
G1 X95.972 Y128.774 E14.74752
G1 X95.174 Y128.341 E14.80187
G1 X94.418 Y127.84 E14.85617
G1 X93.709 Y127.273 E14.91052
G1 X93.052 Y126.647 E14.96485
G1 X92.454 Y125.965 E15.01915
G1 X91.917 Y125.233 E15.0735
G1 X91.447 Y124.456 E15.12787
G1 X91.047 Y123.642 E15.18217
G1 X90.721 Y122.795 E15.2365
G1 X90.47 Y121.923 E15.29083
G1 X90.297 Y121.032 E15.34517
G1 X90.189 Y119.794 E15.41957
G1 X90.176 Y119.185 E15.45603
G1 X90.172 Y100.943 E16.54815
G1 X90.191 Y100.169 E16.5945
G1 X90.259 Y99.264 E16.64884
G1 X90.406 Y98.368 E16.70319
G1 X90.631 Y97.489 E16.75752
G1 X90.933 Y96.634 E16.8118
G1 X91.309 Y95.808 E16.86614
G1 X91.757 Y95.018 E16.92051
G1 X92.272 Y94.271 E16.97483
G1 X92.851 Y93.572 E17.02917
G1 X93.489 Y92.927 E17.08348
G1 F1800 E14.08348
;MESH:Object 1
G0 F9000 X114.76 Y113.39
G0 X114.76 Y115.225
G0 X117.187 Y114.955
;TYPE:WALL-INNER
G1 F1800 E17.08348
G1 F3000 X117.187 Y103.105 E17.79292
G1 X112.26 Y103.105 E18.08789
G1 X112.26 Y109.23 E18.45458
G1 X102.689 Y109.23 E19.02758
G1 X102.689 Y114.955 E19.37033
G1 X117.187 Y114.955 E20.2383
G0 F9000 X116.587 Y114.355
;TYPE:WALL-OUTER
G1 F3000 X116.587 Y103.705 E20.87589
G1 X112.86 Y103.705 E21.09902
G1 X112.86 Y109.83 E21.46572
G1 X103.289 Y109.83 E22.03872
G1 X103.289 Y114.355 E22.30962
G1 X116.587 Y114.355 E23.10575
G1 F1800 E20.10575
G0 F9000 X116.987 Y114.355
G0 X117.483 Y115.251
G0 X118.336 Y115.253
G0 X118.626 Y118.625
;TYPE:WALL-INNER
G1 F1800 E23.10575
G1 F3000 X101.376 Y118.625 E24.13847
G1 X101.372 Y101.674 E25.1533
G1 X101.372 Y101.375 E25.1712
G1 X101.671 Y101.375 E25.18279
G1 X118.329 Y101.375 E26.18007
G1 X118.628 Y101.375 E26.19797
G1 X118.628 Y101.674 E26.20956
G1 X118.626 Y118.625 E27.22438
G0 F9000 X119.226 Y119.225
;TYPE:WALL-OUTER
G1 F3000 X100.776 Y119.225 E28.32895
G1 X100.772 Y100.775 E29.43352
G1 X119.226 Y100.775 E30.53833
G1 X119.228 Y101.004 E30.55204
G1 X119.226 Y119.225 E31.6429
G0 F9000 X118.856 Y118.855
G0 X118.036 Y118.415
G0 X118.036 Y118.035
;TYPE:SKIN
G1 F3000 X101.966 Y118.035 E32.60498
G1 X101.962 Y101.965 E33.56707
G1 X118.038 Y101.965 E34.52951
G1 X118.036 Y118.035 E35.49159
G1 F1800 E32.49159
G0 F9000 X118.036 Y118.415
G0 X118.344 Y118.343
G0 X118.336 Y115.197
G0 X117.477 Y115.197
G0 X117.397 Y115.195
G0 X117.777 Y115.545
G1 F1800 E35.49159
G1 F3000 X117.777 Y102.515 E36.27167
G1 X111.67 Y102.515 E36.63729
G1 X111.67 Y108.64 E37.00398
G1 X102.099 Y108.64 E37.57698
G1 X102.099 Y115.545 E37.99037
G1 X117.777 Y115.545 E38.92898
G0 F9000 X117.427 Y115.195
G0 X116.915 Y103.377
G0 X112.05 Y102.944
G0 X111.429 Y102.944
G1 F3000 X110.689 Y102.204 E38.99164
G0 F9000 X109.841 Y102.204
G1 F3000 X111.429 Y103.792 E39.12609
G0 F9000 X111.429 Y104.641
G1 F3000 X108.992 Y102.204 E39.33242
G0 F9000 X108.144 Y102.204
G1 F3000 X111.429 Y105.489 E39.61055
G0 F9000 X111.429 Y106.338
G1 F3000 X107.295 Y102.204 E39.96056
G0 F9000 X106.447 Y102.204
G1 F3000 X111.429 Y107.186 E40.38237
G0 F9000 X111.429 Y108.035
G1 F3000 X105.598 Y102.204 E40.87606
G0 F9000 X104.75 Y102.204
G1 F3000 X110.945 Y108.399 E41.40057
G0 F9000 X110.096 Y108.399
G1 F3000 X103.901 Y102.204 E41.92508
G0 F9000 X103.053 Y102.204
G1 F3000 X109.247 Y108.399 E42.44954
G0 F9000 X108.399 Y108.399
G1 F3000 X102.204 Y102.204 E42.97405
G0 F9000 X102.201 Y103.05
G1 F3000 X107.55 Y108.399 E43.42693
G0 F9000 X106.702 Y108.399
G1 F3000 X102.201 Y103.898 E43.80802
G0 F9000 X102.202 Y104.747
G1 F3000 X105.853 Y108.399 E44.11718
G0 F9000 X105.005 Y108.399
G1 F3000 X102.202 Y105.596 E44.3545
G0 F9000 X102.203 Y106.445
G1 F3000 X104.156 Y108.399 E44.51989
G0 F9000 X103.308 Y108.399
G1 F3000 X102.203 Y107.294 E44.61345
G0 F9000 X102.203 Y108.142
G1 F3000 X102.459 Y108.399 E44.63517
G1 F1800 E41.63517
G0 F9000 X102.479 Y109.02
G0 X102.393 Y115.251
G0 X101.685 Y115.251
G0 X101.585 Y115.785
G0 X102.208 Y115.785
G1 F1800 E44.63517
G1 F3000 X104.218 Y117.794 E44.8053
G0 F9000 X105.066 Y117.794
G1 F3000 X103.057 Y115.785 E44.9754
G0 F9000 X103.905 Y115.785
G1 F3000 X105.915 Y117.794 E45.14554
G0 F9000 X106.763 Y117.794
G1 F3000 X104.754 Y115.785 E45.31563
G0 F9000 X105.602 Y115.785
G1 F3000 X107.612 Y117.794 E45.48577
G0 F9000 X108.46 Y117.794
G1 F3000 X106.451 Y115.785 E45.65586
G0 F9000 X107.299 Y115.785
G1 F3000 X109.309 Y117.794 E45.826
G0 F9000 X110.158 Y117.794
G1 F3000 X108.148 Y115.785 E45.99614
G0 F9000 X108.996 Y115.785
G1 F3000 X111.006 Y117.794 E46.16628
G0 F9000 X111.855 Y117.794
G1 F3000 X109.845 Y115.785 E46.33641
G0 F9000 X110.694 Y115.785
G1 F3000 X112.703 Y117.794 E46.50651
G0 F9000 X113.552 Y117.794
G1 F3000 X111.542 Y115.785 E46.67665
G0 F9000 X112.391 Y115.785
G1 F3000 X114.4 Y117.794 E46.84674
G0 F9000 X115.249 Y117.794
G1 F3000 X113.239 Y115.785 E47.01688
G0 F9000 X114.088 Y115.785
G1 F3000 X116.097 Y117.794 E47.18697
G0 F9000 X116.946 Y117.794
G1 F3000 X114.936 Y115.785 E47.35711
G0 F9000 X115.785 Y115.785
G1 F3000 X117.794 Y117.794 E47.5272
G0 F9000 X117.794 Y116.946
G1 F3000 X116.633 Y115.785 E47.6255
G0 F9000 X117.482 Y115.785
G1 F3000 X117.794 Y116.097 E47.65192
G0 F9000 X118.416 Y116.098
G0 X118.344 Y118.343
G0 X103.369 Y118.415
G0 X103.369 Y117.794
G1 F3000 X102.205 Y116.63 E47.75047
G0 F9000 X102.205 Y117.478
G1 F3000 X102.521 Y117.794 E47.77722
G0 F9000 X102.521 Y118.325
G1 F1800 E44.77722
;MESH:NONMESH
G0 F300 X102.521 Y118.325 Z0.44
G0 F9000 X102.521 Y118.415
G0 X117.187 Y118.315
G0 X117.187 Y115.245
G0 X117.187 Y114.955
;TIME_ELAPSED:33.407812
;LAYER:1
M140 S40
M106 S127.5
;TYPE:WALL-INNER
;MESH:Object 1
G1 F1800 E47.77722
G1 F2700 X117.187 Y103.105 E48.36842
G1 X112.26 Y103.105 E48.61423
G1 X112.26 Y109.23 E48.91981
G1 X102.689 Y109.23 E49.39731
G1 X102.689 Y114.955 E49.68293
G1 X117.187 Y114.955 E50.40624
G0 F9000 X116.587 Y114.355
;TYPE:WALL-OUTER
G1 F2700 X116.587 Y103.705 E50.93757
G1 X112.86 Y103.705 E51.12351
G1 X112.86 Y109.83 E51.42909
G1 X103.289 Y109.83 E51.90659
G1 X103.289 Y114.355 E52.13234
G1 X116.587 Y114.355 E52.79578
G1 F1800 E49.79578
G0 F9000 X116.987 Y114.355
G0 X117.483 Y115.251
G0 X118.337 Y115.253
G0 X118.627 Y118.625
;TYPE:WALL-INNER
G1 F1800 E52.79578
G1 F2700 X101.368 Y118.625 E53.65684
G1 X101.365 Y101.674 E54.50252
G1 X101.365 Y101.375 E54.51744
G1 X101.664 Y101.375 E54.52709
G1 X118.332 Y101.375 E55.35866
G1 X118.631 Y101.375 E55.37358
G1 X118.631 Y101.674 E55.38324
G1 X118.627 Y118.625 E56.22892
G0 F9000 X119.227 Y119.225
;TYPE:WALL-OUTER
G1 F2700 X100.772 Y119.225 E57.14965
G1 X100.768 Y118.914 E57.16517
G1 X100.765 Y101.213 E58.04827
G1 X100.771 Y100.775 E58.07013
G1 X119.227 Y100.775 E58.9909
G1 X119.231 Y101.064 E59.00532
G1 X119.227 Y119.225 E59.91138
G0 F9000 X118.857 Y118.855
G0 X118.037 Y118.415
G0 X118.037 Y118.035
;TYPE:SKIN
G1 F2700 X101.958 Y118.035 E60.71356
G1 X101.955 Y101.965 E61.5153
G1 X118.041 Y101.965 E62.31783
G1 X118.037 Y118.035 E63.11956
G1 F1800 E60.11956
G0 F9000 X118.037 Y118.415
G0 X118.345 Y118.343
G0 X118.337 Y115.197
G0 X117.477 Y115.197
G0 X117.397 Y115.195
G0 X117.777 Y115.545
G1 F1800 E63.11956
G1 F2700 X117.777 Y102.515 E63.76963
G1 X111.67 Y102.515 E64.07431
G1 X111.67 Y108.64 E64.37989
G1 X102.099 Y108.64 E64.85739
G1 X102.099 Y115.545 E65.20188
G1 X117.777 Y115.545 E65.98406
G1 F1800 E62.98406
G0 F9000 X117.397 Y115.195
G0 X117.483 Y115.251
G0 X118.337 Y115.253
G0 X118.417 Y117.247
G0 X117.796 Y117.246
G1 F1800 E65.98406
G1 F2700 X117.247 Y117.794 E66.02276
G0 F9000 X116.398 Y117.794
G1 F2700 X117.796 Y116.396 E66.1214
G0 F9000 X117.56 Y115.784
G1 F2700 X115.55 Y117.794 E66.26321
G0 F9000 X114.701 Y117.794
G1 F2700 X116.712 Y115.784 E66.40506
G0 F9000 X115.863 Y115.784
G1 F2700 X113.853 Y117.794 E66.54688
G0 F9000 X113.004 Y117.794
G1 F2700 X115.015 Y115.784 E66.68873
G0 F9000 X114.166 Y115.784
G1 F2700 X112.156 Y117.794 E66.83055
G0 F9000 X111.307 Y117.794
G1 F2700 X113.318 Y115.784 E66.9724
G0 F9000 X112.469 Y115.784
G1 F2700 X110.459 Y117.794 E67.11422
G0 F9000 X109.61 Y117.794
G1 F2700 X111.621 Y115.784 E67.25607
G0 F9000 X110.772 Y115.784
G1 F2700 X108.762 Y117.794 E67.39788
G0 F9000 X107.913 Y117.794
G1 F2700 X109.923 Y115.784 E67.5397
G0 F9000 X109.075 Y115.784
G1 F2700 X107.065 Y117.794 E67.68152
G0 F9000 X106.216 Y117.794
G1 F2700 X108.226 Y115.784 E67.82333
G0 F9000 X107.378 Y115.784
G1 F2700 X105.368 Y117.794 E67.96515
G0 F9000 X104.519 Y117.794
G1 F2700 X106.529 Y115.784 E68.10697
G0 F9000 X105.681 Y115.784
G1 F2700 X103.671 Y117.794 E68.24878
G0 F9000 X102.822 Y117.794
G1 F2700 X104.832 Y115.784 E68.3906
G0 F9000 X103.984 Y115.784
G1 F2700 X102.198 Y117.57 E68.51661
G0 F9000 X102.198 Y116.722
G1 F2700 X103.135 Y115.784 E68.58276
G0 F9000 X102.287 Y115.784
G1 F2700 X102.198 Y115.873 E68.58904
G1 F1800 E65.58904
G0 F9000 X101.577 Y115.873
G0 X101.676 Y109.02
G0 X102.399 Y109.02
G0 X102.884 Y109.02
G0 X102.884 Y108.399
G1 F1800 E68.58904
G1 F2700 X109.078 Y102.204 E69.02609
G0 F9000 X108.23 Y102.204
G1 F2700 X102.196 Y108.238 E69.45182
G0 F9000 X102.196 Y107.39
G1 F2700 X107.381 Y102.204 E69.81769
G0 F9000 X106.533 Y102.204
G1 F2700 X102.196 Y106.541 E70.12369
G0 F9000 X102.196 Y105.693
G1 F2700 X105.684 Y102.204 E70.36982
G0 F9000 X104.836 Y102.204
G1 F2700 X102.195 Y104.845 E70.55616
G0 F9000 X102.195 Y103.997
G1 F2700 X103.987 Y102.204 E70.68263
G0 F9000 X103.139 Y102.204
G1 F2700 X102.195 Y103.148 E70.74923
G0 F9000 X102.195 Y102.299
G1 F2700 X102.29 Y102.204 E70.75593
G1 F1800 E67.75593
G0 F9000 X102.29 Y101.585
G0 X103.732 Y101.685
G0 X103.732 Y99.81
G0 X104.242 Y110.783
G0 X103.732 Y108.94
G0 X103.732 Y109.02
G0 X103.732 Y108.399
G1 F1800 E70.75593
G1 F2700 X109.927 Y102.204 E71.19302
G0 F9000 X110.776 Y102.204
G1 F2700 X104.581 Y108.399 E71.63012
G0 F9000 X105.429 Y108.399
G1 F2700 X111.429 Y102.399 E72.05345
G0 F9000 X111.429 Y103.248
G1 F2700 X106.278 Y108.399 E72.41688
G0 F9000 X107.125 Y108.4
G1 F2700 X111.429 Y104.096 E72.72055
G0 F9000 X111.429 Y104.945
G1 F2700 X107.974 Y108.4 E72.96432
G0 F9000 X108.823 Y108.4
G1 F2700 X111.429 Y105.793 E73.14822
G0 F9000 X111.429 Y106.642
G1 F2700 X109.671 Y108.4 E73.27226
G0 F9000 X110.52 Y108.4
G1 F2700 X111.429 Y107.49 E73.33643
G0 F9000 X111.96 Y107.49
;MESH:NONMESH
G0 F300 X111.96 Y107.49 Z0.64
G0 F9000 X112.05 Y107.49
G0 X112.532 Y103.377
G0 X116.915 Y103.377
G0 X117.187 Y114.955
;TIME_ELAPSED:56.855786
;LAYER:2
M106 S191.3
;TYPE:WALL-INNER
;MESH:Object 1
G1 F1739.1 X117.187 Y103.105 E73.92763
G1 X112.26 Y103.105 E74.17344
G1 X112.26 Y109.23 E74.47901
G1 X102.689 Y109.23 E74.95651
G1 X102.689 Y114.955 E75.24213
G1 X117.187 Y114.955 E75.96544
G0 F9000 X116.587 Y114.355
;TYPE:WALL-OUTER
G1 F1739.1 X116.587 Y103.705 E76.49677
G1 X112.86 Y103.705 E76.68271
G1 X112.86 Y109.83 E76.98829
G1 X103.289 Y109.83 E77.46579
G1 X103.289 Y114.355 E77.69154
G1 X116.587 Y114.355 E78.35498
G0 F9000 X116.987 Y114.355
G0 X116.923 Y114.65
G0 X101.364 Y118.625
;TYPE:WALL-INNER
G1 F1739.1 X101.363 Y101.674 E79.20067
G1 X101.363 Y101.375 E79.21559
G1 X101.662 Y101.375 E79.22524
G1 X118.634 Y101.375 E80.07198
