;FLAVOR:Marlin
;TIME:2968
;Filament used: 1.80952m
;Layer height: 0.16
;MINX:98.273
;MINY:98.275
;MINZ:0.24
;MAXX:121.726
;MAXY:121.725
;MAXZ:19.04
;Generated with Cura_SteamEngine 4.5.0
M140 S50
M105
M190 S50
M104 S200
M105
M109 S200
M82 ;absolute extrusion mode
M201 X500.00 Y500.00 Z100.00 E5000.00 ;Setup machine max acceleration
M203 X500.00 Y500.00 Z10.00 E50.00 ;Setup machine max feedrate
M204 P500.00 R1000.00 T500.00 ;Setup Print/Retract/Travel acceleration
M205 X8.00 Y8.00 Z0.40 E5.00 ;Setup Jerk
M220 S100 ;Reset Feedrate
M221 S100 ;Reset Flowrate

G28 ;Home

G92 E0 ;Reset Extruder
G1 Z2.0 F3000 ;Move Z Axis up
G1 X10.1 Y20 Z0.28 F5000.0 ;Move to start position
G1 X10.1 Y200.0 Z0.28 F1500.0 E15 ;Draw the first line
G1 X10.4 Y200.0 Z0.28 F5000.0 ;Move to side a little
G1 X10.4 Y20 Z0.28 F1500.0 E30 ;Draw the second line
G92 E0 ;Reset Extruder
G1 Z2.0 F3000 ;Move Z Axis up

G92 E0
G92 E0
G1 F1800 E-3
;LAYER_COUNT:131
;LAYER:0
M106 S63.8
M204 S500
M205 X6 Y6
G0 F9000 X99.034 Y98.919 Z0.24
;TYPE:SKIRT
G1 F1800 E0
G1 F3000 X99.358 Y98.653 E0.01673
G1 X99.725 Y98.452 E0.03343
G1 X100.125 Y98.325 E0.05018
G1 X100.59 Y98.275 E0.06885
G1 X119.407 Y98.275 E0.81988
G1 X120.226 Y98.433 E0.85317
G1 X120.598 Y98.626 E0.86989
G1 X121.073 Y99.029 E0.89476
G1 X121.341 Y99.351 E0.91148
G1 X121.543 Y99.718 E0.9282
G1 X121.672 Y100.116 E0.94489
G1 X121.724 Y100.591 E0.96397
G1 X121.726 Y119.408 E1.71499
G1 X121.686 Y119.825 E1.73171
G1 X121.568 Y120.227 E1.74843
G1 X121.376 Y120.599 E1.76514
G1 X120.965 Y121.081 E1.79042
G1 X120.641 Y121.347 E1.80716
G1 X120.274 Y121.548 E1.82386
G1 X119.874 Y121.675 E1.84061
G1 X119.409 Y121.725 E1.85927
G1 X100.593 Y121.725 E2.61026
G1 X100.176 Y121.685 E2.62698
G1 X99.774 Y121.567 E2.6437
G1 X99.402 Y121.374 E2.66043
G1 X98.92 Y120.964 E2.68568
G1 X98.654 Y120.64 E2.70242
G1 X98.453 Y120.273 E2.71912
G1 X98.326 Y119.873 E2.73587
G1 X98.276 Y119.408 E2.75453
G1 X98.273 Y100.592 E3.50552
G1 X98.313 Y100.175 E3.52224
G1 X98.431 Y99.773 E3.53896
G1 X98.623 Y99.401 E3.55567
G1 X99.034 Y98.919 E3.58095
G0 F9000 X99.317 Y99.202
G1 F3000 X99.612 Y98.964 E3.59608
G1 X99.95 Y98.793 E3.6112
G1 X100.316 Y98.696 E3.62631
G1 X119.407 Y98.675 E4.38827
G1 X120.144 Y98.833 E4.41836
G1 X120.471 Y99.023 E4.43345
G1 X120.791 Y99.313 E4.45069
G1 X121.031 Y99.606 E4.46581
G1 X121.204 Y99.944 E4.48096
G1 X121.302 Y100.31 E4.49608
G1 X121.326 Y119.408 E5.25833
G1 X121.286 Y119.785 E5.27346
G1 X121.168 Y120.145 E5.28858
G1 X120.978 Y120.472 E5.30367
G1 X120.682 Y120.798 E5.32125
G1 X120.387 Y121.036 E5.33637
G1 X120.049 Y121.207 E5.35149
G1 X119.683 Y121.304 E5.36661
G1 X100.593 Y121.325 E6.12853
G1 X100.216 Y121.285 E6.14366
G1 X99.856 Y121.167 E6.15878
G1 X99.529 Y120.977 E6.17388
G1 X99.203 Y120.681 E6.19145
G1 X98.965 Y120.386 E6.20658
G1 X98.794 Y120.048 E6.2217
G1 X98.697 Y119.682 E6.23681
G1 X98.673 Y100.592 E6.99873
G1 X98.713 Y100.215 E7.01386
G1 X98.831 Y99.855 E7.02898
G1 X99.021 Y99.528 E7.04408
G1 X99.317 Y99.202 E7.06165
G0 F9000 X99.6 Y99.485
G1 F3000 X99.863 Y99.279 E7.07499
G1 X100.167 Y99.14 E7.08833
G1 X100.59 Y99.075 E7.10541
G1 X119.407 Y99.075 E7.85644
G1 X120.051 Y99.232 E7.88289
G1 X120.51 Y99.597 E7.9063
G1 X120.717 Y99.859 E7.91963
G1 X120.857 Y100.162 E7.93295
G1 X120.924 Y100.591 E7.95028
G1 X120.926 Y119.408 E8.7013
G1 X120.886 Y119.74 E8.71465
G1 X120.769 Y120.052 E8.72795
G1 X120.399 Y120.515 E8.75161
G1 X120.136 Y120.721 E8.76494
G1 X119.832 Y120.86 E8.77828
G1 X119.409 Y120.925 E8.79536
G1 X100.593 Y120.925 E9.54635
G1 X100.261 Y120.885 E9.5597
G1 X99.949 Y120.768 E9.57299
G1 X99.486 Y120.398 E9.59665
G1 X99.28 Y120.135 E9.60998
G1 X99.141 Y119.831 E9.62333
G1 X99.076 Y119.408 E9.64041
G1 X99.073 Y100.592 E10.39139
G1 X99.113 Y100.261 E10.4047
G1 X99.23 Y99.948 E10.41804
G1 X99.6 Y99.485 E10.44169
G0 F9000 X99.883 Y99.768
G1 F3000 X100.109 Y99.599 E10.45296
G1 X100.373 Y99.499 E10.46422
G1 X119.407 Y99.475 E11.22391
G1 X119.943 Y99.631 E11.24619
G1 X120.228 Y99.881 E11.26132
G1 X120.398 Y100.106 E11.27258
G1 X120.499 Y100.369 E11.28382
G1 X120.526 Y119.408 E12.04371
G1 X120.486 Y119.687 E12.05496
G1 X120.37 Y119.944 E12.06621
G1 X120.116 Y120.232 E12.08154
G1 X119.89 Y120.401 E12.0928
G1 X119.626 Y120.501 E12.10407
G1 X100.593 Y120.525 E12.86372
G1 X100.314 Y120.485 E12.87497
G1 X100.057 Y120.369 E12.88622
G1 X99.769 Y120.115 E12.90155
G1 X99.6 Y119.889 E12.91281
G1 X99.5 Y119.625 E12.92408
G1 X99.473 Y100.592 E13.68373
G1 X99.513 Y100.313 E13.69498
G1 X99.629 Y100.056 E13.70623
G1 X99.883 Y99.768 E13.72156
G0 F9000 X100.166 Y100.051
G1 F3000 X100.345 Y99.927 E13.73025
G1 X100.59 Y99.875 E13.74025
G1 X119.407 Y99.875 E14.49127
G1 X119.622 Y99.915 E14.5
G1 X119.946 Y100.165 E14.51634
G1 X120.071 Y100.344 E14.52505
G1 X120.124 Y100.591 E14.53513
G1 X120.126 Y119.408 E15.28616
G1 X120.086 Y119.622 E15.29485
G1 X119.833 Y119.949 E15.31135
G1 X119.654 Y120.073 E15.32004
G1 X119.409 Y120.125 E15.33004
G1 X100.593 Y120.125 E16.08102
G1 X100.378 Y120.085 E16.08975
G1 X100.052 Y119.832 E16.10622
G1 X99.928 Y119.653 E16.11491
G1 X99.876 Y119.408 E16.12491
G1 X99.873 Y100.592 E16.8759
G1 X99.913 Y100.378 E16.88459
G1 X100.166 Y100.051 E16.90109
G0 F9000 X100.449 Y100.334
G1 F3000 X100.59 Y100.275 E16.90719
G1 X119.407 Y100.275 E17.65822
G1 X119.665 Y100.449 E17.67064
G1 X119.724 Y100.591 E17.67677
G1 X119.726 Y119.408 E18.4278
G1 X119.667 Y119.549 E18.4339
G1 X119.55 Y119.666 E18.44051
G1 X119.409 Y119.725 E18.44661
G1 X100.593 Y119.725 E19.19759
G1 X100.452 Y119.666 E19.20369
G1 X100.335 Y119.549 E19.2103
G1 X100.276 Y119.408 E19.2164
G1 X100.273 Y100.592 E19.96739
G1 X100.332 Y100.451 E19.97349
G1 X100.449 Y100.334 E19.98009
G1 F1800 E16.98009
G0 F9000 X100.12 Y100.005
G0 X99.843 Y100.286
G0 X99.81 Y111.131
G0 X104.589 Y111.13
;TYPE:SUPPORT-INTERFACE
G1 F1800 E19.98009
G1 F3000 X113.457 Y111.13 E20.33403
G1 X114.16 Y110.427 E20.37371
G1 X114.16 Y105.005 E20.59011
G1 X115.287 Y105.005 E20.6351
G1 X115.287 Y113.055 E20.95639
G1 X104.589 Y113.055 E21.38337
G1 X104.589 Y111.13 E21.4602
G0 F9000 X104.788 Y111.577
G1 F3000 X106.066 Y112.854 E21.53231
G0 F9000 X104.788 Y112.434
G1 F3000 X105.893 Y111.329 E21.59468
G0 F9000 X107.936 Y111.33
G1 F3000 X109.46 Y112.854 E21.6807
G0 F9000 X109.287 Y111.329
G1 F3000 X107.762 Y112.854 E21.76678
G0 F9000 X111.156 Y112.854
G1 F3000 X112.681 Y111.329 E21.85285
G0 F9000 X111.33 Y111.33
G1 F3000 X112.854 Y112.854 E21.93888
G0 F9000 X114.55 Y112.854
G1 F3000 X115.085 Y112.319 E21.96907
G0 F9000 X115.086 Y111.692
G1 F3000 X114.131 Y110.737 E22.02298
G0 F9000 X114.359 Y109.651
G1 F3000 X115.085 Y108.925 E22.06396
G0 F9000 X115.086 Y108.298
G1 F3000 X114.358 Y107.57 E22.10505
G0 F9000 X114.359 Y106.257
G1 F3000 X115.085 Y105.531 E22.14603
G1 F1800 E19.14603
;MESH:LeftCenterRight_Dice.stl
G0 F9000 X118.337 Y105.533
G0 X119.056 Y119.025
G0 X119.326 Y119.325
;TYPE:WALL-OUTER
G1 F1800 E22.14603
G1 F3000 X100.676 Y119.325 E22.89039
G1 X100.673 Y100.675 E23.63475
G1 X119.325 Y100.675 E24.37919
G1 X119.328 Y101.004 E24.39232
G1 X119.326 Y119.325 E25.12355
G1 F1800 E22.12355
G0 F9000 X119.056 Y119.025
G0 X118.336 Y114.257
G0 X117.477 Y114.257
G0 X116.787 Y114.255
G0 X116.487 Y114.255
G1 F1800 E25.12355
G1 F3000 X116.487 Y103.805 E25.54064
G1 X112.96 Y103.805 E25.68141
G1 X112.96 Y109.93 E25.92587
G1 X103.389 Y109.93 E26.30787
G1 X103.389 Y114.255 E26.48049
G1 X116.487 Y114.255 E27.00326
G0 F9000 X116.887 Y114.655
;TYPE:WALL-INNER
G1 F3000 X116.887 Y103.405 E27.45227
G1 X112.56 Y103.405 E27.62497
G1 X112.56 Y109.53 E27.86943
G1 X102.989 Y109.53 E28.25143
G1 X102.989 Y114.655 E28.45598
G1 X116.887 Y114.655 E29.01068
G0 F9000 X117.287 Y115.055
G1 F3000 X117.287 Y103.005 E29.49162
G1 X112.16 Y103.005 E29.69625
G1 X112.16 Y109.13 E29.94071
G1 X102.589 Y109.13 E30.32271
G1 X102.589 Y115.055 E30.55919
G1 X117.287 Y115.055 E31.14582
G1 F1800 E28.14582
G0 F9000 X117.483 Y115.251
G0 X118.336 Y115.253
G0 X118.926 Y118.925
G1 F1800 E31.14582
G1 F3000 X101.076 Y118.925 E31.85825
G1 X101.073 Y101.274 E32.56274
G1 X101.073 Y101.075 E32.57068
G1 X101.272 Y101.075 E32.57582
G1 X118.729 Y101.075 E33.27257
G1 X118.928 Y101.075 E33.28051
G1 X118.928 Y101.274 E33.28565
G1 X118.926 Y118.925 E33.99014
G0 F9000 X118.526 Y118.525
G1 F3000 X101.476 Y118.525 E34.67064
G1 X101.473 Y101.674 E35.3432
G1 X101.473 Y101.475 E35.35115
G1 X101.672 Y101.475 E35.35628
G1 X118.329 Y101.475 E36.0211
G1 X118.528 Y101.475 E36.02904
G1 X118.528 Y101.674 E36.03418
G1 X118.526 Y118.525 E36.70674
G0 F9000 X118.136 Y118.135
;TYPE:SKIN
G1 F3000 X101.866 Y118.135 E37.35611
G1 X101.863 Y101.865 E38.00548
G1 X118.138 Y101.865 E38.65505
G1 X118.136 Y118.135 E39.30443
G1 F1800 E36.30443
G0 F9000 X118.136 Y118.415
G0 X118.323 Y118.351
G0 X118.336 Y115.197
G0 X117.477 Y115.197
G0 X117.397 Y115.195
G0 X117.677 Y115.445
G1 F1800 E39.30443
G1 F3000 X117.677 Y102.615 E39.8165
G1 X111.77 Y102.615 E40.05226
G1 X111.77 Y108.74 E40.29672
G1 X102.199 Y108.74 E40.67872
G1 X102.199 Y115.445 E40.94633
G1 X117.677 Y115.445 E41.56409
G1 F1800 E38.56409
G0 F9000 X117.397 Y115.195
G0 X117.483 Y102.809
G0 X118.337 Y102.811
G0 X118.417 Y102.139
G0 X117.977 Y102.138
G1 F1800 E41.56409
G1 F3000 X117.864 Y102.024 E41.5705
G0 F9000 X117.728 Y102.454
G1 F3000 X117.298 Y102.024 E41.59477
G0 F9000 X117.162 Y102.454
G1 F3000 X116.732 Y102.024 E41.61904
G0 F9000 X116.596 Y102.454
G1 F3000 X116.167 Y102.024 E41.64328
G0 F9000 X116.031 Y102.454
G1 F3000 X115.601 Y102.024 E41.66755
G0 F9000 X115.465 Y102.454
G1 F3000 X115.035 Y102.024 E41.69183
G0 F9000 X114.899 Y102.454
G1 F3000 X114.469 Y102.024 E41.7161
G0 F9000 X114.334 Y102.454
G1 F3000 X113.904 Y102.024 E41.74037
G0 F9000 X113.768 Y102.454
G1 F3000 X113.338 Y102.024 E41.76464
G0 F9000 X113.202 Y102.454
G1 F3000 X112.772 Y102.024 E41.78891
G0 F9000 X112.637 Y102.454
G1 F3000 X112.207 Y102.024 E41.81318
G0 F9000 X112.071 Y102.454
G1 F3000 X111.641 Y102.024 E41.83745
G0 F9000 X111.609 Y102.558
G1 F3000 X111.075 Y102.024 E41.86759
G0 F9000 X110.51 Y102.024
G1 F3000 X111.609 Y103.123 E41.92963
G0 F9000 X111.609 Y103.689
G1 F3000 X109.944 Y102.024 E42.02361
G0 F9000 X109.378 Y102.024
G1 F3000 X111.609 Y104.255 E42.14953
G0 F9000 X111.609 Y104.82
G1 F3000 X108.813 Y102.024 E42.30735
G0 F9000 X108.247 Y102.024
G1 F3000 X111.609 Y105.386 E42.49712
G0 F9000 X111.609 Y105.952
G1 F3000 X107.681 Y102.024 E42.71883
G0 F9000 X107.116 Y102.024
G1 F3000 X111.609 Y106.517 E42.97243
G0 F9000 X111.609 Y107.083
G1 F3000 X106.55 Y102.024 E43.25799
G0 F9000 X105.984 Y102.024
G1 F3000 X111.609 Y107.649 E43.57549
G0 F9000 X111.609 Y108.214
G1 F3000 X105.419 Y102.024 E43.92488
G0 F9000 X104.853 Y102.024
G1 F3000 X111.407 Y108.579 E44.29484
G0 F9000 X110.841 Y108.579
G1 F3000 X104.287 Y102.024 E44.6648
G0 F9000 X103.721 Y102.024
G1 F3000 X110.276 Y108.579 E45.0348
G0 F9000 X109.71 Y108.579
G1 F3000 X103.156 Y102.024 E45.40476
G0 F9000 X102.59 Y102.024
G1 F3000 X109.144 Y108.579 E45.77473
G0 F9000 X108.579 Y108.579
G1 F3000 X102.024 Y102.024 E46.14472
G0 F9000 X102.022 Y102.588
G1 F3000 X108.013 Y108.579 E46.48288
G0 F9000 X107.447 Y108.579
G1 F3000 X102.022 Y103.154 E46.78909
G0 F9000 X102.022 Y103.719
G1 F3000 X106.882 Y108.579 E47.06341
G0 F9000 X106.316 Y108.579
G1 F3000 X102.022 Y104.285 E47.30578
G0 F9000 X102.022 Y104.851
G1 F3000 X105.75 Y108.579 E47.5162
G0 F9000 X105.184 Y108.579
G1 F3000 X102.023 Y105.417 E47.69465
G0 F9000 X102.023 Y105.983
G1 F3000 X104.619 Y108.579 E47.84118
G0 F9000 X104.053 Y108.579
G1 F3000 X102.023 Y106.548 E47.95579
G0 F9000 X102.023 Y107.114
G1 F3000 X103.487 Y108.579 E48.03845
G0 F9000 X102.922 Y108.579
G1 F3000 X102.023 Y107.68 E48.0892
G0 F9000 X102.023 Y108.246
G1 F3000 X102.356 Y108.579 E48.10799
G0 F9000 X102.449 Y108.99
G0 X102.594 Y115.165
G0 X102.594 Y115.604
G1 F3000 X104.963 Y117.974 E48.24174
G0 F9000 X105.529 Y117.974
G1 F3000 X103.159 Y115.604 E48.37551
G0 F9000 X103.725 Y115.604
G1 F3000 X106.095 Y117.974 E48.50928
G0 F9000 X106.66 Y117.974
G1 F3000 X104.291 Y115.604 E48.64303
G0 F9000 X104.856 Y115.604
G1 F3000 X107.226 Y117.974 E48.7768
G0 F9000 X107.792 Y117.974
G1 F3000 X105.422 Y115.604 E48.91057
G0 F9000 X105.988 Y115.604
G1 F3000 X108.357 Y117.974 E49.04432
G0 F9000 X108.923 Y117.974
G1 F3000 X106.553 Y115.604 E49.17809
G0 F9000 X107.119 Y115.604
G1 F3000 X109.489 Y117.974 E49.31187
G0 F9000 X110.054 Y117.974
G1 F3000 X107.685 Y115.604 E49.44561
G0 F9000 X108.25 Y115.604
G1 F3000 X110.62 Y117.974 E49.57938
G0 F9000 X111.186 Y117.974
G1 F3000 X108.816 Y115.604 E49.71316
G0 F9000 X109.382 Y115.604
G1 F3000 X111.751 Y117.974 E49.8469
G0 F9000 X112.317 Y117.974
G1 F3000 X109.948 Y115.604 E49.98065
G0 F9000 X110.513 Y115.604
G1 F3000 X112.883 Y117.974 E50.11442
G0 F9000 X113.448 Y117.974
G1 F3000 X111.079 Y115.604 E50.24816
G0 F9000 X111.645 Y115.604
G1 F3000 X114.014 Y117.974 E50.38191
G0 F9000 X114.58 Y117.974
G1 F3000 X112.21 Y115.604 E50.51568
G0 F9000 X112.776 Y115.604
G1 F3000 X115.145 Y117.974 E50.64943
G0 F9000 X115.711 Y117.974
G1 F3000 X113.342 Y115.604 E50.78317
G0 F9000 X113.907 Y115.604
G1 F3000 X116.277 Y117.974 E50.91694
G0 F9000 X116.843 Y117.974
G1 F3000 X114.473 Y115.604 E51.05072
G0 F9000 X115.039 Y115.604
G1 F3000 X117.408 Y117.974 E51.18446
G0 F9000 X117.975 Y117.975
G1 F3000 X115.604 Y115.604 E51.31829
G0 F9000 X116.17 Y115.604
G1 F3000 X117.975 Y117.41 E51.4202
G0 F9000 X117.975 Y116.844
G1 F3000 X116.736 Y115.604 E51.49017
G0 F9000 X117.301 Y115.604
G1 F3000 X117.975 Y116.278 E51.52821
G0 F9000 X117.975 Y115.713
G1 F3000 X117.835 Y115.573 E51.53611
G0 F9000 X117.975 Y115.147
G1 F3000 X117.835 Y115.007 E51.54401
G0 F9000 X117.975 Y114.581
G1 F3000 X117.835 Y114.441 E51.55192
G0 F9000 X117.975 Y114.016
G1 F3000 X117.835 Y113.876 E51.55982
G0 F9000 X117.975 Y113.45
G1 F3000 X117.835 Y113.31 E51.56772
G0 F9000 X117.975 Y112.884
G1 F3000 X117.835 Y112.744 E51.57562
G0 F9000 X117.976 Y112.319
G1 F3000 X117.835 Y112.178 E51.58358
G0 F9000 X117.976 Y111.753
G1 F3000 X117.835 Y111.613 E51.59151
G0 F9000 X117.976 Y111.188
G1 F3000 X117.835 Y111.047 E51.59947
G0 F9000 X117.976 Y110.622
G1 F3000 X117.835 Y110.481 E51.60743
G0 F9000 X117.976 Y110.056
G1 F3000 X117.835 Y109.916 E51.61536
G0 F9000 X117.976 Y109.491
G1 F3000 X117.835 Y109.35 E51.62332
G0 F9000 X117.976 Y108.925
G1 F3000 X117.835 Y108.784 E51.63128
G0 F9000 X117.976 Y108.359
G1 F3000 X117.835 Y108.219 E51.63921
G0 F9000 X117.976 Y107.794
G1 F3000 X117.835 Y107.653 E51.64717
G0 F9000 X117.977 Y107.229
G1 F3000 X117.835 Y107.087 E51.65518
G0 F9000 X117.977 Y106.663
G1 F3000 X117.835 Y106.522 E51.66317
G0 F9000 X117.977 Y106.097
G1 F3000 X117.835 Y105.956 E51.67115
G0 F9000 X117.977 Y105.532
G1 F3000 X117.835 Y105.39 E51.67917
G0 F9000 X117.977 Y104.966
G1 F3000 X117.835 Y104.825 E51.68716
G0 F9000 X117.977 Y104.4
G1 F3000 X117.835 Y104.259 E51.69514
G0 F9000 X117.977 Y103.835
G1 F3000 X117.835 Y103.693 E51.70316
G0 F9000 X117.977 Y103.269
G1 F3000 X117.835 Y103.127 E51.71117
G0 F9000 X117.977 Y102.703
G1 F3000 X117.835 Y102.562 E51.71916
G1 F1800 E48.71916
G0 F9000 X117.427 Y102.895
G0 X112.732 Y103.577
G0 X111.978 Y108.948
G0 X103.161 Y109.702
G0 X103.161 Y114.483
G0 X104.397 Y115.245
G0 X104.397 Y118.315
G0 X104.397 Y118.415
G0 X104.397 Y117.974
G1 F1800 E51.71916
G1 F3000 X102.028 Y115.604 E51.8529
G0 F9000 X102.026 Y116.168
G1 F3000 X103.832 Y117.974 E51.95484
G0 F9000 X103.266 Y117.974
G1 F3000 X102.026 Y116.734 E52.02483
G0 F9000 X102.026 Y117.299
G1 F3000 X102.7 Y117.974 E52.06291
G0 F9000 X102.135 Y117.974
G1 F3000 X102.026 Y117.865 E52.06906
G0 F9000 X101.285 Y117.865
G1 F1800 E49.06906
;MESH:NONMESH
G0 F300 X101.285 Y117.865 Z0.44
G0 F9000 X101.684 Y111.176
G0 X104.388 Y111.176
;TIME_ELAPSED:54.910601
;LAYER:1
M140 S40
M106 S127.5
;TYPE:SUPPORT-INTERFACE
G1 F1800 E52.06906
G1 F2700 X106.466 Y113.254 E52.1668
G0 F9000 X107.362 Y113.255
G1 F2700 X109.687 Y110.929 E52.27619
G0 F9000 X110.929 Y110.929
G1 F2700 X113.254 Y113.254 E52.38555
G0 F9000 X114.15 Y113.255
G1 F2700 X115.486 Y111.919 E52.44839
G0 F9000 X115.486 Y112.092
G1 F2700 X113.848 Y110.454 E52.52543
