;FLAVOR:Marlin
;TIME:5570
;Filament used: 4.23551m
;Layer height: 0.2
;MINX:72.12
;MINY:68.223
;MINZ:0.24
;MAXX:147.894
;MAXY:153.435
;MAXZ:23.04
;Generated with Cura_SteamEngine 4.5.0
M140 S50
M105
M190 S50
M104 S215
M105
M109 S215
M82 ;absolute extrusion mode
M201 X500.00 Y500.00 Z100.00 E5000.00 ;Setup machine max acceleration
M203 X500.00 Y500.00 Z10.00 E50.00 ;Setup machine max feedrate
M204 P500.00 R1000.00 T500.00 ;Setup Print/Retract/Travel acceleration
M205 X8.00 Y8.00 Z0.40 E5.00 ;Setup Jerk
M220 S100 ;Reset Feedrate
M221 S100 ;Reset Flowrate

G28 ;Home

G92 E0 ;Reset Extruder
G1 Z2.0 F3000 ;Move Z Axis up
G1 X10.1 Y20 Z0.28 F5000.0 ;Move to start position
G1 X10.1 Y200.0 Z0.28 F1500.0 E15 ;Draw the first line
G1 X10.4 Y200.0 Z0.28 F5000.0 ;Move to side a little
G1 X10.4 Y20 Z0.28 F1500.0 E30 ;Draw the second line
G92 E0 ;Reset Extruder
G1 Z2.0 F3000 ;Move Z Axis up

G92 E0
G92 E0
G1 F1800 E-3
;LAYER_COUNT:121
;LAYER:0
M106 S63.8
M204 S500
M205 X6 Y6
G0 F9000 X83.199 Y83.028 Z0.24
;TYPE:SKIRT
G1 F1800 E0
G1 X88.81 Y78.205 E0.29531
G1 X89.042 Y78.044 E0.30658
G1 X95.348 Y74.536 E0.59459
G1 X99.068 Y73.3 E0.75104
G1 X99.395 Y73.236 E0.76434
G1 X99.729 Y73.251 E0.77769
G1 X100.05 Y73.344 E0.79102
G1 X100.339 Y73.511 E0.80435
G1 X100.581 Y73.742 E0.8177
G1 X100.761 Y74.024 E0.83105
G1 X100.869 Y74.34 E0.84438
G1 X100.9 Y74.633 E0.85614
G1 X100.898 Y77.599 E0.97452
G1 X100.858 Y77.931 E0.98787
G1 X100.74 Y78.243 E1.00118
G1 X100.552 Y78.519 E1.01451
G1 X100.304 Y78.743 E1.02785
G1 X99.92 Y78.933 E1.04495
G1 X97.642 Y79.652 E1.14029
G1 X91.984 Y82.798 E1.39867
G1 X87.017 Y87.039 E1.65935
G1 X82.937 Y92.209 E1.92221
G1 X79.903 Y98.115 E2.18721
G1 X78.035 Y104.521 E2.45354
G1 X77.403 Y111.195 E2.72111
G1 X78.035 Y117.864 E2.98847
G1 X79.903 Y124.271 E3.25484
G1 X82.937 Y130.177 E3.51984
G1 X87.017 Y135.347 E3.7827
G1 X91.984 Y139.588 E4.04338
G1 X97.539 Y142.676 E4.29705
G1 X103.783 Y144.671 E4.55867
G1 X110.178 Y145.322 E4.81523
G1 X116.542 Y144.67 E5.07056
G1 X122.565 Y142.768 E5.32265
G1 X128.339 Y139.585 E5.5858
G1 X133.214 Y135.425 E5.84158
G1 X137.311 Y130.268 E6.10446
G1 X140.362 Y124.376 E6.36928
G1 X142.252 Y117.974 E6.6357
G1 X142.906 Y111.31 E6.90295
G1 X142.297 Y104.641 E7.17023
G1 X140.449 Y98.227 E7.43664
G1 X137.438 Y92.316 E7.70141
G1 X133.38 Y87.139 E7.96395
G1 X128.355 Y82.825 E8.22828
G1 X122.698 Y79.679 E8.48663
G1 X119.1 Y78.543 E8.63722
G1 X118.796 Y78.405 E8.65054
G1 X118.533 Y78.199 E8.66388
G1 X118.327 Y77.937 E8.67718
G1 X118.188 Y77.633 E8.69052
G1 X118.122 Y77.208 E8.70768
G1 X118.122 Y74.43 E8.81856
G1 X118.168 Y74.026 E8.83479
G1 X118.289 Y73.715 E8.84811
G1 X118.481 Y73.442 E8.86143
G1 X118.732 Y73.222 E8.87475
G1 X119.029 Y73.067 E8.88812
G1 X119.353 Y72.987 E8.90144
G1 X119.687 Y72.987 E8.91477
G1 X124.41 Y74.451 E9.11213
G1 X124.669 Y74.562 E9.12337
G1 X130.977 Y78.069 E9.41143
G1 X131.206 Y78.228 E9.42256
G1 X136.737 Y82.95 E9.71282
G1 X136.927 Y83.148 E9.72377
G1 X141.446 Y88.875 E10.01494
G1 X141.592 Y89.102 E10.02571
G1 X144.968 Y95.671 E10.32049
G1 X147.143 Y103.038 E10.62707
G1 X147.894 Y110.706 E10.93458
G1 X147.193 Y118.381 E11.24218
G1 X145.067 Y125.761 E11.54871
G1 X141.594 Y132.574 E11.85393
G1 X141.448 Y132.801 E11.8647
G1 X136.908 Y138.557 E12.1573
G1 X136.718 Y138.755 E12.16825
G1 X131.186 Y143.477 E12.45854
G1 X130.958 Y143.635 E12.46961
G1 X124.761 Y147.082 E12.75263
G1 X124.271 Y147.294 E12.77394
G1 X117.543 Y149.416 E13.05551
G1 X115.799 Y149.624 E13.12561
G1 X115.799 Y152.035 E13.22184
G1 X115.759 Y152.367 E13.23519
G1 X115.642 Y152.679 E13.24849
G1 X115.454 Y152.956 E13.26185
G1 X115.206 Y153.179 E13.27516
G1 X114.912 Y153.338 E13.2885
G1 X114.399 Y153.435 E13.30934
G1 X104.599 Y153.435 E13.70048
G1 X104.267 Y153.395 E13.71382
G1 X103.955 Y153.278 E13.72712
G1 X103.678 Y153.09 E13.74048
G1 X103.455 Y152.842 E13.7538
G1 X103.296 Y152.548 E13.76714
G1 X103.199 Y152.035 E13.78797
G1 X103.199 Y149.55 E13.88716
G1 X102.682 Y149.466 E13.90806
G1 X95.73 Y147.293 E14.19877
G1 X95.239 Y147.083 E14.22008
G1 X89.042 Y143.635 E14.50313
G1 X88.814 Y143.477 E14.5142
G1 X83.38 Y138.839 E14.79934
G1 X78.634 Y132.907 E15.10255
G1 X78.487 Y132.68 E15.11334
G1 X75.094 Y126.129 E15.40779
G1 X72.895 Y118.771 E15.7143
G1 X72.12 Y111.109 E16.02167
G1 X72.794 Y103.434 E16.32917
G1 X74.895 Y96.049 E16.63562
G1 X78.343 Y89.226 E16.94074
G1 X78.488 Y88.998 E16.95152
G1 X83.01 Y83.227 E17.24415
G1 X83.199 Y83.028 E17.2551
G0 F9000 X83.325 Y83.473
G1 F1800 X89.071 Y78.509 E17.55816
G1 X95.543 Y74.885 E17.85421
G1 X99.191 Y73.681 E18.00754
G1 X99.469 Y73.632 E18.01881
G1 X99.75 Y73.664 E18.03009
G1 X100.01 Y73.772 E18.04133
G1 X100.23 Y73.949 E18.0526
G1 X100.392 Y74.18 E18.06386
G1 X100.483 Y74.447 E18.07512
G1 X100.498 Y77.599 E18.20092
G1 X100.458 Y77.878 E18.21217
G1 X100.342 Y78.135 E18.22343
G1 X100.158 Y78.349 E18.23469
G1 X99.799 Y78.552 E18.25115
G1 X97.481 Y79.284 E18.34817
G1 X91.755 Y82.467 E18.60965
G1 X86.726 Y86.76 E18.87355
G1 X82.599 Y91.993 E19.13955
G1 X79.53 Y97.965 E19.40754
G1 X77.64 Y104.445 E19.67694
G1 X77.001 Y111.195 E19.94755
G1 X77.64 Y117.94 E20.21797
G1 X79.53 Y124.421 E20.48741
G1 X82.599 Y130.393 E20.7554
G1 X86.726 Y135.626 E21.0214
G1 X91.755 Y139.919 E21.2853
G1 X97.379 Y143.045 E21.54211
G1 X103.701 Y145.065 E21.807
G1 X110.178 Y145.725 E22.06685
G1 X116.622 Y145.064 E22.3254
G1 X122.723 Y143.137 E22.58076
G1 X128.569 Y139.915 E22.84718
G1 X133.503 Y135.704 E23.10607
G1 X137.648 Y130.487 E23.37202
G1 X140.735 Y124.524 E23.64001
G1 X142.646 Y118.053 E23.90931
G1 X143.308 Y111.312 E24.17965
G1 X142.692 Y104.566 E24.45002
G1 X140.823 Y98.081 E24.71939
G1 X137.774 Y92.096 E24.98747
G1 X133.687 Y86.882 E25.25189
G1 X128.584 Y82.494 E25.5205
G1 X122.859 Y79.311 E25.78194
G1 X119.221 Y78.162 E25.93421
G1 X118.966 Y78.039 E25.94551
G1 X118.756 Y77.851 E25.95676
G1 X118.607 Y77.612 E25.968
G1 X118.522 Y77.208 E25.98448
G1 X118.522 Y74.435 E26.09516
G1 X118.567 Y74.084 E26.10928
G1 X118.687 Y73.829 E26.12053
G1 X118.873 Y73.617 E26.13178
G1 X119.111 Y73.466 E26.14303
G1 X119.382 Y73.387 E26.1543
G1 X119.664 Y73.387 E26.16556
G1 X124.29 Y74.832 E26.35899
G1 X130.783 Y78.419 E26.65505
G1 X136.477 Y83.254 E26.95319
G1 X141.132 Y89.123 E27.25217
G1 X144.612 Y95.854 E27.5546
G1 X146.759 Y103.15 E27.85815
G1 X147.496 Y110.744 E28.16266
G1 X146.795 Y118.343 E28.46724
G1 X144.683 Y125.649 E28.77078
G1 X141.238 Y132.391 E29.07296
G1 X136.594 Y138.309 E29.37321
G1 X130.926 Y143.173 E29.67131
G1 X124.566 Y146.733 E29.96221
G1 X124.151 Y146.913 E29.98026
G1 X117.423 Y149.035 E30.26183
G1 X115.399 Y149.263 E30.34313
G1 X115.399 Y152.035 E30.45376
G1 X115.359 Y152.314 E30.46501
G1 X115.243 Y152.571 E30.47626
G1 X115.06 Y152.786 E30.48753
G1 X114.824 Y152.94 E30.49878
G1 X114.399 Y153.035 E30.51616
G1 X104.599 Y153.035 E30.9073
G1 X104.32 Y152.995 E30.91855
G1 X104.063 Y152.879 E30.9298
G1 X103.848 Y152.696 E30.94107
G1 X103.694 Y152.46 E30.95232
G1 X103.599 Y152.035 E30.9697
G1 X103.599 Y149.209 E31.08249
G1 X102.747 Y149.071 E31.11694
G1 X95.85 Y146.912 E31.40539
G1 X95.434 Y146.734 E31.42345
G1 X89.237 Y143.286 E31.70649
G1 X83.64 Y138.535 E31.99951
G1 X78.947 Y132.658 E32.29968
G1 X75.449 Y125.945 E32.60181
G1 X73.279 Y118.658 E32.90527
G1 X72.518 Y111.07 E33.20964
G1 X73.192 Y103.47 E33.51416
G1 X75.279 Y96.16 E33.81758
G1 X78.699 Y89.407 E34.1197
G1 X83.325 Y83.473 E34.42
G0 F9000 X83.64 Y83.72
G1 F1800 X89.332 Y78.812 E34.71997
G1 X95.737 Y75.235 E35.01278
G1 X99.315 Y74.061 E35.16307
G1 X99.531 Y74.033 E35.17177
G1 X99.743 Y74.084 E35.18047
G1 X99.923 Y74.207 E35.18917
G1 X100.047 Y74.386 E35.19786
G1 X100.1 Y74.632 E35.2079
G1 X100.098 Y77.598 E35.32628
G1 X100.058 Y77.813 E35.33501
G1 X99.944 Y77.999 E35.34372
G1 X99.679 Y78.17 E35.35631
G1 X97.323 Y78.914 E35.45492
G1 X91.526 Y82.137 E35.71964
G1 X86.439 Y86.479 E35.98658
G1 X82.261 Y91.775 E36.25581
G1 X79.156 Y97.819 E36.52701
G1 X77.245 Y104.373 E36.79949
G1 X76.598 Y111.195 E37.07299
G1 X77.245 Y118.012 E37.34629
G1 X79.156 Y124.567 E37.61881
G1 X82.261 Y130.611 E37.89001
G1 X86.439 Y135.907 E38.15924
G1 X91.526 Y140.249 E38.42618
G1 X97.217 Y143.413 E38.68606
G1 X103.62 Y145.459 E38.95435
G1 X110.179 Y146.127 E39.21749
G1 X116.705 Y145.458 E39.47932
G1 X122.882 Y143.507 E39.73786
G1 X128.799 Y140.245 E40.00753
G1 X133.789 Y135.987 E40.26935
G1 X137.985 Y130.706 E40.53856
G1 X141.109 Y124.672 E40.80975
G1 X143.04 Y118.131 E41.08195
G1 X143.709 Y111.314 E41.35534
G1 X143.086 Y104.492 E41.62875
G1 X141.197 Y97.933 E41.90118
G1 X138.112 Y91.877 E42.17244
G1 X133.99 Y86.619 E42.4391
G1 X133.799 Y86.42 E42.45011
G1 X128.813 Y82.164 E42.71175
G1 X123.017 Y78.941 E42.97644
G1 X119.341 Y77.78 E43.1303
G1 X119.149 Y77.678 E43.13898
G1 X119.005 Y77.513 E43.14772
G1 X118.922 Y77.208 E43.16034
G1 X118.922 Y74.441 E43.27077
G1 X118.966 Y74.155 E43.28232
G1 X119.082 Y73.97 E43.29104
G1 X119.257 Y73.839 E43.29976
G1 X119.467 Y73.78 E43.30847
G1 X124.17 Y75.214 E43.50471
G1 X130.589 Y78.769 E43.79757
G1 X136.218 Y83.559 E44.09257
G1 X140.818 Y89.37 E44.38837
G1 X144.257 Y96.037 E44.68778
G1 X146.375 Y103.262 E44.98828
G1 X147.097 Y110.781 E45.28976
G1 X146.396 Y118.306 E45.5914
G1 X144.299 Y125.537 E45.8919
G1 X140.883 Y132.208 E46.19103
G1 X136.28 Y138.062 E46.48825
G1 X130.667 Y142.868 E46.78318
G1 X124.372 Y146.383 E47.07094
G1 X124.03 Y146.531 E47.08581
G1 X117.302 Y148.653 E47.36738
G1 X114.999 Y148.902 E47.45984
G1 X114.999 Y152.035 E47.58488
G1 X114.959 Y152.25 E47.59361
G1 X114.846 Y152.436 E47.60229
G1 X114.673 Y152.569 E47.611
G1 X114.399 Y152.635 E47.62225
G1 X104.599 Y152.635 E48.01339
G1 X104.384 Y152.595 E48.02212
G1 X104.198 Y152.482 E48.03081
G1 X104.065 Y152.309 E48.03952
G1 X103.999 Y152.035 E48.05076
G1 X103.999 Y148.869 E48.17713
G1 X102.811 Y148.676 E48.22516
G1 X95.97 Y146.53 E48.51132
G1 X95.628 Y146.384 E48.52616
G1 X89.431 Y142.936 E48.80921
G1 X83.899 Y138.23 E49.09908
G1 X79.26 Y132.409 E49.39617
G1 X75.804 Y125.761 E49.69521
G1 X73.663 Y118.545 E49.99563
G1 X72.916 Y111.031 E50.29701
G1 X73.59 Y103.507 E50.59851
G1 X75.663 Y96.271 E50.89893
G1 X79.055 Y89.589 E51.19802
G1 X83.64 Y83.72 E51.49527
G0 F9000 X83.955 Y83.967
G1 F1800 X89.593 Y79.115 E51.79215
G1 X95.932 Y75.584 E52.08176
G1 X99.438 Y74.442 E52.22893
G1 X99.563 Y74.442 E52.23392
G1 X99.663 Y74.517 E52.2389
G1 X99.7 Y74.632 E52.24373
G1 X99.698 Y77.598 E52.36211
G1 X99.659 Y77.717 E52.3671
G1 X99.558 Y77.789 E52.37205
G1 X97.164 Y78.545 E52.47226
G1 X91.295 Y81.807 E52.74025
G1 X86.149 Y86.201 E53.01032
G1 X81.923 Y91.558 E53.28265
G1 X78.783 Y97.669 E53.55687
G1 X76.85 Y104.296 E53.83239
G1 X76.197 Y111.195 E54.10898
G1 X76.85 Y118.089 E54.38536
G1 X78.783 Y124.717 E54.66092
G1 X81.923 Y130.828 E54.93514
G1 X86.149 Y136.185 E55.20747
G1 X91.295 Y140.579 E55.47754
G1 X97.059 Y143.782 E55.74073
G1 X103.538 Y145.852 E56.0122
G1 X110.179 Y146.529 E56.27863
G1 X116.784 Y145.852 E56.54363
G1 X123.04 Y143.876 E56.80548
G1 X129.026 Y140.576 E57.07829
G1 X134.08 Y136.264 E57.34345
G1 X138.322 Y130.925 E57.61561
G1 X141.48 Y124.824 E57.8898
G1 X143.435 Y118.205 E58.16526
G1 X144.111 Y111.312 E58.4417
G1 X143.482 Y104.418 E58.718
G1 X141.572 Y97.788 E58.99338
G1 X138.451 Y91.661 E59.26782
G1 X134.292 Y86.356 E59.53686
G1 X134.076 Y86.13 E59.54934
G1 X129.044 Y81.834 E59.81341
G1 X123.176 Y78.572 E60.08137
G1 X119.462 Y77.399 E60.23682
G1 X119.36 Y77.326 E60.24183
G1 X119.322 Y77.208 E60.24678
G1 X119.322 Y74.446 E60.35702
G1 X119.364 Y74.256 E60.36478
G1 X119.466 Y74.185 E60.36974
G1 X124.049 Y75.595 E60.56112
G1 X130.394 Y79.118 E60.85078
G1 X135.958 Y83.863 E61.14264
G1 X140.504 Y89.618 E61.43535
G1 X143.901 Y96.22 E61.73169
G1 X145.991 Y103.374 E62.02915
G1 X146.699 Y110.819 E62.32764
G1 X145.998 Y118.268 E62.62626
G1 X143.915 Y125.425 E62.92376
G1 X140.527 Y132.025 E63.21986
G1 X135.966 Y137.814 E63.51401
G1 X130.407 Y142.564 E63.80585
G1 X124.177 Y146.034 E64.09047
G1 X123.91 Y146.15 E64.10209
G1 X117.182 Y148.272 E64.38366
G1 X114.599 Y148.54 E64.4873
G1 X114.599 Y152.035 E64.6268
G1 X114.56 Y152.154 E64.6318
G1 X114.399 Y152.235 E64.63899
G1 X104.599 Y152.235 E65.03013
G1 X104.48 Y152.196 E65.03513
G1 X104.399 Y152.035 E65.04232
G1 X104.399 Y148.529 E65.18225
G1 X102.875 Y148.281 E65.24388
G1 X96.09 Y146.149 E65.52774
G1 X95.823 Y146.035 E65.53932
G1 X89.626 Y142.587 E65.82237
G1 X84.159 Y137.926 E66.1091
G1 X79.573 Y132.16 E66.40315
G1 X76.159 Y125.577 E66.69912
G1 X74.046 Y118.432 E66.99651
G1 X73.314 Y110.992 E67.29489
G1 X73.989 Y103.543 E67.59341
G1 X76.048 Y96.382 E67.8908
G1 X79.412 Y89.77 E68.18689
G1 X83.955 Y83.967 E68.48104
G1 F1800 E65.48104
;MESH:bottle_holder_ring_strong.stl
G0 F9000 X84.411 Y84.387
G0 X90.392 Y80.237
G0 X96.51 Y76.834
G0 X98.312 Y76.265
G0 X98.32 Y76.734
G0 X90.509 Y80.677
G0 X83.065 Y88.073
G0 X78.122 Y97.435
G0 X78.41 Y97.519
;TYPE:WALL-OUTER
G1 F1800 E68.48104
G1 X76.456 Y104.222 E68.7597
G1 X75.795 Y111.193 E69.03918
G1 X76.456 Y118.164 E69.31865
G1 X78.41 Y124.867 E69.59732
G1 X81.586 Y131.047 E69.87464
G1 X85.858 Y136.462 E70.14993
G1 X91.065 Y140.908 E70.4232
G1 X96.903 Y144.153 E70.68978
G1 X103.455 Y146.246 E70.96431
G1 X110.179 Y146.931 E71.23407
G1 X116.866 Y146.246 E71.50236
G1 X123.2 Y144.246 E71.76746
G1 X129.253 Y140.908 E72.04335
G1 X134.371 Y136.542 E72.31185
G1 X138.66 Y131.143 E72.58705
G1 X141.852 Y124.977 E72.86417
G1 X143.829 Y118.282 E73.14279
G1 X144.513 Y111.317 E73.42212
G1 X143.876 Y104.346 E73.7015
G1 X141.944 Y97.637 E73.98016
G1 X138.791 Y91.449 E74.25735
G1 X134.595 Y86.095 E74.52884
G1 X134.346 Y85.836 E74.54318
G1 X129.274 Y81.505 E74.80938
G1 X123.333 Y78.201 E75.0807
G1 X119.722 Y77.061 E75.23183
G1 X119.722 Y74.65 E75.32806
G1 X123.908 Y75.97 E75.50324
G1 X130.184 Y79.459 E75.78984
G1 X135.684 Y84.155 E76.07848
G1 X140.179 Y89.853 E76.36815
G1 X143.535 Y96.383 E76.66118
G1 X145.602 Y103.47 E76.95582
G1 X146.299 Y110.84 E77.25129
G1 X145.602 Y118.21 E77.54675
G1 X143.535 Y125.297 E77.8414
G1 X140.179 Y131.826 E78.13439
G1 X135.665 Y137.55 E78.42534
G1 X130.164 Y142.246 E78.71402
G1 X123.987 Y145.681 E78.99611
G1 X123.783 Y145.77 E79.00499
G1 X117.079 Y147.884 E79.28555
G1 X114.199 Y148.184 E79.40112
G1 X114.199 Y151.835 E79.54684
G1 X104.799 Y151.835 E79.92202
G1 X104.799 Y148.189 E80.06754
G1 X102.959 Y147.89 E80.14194
G1 X96.217 Y145.769 E80.42403
G1 X96.011 Y145.681 E80.43297
G1 X89.836 Y142.246 E80.71499
G1 X84.433 Y137.634 E80.99852
G1 X79.901 Y131.929 E81.28932
G1 X76.525 Y125.411 E81.58229
G1 X74.435 Y118.334 E81.87681
G1 X73.714 Y110.97 E82.17213
G1 X74.385 Y103.6 E82.46749
G1 X76.427 Y96.51 E82.76197
G1 X79.761 Y89.966 E83.0551
G1 X84.254 Y84.233 E83.34582
G1 X89.837 Y79.432 E83.63971
G1 X96.112 Y75.942 E83.92628
G1 X99.3 Y74.908 E84.06005
G1 X99.298 Y77.451 E84.16155
G1 X97.008 Y78.174 E84.25739
G1 X91.065 Y81.478 E84.52878
G1 X85.858 Y85.924 E84.80206
G1 X81.586 Y91.339 E85.07734
G1 X78.41 Y97.519 E85.35466
G0 F9000 X78.002 Y97.357
G1 F1800 E82.35466
G0 F9000 X76.22 Y104.177
G0 X75.554 Y111.193
G0 X76.22 Y118.209
G0 X78.186 Y124.955
G0 X81.384 Y131.177
G0 X85.685 Y136.628
G0 X90.928 Y141.105
G0 X96.808 Y144.373
G0 X103.406 Y146.482
G0 X110.179 Y147.172
G0 X116.915 Y146.482
G0 X122.656 Y144.669
G0 X129.935 Y141.915
;TYPE:WALL-INNER
G1 F1800 E85.35466
G1 X123.811 Y145.321 E85.63435
G1 X123.634 Y145.398 E85.64205
G1 X123.607 Y145.406 E85.64317
G1 X117.001 Y147.49 E85.91964
G1 X113.799 Y147.824 E86.04813
G1 X113.799 Y151.435 E86.19226
G1 X105.199 Y151.435 E86.5355
G1 X105.199 Y147.849 E86.67863
G1 X103.053 Y147.5 E86.7654
G1 X96.353 Y145.392 E87.04574
G1 X96.188 Y145.322 E87.05289
G1 X90.065 Y141.915 E87.33256
G1 X84.722 Y137.355 E87.61292
G1 X80.238 Y131.71 E87.90065
G1 X76.899 Y125.263 E88.19043
G1 X74.829 Y118.255 E88.48208
G1 X74.826 Y118.215 E88.48368
G1 X74.116 Y110.967 E88.77435
G1 X74.779 Y103.675 E89.06659
G1 X76.8 Y96.658 E89.35803
G1 X80.099 Y90.184 E89.64804
G1 X84.546 Y84.509 E89.9358
G1 X90.066 Y79.763 E90.22635
G1 X96.276 Y76.309 E90.50996
G1 X98.375 Y75.629 E90.59802
G1 X98.639 Y75.543 E90.60911
G1 X98.9 Y75.458 E90.62006
