;FLAVOR:Marlin
;TIME:3506
;Filament used: 2.24855m
;Layer height: 0.2
;MINX:72.11
;MINY:69.491
;MINZ:0.24
;MAXX:147.888
;MAXY:152.09
;MAXZ:13.32
;Generated with Cura_SteamEngine 4.5.0
M140 S50
M105
M190 S50
M104 S215
M105
M109 S215
M82 ;absolute extrusion mode
M201 X500.00 Y500.00 Z100.00 E5000.00 ;Setup machine max acceleration
M203 X500.00 Y500.00 Z10.00 E50.00 ;Setup machine max feedrate
M204 P500.00 R1000.00 T500.00 ;Setup Print/Retract/Travel acceleration
M205 X8.00 Y8.00 Z0.40 E5.00 ;Setup Jerk
M220 S100 ;Reset Feedrate
M221 S100 ;Reset Flowrate

G28 ;Home

G92 E0 ;Reset Extruder
G1 Z2.0 F3000 ;Move Z Axis up
G1 X10.1 Y20 Z0.28 F5000.0 ;Move to start position
G1 X10.1 Y200.0 Z0.28 F1500.0 E15 ;Draw the first line
G1 X10.4 Y200.0 Z0.28 F5000.0 ;Move to side a little
G1 X10.4 Y20 Z0.28 F1500.0 E30 ;Draw the second line
G92 E0 ;Reset Extruder
G1 Z2.0 F3000 ;Move Z Axis up

G92 E0
G92 E0
G1 F1800 E-3
;LAYER_COUNT:77
;LAYER:0
M106 S63.8
M204 S500
M205 X6 Y6
G0 F9000 X83.283 Y81.579 Z0.24
;TYPE:SKIRT
G1 F1800 E0
G1 X88.811 Y76.857 E0.29017
G1 X89.04 Y76.698 E0.3013
G1 X95.347 Y73.191 E0.58932
G1 X96.161 Y72.903 E0.62378
G1 X98.964 Y72.02 E0.74108
G1 X99.133 Y71.952 E0.74835
G1 X99.568 Y71.905 E0.76581
G1 X100.123 Y71.932 E0.78799
G1 X100.829 Y72.034 E0.81646
G1 X101.465 Y72.192 E0.84261
G1 X102.233 Y72.522 E0.87598
G1 X102.642 Y72.753 E0.89472
G1 X103.161 Y73.194 E0.92191
G1 X103.557 Y73.741 E0.94886
G1 X103.7 Y74.043 E0.9622
G1 X103.772 Y74.497 E0.98054
G1 X103.768 Y75.067 E1.00329
G1 X103.726 Y75.398 E1.01661
G1 X103.544 Y75.817 E1.03484
G1 X103.144 Y76.357 E1.06166
G1 X102.62 Y76.794 E1.0889
G1 X102.056 Y77.101 E1.11453
G1 X101.507 Y77.316 E1.13806
G1 X100.816 Y77.496 E1.16656
G1 X100.27 Y77.585 E1.18864
G1 X99.855 Y77.607 E1.20522
G1 X97.642 Y78.306 E1.29785
G1 X91.984 Y81.453 E1.55625
G1 X87.017 Y85.693 E1.8169
G1 X82.937 Y90.864 E2.0798
G1 X79.903 Y96.769 E2.34477
G1 X78.035 Y103.175 E2.61109
G1 X77.409 Y109.785 E2.87609
G1 X78.035 Y116.519 E3.14602
G1 X79.903 Y122.925 E3.41235
G1 X82.937 Y128.831 E3.67735
G1 X86.969 Y133.943 E3.93721
G1 X91.983 Y138.242 E4.20082
G1 X97.591 Y141.359 E4.45689
G1 X103.746 Y143.315 E4.71466
G1 X104.292 Y143.379 E4.7366
G1 X109.883 Y143.95 E4.96091
G1 X110.259 Y143.969 E4.97594
G1 X116.374 Y143.343 E5.22127
G1 X116.565 Y143.318 E5.22896
G1 X122.608 Y141.408 E5.48191
G1 X128.277 Y138.274 E5.74045
G1 X133.249 Y134.05 E6.00084
G1 X137.365 Y128.853 E6.26543
G1 X138.363 Y126.92 E6.35226
G1 X140.357 Y123.041 E6.52634
G1 X141 Y120.92 E6.6148
G1 X142.263 Y116.594 E6.79466
G1 X142.905 Y109.98 E7.05988
G1 X142.29 Y103.222 E7.33072
G1 X140.427 Y96.806 E7.59738
G1 X137.382 Y90.862 E7.86393
G1 X133.336 Y85.735 E8.12461
G1 X128.354 Y81.47 E8.38636
G1 X122.793 Y78.37 E8.64047
G1 X121.482 Y77.928 E8.69569
G1 X119.153 Y77.194 E8.79315
G1 X118.174 Y77.078 E8.8325
G1 X117.532 Y76.916 E8.85892
G1 X116.9 Y76.662 E8.88611
G1 X116.268 Y76.287 E8.91544
G1 X115.753 Y75.811 E8.94343
G1 X115.448 Y75.383 E8.96441
G1 X115.304 Y75.082 E8.97772
G1 X115.229 Y74.633 E8.99589
G1 X115.228 Y74.064 E9.0186
G1 X115.267 Y73.733 E9.0319
G1 X115.448 Y73.308 E9.05034
G1 X115.844 Y72.768 E9.07707
G1 X116.369 Y72.325 E9.10449
G1 X116.897 Y72.032 E9.12859
G1 X117.527 Y71.778 E9.1557
G1 X118.013 Y71.648 E9.17578
G1 X118.714 Y71.528 E9.20416
G1 X119.463 Y71.496 E9.23408
G1 X119.796 Y71.528 E9.24744
G1 X120.111 Y71.637 E9.26074
G1 X120.394 Y71.819 E9.27417
G1 X124.391 Y73.079 E9.44144
G1 X124.65 Y73.19 E9.45268
G1 X130.957 Y76.696 E9.74069
G1 X131.186 Y76.855 E9.75181
G1 X136.718 Y81.578 E10.04213
G1 X136.908 Y81.776 E10.05308
G1 X141.447 Y87.53 E10.34559
G1 X141.593 Y87.757 E10.35636
G1 X144.968 Y94.325 E10.65109
G1 X147.143 Y101.692 E10.95767
G1 X147.888 Y109.308 E11.26309
G1 X147.193 Y117.033 E11.57266
G1 X145.067 Y124.415 E11.87927
G1 X141.597 Y131.226 E12.18436
G1 X141.451 Y131.453 E12.19513
G1 X136.908 Y137.212 E12.48789
G1 X136.718 Y137.41 E12.49884
G1 X131.186 Y142.132 E12.78913
G1 X130.957 Y142.291 E12.80026
G1 X124.673 Y145.785 E13.08723
G1 X124.416 Y145.896 E13.0984
G1 X117.545 Y148.071 E13.38605
G1 X115.799 Y148.279 E13.45623
G1 X115.799 Y150.689 E13.55242
G1 X115.759 Y151.021 E13.56577
G1 X115.642 Y151.333 E13.57907
G1 X115.454 Y151.61 E13.59243
G1 X115.206 Y151.833 E13.60574
G1 X114.912 Y151.992 E13.61908
G1 X114.399 Y152.089 E13.63992
G1 X104.599 Y152.09 E14.03106
G1 X104.267 Y152.05 E14.0444
G1 X103.955 Y151.933 E14.0577
G1 X103.679 Y151.745 E14.07103
G1 X103.455 Y151.497 E14.08437
G1 X103.296 Y151.203 E14.09771
G1 X103.199 Y150.69 E14.11855
G1 X103.199 Y148.177 E14.21885
G1 X102.489 Y148.074 E14.24748
G1 X95.629 Y145.914 E14.53453
G1 X95.369 Y145.803 E14.54581
G1 X89.135 Y142.342 E14.8304
G1 X88.91 Y142.187 E14.8413
G1 X84.734 Y138.652 E15.05968
G1 X83.301 Y137.425 E15.13497
G1 X83.112 Y137.229 E15.14584
G1 X78.57 Y131.479 E15.4383
G1 X75.119 Y124.833 E15.73718
G1 X74.933 Y124.416 E15.7554
G1 X72.868 Y117.328 E16.05006
G1 X72.11 Y109.662 E16.35752
G1 X72.807 Y101.954 E16.66642
G1 X74.933 Y94.574 E16.97295
G1 X78.405 Y87.76 E17.27818
G1 X78.551 Y87.533 E17.28895
G1 X82.972 Y81.931 E17.57378
G1 X83.283 Y81.579 E17.59253
G0 F9000 X83.406 Y82.026
G1 F1800 X89.071 Y77.162 E17.89054
G1 X95.541 Y73.541 E18.18646
G1 X96.283 Y73.284 E18.2178
G1 X99.101 Y72.396 E18.33573
G1 X99.28 Y72.327 E18.34338
G1 X100.104 Y72.331 E18.37627
G1 X100.767 Y72.429 E18.40302
G1 X101.364 Y72.579 E18.42759
G1 X102.066 Y72.885 E18.45815
G1 X102.626 Y73.237 E18.48455
G1 X103.043 Y73.676 E18.50872
G1 X103.333 Y74.212 E18.53304
G1 X103.372 Y74.494 E18.5444
G1 X103.368 Y75.064 E18.56715
G1 X103.326 Y75.343 E18.57842
G1 X103.031 Y75.874 E18.60266
G1 X102.604 Y76.313 E18.6271
G1 X102.043 Y76.664 E18.65352
G1 X101.361 Y76.943 E18.68292
G1 X100.722 Y77.107 E18.70926
G1 X100.208 Y77.19 E18.73004
G1 X99.786 Y77.21 E18.7469
G1 X97.481 Y77.938 E18.84337
G1 X91.755 Y81.122 E19.10487
G1 X86.726 Y85.414 E19.36875
G1 X82.599 Y90.648 E19.63478
G1 X79.53 Y96.619 E19.90273
G1 X77.64 Y103.099 E20.17213
G1 X77.008 Y109.785 E20.44018
G1 X77.64 Y116.595 E20.71315
G1 X79.53 Y123.075 E20.98255
G1 X82.599 Y129.048 E21.25058
G1 X86.668 Y134.208 E21.51285
G1 X91.755 Y138.573 E21.78039
G1 X97.429 Y141.727 E22.03948
G1 X103.662 Y143.707 E22.30051
G1 X104.251 Y143.776 E22.32417
G1 X109.841 Y144.348 E22.54845
G1 X110.274 Y144.37 E22.56575
G1 X116.397 Y143.743 E22.81141
G1 X116.654 Y143.709 E22.82176
G1 X122.766 Y141.778 E23.07759
G1 X128.507 Y138.603 E23.33943
G1 X133.526 Y134.34 E23.60226
G1 X137.701 Y129.074 E23.87047
G1 X138.718 Y127.103 E23.959
G1 X140.73 Y123.192 E24.13454
G1 X141.383 Y121.036 E24.22445
G1 X142.657 Y116.671 E24.40593
G1 X143.305 Y109.991 E24.6738
G1 X143.316 Y109.808 E24.68112
G1 X142.688 Y103.184 E24.94668
G1 X140.811 Y96.694 E25.21632
G1 X137.718 Y90.642 E25.48759
G1 X133.65 Y85.487 E25.74969
G1 X128.614 Y81.166 E26.01453
G1 X122.954 Y78.002 E26.27333
G1 X121.628 Y77.555 E26.32918
G1 X119.273 Y76.813 E26.42773
G1 X118.234 Y76.683 E26.46952
G1 X117.634 Y76.53 E26.49424
G1 X117.057 Y76.295 E26.5191
G1 X116.48 Y75.948 E26.54598
G1 X116.042 Y75.534 E26.57003
G1 X115.786 Y75.168 E26.58786
G1 X115.669 Y74.911 E26.59913
G1 X115.629 Y74.633 E26.61034
G1 X115.628 Y74.064 E26.63305
G1 X115.667 Y73.784 E26.64433
G1 X115.96 Y73.25 E26.66864
G1 X116.385 Y72.808 E26.69311
G1 X116.946 Y72.453 E26.71961
G1 X117.496 Y72.211 E26.74359
G1 X118.117 Y72.034 E26.76937
G1 X118.777 Y71.923 E26.79608
G1 X119.474 Y71.896 E26.82392
G1 X119.754 Y71.929 E26.83517
G1 X120.014 Y72.038 E26.84642
G1 X120.175 Y72.169 E26.85471
G1 X124.271 Y73.46 E27.02612
G1 X130.763 Y77.046 E27.32213
G1 X136.458 Y81.882 E27.62032
G1 X141.133 Y87.778 E27.92064
G1 X144.612 Y94.508 E28.22302
G1 X146.759 Y101.804 E28.52656
G1 X147.49 Y109.346 E28.82899
G1 X146.795 Y116.996 E29.13558
G1 X144.683 Y124.303 E29.43915
G1 X141.242 Y131.043 E29.74119
G1 X136.594 Y136.964 E30.04163
G1 X130.926 Y141.828 E30.33973
G1 X124.479 Y145.435 E30.63458
G1 X117.424 Y147.689 E30.93018
G1 X115.399 Y147.917 E31.01151
G1 X115.399 Y150.689 E31.12215
G1 X115.359 Y150.968 E31.1334
G1 X115.243 Y151.225 E31.14465
G1 X115.06 Y151.44 E31.15592
G1 X114.824 Y151.594 E31.16717
G1 X114.399 Y151.689 E31.18455
G1 X104.599 Y151.69 E31.57569
G1 X104.32 Y151.65 E31.58694
G1 X104.063 Y151.534 E31.59819
G1 X103.848 Y151.351 E31.60946
G1 X103.694 Y151.115 E31.62071
G1 X103.599 Y150.69 E31.63809
G1 X103.599 Y147.816 E31.7528
G1 X102.807 Y147.734 E31.78458
G1 X95.749 Y145.533 E32.07965
G1 X89.33 Y141.992 E32.37225
G1 X84.993 Y138.346 E32.59839
G1 X83.561 Y137.121 E32.6736
G1 X78.884 Y131.231 E32.97378
G1 X75.475 Y124.65 E33.26959
G1 X75.317 Y124.304 E33.28477
G1 X73.252 Y117.216 E33.57943
G1 X72.509 Y109.624 E33.88389
G1 X73.205 Y101.992 E34.18977
G1 X75.317 Y94.686 E34.49331
G1 X78.761 Y87.943 E34.7955
G1 X83.286 Y82.178 E35.08801
G1 X83.406 Y82.026 E35.09574
G0 F9000 X83.802 Y82.188
G1 F1800 X89.33 Y77.466 E35.38591
G1 X95.735 Y73.891 E35.67867
G1 X96.404 Y73.665 E35.70686
G1 X99.195 Y72.786 E35.82365
G1 X99.529 Y72.704 E35.83737
G1 X100.084 Y72.731 E35.85955
G1 X100.705 Y72.824 E35.88461
G1 X101.263 Y72.966 E35.90759
G1 X101.899 Y73.249 E35.93538
G1 X102.35 Y73.527 E35.95652
G1 X102.705 Y73.889 E35.97676
G1 X102.96 Y74.37 E35.99849
G1 X102.968 Y75.061 E36.02607
G1 X102.872 Y75.383 E36.03948
G1 X102.599 Y75.771 E36.05841
G1 X102.222 Y76.1 E36.07838
G1 X101.764 Y76.356 E36.09933
G1 X101.215 Y76.571 E36.12286
G1 X100.628 Y76.718 E36.14701
G1 X100.071 Y76.802 E36.16949
G1 X99.679 Y76.824 E36.18516
G1 X97.323 Y77.568 E36.28377
G1 X91.526 Y80.792 E36.54852
G1 X86.439 Y85.133 E36.81543
G1 X82.261 Y90.43 E37.08469
G1 X79.156 Y96.473 E37.35586
G1 X77.244 Y103.027 E37.62834
G1 X76.605 Y109.785 E37.89927
G1 X77.244 Y116.667 E38.17513
G1 X79.156 Y123.221 E38.44762
G1 X82.261 Y129.265 E38.71882
G1 X86.362 Y134.465 E38.98314
G1 X91.523 Y138.902 E39.25479
G1 X97.268 Y142.096 E39.51713
G1 X103.577 Y144.1 E39.78134
G1 X104.21 Y144.174 E39.80678
G1 X109.819 Y144.748 E40.03181
G1 X110.281 Y144.772 E40.05028
G1 X116.453 Y144.139 E40.29791
G1 X116.741 Y144.102 E40.3095
G1 X122.924 Y142.148 E40.5683
G1 X128.736 Y138.934 E40.83338
G1 X133.792 Y134.639 E41.09816
G1 X138.042 Y129.286 E41.37095
G1 X139.074 Y127.287 E41.46074
G1 X141.103 Y123.341 E41.63784
G1 X141.766 Y121.152 E41.72912
G1 X143.052 Y116.748 E41.91224
G1 X143.704 Y110.029 E42.18167
G1 X143.717 Y109.793 E42.1911
G1 X143.087 Y103.147 E42.45755
G1 X141.195 Y96.582 E42.73023
G1 X138.058 Y90.428 E43.00592
G1 X133.963 Y85.238 E43.26978
G1 X133.88 Y85.133 E43.27513
G1 X128.874 Y80.861 E43.53779
G1 X123.119 Y77.636 E43.80109
G1 X121.737 Y77.17 E43.8593
G1 X119.394 Y76.431 E43.95736
G1 X118.866 Y76.374 E43.97855
G1 X118.295 Y76.287 E44.0016
G1 X117.736 Y76.143 E44.02464
G1 X117.214 Y75.927 E44.04719
G1 X116.692 Y75.609 E44.07159
G1 X116.331 Y75.258 E44.09168
G1 X116.123 Y74.953 E44.10642
G1 X116.029 Y74.632 E44.11977
G1 X116.028 Y74.063 E44.14248
G1 X116.122 Y73.739 E44.15594
G1 X116.392 Y73.351 E44.17481
G1 X116.77 Y73.018 E44.19491
G1 X117.211 Y72.767 E44.21517
G1 X117.734 Y72.55 E44.23777
G1 X118.22 Y72.42 E44.25785
G1 X118.84 Y72.318 E44.28292
G1 X119.484 Y72.296 E44.30864
G1 X119.889 Y72.439 E44.32579
G1 X119.954 Y72.519 E44.3299
G1 X124.15 Y73.842 E44.5055
G1 X130.569 Y77.396 E44.79834
G1 X136.199 Y82.187 E45.0934
G1 X140.819 Y88.025 E45.39054
G1 X144.257 Y94.691 E45.68989
G1 X146.375 Y101.916 E45.99039
G1 X147.091 Y109.384 E46.28983
G1 X146.396 Y116.959 E46.59343
G1 X144.299 Y124.191 E46.89396
G1 X140.886 Y130.86 E47.19297
G1 X136.28 Y136.717 E47.49036
G1 X130.667 Y141.523 E47.78529
G1 X124.285 Y145.085 E48.077
G1 X117.303 Y147.308 E48.36945
G1 X114.999 Y147.556 E48.46194
G1 X114.999 Y150.689 E48.58698
G1 X114.959 Y150.904 E48.59571
G1 X114.846 Y151.09 E48.6044
G1 X114.673 Y151.223 E48.61311
G1 X114.399 Y151.289 E48.62435
G1 X104.599 Y151.29 E49.01549
G1 X104.385 Y151.25 E49.02418
G1 X104.198 Y151.137 E49.0329
G1 X104.065 Y150.964 E49.04161
G1 X103.999 Y150.69 E49.05286
G1 X103.999 Y147.455 E49.18198
G1 X102.848 Y147.336 E49.22816
G1 X95.869 Y145.151 E49.52004
G1 X89.524 Y141.643 E49.80941
G1 X85.251 Y138.041 E50.03246
G1 X83.821 Y136.817 E50.10759
G1 X79.198 Y130.983 E50.40468
G1 X75.831 Y124.468 E50.69738
G1 X75.701 Y124.192 E50.70956
G1 X73.636 Y117.104 E51.00422
G1 X72.907 Y109.586 E51.30569
G1 X73.604 Y102.029 E51.60858
G1 X75.701 Y94.798 E51.90908
G1 X79.116 Y88.126 E52.20823
G1 X83.6 Y82.426 E52.49768
G1 X83.802 Y82.188 E52.51014
G0 F9000 X84.062 Y82.492
G1 F1800 X89.59 Y77.77 E52.80031
G1 X95.93 Y74.24 E53.08993
G1 X96.525 Y74.046 E53.11491
G1 X99.356 Y73.154 E53.23338
G1 X99.51 Y73.103 E53.23985
G1 X100.065 Y73.13 E53.26203
G1 X100.644 Y73.219 E53.28541
G1 X101.162 Y73.353 E53.30677
G1 X101.732 Y73.612 E53.33176
G1 X102.075 Y73.817 E53.3477
G1 X102.366 Y74.102 E53.36396
G1 X102.572 Y74.488 E53.38142
G1 X102.568 Y75.058 E53.40418
G1 X102.359 Y75.44 E53.42155
G1 X102.023 Y75.753 E53.43988
G1 X101.618 Y75.983 E53.45847
G1 X101.069 Y76.198 E53.482
G1 X100.534 Y76.329 E53.50399
G1 X100.06 Y76.402 E53.52313
G1 X99.598 Y76.414 E53.54157
G1 X97.164 Y77.199 E53.64365
G1 X91.295 Y80.462 E53.91166
G1 X86.149 Y84.855 E54.18171
G1 X81.923 Y90.213 E54.45407
G1 X78.783 Y96.323 E54.72825
G1 X76.85 Y102.95 E55.00377
G1 X76.204 Y109.785 E55.27779
G1 X76.85 Y116.743 E55.55669
G1 X78.783 Y123.371 E55.83225
G1 X81.923 Y129.482 E56.10647
G1 X86.061 Y134.729 E56.37317
G1 X86.246 Y134.924 E56.3839
G1 X91.295 Y139.233 E56.64883
G1 X97.109 Y142.464 E56.9143
G1 X103.492 Y144.492 E57.18161
G1 X104.172 Y144.572 E57.20894
G1 X109.776 Y145.146 E57.43378
G1 X110.295 Y145.172 E57.45452
G1 X116.497 Y144.537 E57.70335
G1 X116.825 Y144.495 E57.71655
G1 X123.082 Y142.517 E57.97846
G1 X128.966 Y139.264 E58.2468
G1 X134.069 Y134.929 E58.51404
G1 X138.378 Y129.506 E58.79049
G1 X139.429 Y127.47 E58.88194
G1 X141.476 Y123.488 E59.06064
G1 X142.149 Y121.268 E59.15323
G1 X143.446 Y116.824 E59.338
G1 X144.102 Y110.061 E59.60919
G1 X144.117 Y109.782 E59.62034
G1 X143.485 Y103.109 E59.88787
G1 X143.47 Y102.951 E59.8942
G1 X141.579 Y96.47 E60.16366
G1 X141.536 Y96.324 E60.16974
G1 X138.396 Y90.211 E60.44402
G1 X134.277 Y84.99 E60.70945
G1 X134.171 Y84.856 E60.71627
G1 X129.133 Y80.557 E60.9806
G1 X129.023 Y80.463 E60.98638
G1 X123.28 Y77.268 E61.24867
G1 X121.865 Y76.791 E61.30827
G1 X119.514 Y76.05 E61.40666
G1 X119.437 Y76.008 E61.41016
G1 X118.926 Y75.979 E61.43059
G1 X118.355 Y75.892 E61.45364
G1 X117.839 Y75.756 E61.47494
G1 X117.371 Y75.559 E61.4952
G1 X116.904 Y75.27 E61.51712
G1 X116.595 Y74.95 E61.53488
G1 X116.429 Y74.631 E61.54923
G1 X116.428 Y74.062 E61.57194
G1 X116.634 Y73.68 E61.58926
G1 X116.97 Y73.364 E61.60767
G1 X117.368 Y73.135 E61.626
G1 X117.837 Y72.937 E61.64632
G1 X118.323 Y72.807 E61.6664
G1 X118.903 Y72.713 E61.68985
G1 X119.495 Y72.696 E61.71348
G1 X119.614 Y72.732 E61.71845
G1 X119.693 Y72.856 E61.72431
G1 X124.03 Y74.223 E61.90581
G1 X130.374 Y77.745 E62.19542
G1 X135.939 Y82.491 E62.48733
G1 X140.505 Y88.273 E62.78138
G1 X143.901 Y94.874 E63.07766
G1 X145.991 Y102.028 E63.37513
G1 X146.693 Y109.421 E63.67153
G1 X145.998 Y116.922 E63.97219
G1 X143.915 Y124.079 E64.2697
G1 X140.53 Y130.677 E64.56567
G1 X135.966 Y136.469 E64.85999
G1 X130.407 Y141.219 E65.15182
G1 X124.09 Y144.736 E65.44039
G1 X117.182 Y146.927 E65.72964
G1 X114.599 Y147.195 E65.83329
G1 X114.599 Y150.689 E65.97274
G1 X114.56 Y150.808 E65.97774
G1 X114.399 Y150.889 E65.98493
G1 X104.599 Y150.89 E66.37607
G1 X104.48 Y150.851 E66.38107
G1 X104.399 Y150.69 E66.38826
G1 X104.399 Y147.093 E66.53183
G1 X102.889 Y146.938 E66.59241
G1 X95.989 Y144.77 E66.88108
G1 X89.718 Y141.293 E67.16726
G1 X85.51 Y137.736 E67.38718
G1 X84.081 Y136.513 E67.46225
G1 X79.512 Y130.735 E67.75625
G1 X76.186 Y124.284 E68.04593
G1 X76.085 Y124.08 E68.05502
G1 X74.02 Y116.992 E68.34967
G1 X73.305 Y109.548 E68.64815
G1 X74.002 Y102.066 E68.94806
G1 X76.085 Y94.91 E69.24553
G1 X79.472 Y88.309 E69.54165
G1 X83.914 Y82.674 E69.82803
G1 X84.062 Y82.492 E69.83739
G1 F1800 E66.83739
;MESH:bottle_holder_ring_v2.stl
G0 F9000 X83.761 Y82.139
G0 X89.339 Y77.375
