;FLAVOR:Marlin
;TIME:4646
;Filament used: 3.79768m
;Layer height: 0.2
;MINX:91.4
;MINY:38.018
;MINZ:0.24
;MAXX:128.601
;MAXY:182
;MAXZ:29.28
;Generated with Cura_SteamEngine 4.5.0
M140 S50
M105
M190 S50
M104 S215
M105
M109 S215
M82 ;absolute extrusion mode
M201 X500.00 Y500.00 Z100.00 E5000.00 ;Setup machine max acceleration
M203 X500.00 Y500.00 Z10.00 E50.00 ;Setup machine max feedrate
M204 P500.00 R1000.00 T500.00 ;Setup Print/Retract/Travel acceleration
M205 X8.00 Y8.00 Z0.40 E5.00 ;Setup Jerk
M220 S100 ;Reset Feedrate
M221 S100 ;Reset Flowrate

G28 ;Home

G92 E0 ;Reset Extruder
G1 Z2.0 F3000 ;Move Z Axis up
G1 X10.1 Y20 Z0.28 F5000.0 ;Move to start position
G1 X10.1 Y200.0 Z0.28 F1500.0 E15 ;Draw the first line
G1 X10.4 Y200.0 Z0.28 F5000.0 ;Move to side a little
G1 X10.4 Y20 Z0.28 F1500.0 E30 ;Draw the second line
G92 E0 ;Reset Extruder
G1 Z2.0 F3000 ;Move Z Axis up

G92 E0
G92 E0
G1 F1800 E-3
;LAYER_COUNT:126
;LAYER:0
M106 S63.8
M204 S500
M205 X6 Y6
G0 F9000 X93.785 Y45.523 Z0.24
;TYPE:SKIRT
G1 F1800 E0
G1 X94.193 Y44.697 E0.03677
G1 X94.66 Y43.926 E0.07275
G1 X94.99 Y43.43 E0.09652
G1 X95.317 Y42.962 E0.11931
G1 X95.884 Y42.236 E0.15608
G1 X96.511 Y41.562 E0.19282
G1 X96.933 Y41.168 E0.21586
G1 X97.442 Y40.725 E0.24279
G1 X98.405 Y39.977 E0.29146
G1 X99.184 Y39.486 E0.32821
G1 X100.002 Y39.065 E0.36493
G1 X100.854 Y38.715 E0.40169
G1 X101.733 Y38.442 E0.43843
G1 X102.801 Y38.217 E0.48199
G1 X104.194 Y38.039 E0.53804
G1 X105.203 Y38.018 E0.57832
G1 X106.185 Y38.044 E0.61753
G1 X107.194 Y38.088 E0.65784
G1 X109.727 Y38.131 E0.75895
G1 X112.265 Y38.104 E0.86025
G1 X113.762 Y38.054 E0.92004
G1 X114.546 Y38.021 E0.95135
G1 X115.467 Y38.023 E0.98811
G1 X116.377 Y38.103 E1.02457
G1 X116.893 Y38.171 E1.04535
G1 X117.8 Y38.331 E1.08211
G1 X118.689 Y38.569 E1.11884
G1 X119.554 Y38.883 E1.15557
G1 X120.389 Y39.271 E1.19231
G1 X121.187 Y39.73 E1.22906
G1 X122.251 Y40.501 E1.2815
G1 X122.684 Y40.858 E1.3039
G1 X123.368 Y41.474 E1.34064
G1 X124.287 Y42.503 E1.3957
G1 X124.626 Y42.936 E1.41765
G1 X125.09 Y43.575 E1.44917
G1 X125.748 Y44.631 E1.49883
G1 X126.146 Y45.434 E1.5346
G1 X126.414 Y46.037 E1.56094
G1 X126.64 Y46.577 E1.5843
G1 X126.875 Y47.206 E1.6111
G1 X127.134 Y47.975 E1.64349
G1 X127.36 Y48.707 E1.67406
G1 X127.582 Y49.573 E1.70974
G1 X127.715 Y50.201 E1.73537
G1 X127.923 Y51.328 E1.78111
G1 X128.275 Y53.175 E1.85615
G1 X128.38 Y53.693 E1.87725
G1 X128.523 Y54.603 E1.91401
G1 X128.586 Y55.485 E1.9493
G1 X128.601 Y56.136 E1.97529
G1 X128.601 Y170.664 E6.54635
G1 X128.591 Y171.522 E6.5806
G1 X128.54 Y172.441 E6.61734
G1 X128.409 Y173.353 E6.65411
G1 X128.199 Y174.249 E6.69084
G1 X127.913 Y175.124 E6.72758
G1 X127.552 Y175.971 E6.76433
G1 X127.118 Y176.783 E6.80108
G1 X126.616 Y177.555 E6.83783
G1 X126.048 Y178.28 E6.87459
G1 X125.42 Y178.953 E6.91133
G1 X124.736 Y179.569 E6.94807
G1 X124.001 Y180.123 E6.9848
G1 X123.221 Y180.612 E7.02155
G1 X122.401 Y181.031 E7.0583
G1 X121.548 Y181.377 E7.09504
G1 X120.668 Y181.648 E7.13179
G1 X119.768 Y181.841 E7.16853
G1 X118.854 Y181.956 E7.20529
G1 X118.289 Y181.987 E7.22788
G1 X117.671 Y182 E7.25255
G1 X102.707 Y182 E7.84979
G1 X101.872 Y181.99 E7.88312
G1 X100.953 Y181.938 E7.91986
G1 X100.042 Y181.807 E7.9566
G1 X99.146 Y181.597 E7.99333
G1 X98.271 Y181.31 E8.03008
G1 X97.424 Y180.948 E8.06684
G1 X96.612 Y180.514 E8.10359
G1 X95.841 Y180.012 E8.14031
G1 X95.116 Y179.444 E8.17707
G1 X94.443 Y178.815 E8.21384
G1 X93.828 Y178.131 E8.25055
G1 X93.274 Y177.396 E8.28728
G1 X92.786 Y176.615 E8.32404
G1 X92.367 Y175.795 E8.36079
G1 X92.021 Y174.942 E8.39753
G1 X91.751 Y174.062 E8.43427
G1 X91.558 Y173.161 E8.47105
G1 X91.444 Y172.248 E8.50777
G1 X91.413 Y171.677 E8.53059
G1 X91.4 Y171.058 E8.55531
G1 X91.4 Y56.506 E13.12732
G1 X91.411 Y55.655 E13.16129
G1 X91.464 Y54.735 E13.19807
G1 X91.588 Y53.873 E13.23283
G1 X91.802 Y52.718 E13.27971
G1 X91.938 Y51.928 E13.31171
G1 X92.185 Y50.583 E13.36629
G1 X92.372 Y49.67 E13.40348
G1 X92.596 Y48.784 E13.43996
G1 X92.777 Y48.179 E13.46516
G1 X93.004 Y47.479 E13.49453
G1 X93.231 Y46.858 E13.52092
G1 X93.515 Y46.151 E13.55133
G1 X93.785 Y45.523 E13.57862
G0 F9000 X94.152 Y45.684
G1 F1800 X94.552 Y44.874 E13.61467
G1 X94.993 Y44.148 E13.64857
G1 X95.323 Y43.652 E13.67235
G1 X95.643 Y43.194 E13.69465
G1 X96.199 Y42.482 E13.73071
G1 X96.816 Y41.823 E13.76674
G1 X97.198 Y41.468 E13.78755
G1 X97.698 Y41.033 E13.814
G1 X98.647 Y40.296 E13.86196
G1 X99.412 Y39.816 E13.89801
G1 X100.217 Y39.406 E13.93406
G1 X101.054 Y39.069 E13.97008
G1 X101.919 Y38.807 E14.00615
G1 X102.863 Y38.612 E14.04462
G1 X104.238 Y38.437 E14.09994
G1 X105.192 Y38.418 E14.13803
G1 X106.174 Y38.444 E14.17723
G1 X107.206 Y38.488 E14.21846
G1 X109.724 Y38.532 E14.31897
G1 X112.282 Y38.504 E14.42108
G1 X113.795 Y38.453 E14.4815
G1 X114.563 Y38.421 E14.51218
G1 X115.466 Y38.423 E14.54822
G1 X116.325 Y38.499 E14.58264
G1 X116.841 Y38.567 E14.60341
G1 X117.73 Y38.725 E14.63945
G1 X118.602 Y38.961 E14.6755
G1 X119.449 Y39.272 E14.71151
G1 X120.266 Y39.658 E14.74758
G1 X121.045 Y40.114 E14.78361
G1 X121.997 Y40.81 E14.83067
G1 X122.43 Y41.167 E14.85307
G1 X123.1 Y41.772 E14.8891
G1 X123.972 Y42.749 E14.94137
G1 X124.311 Y43.182 E14.96332
G1 X124.757 Y43.798 E14.99367
G1 X125.406 Y44.839 E15.04263
G1 X125.781 Y45.596 E15.07635
G1 X126.049 Y46.199 E15.10269
G1 X126.27 Y46.728 E15.12557
G1 X126.495 Y47.333 E15.15133
G1 X126.754 Y48.102 E15.18372
G1 X126.977 Y48.823 E15.21384
G1 X127.191 Y49.656 E15.24817
G1 X127.324 Y50.284 E15.27379
G1 X127.518 Y51.341 E15.31668
G1 X127.883 Y53.255 E15.39445
G1 X127.988 Y53.773 E15.41554
G1 X128.128 Y54.665 E15.45158
G1 X128.187 Y55.496 E15.48483
G1 X128.201 Y56.136 E15.51038
G1 X128.201 Y170.664 E20.08144
G1 X128.191 Y171.517 E20.11549
G1 X128.14 Y172.419 E20.15155
G1 X128.009 Y173.313 E20.18761
G1 X127.8 Y174.191 E20.22363
G1 X127.514 Y175.048 E20.25969
G1 X127.153 Y175.876 E20.29574
G1 X126.721 Y176.668 E20.33175
G1 X126.22 Y177.42 E20.36781
G1 X125.654 Y178.124 E20.40387
G1 X125.029 Y178.775 E20.43989
G1 X124.348 Y179.369 E20.47595
G1 X123.617 Y179.9 E20.51201
G1 X122.843 Y180.364 E20.54803
G1 X122.03 Y180.758 E20.58409
G1 X121.186 Y181.078 E20.62011
G1 X120.316 Y181.323 E20.65619
G1 X119.429 Y181.489 E20.69221
G1 X118.278 Y181.587 E20.73831
G1 X117.671 Y181.6 E20.76254
G1 X102.707 Y181.6 E21.35979
G1 X101.877 Y181.59 E21.39292
G1 X100.976 Y181.539 E21.42894
G1 X100.082 Y181.407 E21.465
G1 X99.204 Y181.198 E21.50103
G1 X98.347 Y180.911 E21.5371
G1 X97.52 Y180.55 E21.57311
G1 X96.727 Y180.117 E21.60917
G1 X95.976 Y179.616 E21.64521
G1 X95.272 Y179.05 E21.68126
G1 X94.621 Y178.424 E21.71731
G1 X94.028 Y177.743 E21.75335
G1 X93.498 Y177.012 E21.78938
G1 X93.034 Y176.237 E21.82544
G1 X92.64 Y175.424 E21.86149
G1 X92.32 Y174.58 E21.89752
G1 X92.076 Y173.71 E21.93358
G1 X91.91 Y172.822 E21.96964
G1 X91.813 Y171.667 E22.0159
G1 X91.8 Y171.058 E22.04021
G1 X91.8 Y56.506 E26.61223
G1 X91.811 Y55.66 E26.646
G1 X91.864 Y54.759 E26.68202
G1 X91.981 Y53.946 E26.71481
G1 X92.215 Y52.684 E26.76603
G1 X92.333 Y51.995 E26.79393
G1 X92.579 Y50.655 E26.84831
G1 X92.763 Y49.751 E26.88513
G1 X92.979 Y48.898 E26.92025
G1 X93.16 Y48.293 E26.94545
G1 X93.383 Y47.605 E26.97432
G1 X93.602 Y47.007 E26.99974
G1 X93.886 Y46.3 E27.03015
G1 X94.152 Y45.684 E27.05693
G1 F1800 E24.05693
;MESH:bottle_holder_bar.stl
G0 F9000 X102.863 Y49.537
G0 X103.861 Y49.957
G0 X104.658 Y49.15
G0 X104.527 Y48.867
;TYPE:WALL-OUTER
G1 F1800 E27.05693
G1 X104.953 Y48.802 E27.07413
G1 X105.394 Y48.863 E27.09189
G1 X105.83 Y49.236 E27.1148
G1 X106.253 Y49.846 E27.14442
G1 X106.643 Y50.761 E27.18412
G1 X106.982 Y51.829 E27.22884
G1 X107.213 Y53.018 E27.27719
G1 X107.374 Y54.395 E27.33252
G1 X107.395 Y55.538 E27.37815
G1 X102.508 Y55.55 E27.5732
G1 X102.552 Y54.402 E27.61905
G1 X102.711 Y53.03 E27.67418
G1 X102.94 Y51.845 E27.72235
G1 X103.28 Y50.771 E27.76731
G1 X103.668 Y49.852 E27.80712
G1 X104.092 Y49.241 E27.83681
G1 X104.527 Y48.867 E27.8597
G0 F9000 X104.71 Y49.266
G0 X103.329 Y51.939
;TYPE:WALL-INNER
G1 F1800 X103.653 Y50.918 E27.90246
G1 X104.022 Y50.045 E27.94029
G1 X104.393 Y49.51 E27.96627
G1 X104.701 Y49.245 E27.98249
G1 X104.955 Y49.206 E27.99274
G1 X105.223 Y49.243 E28.00354
G1 X105.53 Y49.506 E28.01968
G1 X105.901 Y50.041 E28.04566
G1 X106.269 Y50.904 E28.08311
G1 X106.592 Y51.921 E28.12569
G1 X106.82 Y53.094 E28.17339
G1 X106.822 Y53.116 E28.17427
G1 X106.974 Y54.417 E28.22655
G1 X106.985 Y54.937 E28.24731
G1 X106.988 Y55.139 E28.25537
G1 X106.786 Y55.139 E28.26057
G1 X103.131 Y55.149 E28.40645
G1 X102.924 Y55.149 E28.41471
G1 X102.932 Y54.942 E28.42
G1 X102.952 Y54.425 E28.44065
G1 X103.106 Y53.094 E28.49413
G1 X103.329 Y51.939 E28.54108
G0 F9000 X103.718 Y52.033
G1 F1800 X104.029 Y51.056 E28.582
G1 X104.373 Y50.241 E28.61731
G1 X104.692 Y49.782 E28.63962
G1 X104.694 Y49.779 E28.63976
G1 X104.87 Y49.627 E28.64904
G1 X104.875 Y49.623 E28.6493
G1 X104.958 Y49.61 E28.65265
G1 X105.052 Y49.623 E28.65644
G1 X105.055 Y49.625 E28.65658
G1 X105.23 Y49.776 E28.66581
G1 X105.233 Y49.781 E28.66604
G1 X105.549 Y50.236 E28.68815
G1 X105.892 Y51.039 E28.723
G1 X106.202 Y52.015 E28.76388
G1 X106.426 Y53.163 E28.81056
G1 X106.568 Y54.386 E28.8597
G1 X106.574 Y54.44 E28.86187
G1 X106.58 Y54.74 E28.87384
G1 X106.525 Y54.74 E28.87584
G1 X103.409 Y54.747 E29.0002
G1 X103.353 Y54.747 E29.00244
G1 X103.34 Y54.748 E29.00296
G1 X103.352 Y54.448 E29.01117
G1 X103.358 Y54.393 E29.01317
G1 X103.5 Y53.163 E29.06259
G1 X103.718 Y52.033 E29.10852
G0 F9000 X104.095 Y52.134
;TYPE:SKIN
G1 F1800 X104.399 Y51.181 E29.14845
G1 X104.717 Y50.428 E29.18107
G1 X104.963 Y50.074 E29.19828
G1 X105.203 Y50.421 E29.21512
G1 X105.525 Y51.175 E29.24784
G1 X105.827 Y52.124 E29.28759
G1 X106.038 Y53.208 E29.33167
G1 X106.17 Y54.351 E29.37759
G1 X103.756 Y54.357 E29.47394
G1 X103.886 Y53.222 E29.51953
G1 X104.095 Y52.134 E29.56375
G0 F9000 X103.821 Y52.081
G0 X104.44 Y50.366
G0 X104.842 Y50.536
G1 F1800 X105.254 Y50.948 E29.58701
G0 F9000 X104.675 Y50.935
G1 F1800 X105.563 Y51.823 E29.63713
G0 F9000 X105.753 Y52.579
G1 F1800 X104.515 Y51.34 E29.70704
G0 F9000 X104.378 Y51.769
G1 F1800 X105.884 Y53.276 E29.79207
G0 F9000 X105.957 Y53.914
G1 F1800 X104.243 Y52.2 E29.88881
G0 F9000 X104.152 Y52.675
G1 F1800 X105.669 Y54.191 E29.97441
G0 F9000 X105.105 Y54.193
G1 F1800 X104.061 Y53.149 E30.03334
G0 F9000 X103.997 Y53.651
G1 F1800 X104.54 Y54.194 E30.06399
G0 F9000 X104.54 Y54.935
G1 F1800 E27.06399
G0 F9000 X106.394 Y54.558
G0 X106.77 Y51.887
G0 X107.834 Y51.681
G0 X112.503 Y50.516
G0 X113.537 Y50.843
G0 X115.315 Y49.146
G0 X115.444 Y48.863
;TYPE:WALL-OUTER
G1 F1800 E30.06399
G1 X115.883 Y49.239 E30.08706
G1 X116.309 Y49.856 E30.11698
G1 X116.693 Y50.761 E30.15622
G1 X117.032 Y51.829 E30.20094
G1 X117.266 Y53.03 E30.24978
G1 X117.424 Y54.395 E30.30462
G1 X117.445 Y55.539 E30.35029
G1 X112.557 Y55.551 E30.54538
G1 X112.601 Y54.402 E30.59127
G1 X112.76 Y53.03 E30.6464
G1 X112.99 Y51.845 E30.69458
G1 X113.33 Y50.771 E30.73954
G1 X113.714 Y49.862 E30.77893
G1 X114.138 Y49.246 E30.80877
G1 X114.582 Y48.863 E30.83218
G1 X114.997 Y48.804 E30.84891
G1 X115.444 Y48.863 E30.8669
G0 F9000 X115.265 Y49.264
G0 X116.642 Y51.921
;TYPE:WALL-INNER
G1 F1800 X116.872 Y53.099 E30.91481
G1 X117.024 Y54.417 E30.96776
G1 X117.035 Y54.938 E30.98856
G1 X117.038 Y55.14 E30.99662
G1 X116.836 Y55.14 E31.00182
G1 X113.18 Y55.15 E31.14774
G1 X113.179 Y55.15 E31.14778
G1 X112.973 Y55.15 E31.156
G1 X112.979 Y54.944 E31.16128
G1 X112.98 Y54.943 E31.16134
G1 X113.001 Y54.425 E31.18203
G1 X113.154 Y53.099 E31.2353
G1 X113.379 Y51.939 E31.28247
G1 X113.706 Y50.909 E31.3256
G1 X114.066 Y50.055 E31.36259
G1 X114.438 Y49.516 E31.38873
G1 X114.754 Y49.242 E31.40542
G1 X114.997 Y49.208 E31.41521
G1 X115.274 Y49.244 E31.42636
G1 X115.584 Y49.51 E31.44266
G1 X115.957 Y50.05 E31.46886
G1 X116.309 Y50.881 E31.50488
G1 X116.317 Y50.899 E31.50566
G1 X116.322 Y50.916 E31.50637
G1 X116.642 Y51.921 E31.54847
G0 F9000 X116.252 Y52.014
G1 F1800 X116.478 Y53.171 E31.59552
G1 X116.618 Y54.386 E31.64433
G1 X116.624 Y54.439 E31.64646
G1 X116.63 Y54.741 E31.65852
G1 X116.576 Y54.741 E31.66048
G1 X113.457 Y54.748 E31.78496
G1 X113.402 Y54.748 E31.78716
G1 X113.389 Y54.749 E31.78768
G1 X113.401 Y54.448 E31.79593
G1 X113.407 Y54.394 E31.79789
G1 X113.548 Y53.168 E31.84715
G1 X113.768 Y52.034 E31.89325
G1 X114.08 Y51.052 E31.93438
G1 X114.42 Y50.246 E31.96929
G1 X114.738 Y49.785 E31.99164
G1 X114.924 Y49.624 E32.00146
G1 X114.927 Y49.622 E32.00161
G1 X114.997 Y49.612 E32.00443
G1 X115.105 Y49.626 E32.00878
G1 X115.285 Y49.781 E32.01826
G1 X115.287 Y49.784 E32.0184
G1 X115.605 Y50.244 E32.04072
G1 X115.942 Y51.037 E32.07511
G1 X116.252 Y52.014 E32.11602
G0 F9000 X115.876 Y52.118
;TYPE:SKIN
G1 F1800 X116.09 Y53.216 E32.16067
G1 X116.221 Y54.352 E32.20631
G1 X113.805 Y54.358 E32.30274
G1 X113.934 Y53.227 E32.34817
G1 X114.145 Y52.135 E32.39256
G1 X114.45 Y51.177 E32.43269
G1 X114.763 Y50.437 E32.46475
G1 X115.013 Y50.074 E32.48235
G1 X115.262 Y50.435 E32.49985
G1 X115.576 Y51.171 E32.53179
G1 X115.876 Y52.118 E32.57143
G0 F9000 X116.151 Y52.065
G0 X115.456 Y50.328
G0 X115.034 Y49.792
G0 X114.583 Y50.205
G0 X114.943 Y50.454
G1 F1800 X115.209 Y50.721 E32.58648
G0 F9000 X114.764 Y50.841
G1 F1800 X115.553 Y51.63 E32.63101
G0 F9000 X115.77 Y52.413
G1 F1800 X114.596 Y51.239 E32.69728
G0 F9000 X114.46 Y51.668
G1 F1800 X115.908 Y53.117 E32.77904
G0 F9000 X115.992 Y53.766
G1 F1800 X114.323 Y52.098 E32.87321
G0 F9000 X114.223 Y52.563
G1 F1800 X115.852 Y54.192 E32.96516
G0 F9000 X115.288 Y54.194
G1 F1800 X114.131 Y53.037 E33.03047
G0 F9000 X114.059 Y53.53
G1 F1800 X114.723 Y54.194 E33.06795
G0 F9000 X114.158 Y54.196
G1 F1800 X114 Y54.037 E33.07689
G0 F9000 X113.268 Y53.953
G1 F1800 E30.07689
G0 F9000 X112.819 Y54.426
G0 X112.817 Y56.219
G0 X102.47 Y56.299
G0 X102.2 Y55.999
;TYPE:WALL-OUTER
G1 F1800 E33.07689
G1 X117.801 Y56 E33.69956
G1 X117.801 Y171.2 E38.29744
G1 X102.2 Y171.2 E38.92011
G1 X102.2 Y55.999 E43.51804
G1 F1800 E40.51804
G0 F9000 X102.47 Y56.299
G0 X103.21 Y92.569
G0 X106.853 Y91.916
G0 X108.574 Y92.569
G0 X109.999 Y92.953
G0 X111.515 Y92.569
G0 X111.305 Y92.357
G1 F1800 E43.51804
G1 X112.26 Y91.403 E43.57191
G1 X112.61 Y90.099 E43.6258
G1 X112.26 Y88.794 E43.67972
G1 X111.305 Y87.841 E43.73357
G1 X110 Y87.491 E43.7875
G1 X108.696 Y87.841 E43.84139
G1 X107.74 Y88.794 E43.89526
G1 X107.39 Y90.099 E43.94919
G1 X107.74 Y91.403 E44.00308
G1 X108.696 Y92.356 E44.05695
G1 X109.999 Y92.706 E44.1108
G1 X111.305 Y92.357 E44.16476
G0 F9000 X111.512 Y92.716
;TYPE:WALL-INNER
G1 F1800 X112.619 Y91.61 E44.22721
G1 X113.024 Y90.099 E44.28965
G1 X112.619 Y88.587 E44.35212
G1 X111.512 Y87.482 E44.41455
G1 X110 Y87.077 E44.47702
G1 X108.489 Y87.482 E44.53946
G1 X107.381 Y88.587 E44.60192
G1 X106.976 Y90.099 E44.66439
G1 X107.382 Y91.61 E44.72684
G1 X108.489 Y92.715 E44.78926
G1 X109.999 Y93.12 E44.85166
G1 X111.512 Y92.716 E44.91416
G0 F9000 X111.719 Y93.075
G1 F1800 X112.978 Y91.817 E44.9852
G1 X113.438 Y90.099 E45.05618
G1 X112.978 Y88.38 E45.12721
G1 X111.719 Y87.123 E45.19821
G1 X110 Y86.663 E45.26924
G1 X108.282 Y87.123 E45.34022
G1 X107.022 Y88.38 E45.41126
G1 X106.562 Y90.099 E45.48228
G1 X107.024 Y91.817 E45.55329
G1 X108.282 Y93.074 E45.62426
G1 X109.999 Y93.534 E45.69521
G1 X111.719 Y93.075 E45.76626
G1 F1800 E42.76626
G0 F9000 X109.999 Y93.731
G0 X110.002 Y91.812
G0 X109.901 Y154.089
G0 X109.9 Y152.17
G0 X108.383 Y153.333
G0 X108.594 Y153.545
;TYPE:WALL-OUTER
G1 F1800 E45.76626
G1 X107.64 Y154.499 E45.82011
G1 X107.29 Y155.802 E45.87396
G1 X107.64 Y157.108 E45.92792
G1 X108.595 Y158.061 E45.98177
G1 X109.899 Y158.41 E46.03565
G1 X111.204 Y158.061 E46.08956
G1 X112.16 Y157.108 E46.14344
G1 X112.51 Y155.802 E46.1974
G1 X112.16 Y154.499 E46.25125
G1 X111.206 Y153.544 E46.30513
G1 X109.9 Y153.195 E46.35908
G1 X108.758 Y153.5 E46.40626
G1 X108.594 Y153.545 E46.41305
G0 F9000 X108.386 Y153.187
;TYPE:WALL-INNER
G1 F1800 X107.281 Y154.292 E46.47542
G1 X106.876 Y155.802 E46.53782
G1 X107.281 Y157.315 E46.60033
G1 X108.388 Y158.42 E46.66276
G1 X109.899 Y158.824 E46.72518
