;FLAVOR:Marlin
;TIME:2483
;Filament used: 1.70057m
;Layer height: 0.2
;MINX:67.546
;MINY:84.723
;MINZ:0.24
;MAXX:152.456
;MAXY:135.265
;MAXZ:10.16
;Generated with Cura_SteamEngine 4.8.0
M82 ;absolute extrusion mode
M201 X500.00 Y500.00 Z100.00 E5000.00 ;Setup machine max acceleration
M203 X500.00 Y500.00 Z10.00 E50.00 ;Setup machine max feedrate
M204 P500.00 R1000.00 T500.00 ;Setup Print/Retract/Travel acceleration
M205 X8.00 Y8.00 Z0.40 E5.00 ;Setup Jerk
M220 S100 ;Reset Feedrate
M221 S100 ;Reset Flowrate

;*** Start Dual Nozzle/Bed Preheating ***
M140 S50 ; start preheating the bed
M104 S215 ﻿T0 ; start preheating hotend
G28 ; home
M190 S50 ; heat to Cura Bed setting and WAIT
M109 S215 ﻿T0 ; heat to Cura Hotend and WAIT
;*** End Preheating ***


G92 E0 ;Reset Extruder
G1 Z2.0 F3000 ;Move Z Axis up

;*** Single Print Start Tone
M300 S1000 P500 ; chirp to indicate starting to print
;*** End Single Start Tone

G1 X10.1 Y20 Z0.28 F5000.0 ;Move to start position
G1 X10.1 Y200.0 Z0.28 F1500.0 E15 ;Draw the first line
G1 X10.4 Y200.0 Z0.28 F5000.0 ;Move to side a little
G1 X10.4 Y20 Z0.28 F1500.0 E30 ;Draw the second line
G92 E0 ;Reset Extruder
G1 Z2.0 F3000 ;Move Z Axis up
G92 E0
G92 E0
G1 F2400 E-3
;LAYER_COUNT:44
;LAYER:0
M106 S63.8
M204 S500
M205 X6 Y6
G1 F300 Z0.44
G0 F9000 X81.402 Y90.35 Z0.44
;TYPE:SKIRT
G1 F300 Z0.24
G1 F1200 E0
G1 F1800 X82.156 Y89.752 E0.03841
G1 X82.63 Y89.41 E0.06174
G1 X83.399 Y88.904 E0.09848
G1 X83.958 Y88.593 E0.12401
G1 X84.484 Y88.322 E0.14763
G1 X86.051 Y87.539 E0.21754
G1 X88.026 Y86.47 E0.30717
G1 X88.732 Y86.097 E0.33904
G1 X89.629 Y85.675 E0.37861
G1 X89.914 Y85.557 E0.39092
G1 X90.779 Y85.242 E0.42766
G1 X91.668 Y85.004 E0.46439
G1 X92.575 Y84.843 E0.50116
G1 X93.392 Y84.762 E0.53393
G1 X94.312 Y84.723 E0.57068
G1 X95.231 Y84.764 E0.6074
G1 X96.548 Y84.965 E0.66057
G1 X96.64 Y84.985 E0.66433
G1 X97.251 Y85.137 E0.68946
G1 X98.669 Y85.536 E0.74825
G1 X99.01 Y85.637 E0.76244
G1 X101.46 Y86.29 E0.86364
G1 X103.92 Y86.872 E0.96454
G1 X106.404 Y87.386 E1.06578
G1 X107.524 Y87.583 E1.11117
G1 X108.926 Y87.853 E1.16815
G1 X109.821 Y88.066 E1.20487
G1 X110.695 Y88.357 E1.24164
G1 X111.775 Y88.839 E1.28884
G1 X112.402 Y89.162 E1.31699
G1 X114.788 Y90.353 E1.42343
G1 X117.069 Y91.411 E1.52378
G1 X119.382 Y92.405 E1.62426
G1 X121.77 Y93.352 E1.72679
G1 X124.14 Y94.216 E1.82747
G1 X126.501 Y95.001 E1.92678
G1 X128.943 Y95.738 E2.02859
G1 X131.383 Y96.398 E2.12947
G1 X133.369 Y96.884 E2.21108
G1 X138.714 Y98.129 E2.43012
G1 X139.499 Y98.33 E2.46246
G1 X140.344 Y98.57 E2.49752
G1 X140.833 Y98.72 E2.51793
G1 X141.728 Y99.047 E2.55597
G1 X142.429 Y99.351 E2.58646
G1 X142.959 Y99.601 E2.60985
G1 X143.828 Y100.062 E2.64911
G1 X144.492 Y100.465 E2.68011
G1 X144.96 Y100.769 E2.70239
G1 X145.745 Y101.331 E2.74092
G1 X146.281 Y101.763 E2.7684
G1 X146.705 Y102.125 E2.79065
G1 X147.355 Y102.729 E2.82606
G1 X147.555 Y102.931 E2.83741
G1 X147.911 Y103.31 E2.85816
G1 X148.313 Y103.758 E2.88218
G1 X148.919 Y104.498 E2.92036
G1 X149.321 Y105.051 E2.94765
G1 X149.669 Y105.56 E2.97226
G1 X150.203 Y106.428 E3.01293
G1 X150.53 Y107.036 E3.04048
G1 X150.769 Y107.51 E3.06167
G1 X151.154 Y108.365 E3.0991
G1 X151.423 Y109.07 E3.12921
G1 X151.616 Y109.626 E3.1527
G1 X151.881 Y110.512 E3.18961
G1 X152.048 Y111.214 E3.21841
G1 X152.165 Y111.78 E3.24148
G1 X152.32 Y112.763 E3.2812
G1 X152.393 Y113.507 E3.31104
G1 X152.431 Y114.053 E3.33288
G1 X152.456 Y114.951 E3.36874
G1 X152.433 Y115.709 E3.399
G1 X152.396 Y116.304 E3.4228
G1 X152.287 Y117.298 E3.46271
G1 X152.164 Y118.028 E3.49225
G1 X152.068 Y118.516 E3.5121
G1 X151.848 Y119.422 E3.54932
G1 X151.627 Y120.15 E3.57968
G1 X151.446 Y120.688 E3.60234
G1 X151.081 Y121.624 E3.64243
G1 X150.787 Y122.262 E3.67047
G1 X150.525 Y122.791 E3.69403
G1 X150.083 Y123.594 E3.73062
G1 X149.807 Y124.04 E3.75155
G1 X149.636 Y124.302 E3.76404
G1 X149.35 Y124.726 E3.78445
G1 X148.824 Y125.439 E3.81981
G1 X148.339 Y126.024 E3.85014
G1 X147.95 Y126.465 E3.87361
G1 X147.27 Y127.168 E3.91265
G1 X146.736 Y127.657 E3.94155
G1 X146.262 Y128.066 E3.96654
G1 X145.47 Y128.687 E4.00671
G1 X144.937 Y129.057 E4.0326
G1 X144.494 Y129.349 E4.05378
G1 X143.741 Y129.802 E4.08885
G1 X143.503 Y129.932 E4.09968
G1 X143.023 Y130.179 E4.12122
G1 X142.475 Y130.443 E4.1455
G1 X141.584 Y130.822 E4.18414
G1 X140.893 Y131.071 E4.21346
G1 X140.371 Y131.242 E4.23538
G1 X139.469 Y131.494 E4.27276
G1 X138.756 Y131.65 E4.30189
G1 X138.169 Y131.76 E4.32573
G1 X137.204 Y131.895 E4.36462
G1 X136.511 Y131.952 E4.39237
G1 X135.804 Y131.983 E4.42062
G1 X134.625 Y132.005 E4.46768
G1 X134.427 Y132.007 E4.47558
G1 X129.295 Y132.007 E4.68041
G1 X126.67 Y132.044 E4.78519
G1 X124.162 Y132.151 E4.88538
G1 X121.645 Y132.329 E4.98609
G1 X119.121 Y132.579 E5.08733
G1 X116.613 Y132.9 E5.18824
G1 X114.151 Y133.287 E5.28771
G1 X111.629 Y133.756 E5.3901
G1 X109.155 Y134.288 E5.4911
G1 X106.57 Y134.923 E5.59734
G1 X105.67 Y135.116 E5.63407
G1 X104.756 Y135.23 E5.67084
G1 X103.87 Y135.265 E5.70623
G1 X103.16 Y135.257 E5.73457
G1 X102.754 Y135.241 E5.75078
G1 X100.611 Y135.134 E5.83642
G1 X98.063 Y135.079 E5.93814
G1 X95.551 Y135.096 E6.0384
G1 X92.074 Y135.235 E6.17729
G1 X91.206 Y135.258 E6.21194
G1 X90.285 Y135.243 E6.24871
G1 X89.37 Y135.147 E6.28543
G1 X88.466 Y134.973 E6.32217
G1 X87.835 Y134.802 E6.34826
G1 X87.52 Y134.706 E6.36141
G1 X86.652 Y134.399 E6.39815
G1 X85.813 Y134.019 E6.43491
G1 X85.011 Y133.567 E6.47166
G1 X84.439 Y133.184 E6.49913
G1 X84.203 Y133.015 E6.51072
G1 X83.342 Y132.329 E6.55466
G1 X82.47 Y131.556 E6.60117
G1 X81.068 Y130.346 E6.67508
G1 X80.986 Y130.269 E6.67957
G1 X79.168 Y128.714 E6.77505
G1 X78.495 Y128.086 E6.81179
G1 X77.625 Y127.081 E6.86485
G1 X77.286 Y126.636 E6.88717
G1 X76.76 Y125.881 E6.9239
G1 X76.439 Y125.337 E6.94911
G1 X76.047 Y124.627 E6.98148
G1 X74.766 Y122.391 E7.08433
G1 X73.442 Y120.223 E7.18572
G1 X72.067 Y118.107 E7.28644
G1 X70.6 Y115.985 E7.3894
G1 X69.59 Y114.596 E7.45795
G1 X69.472 Y114.428 E7.46614
G1 X68.976 Y113.652 E7.5029
G1 X68.549 Y112.836 E7.53965
G1 X68.195 Y111.986 E7.5764
G1 X67.915 Y111.109 E7.61315
G1 X67.713 Y110.211 E7.64989
G1 X67.59 Y109.299 E7.68661
G1 X67.546 Y108.379 E7.72338
G1 X67.582 Y107.459 E7.76012
G1 X67.698 Y106.546 E7.79686
G1 X67.893 Y105.646 E7.83361
G1 X68.165 Y104.766 E7.87037
G1 X68.512 Y103.914 E7.90709
G1 X68.932 Y103.094 E7.94386
G1 X69.422 Y102.315 E7.98059
G1 X69.977 Y101.58 E8.01735
G1 X70.594 Y100.897 E8.05409
G1 X71.21 Y100.319 E8.0878
G1 X71.899 Y99.723 E8.12416
G1 X73.867 Y97.971 E8.22933
G1 X75.688 Y96.255 E8.32919
G1 X77.493 Y94.454 E8.43096
G1 X79.251 Y92.599 E8.53296
G1 X80.304 Y91.437 E8.59555
G1 X80.734 Y90.983 E8.62051
G1 X81.402 Y90.35 E8.65724
G0 F9000 X81.678 Y90.64
G1 F1800 X82.39 Y90.076 E8.69349
G1 X82.864 Y89.734 E8.71682
G1 X83.619 Y89.239 E8.75285
G1 X84.141 Y88.948 E8.77671
G1 X84.662 Y88.68 E8.80009
G1 X86.217 Y87.903 E8.86947
G1 X88.213 Y86.823 E8.96005
G1 X88.919 Y86.45 E8.99192
G1 X89.782 Y86.045 E9.02997
G1 X90.067 Y85.927 E9.04228
G1 X90.916 Y85.619 E9.07832
G1 X91.789 Y85.387 E9.11438
G1 X93.099 Y85.188 E9.16726
G1 X93.426 Y85.16 E9.18036
G1 X94.328 Y85.123 E9.21639
G1 X95.23 Y85.166 E9.25243
G1 X96.463 Y85.356 E9.30223
G1 X96.555 Y85.376 E9.30598
G1 X97.143 Y85.522 E9.33016
G1 X98.555 Y85.919 E9.38871
G1 X98.898 Y86.02 E9.40298
G1 X101.37 Y86.68 E9.5051
G1 X103.852 Y87.267 E9.60689
G1 X106.32 Y87.778 E9.70748
G1 X107.448 Y87.976 E9.75319
G1 X108.85 Y88.246 E9.81018
G1 X109.728 Y88.456 E9.84621
G1 X110.585 Y88.743 E9.88228
G1 X111.592 Y89.194 E9.92632
G1 X112.282 Y89.549 E9.95729
G1 X114.62 Y90.716 E10.06158
G1 X116.879 Y91.764 E10.16097
G1 X119.255 Y92.785 E10.26419
G1 X121.622 Y93.724 E10.36582
G1 X123.982 Y94.584 E10.46608
G1 X126.407 Y95.391 E10.56808
G1 X128.827 Y96.121 E10.66897
G1 X131.299 Y96.79 E10.77118
G1 X133.28 Y97.275 E10.85258
G1 X138.618 Y98.518 E11.07133
G1 X139.39 Y98.715 E11.10313
G1 X140.235 Y98.955 E11.13819
G1 X140.713 Y99.101 E11.15814
G1 X141.574 Y99.416 E11.19473
G1 X142.259 Y99.713 E11.22453
G1 X142.789 Y99.963 E11.24792
G1 X143.625 Y100.406 E11.28568
G1 X144.274 Y100.8 E11.31598
G1 X144.742 Y101.104 E11.33826
G1 X145.498 Y101.645 E11.37536
G1 X146.021 Y102.068 E11.40221
G1 X146.445 Y102.43 E11.42446
G1 X147.07 Y103.01 E11.45849
G1 X147.27 Y103.212 E11.46984
G1 X147.614 Y103.577 E11.48985
G1 X148.016 Y104.025 E11.51388
G1 X148.599 Y104.737 E11.55061
G1 X148.991 Y105.277 E11.57724
G1 X149.339 Y105.786 E11.60185
G1 X149.853 Y106.621 E11.64098
G1 X150.173 Y107.216 E11.66795
G1 X150.412 Y107.69 E11.68914
G1 X150.782 Y108.512 E11.72511
G1 X151.045 Y109.201 E11.75455
G1 X151.238 Y109.757 E11.77804
G1 X151.493 Y110.61 E11.81357
G1 X151.656 Y111.295 E11.84168
G1 X151.773 Y111.861 E11.86474
G1 X151.922 Y112.807 E11.90297
G1 X151.994 Y113.535 E11.93216
G1 X152.032 Y114.081 E11.95401
G1 X152.056 Y114.945 E11.98851
G1 X152.033 Y115.684 E12.01802
G1 X151.996 Y116.279 E12.04181
G1 X151.891 Y117.235 E12.08019
G1 X151.771 Y117.951 E12.10917
G1 X151.675 Y118.439 E12.12902
G1 X151.463 Y119.311 E12.16484
G1 X151.248 Y120.022 E12.19448
G1 X151.067 Y120.56 E12.21714
G1 X150.715 Y121.461 E12.25575
G1 X150.428 Y122.084 E12.28312
G1 X150.166 Y122.613 E12.30669
G1 X149.741 Y123.386 E12.34189
G1 X149.468 Y123.826 E12.36256
G1 X149.304 Y124.078 E12.37456
G1 X149.018 Y124.502 E12.39497
G1 X148.512 Y125.188 E12.429
G1 X148.039 Y125.759 E12.45859
G1 X147.65 Y126.2 E12.48206
G1 X146.995 Y126.877 E12.51966
G1 X146.475 Y127.355 E12.54785
G1 X146.001 Y127.764 E12.57283
G1 X145.239 Y128.36 E12.61145
G1 X144.717 Y128.723 E12.63682
G1 X144.274 Y129.015 E12.658
G1 X143.55 Y129.451 E12.69173
G1 X143.312 Y129.581 E12.70255
G1 X142.849 Y129.818 E12.72331
G1 X142.301 Y130.082 E12.74759
G1 X141.444 Y130.448 E12.78478
G1 X140.768 Y130.691 E12.81346
G1 X140.246 Y130.862 E12.83538
G1 X139.378 Y131.105 E12.87135
G1 X138.683 Y131.256 E12.89974
G1 X138.096 Y131.366 E12.92358
G1 X137.167 Y131.497 E12.96102
G1 X136.49 Y131.552 E12.98813
G1 X135.796 Y131.583 E13.01586
G1 X134.427 Y131.607 E13.07051
G1 X129.289 Y131.607 E13.27558
G1 X126.683 Y131.644 E13.3796
G1 X124.115 Y131.753 E13.48218
G1 X121.613 Y131.93 E13.58229
G1 X119.101 Y132.179 E13.68304
G1 X116.538 Y132.507 E13.78617
G1 X114.053 Y132.898 E13.88658
G1 X111.57 Y133.359 E13.98737
G1 X109.08 Y133.895 E14.08903
G1 X106.469 Y134.536 E14.19633
G1 X105.586 Y134.725 E14.23237
G1 X104.69 Y134.834 E14.2684
G1 X103.871 Y134.865 E14.30111
G1 X103.174 Y134.857 E14.32893
G1 X102.774 Y134.841 E14.34491
G1 X100.639 Y134.734 E14.43023
G1 X98.069 Y134.679 E14.53283
G1 X95.562 Y134.696 E14.63289
G1 X92.203 Y134.831 E14.76706
G1 X91.195 Y134.858 E14.80731
G1 X90.292 Y134.842 E14.84335
G1 X89.394 Y134.746 E14.8794
G1 X88.508 Y134.572 E14.91544
G1 X87.951 Y134.419 E14.93849
G1 X87.636 Y134.323 E14.95163
G1 X86.785 Y134.022 E14.98766
G1 X85.964 Y133.646 E15.0237
G1 X85.179 Y133.2 E15.05974
G1 X84.671 Y132.859 E15.08416
G1 X84.435 Y132.69 E15.09574
G1 X83.608 Y132.03 E15.13797
G1 X82.715 Y131.239 E15.18559
G1 X81.33 Y130.043 E15.25862
G1 X81.257 Y129.974 E15.26263
G1 X79.428 Y128.41 E15.35868
G1 X78.768 Y127.793 E15.39474
G1 X77.943 Y126.839 E15.44508
G1 X77.604 Y126.394 E15.46741
G1 X77.089 Y125.652 E15.50346
G1 X76.789 Y125.144 E15.527
G1 X76.389 Y124.42 E15.56002
G1 X75.106 Y122.179 E15.66308
G1 X73.776 Y120.002 E15.7649
G1 X72.405 Y117.891 E15.86537
G1 X70.946 Y115.781 E15.96775
G1 X69.917 Y114.366 E16.03758
G1 X69.799 Y114.198 E16.04578
G1 X69.313 Y113.436 E16.08185
G1 X68.897 Y112.635 E16.11787
G1 X68.553 Y111.8 E16.15392
G1 X68.284 Y110.938 E16.18996
G1 X68.092 Y110.055 E16.22602
G1 X67.979 Y109.159 E16.26207
G1 X67.946 Y108.257 E16.29809
G1 X67.993 Y107.355 E16.33414
G1 X68.12 Y106.461 E16.37018
G1 X68.325 Y105.581 E16.40625
G1 X68.607 Y104.723 E16.44229
G1 X68.964 Y103.894 E16.47832
G1 X69.393 Y103.099 E16.51437
G1 X69.89 Y102.345 E16.55042
G1 X70.452 Y101.638 E16.58646
G1 X71.075 Y100.984 E16.62251
G1 X71.472 Y100.622 E16.64396
G1 X72.143 Y100.041 E16.67938
G1 X74.124 Y98.278 E16.78522
G1 X75.98 Y96.529 E16.88701
G1 X77.766 Y94.748 E16.98768
G1 X79.534 Y92.882 E17.09028
G1 X80.6 Y91.705 E17.15366
G1 X81.022 Y91.261 E17.1781
G1 X81.678 Y90.64 E17.21416
G1 F2400 E14.21416
G1 F300 Z0.44
G0 F9000 X87.584 Y102.519 Z0.44
G1 F300 Z0.24
G1 F1200 E17.21416
G1 F1800 X88.213 Y102.882 E17.24314
G1 X87.209 Y104.621 E17.32329
G1 X87.031 Y104.909 E17.3368
G1 X86.012 Y105.497 E17.38376
G1 X86.031 Y105.228 E17.39452
G1 X86.529 Y104.367 E17.43422
G1 X86.564 Y104.284 E17.43781
G1 X87.584 Y102.519 E17.51917
G0 F9000 X87.438 Y101.973
G1 F1800 X88.76 Y102.735 E17.58008
G1 X87.548 Y104.833 E17.67678
G1 X87.324 Y105.201 E17.69397
G1 X83.891 Y107.183 E17.85219
G1 X83.885 Y107.182 E17.85243
G1 X84.934 Y106.576 E17.90078
G1 X85.156 Y106.401 E17.91207
G1 X85.499 Y105.863 E17.93753
G1 X85.604 Y105.601 E17.9488
G1 X85.63 Y105.124 E17.96786
G1 X86.183 Y104.167 E18.01198
G1 X86.211 Y104.097 E18.01499
G1 X87.438 Y101.973 E18.11289
G0 F9000 X87.292 Y101.427
G1 F1800 X89.306 Y102.589 E18.20569
G1 X87.86 Y105.091 E18.32103
G1 X87.617 Y105.493 E18.33978
G1 X83.977 Y107.595 E18.50754
G1 X83.032 Y107.487 E18.5455
G1 X82.914 Y107.281 E18.55498
G1 X84.733 Y106.229 E18.63885
G1 X84.953 Y106.009 E18.65127
G1 X85.152 Y105.663 E18.6672
G1 X85.232 Y105.358 E18.67978
G1 X85.229 Y105.016 E18.69343
G1 X85.836 Y103.966 E18.74184
G1 X85.854 Y103.917 E18.74392
G1 X87.292 Y101.427 E18.85869
G0 F9000 X87.145 Y100.88
G1 F1800 X89.853 Y102.442 E18.98346
G1 X88.217 Y105.274 E19.11399
G1 X88.181 Y105.318 E19.11626
G1 X87.91 Y105.787 E19.13788
G1 X84.064 Y108.008 E19.31514
G1 X82.786 Y107.86 E19.36649
G1 X82.368 Y107.135 E19.39989
G1 X84.533 Y105.883 E19.49971
G1 X84.805 Y105.464 E19.51965
G1 X84.828 Y104.911 E19.54174
G1 X85.49 Y103.766 E19.59453
G1 X85.497 Y103.733 E19.59587
G1 X87.145 Y100.88 E19.72737
G1 F2400 E16.72737
G1 F300 Z0.44
;MESH:Pistachio_Opener.stl
G0 F9000 X94.286 Y95.515 Z0.44
;TYPE:WALL-OUTER
G1 F300 Z0.24
G1 F1200 E19.72737
G1 F1800 X94.53 Y95.58 E19.73745
G1 X94.753 Y95.722 E19.748
G1 X95.35 Y96.212 E19.77883
G1 X95.996 Y96.671 E19.81046
G1 X96.667 Y97.08 E19.84182
G1 X97.36 Y97.442 E19.87303
G1 X98.072 Y97.758 E19.90412
G1 X98.801 Y98.03 E19.93517
G1 X99.544 Y98.262 E19.96624
G1 X100.296 Y98.451 E19.99719
G1 X101.057 Y98.6 E20.02814
G1 X101.819 Y98.707 E20.05885
G1 X102.576 Y98.773 E20.08918
G1 X103.34 Y98.795 E20.11968
G1 X104.1 Y98.774 E20.15003
G1 X104.854 Y98.704 E20.18025
G1 X105.607 Y98.582 E20.2107
G1 X106.328 Y98.415 E20.24023
G1 X106.585 Y98.387 E20.25055
G1 X106.858 Y98.444 E20.26168
G1 X107.073 Y98.574 E20.27171
G1 X107.242 Y98.77 E20.28204
G1 X109.514 Y102.42 E20.45364
G1 X136.807 Y108.773 E21.57208
G1 X137.591 Y109.012 E21.60479
G1 X138.356 Y109.36 E21.63834
G1 X139.054 Y109.798 E21.67123
G1 X139.7 Y110.334 E21.70473
G1 X140.27 Y110.95 E21.73823
G1 X140.745 Y111.623 E21.7711
G1 X141.133 Y112.365 E21.80452
G1 X141.418 Y113.151 E21.83789
G1 X141.597 Y113.963 E21.87108
G1 X141.667 Y114.789 E21.90417
G1 X141.627 Y115.625 E21.93757
G1 X141.475 Y116.45 E21.97105
G1 X141.221 Y117.239 E22.00413
G1 X140.862 Y117.991 E22.03739
G1 X140.409 Y118.685 E22.07047
G1 X139.862 Y119.322 E22.10398
G1 X139.244 Y119.873 E22.13703
G1 X138.551 Y120.342 E22.17043
G1 X137.802 Y120.717 E22.20386
G1 X137.018 Y120.986 E22.23694
G1 X136.202 Y121.151 E22.27017
G1 X135.355 Y121.207 E22.30405
G1 X107.356 Y121.207 E23.42155
G1 X104.308 Y124.255 E23.59359
G1 X104.094 Y124.406 E23.60404
G1 X103.851 Y124.48 E23.61418
G1 X103.597 Y124.475 E23.62432
G1 X103.345 Y124.385 E23.635
G1 X102.688 Y124.063 E23.6642
G1 X101.991 Y123.778 E23.69426
G1 X101.267 Y123.535 E23.72474
G1 X100.531 Y123.34 E23.75513
G1 X99.782 Y123.189 E23.78562
G1 X99.031 Y123.08 E23.81591
G1 X98.262 Y123.011 E23.84673
G1 X97.487 Y122.983 E23.87768
G1 X96.709 Y122.996 E23.90873
G1 X95.943 Y123.051 E23.93939
G1 X95.169 Y123.149 E23.97052
G1 X94.402 Y123.297 E24.0017
G1 X93.645 Y123.491 E24.03289
G1 X92.899 Y123.735 E24.06422
G1 X92.169 Y124.034 E24.0957
G1 X91.464 Y124.384 E24.12712
G1 X91.198 Y124.475 E24.13834
G1 X90.943 Y124.477 E24.14852
G1 X90.7 Y124.398 E24.15872
