;FLAVOR:Marlin
;TIME:3775
;Filament used: 1.10578m
;Layer height: 0.16
;MINX:85.459
;MINY:91.737
;MINZ:0.24
;MAXX:151.479
;MAXY:163.051
;MAXZ:12.32
;Generated with Cura_SteamEngine 4.5.0
M140 S50
M105
M190 S50
M104 S215
M105
M109 S215
M82 ;absolute extrusion mode
M201 X500.00 Y500.00 Z100.00 E5000.00 ;Setup machine max acceleration
M203 X500.00 Y500.00 Z10.00 E50.00 ;Setup machine max feedrate
M204 P500.00 R1000.00 T500.00 ;Setup Print/Retract/Travel acceleration
M205 X8.00 Y8.00 Z0.40 E5.00 ;Setup Jerk
M220 S100 ;Reset Feedrate
M221 S100 ;Reset Flowrate

G28 ;Home

G92 E0 ;Reset Extruder
G1 Z2.0 F3000 ;Move Z Axis up
G1 X10.1 Y20 Z0.28 F5000.0 ;Move to start position
G1 X10.1 Y200.0 Z0.28 F1500.0 E15 ;Draw the first line
G1 X10.4 Y200.0 Z0.28 F5000.0 ;Move to side a little
G1 X10.4 Y20 Z0.28 F1500.0 E30 ;Draw the second line
G92 E0 ;Reset Extruder
G1 Z2.0 F3000 ;Move Z Axis up

G92 E0
G92 E0
G1 F1800 E-3
;LAYER_COUNT:89
;LAYER:0
M106 S63.8
M204 S500
M205 X6 Y6
G0 F9000 X92.971 Y102.703 Z0.24
;TYPE:SKIRT
G1 F1800 E0
G1 X95.669 Y100.765 E0.13258
G1 X96.032 Y100.556 E0.1493
G1 X96.429 Y100.42 E0.16605
G1 X96.81 Y100.366 E0.18141
G1 X99.682 Y99.259 E0.30426
G1 X100.131 Y98.916 E0.32681
G1 X100.522 Y98.344 E0.35446
G1 X100.79 Y98.023 E0.37115
G1 X101.197 Y97.705 E0.39177
G1 X103.948 Y96.037 E0.52017
G1 X104.078 Y95.563 E0.53979
G1 X104.275 Y95.193 E0.55652
G1 X104.723 Y94.698 E0.58317
G1 X106.755 Y93.045 E0.68771
G1 X107.103 Y92.813 E0.70441
G1 X107.444 Y92.666 E0.71923
G1 X109.887 Y91.847 E0.82207
G1 X110.295 Y91.752 E0.83879
G1 X110.714 Y91.737 E0.85552
G1 X111.522 Y91.942 E0.88879
G1 X111.883 Y92.156 E0.90554
G1 X112.436 Y92.663 E0.93548
G1 X114.599 Y92.37 E1.0226
G1 X115.018 Y92.353 E1.03934
G1 X115.571 Y92.456 E1.06179
G1 X116.742 Y92.834 E1.1109
G1 X117.546 Y92.564 E1.14475
G1 X117.964 Y92.528 E1.1615
G1 X118.38 Y92.572 E1.17819
G1 X118.781 Y92.694 E1.19492
G1 X119.152 Y92.89 E1.21167
G1 X119.478 Y93.153 E1.22839
G1 X119.749 Y93.473 E1.24512
G1 X119.954 Y93.838 E1.26183
G1 X120.086 Y94.236 E1.27857
G1 X120.142 Y94.727 E1.29829
G1 X120.143 Y98.488 E1.4484
G1 X120.13 Y99.33 E1.48201
G1 X120.083 Y99.747 E1.49876
G1 X119.958 Y100.147 E1.51549
G1 X119.76 Y100.516 E1.5322
G1 X119.495 Y100.841 E1.54894
G1 X119.174 Y101.11 E1.56565
G1 X118.807 Y101.313 E1.58239
G1 X118.342 Y101.45 E1.60174
G1 X115.708 Y103.165 E1.72719
G1 X114.051 Y104.611 E1.81496
G1 X113.132 Y105.27 E1.8601
G1 X112.768 Y105.476 E1.87679
G1 X112.253 Y105.634 E1.89829
G1 X111.596 Y105.75 E1.92492
G1 X109.365 Y105.954 E2.01434
G1 X106.457 Y106.274 E2.1311
G1 X105.479 Y108.557 E2.23023
G1 X105.164 Y109.113 E2.25573
G1 X104.345 Y111.453 E2.35468
G1 X104.169 Y111.833 E2.3714
G1 X103.738 Y112.407 E2.40005
G1 X103.446 Y112.707 E2.41676
G1 X103.071 Y112.962 E2.43486
G1 X100.842 Y114.167 E2.53599
G1 X100.346 Y114.529 E2.5605
G1 X99.63 Y115.023 E2.59522
G1 X99.217 Y115.242 E2.61387
G1 X99.272 Y115.585 E2.62774
G1 X99.195 Y116.493 E2.66411
G1 X99.407 Y117.528 E2.70627
G1 X99.756 Y119.02 E2.76743
G1 X99.908 Y119.53 E2.78867
G1 X99.989 Y119.941 E2.80539
G1 X99.991 Y120.36 E2.82211
G1 X99.913 Y120.772 E2.83885
G1 X99.759 Y121.162 E2.85559
G1 X98.769 Y122.592 E2.925
G1 X98.127 Y123.591 E2.9724
G1 X97.512 Y124.774 E3.02561
G1 X97.284 Y125.126 E3.04235
G1 X96.994 Y125.428 E3.05906
G1 X96.755 Y125.596 E3.07072
G1 X96.939 Y125.801 E3.08172
G1 X97.155 Y126.161 E3.09847
G1 X97.298 Y126.554 E3.11517
G1 X97.373 Y127.07 E3.13598
G1 X98.129 Y129.867 E3.25162
G1 X98.199 Y130.28 E3.26834
G1 X98.19 Y130.699 E3.28506
G1 X98.101 Y131.108 E3.30177
G1 X97.951 Y131.466 E3.31726
G1 X97.177 Y132.935 E3.38353
G1 X97.011 Y133.366 E3.40197
G1 X96.977 Y133.902 E3.4234
G1 X96.854 Y134.302 E3.4401
G1 X96.658 Y134.673 E3.45685
G1 X96.395 Y134.999 E3.47357
G1 X96.075 Y135.27 E3.49031
G1 X95.71 Y135.475 E3.50701
G1 X95.312 Y135.607 E3.52375
G1 X94.821 Y135.662 E3.54347
G1 X88.887 Y135.662 E3.78031
G1 X88.47 Y135.622 E3.79703
G1 X88.068 Y135.504 E3.81375
G1 X87.696 Y135.311 E3.83048
G1 X87.367 Y135.052 E3.84719
G1 X87.075 Y134.705 E3.86529
G1 X86.519 Y134.359 E3.89143
G1 X86.221 Y134.063 E3.90819
G1 X85.985 Y133.717 E3.92491
G1 X85.819 Y133.333 E3.9416
G1 X85.728 Y132.923 E3.95837
G1 X85.717 Y132.505 E3.97505
G1 X85.878 Y131.651 E4.00974
G1 X85.566 Y130.701 E4.04965
G1 X85.459 Y130.107 E4.07374
G1 X85.478 Y129.591 E4.09435
G1 X85.61 Y129.102 E4.11456
G1 X86.092 Y127.897 E4.16636
G1 X86.33 Y127.425 E4.18746
G1 X86.593 Y127.098 E4.20421
G1 X86.918 Y126.824 E4.22117
G1 X86.976 Y126.549 E4.23239
G1 X87.138 Y126.163 E4.2491
G1 X87.583 Y125.518 E4.28038
G1 X87.862 Y125.205 E4.29711
G1 X88.194 Y124.951 E4.31379
G1 X88.647 Y124.736 E4.33381
G1 X89.556 Y124.425 E4.37215
G1 X89.431 Y124.15 E4.38421
G1 X88.493 Y123.694 E4.42584
G1 X87.612 Y123.255 E4.46512
G1 X87.256 Y123.033 E4.48187
G1 X86.949 Y122.748 E4.49859
G1 X86.702 Y122.41 E4.5153
G1 X86.455 Y121.807 E4.5413
G1 X86.292 Y120.965 E4.57553
G1 X86.309 Y120.566 E4.59147
G1 X86.458 Y119.456 E4.63617
G1 X86.553 Y119.048 E4.65289
G1 X86.723 Y118.665 E4.66962
G1 X86.963 Y118.322 E4.68632
G1 X87.212 Y118.08 E4.70018
G1 X87.005 Y117.517 E4.72412
G1 X86.939 Y117.103 E4.74086
G1 X86.953 Y116.684 E4.75759
G1 X87.409 Y115.08 E4.82415
G1 X87.625 Y114.51 E4.84847
G1 X87.856 Y114.16 E4.86521
G1 X88.148 Y113.86 E4.88192
G1 X88.493 Y113.621 E4.89867
G1 X88.876 Y113.452 E4.91538
G1 X89.918 Y113.235 E4.95786
G1 X91.089 Y113.048 E5.00519
G1 X92.156 Y111.49 E5.08056
G1 X92.191 Y110.472 E5.12121
G1 X92.039 Y108.967 E5.18159
G1 X91.445 Y108.022 E5.22614
G1 X91.257 Y107.647 E5.24288
G1 X91.143 Y107.244 E5.25959
G1 X91.108 Y106.826 E5.27634
G1 X91.153 Y106.41 E5.29304
G1 X91.303 Y105.945 E5.31254
G1 X91.938 Y104.54 E5.37407
G1 X92.481 Y103.378 E5.42527
G1 X92.694 Y103.017 E5.442
G1 X92.971 Y102.703 E5.45871
G0 F9000 X93.432 Y102.842
G1 F1800 X95.9 Y101.091 E5.57948
G1 X96.231 Y100.905 E5.59464
G1 X96.593 Y100.793 E5.60976
G1 X96.88 Y100.767 E5.62126
G1 X99.88 Y99.611 E5.74958
G1 X100.425 Y99.195 E5.77695
G1 X100.852 Y98.57 E5.80716
G1 X101.098 Y98.282 E5.82227
G1 X101.405 Y98.047 E5.83771
G1 X104.324 Y96.277 E5.97395
G1 X104.355 Y96.009 E5.98472
G1 X104.477 Y95.65 E5.99986
G1 X104.671 Y95.324 E6.015
G1 X104.975 Y95.009 E6.03247
G1 X107.007 Y93.356 E6.13702
G1 X107.325 Y93.149 E6.15216
G1 X110.014 Y92.226 E6.26563
G1 X110.384 Y92.144 E6.28076
G1 X110.763 Y92.142 E6.29588
G1 X111.134 Y92.218 E6.311
G1 X111.481 Y92.371 E6.32613
G1 X111.839 Y92.641 E6.34403
G1 X112.297 Y93.085 E6.36949
G1 X114.653 Y92.766 E6.46438
G1 X115.032 Y92.755 E6.47951
G1 X115.448 Y92.837 E6.49644
G1 X116.757 Y93.259 E6.55133
G1 X117.654 Y92.951 E6.58918
G1 X118.032 Y92.93 E6.60429
G1 X118.407 Y92.989 E6.61944
G1 X118.76 Y93.125 E6.63454
G1 X119.078 Y93.332 E6.64969
G1 X119.345 Y93.6 E6.66479
G1 X119.55 Y93.919 E6.67992
G1 X119.684 Y94.274 E6.69506
G1 X119.742 Y94.728 E6.71333
G1 X119.743 Y98.489 E6.86344
G1 X119.73 Y99.324 E6.89677
G1 X119.684 Y99.7 E6.91189
G1 X119.56 Y100.058 E6.92701
G1 X119.364 Y100.383 E6.94216
G1 X119.105 Y100.659 E6.95727
G1 X118.793 Y100.875 E6.97241
G1 X118.443 Y101.02 E6.98753
G1 X118.202 Y101.065 E6.99732
G1 X115.462 Y102.848 E7.12779
G1 X113.788 Y104.309 E7.21647
G1 X112.903 Y104.942 E7.2599
G1 X112.571 Y105.126 E7.27505
G1 X112.183 Y105.241 E7.2912
G1 X111.526 Y105.357 E7.31783
G1 X109.327 Y105.555 E7.40595
G1 X106.181 Y105.902 E7.53228
G1 X105.111 Y108.399 E7.6407
G1 X104.799 Y108.944 E7.66577
G1 X104.632 Y109.425 E7.68609
G1 X103.967 Y111.32 E7.76624
G1 X103.671 Y111.853 E7.79058
G1 X103.16 Y112.424 E7.82116
G1 X102.881 Y112.611 E7.83457
G1 X100.623 Y113.832 E7.93702
G1 X100.11 Y114.206 E7.96236
G1 X99.403 Y114.694 E7.99665
G1 X99.071 Y114.875 E8.01174
G1 X98.712 Y114.981 E8.02668
G1 X98.843 Y115.378 E8.04336
G1 X98.861 Y115.953 E8.06632
G1 X98.79 Y116.508 E8.08866
G1 X99.012 Y117.594 E8.1329
G1 X99.37 Y119.126 E8.19569
G1 X99.525 Y119.645 E8.21731
G1 X99.594 Y120.017 E8.23241
G1 X99.584 Y120.396 E8.24754
G1 X99.496 Y120.764 E8.26264
G1 X99.266 Y121.204 E8.28246
G1 X98.435 Y122.371 E8.33964
G1 X97.783 Y123.386 E8.38779
G1 X97.157 Y124.59 E8.44195
G1 X96.948 Y124.905 E8.45704
G1 X96.677 Y125.171 E8.47219
G1 X96.357 Y125.373 E8.4873
G1 X95.96 Y125.501 E8.50394
G1 X96.176 Y125.616 E8.51371
G1 X96.466 Y125.86 E8.52884
G1 X96.698 Y126.159 E8.54394
G1 X96.863 Y126.5 E8.55906
G1 X96.976 Y127.136 E8.58484
G1 X97.743 Y129.971 E8.70206
G1 X97.802 Y130.345 E8.71717
G1 X97.783 Y130.724 E8.73232
G1 X97.598 Y131.28 E8.75571
G1 X96.81 Y132.775 E8.82316
G1 X96.605 Y133.308 E8.84595
G1 X96.62 Y133.517 E8.85431
G1 X96.569 Y133.892 E8.86942
G1 X96.44 Y134.249 E8.88457
G1 X96.239 Y134.57 E8.89968
G1 X95.976 Y134.843 E8.91481
G1 X95.661 Y135.054 E8.92995
G1 X95.309 Y135.195 E8.94508
G1 X94.821 Y135.262 E8.96474
G1 X88.887 Y135.262 E9.20158
G1 X88.51 Y135.222 E9.21671
G1 X88.15 Y135.104 E9.23183
G1 X87.823 Y134.914 E9.24693
G1 X87.542 Y134.659 E9.26207
G1 X87.36 Y134.404 E9.27457
G1 X86.744 Y134.026 E9.30342
G1 X86.483 Y133.751 E9.31855
G1 X86.286 Y133.428 E9.33365
G1 X86.16 Y133.07 E9.3488
G1 X86.112 Y132.694 E9.36393
G1 X86.152 Y132.279 E9.38057
G1 X86.278 Y131.691 E9.40457
G1 X86.295 Y131.639 E9.40675
G1 X85.947 Y130.577 E9.45136
G1 X85.855 Y129.993 E9.47495
G1 X85.879 Y129.615 E9.49007
G1 X85.982 Y129.25 E9.50521
G1 X86.464 Y128.045 E9.55701
G1 X86.685 Y127.614 E9.57634
G1 X86.931 Y127.326 E9.59146
G1 X87.283 Y127.071 E9.6088
G1 X87.343 Y126.719 E9.62306
G1 X87.482 Y126.367 E9.63816
G1 X87.906 Y125.754 E9.66791
G1 X88.161 Y125.474 E9.68303
G1 X88.468 Y125.253 E9.69812
G1 X88.776 Y125.114 E9.71161
G1 X90.104 Y124.659 E9.76764
G1 X89.83 Y124.064 E9.79378
G1 X89.742 Y123.856 E9.8028
G1 X88.668 Y123.334 E9.85046
G1 X87.79 Y122.897 E9.8896
G1 X87.471 Y122.693 E9.90471
G1 X87.201 Y122.427 E9.91984
G1 X86.993 Y122.11 E9.93497
G1 X86.844 Y121.712 E9.95194
G1 X86.69 Y120.909 E9.98457
G1 X86.854 Y119.51 E10.04079
G1 X86.944 Y119.141 E10.05595
G1 X87.108 Y118.8 E10.07105
G1 X87.341 Y118.501 E10.08618
G1 X87.589 Y118.293 E10.0991
G1 X87.639 Y117.952 E10.11285
G1 X87.501 Y117.722 E10.12356
G1 X87.379 Y117.363 E10.13869
G1 X87.335 Y116.986 E10.15384
G1 X87.413 Y116.444 E10.1757
G1 X87.792 Y115.197 E10.22771
G1 X87.996 Y114.665 E10.25046
G1 X88.214 Y114.355 E10.26558
G1 X88.492 Y114.098 E10.28069
G1 X88.818 Y113.904 E10.29583
G1 X89.235 Y113.771 E10.3133
G1 X89.992 Y113.628 E10.34405
G1 X91.336 Y113.414 E10.39837
G1 X91.662 Y112.881 E10.4233
G1 X92.552 Y111.624 E10.48478
G1 X92.592 Y110.46 E10.53126
G1 X92.427 Y108.833 E10.59653
G1 X91.784 Y107.809 E10.64479
G1 X91.617 Y107.469 E10.65991
G1 X91.525 Y107.101 E10.67505
G1 X91.513 Y106.722 E10.69018
G1 X91.579 Y106.349 E10.7053
G1 X92.303 Y104.705 E10.777
G1 X92.843 Y103.548 E10.82796
G1 X93.039 Y103.223 E10.84311
G1 X93.432 Y102.842 E10.86495
G0 F9000 X93.664 Y103.168
G1 F1800 X96.132 Y101.417 E10.98573
G1 X96.425 Y101.258 E10.99904
G1 X96.748 Y101.172 E11.01238
G1 X96.954 Y101.168 E11.0206
G1 X100.076 Y99.965 E11.15414
G1 X100.718 Y99.475 E11.18637
G1 X101.182 Y98.796 E11.21919
G1 X101.402 Y98.545 E11.23252
G1 X104.71 Y96.51 E11.38753
G1 X104.755 Y96.058 E11.40566
G1 X104.875 Y95.747 E11.41896
G1 X105.067 Y95.473 E11.43231
G1 X107.26 Y93.666 E11.54573
G1 X107.698 Y93.425 E11.56568
G1 X110.141 Y92.606 E11.66852
G1 X110.468 Y92.538 E11.68185
G1 X111.124 Y92.64 E11.70835
G1 X111.561 Y92.928 E11.72924
G1 X112.16 Y93.508 E11.76251
G1 X114.707 Y93.163 E11.8651
G1 X115.041 Y93.158 E11.87843
G1 X115.325 Y93.218 E11.89002
G1 X116.772 Y93.685 E11.9507
G1 X117.434 Y93.424 E11.9791
G1 X117.757 Y93.34 E11.99242
G1 X118.091 Y93.336 E12.00576
G1 X118.417 Y93.411 E12.01911
G1 X118.715 Y93.561 E12.03242
G1 X118.97 Y93.777 E12.04576
G1 X119.166 Y94.048 E12.05911
G1 X119.292 Y94.357 E12.07243
G1 X119.342 Y94.728 E12.08737
G1 X119.343 Y98.489 E12.23748
G1 X119.33 Y99.318 E12.27057
G1 X119.285 Y99.649 E12.2839
G1 X119.162 Y99.959 E12.29721
G1 X118.97 Y100.232 E12.31053
G1 X118.718 Y100.452 E12.32389
G1 X118.422 Y100.606 E12.3372
G1 X118.051 Y100.685 E12.35234
G1 X115.225 Y102.525 E12.48694
G1 X113.525 Y104.008 E12.57698
G1 X112.673 Y104.615 E12.61873
G1 X112.379 Y104.772 E12.63203
G1 X111.456 Y104.963 E12.66965
G1 X109.292 Y105.157 E12.75637
G1 X105.906 Y105.53 E12.89233
G1 X104.744 Y108.241 E13.01005
G1 X104.438 Y108.766 E13.0343
G1 X104.255 Y109.294 E13.05661
G1 X103.59 Y111.188 E13.13672
G1 X103.359 Y111.602 E13.15564
G1 X102.876 Y112.138 E13.18444
G1 X100.408 Y113.493 E13.29681
G1 X99.874 Y113.883 E13.32321
G1 X99.176 Y114.365 E13.35706
G1 X98.881 Y114.52 E13.37036
G1 X98.557 Y114.601 E13.38369
G1 X98.223 Y114.603 E13.39702
G1 X97.792 Y114.479 E13.41492
G1 X98.242 Y114.948 E13.44086
G1 X98.392 Y115.246 E13.45418
G1 X98.468 Y115.572 E13.46754
G1 X98.465 Y115.902 E13.48071
G1 X98.385 Y116.522 E13.50566
G1 X98.631 Y117.723 E13.55459
G1 X98.984 Y119.234 E13.61652
G1 X99.141 Y119.759 E13.63839
G1 X99.198 Y120.088 E13.65172
G1 X99.175 Y120.422 E13.66508
G1 X99.074 Y120.74 E13.6784
G1 X98.103 Y122.149 E13.7467
G1 X97.432 Y123.194 E13.79626
G1 X96.802 Y124.405 E13.85075
G1 X96.614 Y124.681 E13.86407
G1 X96.365 Y124.904 E13.87742
G1 X96.071 Y125.062 E13.89074
G1 X95.793 Y125.14 E13.90226
G1 X94.018 Y125.439 E13.9741
G1 X93.822 Y125.454 E13.98195
G1 X95.408 Y125.729 E14.04619
G1 X95.728 Y125.825 E14.05953
G1 X96.016 Y125.994 E14.07286
G1 X96.256 Y126.226 E14.08618
G1 X96.434 Y126.509 E14.09952
G1 X96.565 Y126.997 E14.11969
G1 X96.582 Y127.214 E14.12838
G1 X97.356 Y130.076 E14.24671
G1 X97.405 Y130.406 E14.26002
G1 X97.373 Y130.739 E14.27338
G1 X97.244 Y131.094 E14.28845
G1 X96.446 Y132.609 E14.35679
G1 X96.2 Y133.245 E14.38401
G1 X96.219 Y133.544 E14.39597
G1 X96.159 Y133.873 E14.40932
G1 X96.024 Y134.178 E14.42263
G1 X95.82 Y134.443 E14.43598
G1 X95.559 Y134.652 E14.44932
G1 X95.256 Y134.793 E14.46266
G1 X94.821 Y134.862 E14.48024
G1 X88.887 Y134.862 E14.71708
G1 X88.555 Y134.822 E14.73042
G1 X88.243 Y134.705 E14.74372
G1 X87.966 Y134.517 E14.75709
G1 X87.743 Y134.269 E14.7704
G1 X87.657 Y134.109 E14.77765
G1 X86.974 Y133.695 E14.80952
G1 X86.754 Y133.443 E14.82287
G1 X86.601 Y133.147 E14.83617
G1 X86.522 Y132.822 E14.84952
G1 X86.543 Y132.363 E14.86786
G1 X86.669 Y131.775 E14.89186
G1 X86.716 Y131.639 E14.89761
G1 X86.327 Y130.452 E14.94746
G1 X86.254 Y129.977 E14.96664
G1 X86.28 Y129.644 E14.97997
G1 X86.835 Y128.194 E15.04194
G1 X87.037 Y127.809 E15.05929
G1 X87.265 Y127.564 E15.07265
G1 X87.69 Y127.317 E15.09227
G1 X87.723 Y126.844 E15.11119
G1 X87.946 Y126.378 E15.13181
G1 X88.457 Y125.746 E15.16425
G1 X88.906 Y125.492 E15.18484
G1 X90.692 Y124.881 E15.26018
G1 X90.525 Y124.618 E15.27261
G1 X90.193 Y123.897 E15.30429
G1 X90.054 Y123.562 E15.31877
G1 X88.843 Y122.974 E15.3725
G1 X87.969 Y122.539 E15.41147
G1 X87.69 Y122.355 E15.4248
G1 X87.462 Y122.111 E15.43813
G1 X87.299 Y121.82 E15.45145
G1 X87.129 Y121.19 E15.47749
G1 X87.101 Y120.673 E15.49815
G1 X87.25 Y119.563 E15.54285
G1 X87.334 Y119.239 E15.55621
G1 X87.492 Y118.945 E15.56953
G1 X87.715 Y118.696 E15.58288
G1 X87.996 Y118.506 E15.59641
G1 X87.99 Y118.232 E15.60735
G1 X88.078 Y117.872 E15.62214
G1 X87.84 Y117.498 E15.63984
G1 X87.751 Y117.176 E15.65317
G1 X87.741 Y116.842 E15.66651
G1 X88.175 Y115.313 E15.72994
G1 X88.365 Y114.825 E15.75085
G1 X88.569 Y114.56 E15.76419
G1 X88.829 Y114.351 E15.77751
G1 X89.309 Y114.164 E15.79807
G1 X90.066 Y114.021 E15.82882
G1 X91.581 Y113.78 E15.89004
G1 X91.931 Y113.199 E15.91711
G1 X92.947 Y111.756 E15.98755
G1 X92.993 Y110.449 E16.03975
G1 X92.816 Y108.698 E16.10999
G1 X92.123 Y107.596 E16.16195
G1 X91.98 Y107.294 E16.17528
G1 X91.913 Y106.967 E16.18861
G1 X91.925 Y106.633 E16.20195
G1 X92.032 Y106.274 E16.2169
G1 X92.667 Y104.869 E16.27844
G1 X93.206 Y103.717 E16.3292
G1 X93.382 Y103.434 E16.3425
G1 X93.664 Y103.168 E16.35797
G0 F9000 X93.722 Y103.65
G1 F1800 X93.895 Y103.494 E16.36727
G1 X96.363 Y101.743 E16.48805
G1 X96.614 Y101.614 E16.49931
G1 X96.891 Y101.56 E16.51057
G1 X97.002 Y101.578 E16.51506
G1 X100.276 Y100.317 E16.65509
G1 X101.012 Y99.754 E16.69208
G1 X101.512 Y99.022 E16.72746
G1 X101.819 Y98.731 E16.74434
G1 X105.107 Y96.737 E16.89782
