;FLAVOR:Marlin
;TIME:2240
;Filament used: 0.704145m
;Layer height: 0.16
;MINX:101.889
;MINY:99.805
;MINZ:0.24
;MAXX:118.282
;MAXY:119.976
;MAXZ:16.6
;Generated with Cura_SteamEngine 4.5.0
M140 S50
M105
M190 S50
M104 S215
M105
M109 S215
M82 ;absolute extrusion mode
M201 X500.00 Y500.00 Z100.00 E5000.00 ;Setup machine max acceleration
M203 X500.00 Y500.00 Z10.00 E50.00 ;Setup machine max feedrate
M204 P500.00 R1000.00 T500.00 ;Setup Print/Retract/Travel acceleration
M205 X8.00 Y8.00 Z0.40 E5.00 ;Setup Jerk
M220 S100 ;Reset Feedrate
M221 S100 ;Reset Flowrate

G28 ;Home

G92 E0 ;Reset Extruder
G1 Z2.0 F3000 ;Move Z Axis up
G1 X10.1 Y20 Z0.28 F5000.0 ;Move to start position
G1 X10.1 Y200.0 Z0.28 F1500.0 E15 ;Draw the first line
G1 X10.4 Y200.0 Z0.28 F5000.0 ;Move to side a little
G1 X10.4 Y20 Z0.28 F1500.0 E30 ;Draw the second line
G92 E0 ;Reset Extruder
G1 Z2.0 F3000 ;Move Z Axis up

G92 E0
G92 E0
G1 F1800 E-3
;LAYER_COUNT:126
;LAYER:0
M106 S63.8
M204 S500
M205 X6 Y6
G0 F9000 X103.58 Y102.583 Z0.24
;TYPE:SKIRT
G1 F1800 E0
G1 X105.946 Y100.635 E0.12232
G1 X106.294 Y100.429 E0.13846
G1 X106.886 Y100.186 E0.164
G1 X107.208 Y100.097 E0.17734
G1 X107.529 Y100.085 E0.19016
G1 X108.239 Y100.141 E0.21858
G1 X108.846 Y99.913 E0.24446
G1 X109.317 Y99.823 E0.2636
G1 X110.452 Y99.805 E0.30891
G1 X111.654 Y100.107 E0.35837
G1 X112.783 Y100.133 E0.40344
G1 X113.306 Y100.248 E0.42482
G1 X113.729 Y100.444 E0.44342
G1 X114.174 Y100.725 E0.46443
G1 X115.06 Y101.432 E0.50967
G1 X115.594 Y101.782 E0.53515
G1 X115.993 Y102.239 E0.55937
G1 X116.23 Y102.474 E0.57269
G1 X116.538 Y102.987 E0.59657
G1 X116.927 Y103.312 E0.6168
G1 X117.345 Y103.761 E0.64129
G1 X117.557 Y104.019 E0.65461
G1 X117.806 Y104.561 E0.67842
G1 X118.007 Y105.279 E0.70818
G1 X118.053 Y105.61 E0.72152
G1 X118.019 Y105.942 E0.73484
G1 X117.906 Y106.257 E0.74819
G1 X117.787 Y106.438 E0.75684
G1 X118.133 Y107.804 E0.81308
G1 X118.282 Y108.934 E0.85857
G1 X118.28 Y109.283 E0.8725
G1 X118.11 Y110.596 E0.92534
G1 X118.028 Y110.92 E0.93868
G1 X117.714 Y111.454 E0.96341
G1 X117.139 Y112.696 E1.01803
G1 X117.029 Y112.929 E1.02832
G1 X116.939 Y113.425 E1.04844
G1 X117.06 Y113.691 E1.0601
G1 X117.203 Y114.351 E1.08705
G1 X117.135 Y115.121 E1.1179
G1 X117.041 Y115.459 E1.13191
G1 X116.443 Y116.884 E1.19359
G1 X115.867 Y117.781 E1.23613
G1 X114.811 Y119.093 E1.30335
G1 X114.571 Y119.326 E1.3167
G1 X114.283 Y119.495 E1.33003
G1 X113.964 Y119.591 E1.34333
G1 X113.243 Y119.569 E1.37212
G1 X112.887 Y119.663 E1.38681
G1 X112.321 Y119.886 E1.41109
G1 X111.998 Y119.97 E1.42441
G1 X111.664 Y119.976 E1.43775
G1 X111.338 Y119.902 E1.45109
G1 X111.039 Y119.753 E1.46442
G1 X110.784 Y119.537 E1.47776
G1 X110.661 Y119.358 E1.48643
G1 X110.417 Y119.437 E1.49667
G1 X109.611 Y119.574 E1.5293
G1 X108.488 Y119.898 E1.57595
G1 X108.159 Y119.952 E1.58925
G1 X107.63 Y119.872 E1.61061
G1 X107.142 Y119.698 E1.63128
G1 X106.642 Y119.563 E1.65196
G1 X106.123 Y119.548 E1.67268
G1 X105.805 Y119.446 E1.68601
G1 X105.521 Y119.271 E1.69932
G1 X103.969 Y117.627 E1.78956
G1 X103.707 Y117.225 E1.80871
G1 X102.961 Y115.488 E1.88416
G1 X102.861 Y115.132 E1.89892
G1 X102.795 Y114.487 E1.9248
G1 X102.862 Y113.908 E1.94806
G1 X103.123 Y113.293 E1.97472
G1 X103.21 Y113.148 E1.98147
G1 X102.607 Y111.605 E2.04759
G1 X102.522 Y111.269 E2.06143
G1 X102.314 Y109.606 E2.12832
G1 X102.313 Y109.268 E2.14181
G1 X102.48 Y107.857 E2.19852
G1 X102.271 Y107.631 E2.2108
G1 X102.088 Y107.283 E2.2265
G1 X101.889 Y106.604 E2.25474
G1 X101.899 Y106.017 E2.27817
G1 X101.988 Y105.302 E2.30692
G1 X102.128 Y104.774 E2.32873
G1 X102.263 Y104.468 E2.34208
G1 X102.466 Y104.203 E2.3554
G1 X102.912 Y103.854 E2.378
G1 X103.398 Y102.863 E2.42206
G1 X103.58 Y102.583 E2.43538
G0 F9000 X104.026 Y102.702
G1 F1800 X106.197 Y100.946 E2.54683
G1 X106.446 Y100.799 E2.55837
G1 X107.038 Y100.556 E2.58391
G1 X107.312 Y100.487 E2.59519
G1 X108.295 Y100.547 E2.6345
G1 X108.987 Y100.287 E2.664
G1 X109.323 Y100.223 E2.67765
G1 X110.458 Y100.205 E2.72296
G1 X111.592 Y100.506 E2.76978
G1 X112.774 Y100.533 E2.81697
G1 X113.148 Y100.615 E2.83226
G1 X113.816 Y100.963 E2.86232
G1 X114.834 Y101.764 E2.91402
G1 X115.351 Y102.104 E2.93871
G1 X115.568 Y102.416 E2.95388
G1 X115.747 Y102.555 E2.96293
G1 X116.006 Y102.855 E2.97875
G1 X116.227 Y103.248 E2.99674
G1 X116.67 Y103.619 E3.0198
G1 X117.069 Y104.05 E3.04325
G1 X117.301 Y104.389 E3.05964
G1 X117.48 Y104.845 E3.07919
G1 X117.62 Y105.38 E3.10127
G1 X117.653 Y105.66 E3.11252
G1 X117.605 Y105.938 E3.12378
G1 X117.482 Y106.192 E3.13504
G1 X117.349 Y106.339 E3.14295
G1 X117.745 Y107.902 E3.20731
G1 X117.885 Y108.982 E3.25077
G1 X117.884 Y109.231 E3.26071
G1 X117.714 Y110.544 E3.31355
G1 X117.556 Y110.967 E3.33158
G1 X117.365 Y111.256 E3.3454
G1 X116.776 Y112.528 E3.40135
G1 X116.632 Y112.751 E3.41194
G1 X116.523 Y113.476 E3.44121
G1 X116.696 Y113.857 E3.45791
G1 X116.805 Y114.394 E3.47978
G1 X116.739 Y115.062 E3.50657
G1 X116.672 Y115.304 E3.51659
G1 X116.074 Y116.729 E3.57827
G1 X115.536 Y117.556 E3.61765
G1 X114.5 Y118.841 E3.68353
G1 X114.294 Y119.033 E3.69477
G1 X114.041 Y119.16 E3.70606
G1 X113.618 Y119.207 E3.72305
G1 X113.212 Y119.164 E3.73935
G1 X112.748 Y119.287 E3.7585
G1 X112.174 Y119.513 E3.78313
G1 X111.9 Y119.579 E3.79437
G1 X111.618 Y119.565 E3.80564
G1 X111.351 Y119.473 E3.81691
G1 X111.121 Y119.31 E3.82817
G1 X110.829 Y118.854 E3.84978
G1 X110.35 Y119.043 E3.87033
G1 X109.522 Y119.183 E3.90385
G1 X108.377 Y119.514 E3.95142
G1 X108.098 Y119.553 E3.96266
G1 X107.765 Y119.495 E3.97615
G1 X107.261 Y119.315 E3.99751
G1 X106.706 Y119.16 E4.02051
G1 X106.157 Y119.146 E4.04243
G1 X105.895 Y119.042 E4.05368
G1 X105.659 Y118.856 E4.06567
G1 X104.261 Y117.355 E4.14754
G1 X104.074 Y117.068 E4.16121
G1 X103.328 Y115.331 E4.23666
G1 X103.203 Y114.694 E4.26257
G1 X103.206 Y114.257 E4.28001
G1 X103.292 Y113.898 E4.29475
G1 X103.489 Y113.456 E4.31406
G1 X103.678 Y113.182 E4.32735
G1 X102.98 Y111.459 E4.40155
G1 X102.919 Y111.219 E4.41143
G1 X102.711 Y109.556 E4.47832
G1 X102.71 Y109.315 E4.48794
G1 X102.904 Y107.671 E4.55401
G1 X102.707 Y107.526 E4.56377
G1 X102.465 Y107.148 E4.58169
G1 X102.339 Y106.795 E4.59665
G1 X102.282 Y106.414 E4.61202
G1 X102.384 Y105.354 E4.65452
G1 X102.511 Y104.89 E4.67372
G1 X102.63 Y104.635 E4.68496
G1 X102.879 Y104.373 E4.69938
G1 X103.226 Y104.12 E4.71652
G1 X103.757 Y103.039 E4.76459
G1 X104.026 Y102.702 E4.7818
G0 F9000 X104.278 Y103.013
G1 F1800 X106.449 Y101.257 E4.89325
G1 X107.19 Y100.926 E4.92564
G1 X107.465 Y100.883 E4.93675
G1 X108.351 Y100.953 E4.97222
G1 X109.128 Y100.661 E5.00535
G1 X109.329 Y100.623 E5.01351
G1 X110.464 Y100.605 E5.05882
G1 X111.527 Y100.905 E5.1029
G1 X112.765 Y100.933 E5.15233
G1 X113.246 Y101.093 E5.17256
G1 X113.675 Y101.351 E5.19254
G1 X114.611 Y102.097 E5.24031
G1 X114.93 Y102.279 E5.25497
G1 X115.148 Y102.492 E5.26713
G1 X115.264 Y102.686 E5.27616
G1 X115.502 Y102.871 E5.28819
G1 X115.657 Y103.051 E5.29767
G1 X115.914 Y103.509 E5.31863
G1 X116.413 Y103.926 E5.34458
G1 X116.793 Y104.339 E5.36698
G1 X116.932 Y104.543 E5.37684
G1 X117.093 Y104.946 E5.39416
G1 X117.233 Y105.481 E5.41623
G1 X117.249 Y105.699 E5.42495
G1 X117.186 Y105.908 E5.43366
G1 X117.053 Y106.08 E5.44234
G1 X116.894 Y106.171 E5.44965
G1 X117.358 Y108.001 E5.525
G1 X117.488 Y109.031 E5.56644
G1 X117.317 Y110.493 E5.62519
G1 X117.223 Y110.747 E5.636
G1 X117.012 Y111.066 E5.65126
G1 X116.413 Y112.36 E5.70818
G1 X116.237 Y112.571 E5.71914
G1 X116.241 Y112.786 E5.72773
G1 X116.107 Y113.527 E5.75778
G1 X116.332 Y114.023 E5.77952
G1 X116.408 Y114.437 E5.79632
G1 X116.344 Y115.004 E5.81909
G1 X115.705 Y116.574 E5.88674
G1 X115.205 Y117.331 E5.92295
G1 X114.189 Y118.59 E5.98752
G1 X114.024 Y118.731 E5.99619
G1 X113.818 Y118.804 E6.00491
G1 X113.18 Y118.759 E6.03044
G1 X112.628 Y118.905 E6.05323
G1 X112.028 Y119.141 E6.07896
G1 X111.814 Y119.183 E6.08766
G1 X111.599 Y119.145 E6.09638
G1 X111.412 Y119.033 E6.10508
G1 X111.268 Y118.844 E6.11456
G1 X111.013 Y118.316 E6.13796
G1 X110.449 Y118.595 E6.16308
G1 X109.424 Y118.795 E6.20476
G1 X108.266 Y119.129 E6.25286
G1 X108.049 Y119.151 E6.26157
G1 X107.376 Y118.932 E6.28981
G1 X106.767 Y118.757 E6.3151
G1 X106.203 Y118.744 E6.33762
G1 X105.952 Y118.583 E6.34952
G1 X104.554 Y117.082 E6.43139
G1 X104.442 Y116.91 E6.43958
G1 X103.696 Y115.173 E6.51503
G1 X103.599 Y114.638 E6.53673
G1 X103.606 Y114.276 E6.55118
G1 X103.657 Y114.061 E6.56
G1 X103.854 Y113.619 E6.57932
G1 X103.978 Y113.439 E6.58804
G1 X104.24 Y113.295 E6.59997
G1 X103.962 Y112.874 E6.62011
G1 X103.352 Y111.313 E6.687
G1 X103.108 Y109.506 E6.75978
G1 X103.304 Y107.696 E6.83244
G1 X103.396 Y107.402 E6.84474
G1 X103.255 Y107.392 E6.85038
G1 X103.058 Y107.3 E6.85906
G1 X102.906 Y107.143 E6.86778
G1 X102.716 Y106.661 E6.88846
G1 X102.682 Y106.432 E6.8977
G1 X102.781 Y105.406 E6.93884
G1 X102.894 Y105.007 E6.95539
G1 X102.994 Y104.813 E6.9641
G1 X103.542 Y104.385 E6.99185
G1 X104.116 Y103.216 E7.04383
G1 X104.278 Y103.013 E7.05419
G0 F9000 X104.475 Y103.392
G1 F1800 X106.7 Y101.568 E7.16902
G1 X107.342 Y101.296 E7.19685
G1 X108.409 Y101.359 E7.23951
G1 X109.269 Y101.036 E7.27618
G1 X110.471 Y101.005 E7.32417
G1 X111.461 Y101.304 E7.36545
G1 X112.756 Y101.333 E7.41714
G1 X113.111 Y101.473 E7.43238
G1 X113.426 Y101.664 E7.44708
G1 X114.384 Y102.428 E7.49598
G1 X114.805 Y102.697 E7.51592
G1 X114.96 Y102.956 E7.52797
G1 X115.308 Y103.247 E7.54608
G1 X115.601 Y103.769 E7.56997
G1 X116.156 Y104.233 E7.59884
G1 X116.516 Y104.628 E7.62017
G1 X116.706 Y105.047 E7.63853
G1 X116.846 Y105.582 E7.66061
G1 X116.839 Y105.707 E7.6656
G1 X116.714 Y105.824 E7.67244
G1 X116.575 Y105.868 E7.67826
G1 X116.458 Y106.08 E7.68792
G1 X116.97 Y108.099 E7.77105
G1 X117.091 Y109.079 E7.81046
G1 X116.92 Y110.442 E7.86529
G1 X116.664 Y110.867 E7.88509
G1 X116.05 Y112.192 E7.94338
G1 X115.965 Y112.283 E7.94835
G1 X115.842 Y112.306 E7.95334
G1 X115.73 Y112.252 E7.95831
G1 X115.672 Y112.141 E7.96331
G1 X116.002 Y111.198 E8.00318
G1 X116.218 Y109.377 E8.07637
G1 X115.994 Y107.584 E8.14849
G1 X115.338 Y105.891 E8.22096
G1 X114.298 Y104.44 E8.29221
G1 X112.937 Y103.322 E8.36251
G1 X111.349 Y102.618 E8.43183
G1 X109.643 Y102.379 E8.50059
G1 X107.927 Y102.629 E8.5698
G1 X106.349 Y103.338 E8.63885
G1 X104.985 Y104.474 E8.7097
G1 X103.958 Y105.929 E8.78078
G1 X103.594 Y106.883 E8.82153
G1 X103.515 Y106.98 E8.82652
G1 X103.394 Y107.012 E8.83152
G1 X103.278 Y106.965 E8.83652
G1 X103.093 Y106.526 E8.85553
G1 X103.1 Y106.054 E8.87437
G1 X103.178 Y105.458 E8.89836
G1 X103.277 Y105.123 E8.9123
G1 X103.35 Y105.019 E8.91737
G1 X103.858 Y104.649 E8.94246
G1 X104.475 Y103.392 E8.99834
G0 F9000 X104.816 Y103.606
G1 F1800 X106.927 Y101.897 E9.10675
G1 X107.449 Y101.684 E9.12925
G1 X108.422 Y101.761 E9.16821
G1 X109.375 Y101.422 E9.20858
G1 X110.444 Y101.406 E9.25125
G1 X111.368 Y101.694 E9.28988
G1 X112.708 Y101.732 E9.34338
G1 X113.191 Y101.987 E9.36518
G1 X114.146 Y102.75 E9.41397
G1 X114.488 Y102.948 E9.42974
G1 X114.685 Y103.25 E9.44413
G1 X114.984 Y103.482 E9.45924
G1 X115.268 Y103.991 E9.4825
G1 X115.871 Y104.516 E9.51441
G1 X115.946 Y104.636 E9.52006
G1 X116.207 Y104.887 E9.53451
G1 X116.412 Y105.501 E9.56035
G1 X116.263 Y105.605 E9.5676
G1 X116.07 Y105.954 E9.58352
G1 X116.051 Y106.1 E9.58939
G1 X116.577 Y108.178 E9.67495
G1 X116.69 Y109.106 E9.71226
G1 X116.53 Y110.344 E9.76208
G1 X116.618 Y109.406 E9.79968
G1 X116.386 Y107.508 E9.876
G1 X115.7 Y105.722 E9.95236
G1 X114.608 Y104.186 E10.02758
G1 X113.172 Y102.997 E10.10199
G1 X111.483 Y102.24 E10.17586
G1 X109.67 Y101.979 E10.24897
G1 X107.845 Y102.236 E10.32253
G1 X106.158 Y102.986 E10.39621
G1 X104.711 Y104.182 E10.47114
G1 X103.616 Y105.721 E10.54653
G1 X103.514 Y105.971 E10.5573
G1 X103.639 Y105.304 E10.58439
G1 X104.134 Y104.944 E10.60882
G1 X104.816 Y103.606 E10.66876
G0 F9000 X105.269 Y104.767
G1 F1800 X106.54 Y103.699 E10.73502
G1 X108.016 Y103.029 E10.79971
G1 X109.615 Y102.787 E10.86426
G1 X111.211 Y103.003 E10.92854
G1 X112.702 Y103.655 E10.99349
G1 X113.983 Y104.697 E11.05939
G1 X114.968 Y106.059 E11.12648
G1 X115.594 Y107.66 E11.19509
G1 X115.811 Y109.357 E11.26337
G1 X115.614 Y111.075 E11.33239
G1 X115.011 Y112.673 E11.40056
G1 X114.047 Y114.049 E11.46762
G1 X112.919 Y114.998 E11.52645
G1 X113.323 Y114.942 E11.54273
G1 X113.551 Y115.134 E11.55463
G1 X113.611 Y115.321 E11.56247
G1 X113.417 Y116.283 E11.60163
G1 X113.352 Y116.394 E11.60677
G1 X112.779 Y116.891 E11.63704
G1 X112.272 Y117.038 E11.65811
G1 X111.917 Y116.959 E11.67263
G1 X111.821 Y116.896 E11.67721
G1 X111.531 Y116.518 E11.69622
G1 X111.506 Y116.337 E11.70352
G1 X111.616 Y115.846 E11.7236
G1 X111.907 Y115.515 E11.74119
G1 X111.367 Y115.759 E11.76484
G1 X109.711 Y116.027 E11.8318
G1 X108.365 Y115.85 E11.88598
G1 X108.493 Y116.424 E11.90945
G1 X108.432 Y116.592 E11.91659
G1 X108.223 Y116.82 E11.92893
G1 X107.914 Y117.029 E11.94382
G1 X107.602 Y117.06 E11.95633
G1 X107.275 Y116.91 E11.97069
G1 X106.826 Y116.652 E11.99136
G1 X106.741 Y116.565 E11.99621
G1 X106.288 Y115.662 E12.03654
G1 X106.269 Y115.544 E12.04131
G1 X106.321 Y115.172 E12.0563
G1 X106.432 Y115.018 E12.06387
G1 X105.327 Y114.115 E12.12083
G1 X104.358 Y112.772 E12.18693
G1 X103.725 Y111.168 E12.25575
G1 X103.505 Y109.457 E12.3246
G1 X103.701 Y107.743 E12.39346
G1 X104.304 Y106.144 E12.46167
G1 X105.269 Y104.767 E12.52878
G1 F1800 E9.52878
G0 F9000 X104.889 Y104.499
G0 X107.769 Y107.205
G1 F1800 E12.52878
G1 X108.623 Y106.635 E12.56976
G1 X109.735 Y106.428 E12.6149
G1 X110.801 Y106.654 E12.65839
G1 X111.668 Y107.234 E12.70003
G1 X112.264 Y108.126 E12.74284
G1 X112.471 Y109.238 E12.78799
G1 X112.245 Y110.304 E12.83148
G1 X111.666 Y111.169 E12.87303
G1 X110.77 Y111.768 E12.91604
G1 X109.666 Y111.974 E12.96087
G1 X108.602 Y111.748 E13.00428
G1 X107.702 Y111.13 E13.04785
G1 X107.126 Y110.268 E13.08923
G1 X106.915 Y109.201 E13.13264
G1 X107.125 Y108.145 E13.17562
G1 X107.769 Y107.205 E13.22109
G0 F9000 X108.054 Y107.496
G1 F1800 X108.778 Y107.013 E13.25583
G1 X109.73 Y106.836 E13.29448
G1 X110.64 Y107.029 E13.33161
G1 X111.38 Y107.524 E13.36714
G1 X111.886 Y108.281 E13.40348
G1 X112.063 Y109.233 E13.44213
G1 X111.87 Y110.143 E13.47926
G1 X111.376 Y110.881 E13.5147
G1 X110.615 Y111.39 E13.55124
G1 X109.671 Y111.566 E13.58957
G1 X108.764 Y111.374 E13.62657
G1 X107.993 Y110.845 E13.66389
G1 X107.504 Y110.113 E13.69903
G1 X107.323 Y109.199 E13.73621
G1 X107.501 Y108.304 E13.77263
G1 X108.054 Y107.496 E13.81171
G0 F9000 X108.34 Y107.786
G1 F1800 X108.933 Y107.39 E13.84017
G1 X109.725 Y107.243 E13.87232
G1 X110.483 Y107.404 E13.90325
G1 X111.09 Y107.81 E13.9324
G1 X111.509 Y108.436 E13.96246
G1 X111.656 Y109.228 E13.99461
G1 X111.495 Y109.986 E14.02554
G1 X111.089 Y110.592 E14.05466
G1 X110.46 Y111.013 E14.08486
G1 X109.676 Y111.159 E14.11669
G1 X108.926 Y110.999 E14.1473
G1 X108.282 Y110.558 E14.17845
G1 X107.88 Y109.955 E14.20738
G1 X107.731 Y109.201 E14.23805
G1 X107.878 Y108.461 E14.26817
G1 X108.34 Y107.786 E14.30081
G0 F9000 X108.628 Y108.074
G1 F1800 X109.086 Y107.769 E14.32278
G1 X109.717 Y107.651 E14.3484
G1 X110.326 Y107.78 E14.37324
G1 X110.802 Y108.099 E14.39611
G1 X111.131 Y108.591 E14.41974
G1 X111.248 Y109.22 E14.44527
G1 X111.119 Y109.827 E14.47004
G1 X110.8 Y110.304 E14.49294
G1 X110.305 Y110.635 E14.51671
G1 X109.681 Y110.751 E14.54204
G1 X109.086 Y110.625 E14.56631
G1 X108.572 Y110.272 E14.5912
G1 X108.257 Y109.8 E14.61385
G1 X108.138 Y109.201 E14.63822
G1 X108.254 Y108.62 E14.66187
G1 X108.628 Y108.074 E14.68829
G0 F9000 X108.913 Y108.365
G1 F1800 X109.239 Y108.148 E14.70392
G1 X109.715 Y108.059 E14.72324
G1 X110.167 Y108.155 E14.74169
G1 X110.513 Y108.387 E14.75831
G1 X110.752 Y108.743 E14.77543
G1 X110.84 Y109.218 E14.79471
G1 X110.744 Y109.67 E14.81315
G1 X110.512 Y110.016 E14.82978
G1 X110.154 Y110.255 E14.84696
G1 X109.686 Y110.342 E14.86596
G1 X109.245 Y110.249 E14.88394
G1 X108.862 Y109.987 E14.90246
G1 X108.635 Y109.645 E14.91885
G1 X108.546 Y109.199 E14.937
G1 X108.63 Y108.779 E14.95409
G1 X108.913 Y108.365 E14.97411
G0 F9000 X109.201 Y108.654
G1 F1800 X109.394 Y108.526 E14.98335
G1 X109.71 Y108.467 E14.99618
