;FLAVOR:Marlin
;TIME:458
;Filament used: 0.0958064m
;Layer height: 0.16
;MINX:103.106
;MINY:103.571
;MINZ:0.24
;MAXX:116.894
;MAXY:116.407
;MAXZ:13.92
;Generated with Cura_SteamEngine 4.5.0
M140 S50
M105
M190 S50
M104 S215
M105
M109 S215
M82 ;absolute extrusion mode
M201 X500.00 Y500.00 Z100.00 E5000.00 ;Setup machine max acceleration
M203 X500.00 Y500.00 Z10.00 E50.00 ;Setup machine max feedrate
M204 P500.00 R1000.00 T500.00 ;Setup Print/Retract/Travel acceleration
M205 X8.00 Y8.00 Z0.40 E5.00 ;Setup Jerk
M220 S100 ;Reset Feedrate
M221 S100 ;Reset Flowrate

G28 ;Home

G92 E0 ;Reset Extruder
G1 Z2.0 F3000 ;Move Z Axis up
G1 X10.1 Y20 Z0.28 F5000.0 ;Move to start position
G1 X10.1 Y200.0 Z0.28 F1500.0 E15 ;Draw the first line
G1 X10.4 Y200.0 Z0.28 F5000.0 ;Move to side a little
G1 X10.4 Y20 Z0.28 F1500.0 E30 ;Draw the second line
G92 E0 ;Reset Extruder
G1 Z2.0 F3000 ;Move Z Axis up

G92 E0
G92 E0
G1 F1800 E-3
;LAYER_COUNT:110
;LAYER:0
M106 S63.8
M204 S500
M205 X6 Y6
G0 F9000 X106.008 Y104.437 Z0.24
;TYPE:SKIRT
G1 F1800 E0
G1 X106.422 Y104.12 E0.02081
G1 X106.879 Y103.871 E0.04158
G1 X107.369 Y103.694 E0.06238
G1 X107.881 Y103.594 E0.0832
G1 X108.305 Y103.571 E0.10015
G1 X111.808 Y103.602 E0.23996
G1 X112.327 Y103.647 E0.26076
G1 X112.834 Y103.77 E0.28158
G1 X113.315 Y103.969 E0.30235
G1 X113.761 Y104.24 E0.32318
G1 X114.159 Y104.575 E0.34395
G1 X114.502 Y104.968 E0.36477
G1 X116.455 Y108.346 E0.5205
G1 X116.677 Y108.818 E0.54132
G1 X116.825 Y109.318 E0.56213
G1 X116.894 Y109.834 E0.58291
G1 X116.884 Y110.355 E0.60371
G1 X116.794 Y110.868 E0.62449
G1 X116.627 Y111.362 E0.64531
G1 X116.426 Y111.759 E0.66307
G1 X114.864 Y114.4 E0.78553
G1 X114.347 Y115.193 E0.82331
G1 X113.985 Y115.568 E0.84412
G1 X113.571 Y115.884 E0.8649
G1 X113.113 Y116.132 E0.88569
G1 X112.622 Y116.308 E0.90651
G1 X112.11 Y116.407 E0.92732
G1 X108.191 Y116.398 E1.08374
G1 X107.672 Y116.353 E1.10453
G1 X107.165 Y116.23 E1.12535
G1 X106.684 Y116.031 E1.14613
G1 X106.238 Y115.76 E1.16696
G1 X105.84 Y115.425 E1.18772
G1 X105.497 Y115.032 E1.20854
G1 X103.545 Y111.651 E1.36436
G1 X103.323 Y111.179 E1.38518
G1 X103.176 Y110.679 E1.40598
G1 X103.106 Y110.163 E1.42676
G1 X103.117 Y109.642 E1.44756
G1 X103.207 Y109.128 E1.46839
G1 X103.375 Y108.635 E1.48918
G1 X103.574 Y108.24 E1.50683
G1 X105.348 Y105.24 E1.64593
G1 X105.647 Y104.813 E1.66674
G1 X106.008 Y104.437 E1.68754
G0 F9000 X106.319 Y104.696
G1 F1800 X106.715 Y104.408 E1.70709
G1 X107.153 Y104.189 E1.72663
G1 X107.62 Y104.043 E1.74616
G1 X108.302 Y103.971 E1.77353
G1 X112.292 Y104.046 E1.93281
G1 X112.766 Y104.169 E1.95235
G1 X113.213 Y104.368 E1.97188
G1 X113.623 Y104.636 E1.99143
G1 X113.983 Y104.968 E2.01098
G1 X114.385 Y105.518 E2.03817
G1 X116.107 Y108.544 E2.17713
G1 X116.314 Y108.988 E2.19668
G1 X116.446 Y109.459 E2.2162
G1 X116.499 Y109.946 E2.23576
G1 X116.472 Y110.435 E2.2553
G1 X116.367 Y110.913 E2.27483
G1 X116.082 Y111.555 E2.30287
G1 X114.52 Y114.196 E2.42533
G1 X114.019 Y114.961 E2.46183
G1 X113.674 Y115.308 E2.48136
G1 X113.278 Y115.595 E2.50088
G1 X112.84 Y115.814 E2.52043
G1 X112.372 Y115.958 E2.53997
G1 X111.697 Y116.029 E2.56706
G1 X108.194 Y115.998 E2.70688
G1 X107.707 Y115.954 E2.72639
G1 X107.233 Y115.831 E2.74594
G1 X106.786 Y115.632 E2.76547
G1 X106.376 Y115.364 E2.78502
G1 X106.016 Y115.032 E2.80456
G1 X105.613 Y114.48 E2.83184
G1 X103.893 Y111.453 E2.9708
G1 X103.686 Y111.009 E2.99035
G1 X103.555 Y110.538 E3.00986
G1 X103.502 Y110.051 E3.02941
G1 X103.529 Y109.562 E3.04896
G1 X103.635 Y109.084 E3.0685
G1 X103.919 Y108.444 E3.09645
G1 X105.693 Y105.444 E3.23555
G1 X105.975 Y105.044 E3.25508
G1 X106.319 Y104.696 E3.27461
G0 F9000 X106.628 Y104.959
G1 F1800 X107.005 Y104.702 E3.29283
G1 X107.42 Y104.515 E3.31099
G1 X107.862 Y104.404 E3.32918
G1 X108.298 Y104.371 E3.34663
G1 X112.255 Y104.446 E3.50459
G1 X112.693 Y104.568 E3.52274
G1 X113.104 Y104.766 E3.54095
G1 X113.474 Y105.031 E3.55911
G1 X113.792 Y105.358 E3.57732
G1 X114.038 Y105.716 E3.59466
G1 X115.76 Y108.742 E3.73362
G1 X115.95 Y109.156 E3.7518
G1 X116.064 Y109.597 E3.76998
G1 X116.1 Y110.052 E3.78819
G1 X116.056 Y110.505 E3.80636
G1 X115.933 Y110.944 E3.82455
G1 X115.738 Y111.352 E3.8426
G1 X114.176 Y113.993 E3.96507
G1 X113.693 Y114.727 E4.00014
G1 X113.366 Y115.045 E4.01834
G1 X112.989 Y115.301 E4.03653
G1 X112.573 Y115.487 E4.05472
G1 X112.131 Y115.597 E4.0729
G1 X111.701 Y115.629 E4.09011
G1 X108.198 Y115.598 E4.22992
G1 X107.744 Y115.554 E4.24813
G1 X107.306 Y115.432 E4.26628
G1 X106.895 Y115.234 E4.28448
G1 X106.525 Y114.969 E4.30265
G1 X106.207 Y114.642 E4.32085
G1 X105.96 Y114.282 E4.33828
G1 X104.24 Y111.255 E4.47723
G1 X104.051 Y110.841 E4.4954
G1 X103.937 Y110.4 E4.51358
G1 X103.901 Y109.946 E4.53176
G1 X103.945 Y109.492 E4.54996
G1 X104.068 Y109.054 E4.56812
G1 X104.263 Y108.648 E4.5861
G1 X106.037 Y105.648 E4.7252
G1 X106.302 Y105.277 E4.7434
G1 X106.628 Y104.959 E4.76157
G0 F9000 X106.934 Y105.227
G1 F1800 X107.289 Y105.004 E4.77831
G1 X107.68 Y104.853 E4.79503
G1 X108.294 Y104.771 E4.81976
G1 X112.214 Y104.846 E4.97624
G1 X112.615 Y104.968 E4.99297
G1 X112.986 Y105.163 E5.0097
G1 X113.313 Y105.426 E5.02645
G1 X113.69 Y105.914 E5.05106
G1 X115.412 Y108.94 E5.19002
G1 X115.584 Y109.322 E5.20674
G1 X115.68 Y109.73 E5.22347
G1 X115.697 Y110.149 E5.24021
G1 X115.634 Y110.563 E5.25692
G1 X115.394 Y111.148 E5.28216
G1 X113.832 Y113.789 E5.40462
G1 X113.368 Y114.491 E5.43821
G1 X113.061 Y114.776 E5.45493
G1 X112.705 Y114.998 E5.47167
G1 X112.314 Y115.148 E5.48839
G1 X111.705 Y115.229 E5.51291
G1 X108.202 Y115.198 E5.65273
G1 X107.785 Y115.154 E5.66946
G1 X107.384 Y115.032 E5.68619
G1 X107.013 Y114.837 E5.70292
G1 X106.686 Y114.574 E5.71967
G1 X106.308 Y114.085 E5.74434
G1 X104.588 Y111.058 E5.88329
G1 X104.417 Y110.675 E5.90003
G1 X104.321 Y110.268 E5.91672
G1 X104.304 Y109.849 E5.93346
G1 X104.367 Y109.435 E5.95017
G1 X104.607 Y108.851 E5.97537
G1 X106.381 Y105.851 E6.11448
G1 X106.628 Y105.512 E6.13122
G1 X106.934 Y105.227 E6.14791
G0 F9000 X106.952 Y105.751
G1 F1800 X107.237 Y105.501 E6.16304
G1 X107.567 Y105.316 E6.17814
G1 X107.93 Y105.204 E6.1933
G1 X108.291 Y105.171 E6.20777
G1 X112.17 Y105.245 E6.36262
G1 X112.529 Y105.366 E6.37774
G1 X112.855 Y105.56 E6.39288
G1 X113.133 Y105.817 E6.40799
G1 X113.342 Y106.112 E6.42242
G1 X115.064 Y109.138 E6.56138
G1 X115.216 Y109.485 E6.5765
G1 X115.292 Y109.856 E6.59161
G1 X115.288 Y110.235 E6.60674
G1 X115.205 Y110.605 E6.62188
G1 X115.049 Y110.944 E6.63677
G1 X113.487 Y113.585 E6.75923
G1 X113.044 Y114.252 E6.79119
G1 X112.759 Y114.502 E6.80632
G1 X112.428 Y114.686 E6.82144
G1 X112.065 Y114.796 E6.83658
G1 X111.708 Y114.829 E6.85089
G1 X108.205 Y114.798 E6.9907
G1 X107.829 Y114.755 E7.00581
G1 X107.47 Y114.634 E7.02093
G1 X107.144 Y114.44 E7.03607
G1 X106.866 Y114.183 E7.05118
G1 X106.656 Y113.887 E7.06567
G1 X104.936 Y110.86 E7.20462
G1 X104.785 Y110.513 E7.21973
G1 X104.709 Y110.142 E7.23484
G1 X104.713 Y109.763 E7.24997
G1 X104.796 Y109.393 E7.2651
G1 X104.952 Y109.055 E7.27996
G1 X106.726 Y106.055 E7.41907
G1 X106.952 Y105.751 E7.43418
G0 F9000 X107.273 Y105.993
G1 F1800 X107.533 Y105.784 E7.4475
G1 X107.836 Y105.642 E7.46085
G1 X108.287 Y105.571 E7.47908
G1 X112.122 Y105.645 E7.63217
G1 X112.433 Y105.765 E7.64547
G1 X112.708 Y105.955 E7.65881
G1 X112.995 Y106.31 E7.67703
G1 X114.717 Y109.336 E7.81599
G1 X114.846 Y109.644 E7.82932
G1 X114.899 Y109.973 E7.84262
G1 X114.872 Y110.306 E7.85596
G1 X114.705 Y110.741 E7.87455
G1 X113.143 Y113.382 E7.99702
G1 X112.724 Y114.009 E8.02712
G1 X112.463 Y114.218 E8.04046
G1 X112.16 Y114.359 E8.0538
G1 X111.712 Y114.429 E8.0719
G1 X108.209 Y114.398 E8.21172
G1 X107.877 Y114.355 E8.22508
G1 X107.566 Y114.235 E8.23838
G1 X107.291 Y114.045 E8.25172
G1 X107.004 Y113.69 E8.26994
G1 X105.284 Y110.663 E8.4089
G1 X105.155 Y110.355 E8.42223
G1 X105.102 Y110.025 E8.43557
G1 X105.129 Y109.692 E8.4489
G1 X105.296 Y109.258 E8.46746
G1 X107.07 Y106.258 E8.60656
G1 X107.273 Y105.993 E8.61989
G0 F9000 X107.591 Y106.242
G1 F1800 X107.822 Y106.08 E8.63115
G1 X108.089 Y105.989 E8.64241
G1 X112.066 Y106.044 E8.80115
G1 X112.322 Y106.163 E8.81242
G1 X112.535 Y106.348 E8.82368
G1 X114.369 Y109.533 E8.97037
G1 X114.473 Y109.796 E8.98166
G1 X114.499 Y110.077 E8.99292
G1 X114.445 Y110.354 E9.00418
G1 X112.799 Y113.178 E9.13464
G1 X112.407 Y113.76 E9.16265
G1 X112.175 Y113.921 E9.17392
G1 X111.908 Y114.012 E9.18518
G1 X108.212 Y113.998 E9.3327
G1 X107.933 Y113.956 E9.34396
G1 X107.677 Y113.837 E9.35522
G1 X107.464 Y113.652 E9.36649
G1 X105.632 Y110.465 E9.5132
G1 X105.528 Y110.203 E9.52445
G1 X105.502 Y109.922 E9.53572
G1 X105.556 Y109.645 E9.54698
G1 X107.414 Y106.462 E9.69408
G1 X107.591 Y106.242 E9.70535
G0 F9000 X107.902 Y106.501
G1 F1800 X108.095 Y106.399 E9.71406
G1 X108.28 Y106.371 E9.72153
G1 X111.997 Y106.444 E9.86991
G1 X112.183 Y106.559 E9.87864
G1 X112.299 Y106.705 E9.88608
G1 X114.021 Y109.731 E10.02504
G1 X114.093 Y109.937 E10.03375
G1 X114.086 Y110.155 E10.04246
G1 X114.016 Y110.333 E10.05009
G1 X112.454 Y112.974 E10.17256
G1 X112.24 Y113.336 E10.18934
G1 X112.096 Y113.5 E10.19805
G1 X111.903 Y113.602 E10.20677
G1 X111.719 Y113.629 E10.21419
G1 X108.216 Y113.598 E10.35401
G1 X108.002 Y113.556 E10.36271
G1 X107.816 Y113.441 E10.37144
G1 X107.699 Y113.294 E10.37894
G1 X105.979 Y110.267 E10.51789
G1 X105.908 Y110.061 E10.52659
G1 X105.915 Y109.843 E10.53529
G1 X105.985 Y109.666 E10.54289
G1 X107.759 Y106.666 E10.682
G1 X107.902 Y106.501 E10.69071
G0 F9000 X108.103 Y106.869
G1 F1800 X108.197 Y106.787 E10.69569
G1 X111.898 Y106.842 E10.84342
G1 X113.674 Y109.929 E10.98556
G1 X113.699 Y110.051 E10.99053
G1 X112.11 Y112.771 E11.11626
G1 X111.896 Y113.131 E11.13298
G1 X111.802 Y113.213 E11.13796
G1 X108.219 Y113.198 E11.28096
G1 X108.101 Y113.158 E11.28594
G1 X106.327 Y110.07 E11.42808
G1 X106.302 Y109.947 E11.43308
G1 X108.103 Y106.869 E11.57542
G1 F1800 E8.57542
;MESH:m5_5mm_thick.stl
G0 F9000 X108.454 Y107.29
G0 X111.54 Y107.392
G0 X111.66 Y107.201
;TYPE:WALL-OUTER
G1 F1800 E11.57542
G1 X113.269 Y110.026 E11.70518
G1 X111.611 Y112.828 E11.83512
G1 X108.339 Y112.799 E11.96572
G1 X106.732 Y109.973 E12.09547
G1 X108.388 Y107.172 E12.22534
G1 X111.66 Y107.201 E12.35594
G0 F9000 X111.386 Y107.608
G1 F1800 E9.35594
G0 F9000 X112.33 Y109.005
G0 X112.33 Y110.996
G0 X110.996 Y110.996
G0 X110.996 Y112.331
G0 X109.004 Y112.331
G0 X108.932 Y112.203
G0 X109.132 Y112.203
G1 F1800 E12.35594
G1 X110.868 Y112.203 E12.42523
G1 X110.868 Y110.868 E12.47851
G1 X112.202 Y110.868 E12.53175
G1 X112.202 Y109.133 E12.601
G1 X110.868 Y109.133 E12.65424
G1 X110.868 Y107.797 E12.70757
G1 X109.132 Y107.797 E12.77685
G1 X109.132 Y109.133 E12.83018
G1 X107.797 Y109.133 E12.88346
G1 X107.797 Y110.868 E12.95271
G1 X109.132 Y110.868 E13.00599
G1 X109.132 Y112.203 E13.05927
G0 F9000 X108.932 Y112.203
G0 X109.004 Y112.331
G0 X110.996 Y112.331
G0 X111.72 Y111.268
;TYPE:WALL-INNER
G1 F1800 X111.721 Y111.268 E13.05931
G1 X112.069 Y111.268 E13.0732
G1 X111.892 Y111.568 E13.08107
G1 X111.647 Y111.981 E13.10024
G1 X111.384 Y112.426 E13.12087
G1 X111.268 Y112.425 E13.1255
G1 X111.268 Y111.908 E13.13908
G1 X111.268 Y111.268 E13.16462
G1 X111.72 Y111.268 E13.18266
G0 F9000 X112.33 Y110.996
G0 X112.602 Y110.368
G1 F1800 X112.602 Y110.023 E13.19643
G1 X112.602 Y109.664 E13.21076
G1 X112.806 Y110.023 E13.21613
G1 X112.602 Y110.368 E13.22143
G0 F9000 X112.33 Y109.005
G0 X111.729 Y108.733
G1 F1800 X111.268 Y108.733 E13.23983
G1 X111.268 Y108.052 E13.26701
G1 X111.268 Y107.598 E13.28513
G1 X111.426 Y107.599 E13.29144
G1 X111.65 Y107.993 E13.30424
G1 X111.902 Y108.435 E13.32454
G1 X112.072 Y108.733 E13.33824
G1 X111.729 Y108.733 E13.34601
G0 F9000 X110.996 Y107.669
G0 X109.004 Y107.669
G0 X108.732 Y108.733
G1 F1800 X108.279 Y108.733 E13.36409
G1 X108.278 Y108.733 E13.36413
G1 X107.93 Y108.733 E13.37802
G1 X108.107 Y108.433 E13.38589
G1 X108.353 Y108.017 E13.40518
G1 X108.615 Y107.574 E13.42572
G1 X108.732 Y107.575 E13.43039
G1 X108.732 Y108.09 E13.44394
G1 X108.732 Y108.733 E13.46961
G0 F9000 X107.669 Y109.005
G0 X107.397 Y110.332
G1 F1800 X107.195 Y109.976 E13.48594
G1 X107.397 Y109.634 E13.5018
G1 X107.397 Y109.976 E13.50482
G1 X107.397 Y110.332 E13.508
G0 F9000 X107.669 Y110.996
G0 X108.732 Y111.268
G1 F1800 X108.732 Y111.949 E13.53518
G1 X108.732 Y112.402 E13.55326
G1 X108.573 Y112.401 E13.5596
G1 X108.35 Y112.008 E13.57238
G1 X108.098 Y111.566 E13.59269
G1 X107.929 Y111.268 E13.60636
G1 X108.271 Y111.268 E13.61412
G1 X108.272 Y111.268 E13.61416
G1 X108.732 Y111.268 E13.63252
G0 F9000 X108.443 Y111.555
;TYPE:SKIN
G1 F1800 X108.491 Y111.885 E13.63778
G1 X109.11 Y112.504 E13.65161
G1 X110.814 Y112.511 E13.67853
G1 X111.035 Y112.449 E13.68215
G1 X111.49 Y111.773 E13.69503
G1 X111.542 Y111.542 E13.69877
G1 X112.418 Y111.004 E13.715
G1 X112.575 Y110.595 E13.72192
G0 F9000 X112.651 Y110.679
G0 X112.607 Y109.496
G0 X112.491 Y109.38
G1 F1800 X112.488 Y109.094 E13.73476
G0 F9000 X111.555 Y108.443
G1 F1800 X111.507 Y108.113 E13.74014
G1 X110.888 Y107.494 E13.75428
G1 X109.184 Y107.487 E13.7818
G1 X108.962 Y107.548 E13.78552
G1 X108.508 Y108.225 E13.79868
G1 X108.455 Y108.455 E13.80249
G1 X107.579 Y108.993 E13.81909
G1 X107.423 Y109.403 E13.82618
G0 F9000 X107.349 Y109.32
G0 X107.388 Y110.499
G0 X107.505 Y110.616
G1 F1800 X107.511 Y110.905 E13.83899
G0 F9000 X107.627 Y111.038
G0 X108.892 Y112.569
G1 F1800 X108.951 Y112.628 E13.84066
G0 F9000 X108.951 Y112.605
G0 X110.996 Y112.331
G0 X110.996 Y110.996
G0 X112.33 Y110.996
G0 X112.33 Y109.005
G0 X111.106 Y107.43
G1 F1800 X111.047 Y107.37 E13.84234
G0 F9000 X111.25 Y107.415
;MESH:NONMESH
G0 F300 X111.25 Y107.415 Z0.44
G0 F9000 X112.33 Y109.005
G0 X112.33 Y110.996
G0 X111.505 Y112.64
G0 X111.611 Y112.828
;TIME_ELAPSED:23.176724
;LAYER:1
M140 S40
M106 S127.5
;TYPE:WALL-OUTER
;MESH:m5_5mm_thick.stl
G1 F600 X108.339 Y112.799 E13.95117
G1 X106.732 Y109.972 E14.05932
G1 X107.063 Y109.415 E14.08087
G1 X108.388 Y107.172 E14.16752
G1 X111.66 Y107.201 E14.27635
G1 X113.269 Y110.027 E14.38451
G1 X111.611 Y112.828 E14.49277
G0 F9000 X111.345 Y112.416
G1 F1800 E11.49277
G0 F9000 X109.004 Y112.331
G0 X108.932 Y112.203
G0 X109.132 Y112.203
G1 F1800 E14.49277
G1 F600 X110.868 Y112.203 E14.55051
G1 X110.868 Y110.868 E14.59491
G1 X112.202 Y110.868 E14.63928
G1 X112.202 Y109.133 E14.69699
G1 X110.868 Y109.133 E14.74136
G1 X110.868 Y107.797 E14.78579
G1 X109.132 Y107.797 E14.84353
G1 X109.132 Y109.133 E14.88797
G1 X107.797 Y109.133 E14.93237
G1 X107.797 Y110.868 E14.99008
G1 X109.132 Y110.868 E15.03448
G1 X109.132 Y112.203 E15.07888
G0 F9000 X108.932 Y112.203
G0 X109.004 Y112.331
G0 X110.996 Y112.331
G0 X111.268 Y111.268
;TYPE:WALL-INNER
G1 F600 X111.72 Y111.268 E15.09392
G1 X111.721 Y111.268 E15.09395
G1 X112.07 Y111.268 E15.10556
G1 X111.892 Y111.569 E15.11214
G1 X111.647 Y111.982 E15.12811
G1 X111.384 Y112.426 E15.14527
G1 X111.268 Y112.425 E15.14913
G1 X111.268 Y111.909 E15.16043
G1 X111.268 Y111.268 E15.18175
G0 F9000 X112.33 Y110.996
G0 X112.602 Y110.369
G1 F600 X112.602 Y110.024 E15.19322
G1 X112.602 Y109.665 E15.20516
G1 X112.806 Y110.024 E15.20964
G1 X112.602 Y110.369 E15.21405
G0 F9000 X112.33 Y109.005
G0 X111.268 Y108.733
G1 F600 X111.268 Y108.052 E15.2367
G1 X111.268 Y107.598 E15.2518
G1 X111.426 Y107.599 E15.25706
G1 X111.65 Y107.993 E15.26773
G1 X111.902 Y108.435 E15.28465
G1 X112.072 Y108.733 E15.29606
G1 X111.729 Y108.733 E15.30254
G1 X111.268 Y108.733 E15.31787
G0 F9000 X110.996 Y107.669
G0 X109.004 Y107.669
G0 X108.732 Y108.733
G1 F600 X108.279 Y108.733 E15.33294
G1 X108.278 Y108.733 E15.33297
G1 X107.93 Y108.733 E15.34454
G1 X108.107 Y108.433 E15.3511
G1 X108.353 Y108.016 E15.36721
G1 X108.614 Y107.574 E15.38428
G1 X108.732 Y107.575 E15.3882
G1 X108.732 Y108.089 E15.3995
G1 X108.732 Y108.733 E15.42092
G0 F9000 X107.669 Y109.005
G0 X107.397 Y110.332
G1 F600 X107.195 Y109.976 E15.43453
G1 X107.397 Y109.636 E15.44769
G1 X107.397 Y109.976 E15.45019
G1 X107.397 Y110.332 E15.45284
G0 F9000 X107.669 Y110.996
G0 X108.732 Y111.268
G1 F600 X108.732 Y111.949 E15.47549
G1 X108.732 Y112.402 E15.49056
G1 X108.573 Y112.401 E15.49585
