;FLAVOR:Marlin
;TIME:514
;Filament used: 0.10429m
;Layer height: 0.16
;MINX:103.104
;MINY:103.571
;MINZ:0.24
;MAXX:116.895
;MAXY:116.406
;MAXZ:13.92
;Generated with Cura_SteamEngine 4.5.0
M140 S50
M105
M190 S50
M104 S215
M105
M109 S215
M82 ;absolute extrusion mode
M201 X500.00 Y500.00 Z100.00 E5000.00 ;Setup machine max acceleration
M203 X500.00 Y500.00 Z10.00 E50.00 ;Setup machine max feedrate
M204 P500.00 R1000.00 T500.00 ;Setup Print/Retract/Travel acceleration
M205 X8.00 Y8.00 Z0.40 E5.00 ;Setup Jerk
M220 S100 ;Reset Feedrate
M221 S100 ;Reset Flowrate

G28 ;Home

G92 E0 ;Reset Extruder
G1 Z2.0 F3000 ;Move Z Axis up
G1 X10.1 Y20 Z0.28 F5000.0 ;Move to start position
G1 X10.1 Y200.0 Z0.28 F1500.0 E15 ;Draw the first line
G1 X10.4 Y200.0 Z0.28 F5000.0 ;Move to side a little
G1 X10.4 Y20 Z0.28 F1500.0 E30 ;Draw the second line
G92 E0 ;Reset Extruder
G1 Z2.0 F3000 ;Move Z Axis up

G92 E0
G92 E0
G1 F1800 E-3
;LAYER_COUNT:110
;LAYER:0
M106 S63.8
M204 S500
M205 X6 Y6
G0 F9000 X106.01 Y104.435 Z0.24
;TYPE:SKIRT
G1 F1800 E0
G1 X106.424 Y104.119 E0.02079
G1 X106.882 Y103.87 E0.04159
G1 X107.372 Y103.693 E0.06239
G1 X107.884 Y103.594 E0.0832
G1 X108.305 Y103.571 E0.10003
G1 X111.808 Y103.602 E0.23985
G1 X112.327 Y103.647 E0.26064
G1 X112.834 Y103.77 E0.28146
G1 X113.315 Y103.969 E0.30224
G1 X113.761 Y104.24 E0.32307
G1 X114.159 Y104.575 E0.34383
G1 X114.502 Y104.968 E0.36465
G1 X116.456 Y108.35 E0.52054
G1 X116.679 Y108.821 E0.54134
G1 X116.826 Y109.321 E0.56214
G1 X116.895 Y109.838 E0.58296
G1 X116.885 Y110.359 E0.60376
G1 X116.795 Y110.872 E0.62455
G1 X116.628 Y111.366 E0.64536
G1 X116.426 Y111.765 E0.66321
G1 X114.649 Y114.763 E0.8023
G1 X114.35 Y115.189 E0.82308
G1 X113.989 Y115.565 E0.84388
G1 X113.574 Y115.881 E0.8647
G1 X113.117 Y116.131 E0.88549
G1 X112.626 Y116.307 E0.90631
G1 X112.115 Y116.406 E0.92708
G1 X108.191 Y116.398 E1.0837
G1 X107.672 Y116.353 E1.10449
G1 X107.165 Y116.23 E1.12531
G1 X106.684 Y116.031 E1.14609
G1 X106.238 Y115.76 E1.16692
G1 X105.84 Y115.425 E1.18768
G1 X105.497 Y115.032 E1.2085
G1 X103.543 Y111.652 E1.36432
G1 X103.321 Y111.18 E1.38514
G1 X103.173 Y110.68 E1.40595
G1 X103.104 Y110.164 E1.42673
G1 X103.114 Y109.643 E1.44753
G1 X103.204 Y109.129 E1.46836
G1 X103.371 Y108.636 E1.48913
G1 X103.573 Y108.237 E1.50698
G1 X105.35 Y105.238 E1.64611
G1 X105.649 Y104.811 E1.66692
G1 X106.01 Y104.435 E1.68772
G0 F9000 X106.321 Y104.694
G1 F1800 X106.718 Y104.407 E1.70727
G1 X107.155 Y104.188 E1.72678
G1 X107.623 Y104.043 E1.74634
G1 X108.302 Y103.971 E1.77359
G1 X112.292 Y104.046 E1.93287
G1 X112.766 Y104.169 E1.95241
G1 X113.213 Y104.368 E1.97194
G1 X113.623 Y104.636 E1.99149
G1 X113.983 Y104.968 E2.01104
G1 X114.386 Y105.519 E2.03828
G1 X116.109 Y108.548 E2.17737
G1 X116.315 Y108.991 E2.19687
G1 X116.447 Y109.463 E2.21643
G1 X116.5 Y109.95 E2.23598
G1 X116.473 Y110.438 E2.25549
G1 X116.367 Y110.916 E2.27503
G1 X116.082 Y111.561 E2.30317
G1 X114.305 Y114.559 E2.44227
G1 X114.022 Y114.958 E2.46179
G1 X113.677 Y115.306 E2.48135
G1 X113.281 Y115.593 E2.50087
G1 X112.843 Y115.812 E2.52042
G1 X112.376 Y115.957 E2.53993
G1 X111.697 Y116.029 E2.56719
G1 X108.194 Y115.998 E2.707
G1 X107.707 Y115.954 E2.72652
G1 X107.233 Y115.831 E2.74606
G1 X106.786 Y115.632 E2.76559
G1 X106.376 Y115.364 E2.78514
G1 X106.016 Y115.032 E2.80469
G1 X105.614 Y114.482 E2.83188
G1 X103.891 Y111.454 E2.97093
G1 X103.684 Y111.01 E2.99048
G1 X103.552 Y110.538 E3.01004
G1 X103.499 Y110.052 E3.02956
G1 X103.526 Y109.563 E3.0491
G1 X103.631 Y109.085 E3.06863
G1 X103.917 Y108.441 E3.09676
G1 X105.694 Y105.442 E3.23589
G1 X105.977 Y105.042 E3.25545
G1 X106.321 Y104.694 E3.27498
G0 F9000 X106.63 Y104.957
G1 F1800 X107.007 Y104.701 E3.29316
G1 X107.423 Y104.515 E3.31135
G1 X107.865 Y104.404 E3.32954
G1 X108.298 Y104.371 E3.34687
G1 X112.255 Y104.446 E3.50483
G1 X112.693 Y104.568 E3.52298
G1 X113.104 Y104.766 E3.54119
G1 X113.474 Y105.031 E3.55935
G1 X113.792 Y105.358 E3.57756
G1 X114.038 Y105.716 E3.5949
G1 X115.761 Y108.745 E3.73398
G1 X115.951 Y109.16 E3.7522
G1 X116.065 Y109.601 E3.77038
G1 X116.101 Y110.055 E3.78855
G1 X116.057 Y110.508 E3.80672
G1 X115.934 Y110.947 E3.82492
G1 X115.738 Y111.357 E3.84305
G1 X113.961 Y114.355 E3.98215
G1 X113.695 Y114.725 E4.00034
G1 X113.369 Y115.043 E4.01851
G1 X112.992 Y115.299 E4.0367
G1 X112.576 Y115.485 E4.05489
G1 X112.134 Y115.596 E4.07308
G1 X111.701 Y115.629 E4.09041
G1 X108.198 Y115.598 E4.23023
G1 X107.744 Y115.554 E4.24843
G1 X107.306 Y115.432 E4.26658
G1 X106.895 Y115.234 E4.28479
G1 X106.525 Y114.969 E4.30295
G1 X106.207 Y114.642 E4.32116
G1 X105.961 Y114.284 E4.33849
G1 X104.238 Y111.256 E4.47754
G1 X104.048 Y110.842 E4.49573
G1 X103.934 Y110.401 E4.51391
G1 X103.898 Y109.946 E4.53212
G1 X103.942 Y109.493 E4.55029
G1 X104.065 Y109.054 E4.56848
G1 X104.261 Y108.645 E4.58658
G1 X106.038 Y105.646 E4.72572
G1 X106.304 Y105.275 E4.74394
G1 X106.63 Y104.957 E4.76211
G0 F9000 X106.936 Y105.225
G1 F1800 X107.291 Y105.003 E4.77882
G1 X107.682 Y104.852 E4.79555
G1 X108.294 Y104.771 E4.82019
G1 X112.214 Y104.846 E4.97668
G1 X112.615 Y104.968 E4.99341
G1 X112.986 Y105.163 E5.01013
G1 X113.313 Y105.426 E5.02688
G1 X113.69 Y105.914 E5.05149
G1 X115.413 Y108.943 E5.19058
G1 X115.585 Y109.326 E5.20734
G1 X115.681 Y109.733 E5.22403
G1 X115.698 Y110.152 E5.24076
G1 X115.635 Y110.566 E5.25748
G1 X115.394 Y111.153 E5.2828
G1 X113.617 Y114.151 E5.4219
G1 X113.37 Y114.489 E5.43861
G1 X113.063 Y114.775 E5.45535
G1 X112.707 Y114.997 E5.4721
G1 X112.316 Y115.148 E5.48883
G1 X111.705 Y115.229 E5.51343
G1 X108.202 Y115.198 E5.65325
G1 X107.785 Y115.154 E5.66998
G1 X107.384 Y115.032 E5.68671
G1 X107.013 Y114.837 E5.70344
G1 X106.686 Y114.574 E5.72019
G1 X106.309 Y114.086 E5.7448
G1 X104.586 Y111.058 E5.88385
G1 X104.414 Y110.676 E5.90057
G1 X104.318 Y110.268 E5.9173
G1 X104.301 Y109.849 E5.93404
G1 X104.364 Y109.435 E5.95075
G1 X104.605 Y108.849 E5.97604
G1 X106.382 Y105.85 E6.11517
G1 X106.629 Y105.511 E6.13191
G1 X106.936 Y105.225 E6.14866
G0 F9000 X106.953 Y105.75
G1 F1800 X107.238 Y105.5 E6.16379
G1 X107.569 Y105.315 E6.17892
G1 X107.931 Y105.204 E6.19404
G1 X108.291 Y105.171 E6.20846
G1 X112.17 Y105.245 E6.36331
G1 X112.529 Y105.366 E6.37843
G1 X112.855 Y105.56 E6.39357
G1 X113.133 Y105.817 E6.40868
G1 X113.343 Y106.112 E6.42314
G1 X115.066 Y109.141 E6.56222
G1 X115.217 Y109.488 E6.57732
G1 X115.293 Y109.86 E6.59248
G1 X115.289 Y110.239 E6.60761
G1 X115.206 Y110.608 E6.6227
G1 X115.049 Y110.949 E6.63768
G1 X113.272 Y113.947 E6.77678
G1 X113.046 Y114.251 E6.7919
G1 X112.761 Y114.5 E6.80701
G1 X112.43 Y114.685 E6.82214
G1 X112.068 Y114.796 E6.83725
G1 X111.708 Y114.829 E6.85168
G1 X108.205 Y114.798 E6.9915
G1 X107.829 Y114.755 E7.0066
G1 X107.47 Y114.634 E7.02172
G1 X107.144 Y114.44 E7.03686
G1 X106.866 Y114.183 E7.05198
G1 X106.657 Y113.888 E7.0664
G1 X104.934 Y110.86 E7.20545
G1 X104.782 Y110.513 E7.22057
G1 X104.706 Y110.142 E7.23569
G1 X104.71 Y109.763 E7.25082
G1 X104.793 Y109.393 E7.26595
G1 X104.949 Y109.052 E7.28092
G1 X106.726 Y106.053 E7.42005
G1 X106.953 Y105.75 E7.43516
G0 F9000 X107.274 Y105.992
G1 F1800 X107.534 Y105.783 E7.44847
G1 X107.837 Y105.641 E7.46183
G1 X108.287 Y105.571 E7.48001
G1 X112.122 Y105.645 E7.6331
G1 X112.433 Y105.765 E7.6464
G1 X112.708 Y105.955 E7.65974
G1 X112.995 Y106.31 E7.67796
G1 X114.718 Y109.339 E7.81705
G1 X114.847 Y109.647 E7.83038
G1 X114.9 Y109.977 E7.84371
G1 X114.873 Y110.31 E7.85705
G1 X114.705 Y110.745 E7.87566
G1 X112.928 Y113.743 E8.01476
G1 X112.725 Y114.008 E8.02808
G1 X112.465 Y114.217 E8.0414
G1 X112.162 Y114.359 E8.05475
G1 X111.712 Y114.429 E8.07293
G1 X108.209 Y114.398 E8.21275
G1 X107.877 Y114.355 E8.22611
G1 X107.566 Y114.235 E8.23941
G1 X107.291 Y114.045 E8.25275
G1 X107.004 Y113.69 E8.27097
G1 X105.281 Y110.662 E8.41002
G1 X105.152 Y110.354 E8.42335
G1 X105.099 Y110.025 E8.43665
G1 X105.126 Y109.692 E8.44998
G1 X105.294 Y109.256 E8.46863
G1 X107.071 Y106.257 E8.60776
G1 X107.274 Y105.992 E8.62109
G0 F9000 X107.591 Y106.241
G1 F1800 X107.822 Y106.079 E8.63235
G1 X108.089 Y105.988 E8.64361
G1 X112.066 Y106.044 E8.80235
G1 X112.322 Y106.163 E8.81362
G1 X112.535 Y106.348 E8.82488
G1 X114.37 Y109.537 E8.97173
G1 X114.474 Y109.799 E8.98298
G1 X114.5 Y110.08 E8.99424
G1 X114.446 Y110.357 E9.00551
G1 X112.584 Y113.539 E9.15265
G1 X112.408 Y113.759 E9.1639
G1 X112.177 Y113.921 E9.17516
G1 X111.909 Y114.012 E9.18645
G1 X108.212 Y113.998 E9.33401
G1 X107.933 Y113.956 E9.34527
G1 X107.677 Y113.837 E9.35654
G1 X107.464 Y113.652 E9.3678
G1 X105.629 Y110.465 E9.51458
G1 X105.525 Y110.202 E9.52586
G1 X105.499 Y109.921 E9.53713
G1 X105.553 Y109.644 E9.54839
G1 X107.415 Y106.461 E9.69557
G1 X107.591 Y106.241 E9.70682
G0 F9000 X107.902 Y106.501
G1 F1800 X108.095 Y106.399 E9.71553
G1 X108.28 Y106.371 E9.723
G1 X111.997 Y106.444 E9.87138
G1 X112.183 Y106.559 E9.88011
G1 X112.3 Y106.705 E9.88758
G1 X114.023 Y109.734 E10.02666
G1 X114.094 Y109.94 E10.03536
G1 X114.087 Y110.158 E10.04406
G1 X114.017 Y110.337 E10.05173
G1 X112.24 Y113.335 E10.19083
G1 X112.097 Y113.499 E10.19951
G1 X111.904 Y113.601 E10.20823
G1 X111.719 Y113.629 E10.21569
G1 X108.216 Y113.598 E10.35551
G1 X108.002 Y113.556 E10.36422
G1 X107.816 Y113.441 E10.37294
G1 X107.7 Y113.295 E10.38039
G1 X105.977 Y110.267 E10.51944
G1 X105.905 Y110.061 E10.52815
G1 X105.912 Y109.843 E10.53685
G1 X105.982 Y109.664 E10.54452
G1 X107.759 Y106.665 E10.68365
G1 X107.902 Y106.501 E10.69234
G0 F9000 X108.103 Y106.869
G1 F1800 X108.197 Y106.787 E10.69732
G1 X111.898 Y106.842 E10.84505
G1 X113.675 Y109.932 E10.98732
G1 X113.7 Y110.055 E10.99233
G1 X111.896 Y113.131 E11.13465
G1 X111.802 Y113.213 E11.13963
G1 X108.219 Y113.198 E11.28264
G1 X108.101 Y113.158 E11.28761
G1 X106.324 Y110.069 E11.42984
G1 X106.299 Y109.946 E11.43485
G1 X108.103 Y106.869 E11.57721
G1 F1800 E8.57721
;MESH:m5_5mm_thick.stl
G0 F9000 X108.454 Y107.29
G0 X111.54 Y107.392
G0 X111.66 Y107.201
;TYPE:WALL-OUTER
G1 F1800 E11.57721
G1 X113.27 Y110.029 E11.70709
G1 X111.611 Y112.828 E11.83696
G1 X108.339 Y112.799 E11.96755
G1 X106.729 Y109.972 E12.0974
G1 X108.388 Y107.172 E12.2273
G1 X111.66 Y107.201 E12.3579
G0 F9000 X111.386 Y107.608
G1 F1800 E9.3579
G0 F9000 X112.33 Y109.005
G0 X112.33 Y110.996
G0 X110.996 Y110.996
G0 X110.996 Y112.331
G0 X109.004 Y112.331
G0 X108.932 Y112.203
G0 X109.132 Y112.203
G1 F1800 E12.3579
G1 X110.868 Y112.203 E12.42718
G1 X110.868 Y110.868 E12.48047
G1 X112.202 Y110.868 E12.53371
G1 X112.202 Y109.133 E12.60296
G1 X110.868 Y109.133 E12.6562
G1 X110.868 Y107.797 E12.70952
G1 X109.132 Y107.797 E12.77881
G1 X109.132 Y109.133 E12.83213
G1 X107.797 Y109.133 E12.88542
G1 X107.797 Y110.868 E12.95466
G1 X109.132 Y110.868 E13.00795
G1 X109.132 Y112.203 E13.06123
G0 F9000 X108.932 Y112.203
G0 X109.004 Y112.331
G0 X110.996 Y112.331
G0 X111.721 Y111.268
;TYPE:WALL-INNER
G1 F1800 X112.071 Y111.268 E13.0752
G1 X111.892 Y111.569 E13.0831
G1 X111.646 Y111.983 E13.10233
G1 X111.384 Y112.426 E13.12287
G1 X111.268 Y112.425 E13.1275
G1 X111.268 Y111.91 E13.14102
G1 X111.268 Y111.268 E13.16665
G1 X111.721 Y111.268 E13.18473
G0 F9000 X112.33 Y110.996
G0 X112.602 Y110.372
G1 F1800 X112.602 Y110.025 E13.19858
G1 X112.602 Y109.665 E13.21295
G1 X112.807 Y110.025 E13.21838
G1 X112.602 Y110.372 E13.22374
G0 F9000 X112.33 Y109.005
G0 X111.729 Y108.733
G1 F1800 X111.268 Y108.733 E13.24214
G1 X111.268 Y108.053 E13.26928
G1 X111.268 Y107.598 E13.28744
G1 X111.426 Y107.599 E13.29375
G1 X111.651 Y107.994 E13.30659
G1 X111.903 Y108.436 E13.3269
G1 X112.071 Y108.733 E13.34052
G1 X111.73 Y108.733 E13.34825
G1 X111.729 Y108.733 E13.34829
G0 F9000 X110.996 Y107.669
G0 X109.004 Y107.669
G0 X108.732 Y108.733
G1 F1800 X108.278 Y108.733 E13.36641
G1 X108.277 Y108.733 E13.36645
G1 X107.928 Y108.733 E13.38038
G1 X108.106 Y108.432 E13.38828
G1 X108.353 Y108.016 E13.40759
G1 X108.615 Y107.574 E13.42809
G1 X108.732 Y107.575 E13.43276
G1 X108.732 Y108.089 E13.44629
G1 X108.732 Y108.733 E13.47199
G0 F9000 X107.669 Y109.005
G0 X107.397 Y110.336
G1 F1800 X107.192 Y109.976 E13.48853
G1 X107.397 Y109.629 E13.50461
G1 X107.397 Y109.976 E13.50774
G1 X107.397 Y110.336 E13.51102
G0 F9000 X107.669 Y110.996
G0 X108.732 Y111.268
G1 F1800 X108.732 Y111.949 E13.5382
G1 X108.732 Y112.402 E13.55628
G1 X108.573 Y112.401 E13.56262
G1 X108.349 Y112.008 E13.57542
G1 X108.097 Y111.566 E13.59573
G1 X107.928 Y111.268 E13.6094
G1 X108.27 Y111.268 E13.61716
G1 X108.271 Y111.268 E13.6172
G1 X108.732 Y111.268 E13.6356
G0 F9000 X108.443 Y111.555
;TYPE:SKIN
G1 F1800 X108.49 Y111.884 E13.64084
G1 X109.11 Y112.504 E13.65468
G1 X110.814 Y112.511 E13.68159
G1 X111.035 Y112.449 E13.68521
G1 X111.49 Y111.773 E13.69807
G1 X111.542 Y111.542 E13.70181
G1 X112.418 Y111.004 E13.71804
G1 X112.579 Y110.599 E13.72492
G0 F9000 X112.652 Y110.679
G0 X112.608 Y109.496
G0 X112.492 Y109.38
G1 F1800 X112.488 Y109.094 E13.73777
G0 F9000 X111.555 Y108.443
G1 F1800 X111.507 Y108.113 E13.74315
G1 X110.888 Y107.494 E13.75727
G1 X109.184 Y107.487 E13.78476
G1 X108.962 Y107.548 E13.78847
G1 X108.507 Y108.224 E13.80162
G1 X108.455 Y108.455 E13.80544
G1 X107.579 Y108.993 E13.82202
G1 X107.419 Y109.399 E13.82906
G0 F9000 X107.348 Y109.318
G0 X107.391 Y110.503
G0 X107.506 Y110.617
G1 F1800 X107.507 Y110.901 E13.84193
G0 F9000 X107.627 Y111.038
G0 X108.892 Y112.569
G1 F1800 X108.951 Y112.628 E13.8436
G0 F9000 X108.951 Y112.605
G0 X110.996 Y112.331
G0 X110.996 Y110.996
G0 X112.33 Y110.996
G0 X112.33 Y109.005
G0 X111.106 Y107.43
G1 F1800 X111.047 Y107.37 E13.84527
G0 F9000 X111.25 Y107.415
;MESH:NONMESH
G0 F300 X111.25 Y107.415 Z0.44
G0 F9000 X111.66 Y107.201
;TIME_ELAPSED:22.907875
;LAYER:1
M140 S40
M106 S127.5
;TYPE:WALL-OUTER
;MESH:m5_5mm_thick.stl
G1 F600 X113.27 Y110.029 E13.95351
G1 X111.611 Y112.828 E14.06173
G1 X108.339 Y112.799 E14.17056
G1 X106.729 Y109.972 E14.27876
G1 X108.388 Y107.172 E14.38701
G1 X111.66 Y107.201 E14.49584
G0 F9000 X111.386 Y107.608
G1 F1800 E11.49584
G0 F9000 X112.33 Y109.005
G0 X112.33 Y110.996
G0 X110.996 Y110.996
G0 X110.996 Y112.331
G0 X109.004 Y112.331
G0 X108.932 Y112.203
G0 X109.132 Y112.203
G1 F1800 E14.49584
G1 F600 X110.868 Y112.203 E14.55358
G1 X110.868 Y110.868 E14.59799
G1 X112.202 Y110.868 E14.64235
G1 X112.202 Y109.133 E14.70006
G1 X110.868 Y109.133 E14.74443
G1 X110.868 Y107.797 E14.78887
G1 X109.132 Y107.797 E14.84661
G1 X109.132 Y109.133 E14.89104
G1 X107.797 Y109.133 E14.93544
G1 X107.797 Y110.868 E14.99315
G1 X109.132 Y110.868 E15.03755
G1 X109.132 Y112.203 E15.08195
G0 F9000 X108.932 Y112.203
G0 X109.004 Y112.331
G0 X110.996 Y112.331
G0 X111.721 Y111.268
;TYPE:WALL-INNER
G1 F600 X112.071 Y111.268 E15.0936
G1 X111.892 Y111.569 E15.10018
G1 X111.646 Y111.983 E15.1162
G1 X111.384 Y112.426 E15.13332
G1 X111.268 Y112.425 E15.13718
G1 X111.268 Y111.91 E15.14845
G1 X111.268 Y111.268 E15.1698
G1 X111.721 Y111.268 E15.18487
G0 F9000 X112.33 Y110.996
G0 X112.602 Y110.372
G1 F600 X112.602 Y110.025 E15.19641
G1 X112.602 Y109.665 E15.20839
G1 X112.807 Y110.025 E15.21291
G1 X112.602 Y110.372 E15.21738
G0 F9000 X112.33 Y109.005
G0 X111.729 Y108.733
G1 F600 X111.268 Y108.733 E15.23272
G1 X111.268 Y108.053 E15.25533
G1 X111.268 Y107.598 E15.27047
G1 X111.426 Y107.599 E15.27572
G1 X111.651 Y107.994 E15.28642
G1 X111.903 Y108.436 E15.30334
G1 X112.071 Y108.733 E15.31469
G1 X111.73 Y108.733 E15.32114
G1 X111.729 Y108.733 E15.32117
G0 F9000 X110.996 Y107.669
G0 X109.004 Y107.669
G0 X108.732 Y108.733
G1 F600 X108.278 Y108.733 E15.33627
G1 X108.277 Y108.733 E15.3363
G1 X107.928 Y108.733 E15.34791
G1 X108.106 Y108.432 E15.35449
G1 X108.353 Y108.016 E15.37059
G1 X108.615 Y107.574 E15.38767
G1 X108.732 Y107.575 E15.39157
G1 X108.732 Y108.089 E15.40284
G1 X108.732 Y108.733 E15.42426
G0 F9000 X107.669 Y109.005
G0 X107.397 Y110.336
G1 F600 X107.192 Y109.976 E15.43804
G1 X107.397 Y109.629 E15.45144
G1 X107.397 Y109.976 E15.45405
G1 X107.397 Y110.336 E15.45678
G0 F9000 X107.669 Y110.996
G0 X108.732 Y111.268
G1 F600 X108.732 Y111.949 E15.47943
G1 X108.732 Y112.402 E15.4945
G1 X108.573 Y112.401 E15.49978
G1 X108.349 Y112.008 E15.51045
G1 X108.097 Y111.566 E15.52737
G1 X107.928 Y111.268 E15.53877
