;FLAVOR:Marlin
;TIME:708
;Filament used: 0.159605m
;Layer height: 0.16
;MINX:102.773
;MINY:103.2
;MINZ:0.24
;MAXX:117.227
;MAXY:116.8
;MAXZ:17.92
;Generated with Cura_SteamEngine 4.5.0
M140 S50
M105
M190 S50
M104 S215
M105
M109 S215
M82 ;absolute extrusion mode
M201 X500.00 Y500.00 Z100.00 E5000.00 ;Setup machine max acceleration
M203 X500.00 Y500.00 Z10.00 E50.00 ;Setup machine max feedrate
M204 P500.00 R1000.00 T500.00 ;Setup Print/Retract/Travel acceleration
M205 X8.00 Y8.00 Z0.40 E5.00 ;Setup Jerk
M220 S100 ;Reset Feedrate
M221 S100 ;Reset Flowrate

G28 ;Home

G92 E0 ;Reset Extruder
G1 Z2.0 F3000 ;Move Z Axis up
G1 X10.1 Y20 Z0.28 F5000.0 ;Move to start position
G1 X10.1 Y200.0 Z0.28 F1500.0 E15 ;Draw the first line
G1 X10.4 Y200.0 Z0.28 F5000.0 ;Move to side a little
G1 X10.4 Y20 Z0.28 F1500.0 E30 ;Draw the second line
G92 E0 ;Reset Extruder
G1 Z2.0 F3000 ;Move Z Axis up

G92 E0
G92 E0
G1 F1800 E-3
;LAYER_COUNT:143
;LAYER:0
M106 S63.8
M204 S500
M205 X6 Y6
G0 F9000 X105.662 Y104.228 Z0.24
;TYPE:SKIRT
G1 F1800 E0
G1 X106.145 Y103.882 E0.02371
G1 X106.635 Y103.6 E0.04628
G1 X107.077 Y103.391 E0.06579
G1 X107.548 Y103.257 E0.08534
G1 X108.131 Y103.2 E0.10872
G1 X111.868 Y103.2 E0.25787
G1 X112.831 Y103.359 E0.29682
G1 X113.36 Y103.598 E0.31999
G1 X113.85 Y103.879 E0.34254
G1 X114.254 Y104.156 E0.36209
G1 X114.607 Y104.495 E0.38162
G1 X114.956 Y104.981 E0.4055
G1 X116.824 Y108.217 E0.55463
G1 X117.033 Y108.66 E0.57418
G1 X117.168 Y109.13 E0.5937
G1 X117.226 Y109.712 E0.61704
G1 X117.227 Y110.277 E0.63959
G1 X117.188 Y110.765 E0.65913
G1 X117.07 Y111.24 E0.67867
G1 X116.825 Y111.782 E0.70241
G1 X114.957 Y115.018 E0.85154
G1 X114.679 Y115.42 E0.87104
G1 X114.338 Y115.772 E0.89061
G1 X113.855 Y116.118 E0.91432
G1 X113.365 Y116.4 E0.93688
G1 X112.923 Y116.609 E0.9564
G1 X112.452 Y116.743 E0.97594
G1 X111.869 Y116.8 E0.99932
G1 X108.132 Y116.8 E1.14847
G1 X107.644 Y116.76 E1.16802
G1 X107.169 Y116.641 E1.18756
G1 X106.64 Y116.402 E1.21073
G1 X106.15 Y116.121 E1.23327
G1 X105.746 Y115.844 E1.25282
G1 X105.393 Y115.505 E1.27236
G1 X105.044 Y115.019 E1.29624
G1 X103.176 Y111.783 E1.44537
G1 X102.967 Y111.34 E1.46492
G1 X102.832 Y110.87 E1.48444
G1 X102.774 Y110.288 E1.50778
G1 X102.773 Y109.723 E1.53033
G1 X102.812 Y109.235 E1.54987
G1 X102.93 Y108.76 E1.5694
G1 X103.175 Y108.218 E1.59314
G1 X105.043 Y104.982 E1.74227
G1 X105.321 Y104.58 E1.76178
G1 X105.662 Y104.228 E1.78134
G0 F9000 X105.973 Y104.487
G1 F1800 X106.834 Y103.947 E1.8219
G1 X107.247 Y103.755 E1.84008
G1 X107.688 Y103.638 E1.85829
G1 X108.131 Y103.6 E1.87604
G1 X111.868 Y103.6 E2.02519
G1 X112.762 Y103.758 E2.06143
G1 X113.651 Y104.226 E2.10152
G1 X114.025 Y104.486 E2.1197
G1 X114.348 Y104.808 E2.13791
G1 X114.61 Y105.181 E2.1561
G1 X116.478 Y108.417 E2.30523
G1 X116.67 Y108.83 E2.32341
G1 X116.787 Y109.27 E2.34158
G1 X116.827 Y110.277 E2.3818
G1 X116.788 Y110.731 E2.39999
G1 X116.67 Y111.171 E2.41817
G1 X116.479 Y111.582 E2.43626
G1 X114.611 Y114.818 E2.58539
G1 X114.349 Y115.191 E2.60358
G1 X114.027 Y115.513 E2.62176
G1 X113.166 Y116.053 E2.66232
G1 X112.753 Y116.245 E2.6805
G1 X112.312 Y116.362 E2.69871
G1 X111.869 Y116.4 E2.71646
G1 X108.132 Y116.4 E2.86561
G1 X107.678 Y116.36 E2.8838
G1 X107.238 Y116.242 E2.90198
G1 X106.349 Y115.774 E2.94208
G1 X105.975 Y115.514 E2.96026
G1 X105.652 Y115.192 E2.97846
G1 X105.39 Y114.819 E2.99665
G1 X103.522 Y111.583 E3.14578
G1 X103.33 Y111.17 E3.16396
G1 X103.213 Y110.73 E3.18213
G1 X103.173 Y109.723 E3.22236
G1 X103.212 Y109.269 E3.24054
G1 X103.33 Y108.829 E3.25873
G1 X103.521 Y108.418 E3.27681
G1 X105.389 Y105.182 E3.42594
G1 X105.651 Y104.809 E3.44414
G1 X105.973 Y104.487 E3.46231
G0 F9000 X106.282 Y104.752
G1 F1800 X107.034 Y104.293 E3.49748
G1 X107.415 Y104.12 E3.51418
G1 X107.823 Y104.022 E3.53092
G1 X111.868 Y104 E3.69237
G1 X112.687 Y104.158 E3.72566
G1 X113.452 Y104.573 E3.7604
G1 X113.794 Y104.815 E3.77712
G1 X114.084 Y105.117 E3.79383
G1 X116.131 Y108.617 E3.95566
G1 X116.305 Y108.998 E3.97238
G1 X116.404 Y109.406 E3.98913
G1 X116.427 Y110.278 E4.02395
G1 X116.388 Y110.695 E4.04067
G1 X116.27 Y111.098 E4.05743
G1 X114.264 Y114.618 E4.21913
G1 X114.021 Y114.959 E4.23584
G1 X113.718 Y115.248 E4.25255
G1 X112.966 Y115.707 E4.28772
G1 X112.585 Y115.88 E4.30442
G1 X112.177 Y115.978 E4.32116
G1 X108.132 Y116 E4.48261
G1 X107.715 Y115.96 E4.49933
G1 X107.313 Y115.842 E4.51605
G1 X106.548 Y115.427 E4.55079
G1 X106.206 Y115.185 E4.56751
G1 X105.916 Y114.883 E4.58422
G1 X103.869 Y111.383 E4.74605
G1 X103.695 Y111.002 E4.76277
G1 X103.596 Y110.594 E4.77953
G1 X103.573 Y109.722 E4.81434
G1 X103.612 Y109.305 E4.83106
G1 X103.73 Y108.902 E4.84782
G1 X105.736 Y105.382 E5.00952
G1 X105.979 Y105.041 E5.02623
G1 X106.282 Y104.752 E5.04294
G0 F9000 X106.305 Y105.276
G1 F1800 X106.743 Y104.922 E5.06542
G1 X107.233 Y104.64 E5.08799
G1 X107.58 Y104.487 E5.10312
G1 X108.131 Y104.4 E5.12539
G1 X111.868 Y104.4 E5.27454
G1 X112.245 Y104.44 E5.28967
G1 X112.763 Y104.639 E5.31182
G1 X113.253 Y104.92 E5.33436
G1 X113.561 Y105.142 E5.34951
G1 X113.917 Y105.581 E5.37207
G1 X115.785 Y108.817 E5.5212
G1 X115.939 Y109.163 E5.53632
G1 X116.026 Y109.714 E5.55858
G1 X116.027 Y110.279 E5.58113
G1 X115.988 Y110.656 E5.59626
G1 X115.786 Y111.182 E5.61875
G1 X113.918 Y114.418 E5.76788
G1 X113.695 Y114.724 E5.78299
G1 X113.257 Y115.078 E5.80547
G1 X112.767 Y115.36 E5.82803
G1 X112.42 Y115.513 E5.84317
G1 X111.869 Y115.6 E5.86543
G1 X108.132 Y115.6 E6.01459
G1 X107.755 Y115.56 E6.02972
G1 X107.237 Y115.361 E6.05186
G1 X106.747 Y115.08 E6.07441
G1 X106.439 Y114.858 E6.08956
G1 X106.083 Y114.419 E6.11212
G1 X104.215 Y111.183 E6.26125
G1 X104.061 Y110.837 E6.27637
G1 X103.974 Y110.286 E6.29863
G1 X103.973 Y109.721 E6.32118
G1 X104.012 Y109.344 E6.33631
G1 X104.214 Y108.818 E6.3588
G1 X106.082 Y105.582 E6.50793
G1 X106.305 Y105.276 E6.52304
G0 F9000 X106.629 Y105.515
G1 F1800 X106.943 Y105.269 E6.53896
G1 X107.433 Y104.987 E6.56152
G1 X107.74 Y104.856 E6.57485
G1 X108.131 Y104.8 E6.59061
G1 X111.868 Y104.8 E6.73976
G1 X112.564 Y104.986 E6.76852
G1 X113.054 Y105.267 E6.79106
G1 X113.322 Y105.466 E6.80438
G1 X113.57 Y105.781 E6.82038
G1 X115.438 Y109.017 E6.96952
G1 X115.57 Y109.324 E6.98285
G1 X115.626 Y109.715 E6.99862
G1 X115.627 Y110.28 E7.02117
G1 X115.588 Y110.611 E7.03447
G1 X115.439 Y110.982 E7.05043
G1 X113.571 Y114.218 E7.19956
G1 X113.371 Y114.485 E7.21287
G1 X113.057 Y114.731 E7.22879
G1 X112.567 Y115.013 E7.25136
G1 X112.26 Y115.144 E7.26468
G1 X111.869 Y115.2 E7.28044
G1 X108.132 Y115.2 E7.4296
G1 X107.8 Y115.16 E7.44294
G1 X107.436 Y115.014 E7.4586
G1 X106.946 Y114.733 E7.48114
G1 X106.678 Y114.534 E7.49446
G1 X106.43 Y114.219 E7.51046
G1 X104.562 Y110.983 E7.65959
G1 X104.43 Y110.676 E7.67293
G1 X104.374 Y110.285 E7.6887
G1 X104.373 Y109.72 E7.71125
G1 X104.412 Y109.389 E7.72455
G1 X104.561 Y109.018 E7.74051
G1 X106.429 Y105.782 E7.88964
G1 X106.629 Y105.515 E7.90295
G0 F9000 X106.949 Y105.76
G1 F1800 X107.632 Y105.333 E7.9351
G1 X107.894 Y105.228 E7.94637
G1 X108.131 Y105.2 E7.95589
G1 X111.868 Y105.2 E8.10504
G1 X112.147 Y105.24 E8.11629
G1 X112.855 Y105.614 E8.14825
G1 X113.078 Y105.787 E8.15951
G1 X113.224 Y105.981 E8.16921
G1 X115.092 Y109.217 E8.31834
G1 X115.197 Y109.479 E8.3296
G1 X115.227 Y110.28 E8.36159
G1 X115.188 Y110.56 E8.37288
G1 X115.093 Y110.782 E8.38251
G1 X113.225 Y114.018 E8.53164
G1 X113.051 Y114.24 E8.5429
G1 X112.368 Y114.667 E8.57505
G1 X112.106 Y114.772 E8.58632
G1 X111.869 Y114.8 E8.59584
G1 X108.132 Y114.8 E8.74499
G1 X107.853 Y114.76 E8.75624
G1 X107.145 Y114.386 E8.7882
G1 X106.922 Y114.213 E8.79947
G1 X106.776 Y114.019 E8.80916
G1 X104.908 Y110.783 E8.95829
G1 X104.803 Y110.521 E8.96955
G1 X104.773 Y109.72 E9.00154
G1 X104.812 Y109.44 E9.01283
G1 X104.907 Y109.218 E9.02246
G1 X106.775 Y105.982 E9.17159
G1 X106.949 Y105.76 E9.18285
G0 F9000 X107.342 Y105.962
G1 F1800 X107.832 Y105.68 E9.20542
G1 X108.131 Y105.6 E9.21777
G1 X111.868 Y105.6 E9.36692
G1 X112.166 Y105.68 E9.37924
G1 X112.656 Y105.961 E9.40178
G1 X112.878 Y106.181 E9.41426
G1 X114.746 Y109.417 E9.56339
G1 X114.826 Y109.716 E9.57574
G1 X114.827 Y110.281 E9.59829
G1 X114.747 Y110.582 E9.61072
G1 X112.879 Y113.818 E9.75985
G1 X112.658 Y114.038 E9.7723
G1 X112.168 Y114.32 E9.79486
G1 X111.869 Y114.4 E9.80721
G1 X108.132 Y114.4 E9.95637
G1 X107.834 Y114.32 E9.96868
G1 X107.344 Y114.039 E9.99123
G1 X107.122 Y113.819 E10.0037
G1 X105.254 Y110.583 E10.15283
G1 X105.174 Y110.284 E10.16518
G1 X105.173 Y109.719 E10.18773
G1 X105.253 Y109.418 E10.20017
G1 X107.121 Y106.182 E10.3493
G1 X107.342 Y105.962 E10.36174
G0 F9000 X107.468 Y106.382
G1 F1800 X108.031 Y106.027 E10.38831
G1 X108.131 Y106 E10.39244
G1 X111.868 Y106 E10.54159
G1 X112.457 Y106.308 E10.56812
G1 X112.531 Y106.381 E10.57227
G1 X114.399 Y109.617 E10.7214
G1 X114.427 Y110.282 E10.74796
G1 X114.4 Y110.382 E10.7521
G1 X112.532 Y113.618 E10.90123
G1 X111.969 Y113.973 E10.92779
G1 X111.869 Y114 E10.93193
G1 X108.132 Y114 E11.08108
G1 X107.543 Y113.692 E11.10761
G1 X107.469 Y113.619 E11.11176
G1 X105.601 Y110.383 E11.26089
G1 X105.573 Y109.718 E11.28745
G1 X105.6 Y109.618 E11.29159
G1 X107.468 Y106.382 E11.44072
G1 F1800 E8.44072
;MESH:m5_5mm_thick_95perc.stl
G0 F9000 X107.949 Y106.789
G0 X111.991 Y106.846
G0 X112.211 Y106.628
;TYPE:WALL-OUTER
G1 F1800 E11.44072
G1 X114.026 Y109.771 E11.58557
G1 X114.027 Y110.229 E11.60385
G1 X112.211 Y113.371 E11.7487
G1 X111.816 Y113.6 E11.76692
G1 X108.185 Y113.6 E11.91184
G1 X107.789 Y113.372 E11.93008
G1 X105.974 Y110.229 E12.07494
G1 X105.973 Y109.771 E12.09322
G1 X107.789 Y106.629 E12.23806
G1 X108.184 Y106.4 E12.25628
G1 X111.815 Y106.4 E12.4012
G1 X112.211 Y106.628 E12.41944
G0 F9000 X111.901 Y106.939
G0 X111.707 Y106.8
;TYPE:WALL-INNER
G1 F1800 X111.919 Y106.922 E12.4292
G1 X113.626 Y109.878 E12.56544
G1 X113.627 Y110.123 E12.57522
G1 X111.919 Y113.078 E12.71145
G1 X111.826 Y113.131 E12.71572
G1 X111.803 Y113.144 E12.71677
G1 X111.708 Y113.2 E12.72117
G1 X108.293 Y113.2 E12.85747
G1 X108.081 Y113.078 E12.86724
G1 X106.374 Y110.122 E13.00348
G1 X106.373 Y109.877 E13.01325
G1 X108.081 Y106.922 E13.14948
G1 X108.174 Y106.869 E13.15375
G1 X108.197 Y106.856 E13.15481
G1 X108.292 Y106.8 E13.15921
G1 X111.707 Y106.8 E13.29551
G0 F9000 X111.599 Y107.2
G1 F1800 X111.627 Y107.216 E13.29679
G1 X113.226 Y109.985 E13.42441
G1 X113.227 Y110.017 E13.42569
G1 X111.626 Y112.786 E13.55335
G1 X111.601 Y112.8 E13.5545
G1 X108.401 Y112.8 E13.68221
G1 X108.373 Y112.784 E13.6835
G1 X106.774 Y110.015 E13.81112
G1 X106.773 Y109.983 E13.8124
G1 X108.374 Y107.214 E13.94006
G1 X108.399 Y107.2 E13.9412
G1 X111.599 Y107.2 E14.06892
G0 F9000 X111.393 Y107.59
;TYPE:SKIN
G1 F1800 X112.786 Y110.003 E14.18013
G1 X111.394 Y112.41 E14.2911
G1 X108.607 Y112.41 E14.40234
G1 X107.214 Y109.997 E14.51354
G1 X108.606 Y107.59 E14.62452
G1 X111.393 Y107.59 E14.73575
G0 F9000 X111.144 Y107.75
G1 F1800 X111.512 Y108.118 E14.75653
G0 F9000 X111.893 Y107.898
G0 X111.515 Y107.376
G0 X110.578 Y107.31
G0 X110.578 Y107.75
G1 F1800 X112.285 Y109.457 E14.85288
G0 F9000 X112.478 Y110.215
G1 F1800 X110.013 Y107.75 E14.99201
G0 F9000 X109.447 Y107.75
G1 F1800 X112.27 Y110.573 E15.15135
G0 F9000 X112.063 Y110.932
G1 F1800 X108.881 Y107.75 E15.33096
G0 F9000 X108.557 Y107.991
G1 F1800 X111.856 Y111.29 E15.51717
G0 F9000 X111.649 Y111.649
G1 F1800 X108.349 Y108.349 E15.70344
G0 F9000 X108.142 Y108.708
G1 F1800 X111.442 Y112.007 E15.88967
G0 F9000 X111.117 Y112.248
G1 F1800 X107.935 Y109.066 E16.06928
G0 F9000 X107.728 Y109.425
G1 F1800 X110.551 Y112.248 E16.22862
G0 F9000 X109.986 Y112.248
G1 F1800 X107.521 Y109.783 E16.36776
G0 F9000 X107.713 Y110.542
G1 F1800 X109.42 Y112.248 E16.46408
G0 F9000 X108.854 Y112.248
G1 F1800 X108.486 Y111.88 E16.48485
G0 F9000 X107.845 Y112.249
;MESH:NONMESH
G0 F300 X107.845 Y112.249 Z0.4
G0 F9000 X108.485 Y112.624
G0 X111.516 Y112.624
G0 X113.726 Y110
G0 X114.158 Y110
;TIME_ELAPSED:22.630237
;LAYER:1
M140 S40
M106 S127.5
;TYPE:WALL-OUTER
;MESH:m5_5mm_thick_95perc.stl
G1 F774.7 X112.08 Y113.6 E16.59545
G1 X107.92 Y113.6 E16.70614
G1 X105.842 Y110 E16.81674
G1 X107.92 Y106.4 E16.92735
G1 X112.08 Y106.4 E17.03804
G1 X114.158 Y110 E17.14864
G0 F9000 X113.667 Y109.97
G0 X111.849 Y106.8
;TYPE:WALL-INNER
G1 F774.7 X113.581 Y109.8 E17.24081
G1 X113.697 Y110 E17.24696
G1 X111.849 Y113.2 E17.34529
G1 X108.151 Y113.2 E17.44368
G1 X108.036 Y113 E17.44982
G1 X106.303 Y110 E17.54201
G1 X108.151 Y106.8 E17.64033
G1 X111.849 Y106.8 E17.73873
G0 F9000 X111.618 Y107.2
G1 F774.7 X113.236 Y110 E17.82478
G1 X111.619 Y112.8 E17.91081
G1 X108.381 Y112.8 E17.99697
G1 X106.765 Y110 E18.08299
G1 X108.382 Y107.2 E18.16902
G1 X111.618 Y107.2 E18.25512
G0 F9000 X111.393 Y107.59
;TYPE:SKIN
G1 F774.7 X112.785 Y110 E18.32918
G1 X111.394 Y112.41 E18.40322
G1 X108.606 Y112.41 E18.4774
G1 X107.216 Y110 E18.55143
G1 X108.607 Y107.59 E18.62547
G1 X111.393 Y107.59 E18.6996
G0 F9000 X111.393 Y107.31
G0 X108.907 Y107.31
G0 X108.907 Y107.749
G1 F774.7 X108.413 Y108.243 E18.71819
G0 F9000 X108.034 Y108.023
G0 X108.483 Y107.376
G0 X109.473 Y107.31
G0 X109.473 Y107.749
G1 F774.7 X107.642 Y109.581 E18.78711
G0 F9000 X107.543 Y110.245
G1 F774.7 X110.039 Y107.749 E18.88103
G0 F9000 X110.604 Y107.749
G1 F774.7 X107.75 Y110.604 E18.98844
G0 F9000 X107.957 Y110.962
G1 F774.7 X111.17 Y107.749 E19.10935
G0 F9000 X111.459 Y108.026
G1 F774.7 X108.164 Y111.321 E19.23334
G0 F9000 X108.371 Y111.68
G1 F774.7 X111.666 Y108.385 E19.35733
G0 F9000 X111.873 Y108.743
G1 F774.7 X108.577 Y112.039 E19.48135
G0 F9000 X108.933 Y112.249
G1 F774.7 X112.08 Y109.102 E19.59977
G0 F9000 X112.287 Y109.461
G1 F774.7 X109.499 Y112.249 E19.70468
G0 F9000 X110.064 Y112.249
G1 F774.7 X112.494 Y109.82 E19.79611
G0 F9000 X112.215 Y110.664
G1 F774.7 X110.63 Y112.249 E19.85575
G0 F9000 X111.196 Y112.249
G1 F774.7 X111.446 Y111.999 E19.86516
G0 F9000 X112.086 Y112.371
;MESH:NONMESH
G0 F300 X112.086 Y112.371 Z0.6
G0 F9000 X113.827 Y110
G0 X114.158 Y110
;TIME_ELAPSED:34.500774
;LAYER:2
M106 S191.3
;TYPE:WALL-OUTER
;MESH:m5_5mm_thick_95perc.stl
G1 F771.2 X112.08 Y113.6 E20.00341
G1 X107.92 Y113.6 E20.14177
G1 X105.842 Y110 E20.28002
G1 X107.92 Y106.4 E20.41827
G1 X112.08 Y106.4 E20.55664
G1 X114.158 Y110 E20.69489
G0 F9000 X113.667 Y109.97
G0 X111.849 Y106.8
;TYPE:WALL-INNER
G1 F771.2 X113.581 Y109.8 E20.8101
G1 X113.697 Y110 E20.81779
G1 X111.849 Y113.2 E20.9407
G1 X108.151 Y113.2 E21.0637
G1 X108.036 Y113 E21.07137
G1 X106.303 Y110 E21.1866
G1 X108.151 Y106.8 E21.30951
G1 X111.849 Y106.8 E21.4325
G0 F9000 X111.618 Y107.2
G1 F771.2 X113.236 Y110 E21.54006
G1 X111.619 Y112.8 E21.6476
G1 X108.381 Y112.8 E21.7553
G1 X106.765 Y110 E21.86283
G1 X108.382 Y107.2 E21.97037
G1 X111.618 Y107.2 E22.078
G0 F9000 X111.393 Y107.59
;TYPE:SKIN
G1 F771.2 X112.785 Y110 E22.17057
G1 X111.394 Y112.41 E22.26312
G1 X108.606 Y112.41 E22.35584
G1 X107.216 Y110 E22.44838
G1 X108.607 Y107.59 E22.54093
G1 X111.393 Y107.59 E22.63359
G0 F9000 X111.144 Y107.75
G1 F771.2 X111.512 Y108.118 E22.6509
G0 F9000 X111.894 Y107.898
G0 X111.516 Y107.376
G0 X110.578 Y107.31
G0 X110.578 Y107.75
G1 F771.2 X112.286 Y109.458 E22.73124
G0 F9000 X112.475 Y110.213
G1 F771.2 X110.013 Y107.75 E22.84707
G0 F9000 X109.447 Y107.75
G1 F771.2 X112.269 Y110.572 E22.97981
G0 F9000 X112.062 Y110.93
G1 F771.2 X108.881 Y107.75 E23.12941
G0 F9000 X108.557 Y107.992
G1 F771.2 X111.855 Y111.29 E23.28454
G0 F9000 X111.648 Y111.648
G1 F771.2 X108.351 Y108.351 E23.43962
G0 F9000 X108.144 Y108.709
G1 F771.2 X111.442 Y112.007 E23.59474
G0 F9000 X111.117 Y112.248
G1 F771.2 X107.937 Y109.068 E23.74432
G0 F9000 X107.73 Y109.427
G1 F771.2 X110.551 Y112.248 E23.87701
G0 F9000 X109.986 Y112.248
G1 F771.2 X107.523 Y109.786 E23.99284
G0 F9000 X107.714 Y110.542
G1 F771.2 X109.42 Y112.248 E24.07309
G0 F9000 X108.854 Y112.248
G1 F771.2 X108.483 Y111.877 E24.09054
G0 F9000 X107.841 Y112.244
;MESH:NONMESH
G0 F300 X107.841 Y112.244 Z0.8
G0 F9000 X108.482 Y112.624
G0 X111.518 Y112.624
G0 X113.827 Y110
G0 X114.158 Y110
;TIME_ELAPSED:46.417847
;LAYER:3
M106 S255
;TYPE:WALL-OUTER
;MESH:m5_5mm_thick_95perc.stl
