;FLAVOR:Marlin
;TIME:1384
;Filament used: 0.488654m
;Layer height: 0.16
;MINX:102.164
;MINY:102.4
;MINZ:0.24
;MAXX:117.83
;MAXY:117.6
;MAXZ:20.92
;Generated with Cura_SteamEngine 4.5.0
M140 S50
M105
M190 S50
M104 S215
M105
M109 S215
M82 ;absolute extrusion mode
M201 X500.00 Y500.00 Z100.00 E5000.00 ;Setup machine max acceleration
M203 X500.00 Y500.00 Z10.00 E50.00 ;Setup machine max feedrate
M204 P500.00 R1000.00 T500.00 ;Setup Print/Retract/Travel acceleration
M205 X8.00 Y8.00 Z0.40 E5.00 ;Setup Jerk
M220 S100 ;Reset Feedrate
M221 S100 ;Reset Flowrate

G28 ;Home

G92 E0 ;Reset Extruder
G1 Z2.0 F3000 ;Move Z Axis up
G1 X10.1 Y20 Z0.28 F5000.0 ;Move to start position
G1 X10.1 Y200.0 Z0.28 F1500.0 E15 ;Draw the first line
G1 X10.4 Y200.0 Z0.28 F5000.0 ;Move to side a little
G1 X10.4 Y20 Z0.28 F1500.0 E30 ;Draw the second line
G92 E0 ;Reset Extruder
G1 Z2.0 F3000 ;Move Z Axis up

G92 E0
G92 E0
G1 F1800 E-3
;LAYER_COUNT:127
;LAYER:0
M106 S63.8
M204 S500
M205 X6 Y6
G0 F9000 X104.457 Y104.478 Z0.24
;TYPE:SKIRT
G1 F1800 E0
G1 X105.196 Y103.809 E0.03979
G1 X105.873 Y103.34 E0.07266
G1 X106.59 Y102.947 E0.10529
G1 X107.338 Y102.631 E0.1377
G1 X108.073 Y102.426 E0.16815
G1 X111.541 Y102.4 E0.30657
G1 X111.995 Y102.44 E0.32476
G1 X112.94 Y102.74 E0.36434
G1 X113.699 Y103.095 E0.39778
G1 X114.402 Y103.52 E0.43057
G1 X115.055 Y104.015 E0.46327
G1 X115.577 Y104.52 E0.49226
G1 X115.803 Y104.85 E0.50822
G1 X117.351 Y107.533 E0.63185
G1 X117.543 Y107.946 E0.65003
G1 X117.757 Y108.909 E0.6894
G1 X117.83 Y109.752 E0.72318
G1 X117.814 Y110.566 E0.75567
G1 X117.713 Y111.379 E0.78837
G1 X117.513 Y112.142 E0.81985
G1 X115.985 Y114.834 E0.9434
G1 X115.717 Y115.267 E0.96372
G1 X115.443 Y115.631 E0.9819
G1 X114.71 Y116.264 E1.02056
G1 X114.039 Y116.716 E1.05285
G1 X113.312 Y117.103 E1.08572
G1 X112.555 Y117.41 E1.11832
G1 X112.117 Y117.536 E1.13651
G1 X111.65 Y117.584 E1.15525
G1 X110.317 Y117.6 E1.20846
G1 X108.77 Y117.6 E1.2702
G1 X108.177 Y117.566 E1.29391
G1 X107.727 Y117.496 E1.31209
G1 X106.932 Y117.212 E1.34578
G1 X106.199 Y116.854 E1.37834
G1 X105.503 Y116.418 E1.41112
G1 X104.855 Y115.912 E1.44393
G1 X104.528 Y115.595 E1.46211
G1 X104.254 Y115.216 E1.48077
G1 X103.534 Y114 E1.53718
G1 X102.803 Y112.736 E1.59545
G1 X102.532 Y112.197 E1.61953
G1 X102.369 Y111.771 E1.63774
G1 X102.221 Y110.951 E1.671
G1 X102.164 Y110.139 E1.70348
G1 X102.193 Y109.316 E1.73635
G1 X102.309 Y108.498 E1.76933
G1 X102.42 Y108.057 E1.78748
G1 X102.602 Y107.649 E1.80531
G1 X103.069 Y106.806 E1.84377
G1 X104.196 Y104.851 E1.93384
G1 X104.457 Y104.478 E1.95201
G0 F9000 X104.785 Y104.709
G1 F1800 X105.452 Y104.117 E1.9876
G1 X106.095 Y103.673 E2.01879
G1 X106.776 Y103.301 E2.04976
G1 X107.487 Y103.002 E2.08054
G1 X108.163 Y102.818 E2.10851
G1 X111.541 Y102.8 E2.24333
G1 X111.958 Y102.84 E2.26005
G1 X112.805 Y103.116 E2.29561
G1 X113.523 Y103.454 E2.32728
G1 X114.189 Y103.859 E2.35839
G1 X114.808 Y104.329 E2.38941
G1 X115.286 Y104.797 E2.41611
G1 X117.005 Y107.733 E2.5519
G1 X117.178 Y108.114 E2.5686
G1 X117.364 Y108.981 E2.60399
G1 X117.431 Y109.779 E2.63595
G1 X117.415 Y110.551 E2.66677
G1 X117.317 Y111.323 E2.69783
G1 X117.13 Y112.021 E2.72667
G1 X115.638 Y114.634 E2.84677
G1 X115.123 Y115.388 E2.88321
G1 X114.459 Y115.953 E2.91801
G1 X113.821 Y116.381 E2.94867
G1 X113.13 Y116.746 E2.97986
G1 X112.411 Y117.036 E3.0108
G1 X112.008 Y117.149 E3.02751
G1 X110.312 Y117.2 E3.09523
G1 X108.77 Y117.2 E3.15678
G1 X108.204 Y117.167 E3.1794
G1 X107.558 Y117.024 E3.20581
G1 X107.076 Y116.838 E3.22643
G1 X106.381 Y116.497 E3.25733
G1 X105.721 Y116.083 E3.28843
G1 X105.107 Y115.601 E3.31958
G1 X104.808 Y115.308 E3.33629
G1 X103.878 Y113.796 E3.40714
G1 X103.149 Y112.536 E3.46524
G1 X102.892 Y112.021 E3.48821
G1 X102.696 Y111.398 E3.51428
G1 X102.616 Y110.889 E3.53484
G1 X102.563 Y110.118 E3.56569
G1 X102.592 Y109.337 E3.59688
G1 X102.704 Y108.562 E3.62813
G1 X102.809 Y108.156 E3.64487
G1 X103.419 Y107 E3.69704
G1 X104.542 Y105.051 E3.78682
G1 X104.785 Y104.709 E3.80356
G0 F9000 X105.112 Y104.944
G1 F1800 X105.708 Y104.424 E3.83513
G1 X106.317 Y104.005 E3.86463
G1 X106.962 Y103.655 E3.89392
G1 X107.637 Y103.373 E3.92312
G1 X108.249 Y103.21 E3.9484
G1 X111.541 Y103.2 E4.07979
G1 X111.918 Y103.24 E4.09492
G1 X112.67 Y103.493 E4.12659
G1 X113.346 Y103.813 E4.15644
G1 X113.976 Y104.197 E4.18589
G1 X114.56 Y104.644 E4.21524
G1 X114.993 Y105.072 E4.23954
G1 X116.658 Y107.932 E4.37162
G1 X116.869 Y108.506 E4.39603
G1 X116.97 Y109.054 E4.41827
G1 X117.032 Y109.805 E4.44835
G1 X117.015 Y110.537 E4.47757
G1 X116.921 Y111.267 E4.50695
G1 X116.867 Y111.536 E4.5179
G1 X116.668 Y112.051 E4.53993
G1 X115.292 Y114.434 E4.64976
G1 X114.805 Y115.142 E4.68406
G1 X114.208 Y115.641 E4.71511
G1 X113.603 Y116.046 E4.74417
G1 X112.949 Y116.39 E4.77366
G1 X112.267 Y116.663 E4.80298
G1 X111.901 Y116.762 E4.81812
G1 X110.308 Y116.8 E4.88171
G1 X108.77 Y116.8 E4.9431
G1 X108.23 Y116.768 E4.96469
G1 X107.702 Y116.651 E4.98627
G1 X107.22 Y116.465 E5.0069
G1 X106.562 Y116.141 E5.03617
G1 X105.939 Y115.748 E5.06557
G1 X105.359 Y115.29 E5.09506
G1 X105.091 Y115.022 E5.11019
G1 X104.222 Y113.592 E5.17698
G1 X103.496 Y112.336 E5.23488
G1 X103.251 Y111.846 E5.25674
G1 X103.091 Y111.335 E5.27812
G1 X103.011 Y110.826 E5.29868
G1 X102.963 Y110.096 E5.32788
G1 X102.992 Y109.358 E5.35736
G1 X103.099 Y108.625 E5.38692
G1 X103.197 Y108.259 E5.40205
G1 X103.768 Y107.194 E5.45028
G1 X104.889 Y105.251 E5.53981
G1 X105.112 Y104.944 E5.55495
G0 F9000 X105.235 Y105.451
G1 F1800 X105.553 Y105.074 E5.57464
G1 X105.964 Y104.732 E5.59598
G1 X106.539 Y104.338 E5.6238
G1 X107.148 Y104.009 E5.65142
G1 X107.786 Y103.744 E5.679
G1 X108.003 Y103.67 E5.68815
G1 X108.44 Y103.6 E5.70581
G1 X111.541 Y103.6 E5.82958
G1 X112.535 Y103.869 E5.87068
G1 X113.17 Y104.172 E5.89876
G1 X113.763 Y104.536 E5.92653
G1 X114.313 Y104.958 E5.9542
G1 X114.764 Y105.449 E5.98081
G1 X116.312 Y108.132 E6.10444
G1 X116.476 Y108.578 E6.12341
G1 X116.577 Y109.126 E6.14565
G1 X116.633 Y109.832 E6.17391
G1 X116.615 Y110.522 E6.20146
G1 X116.525 Y111.211 E6.22919
G1 X116.477 Y111.45 E6.23892
G1 X116.321 Y111.851 E6.2561
G1 X114.945 Y114.234 E6.36592
G1 X114.698 Y114.632 E6.38462
G1 X114.388 Y114.982 E6.40328
G1 X113.957 Y115.329 E6.42536
G1 X113.385 Y115.71 E6.4528
G1 X112.767 Y116.034 E6.48065
G1 X112.123 Y116.29 E6.50831
G1 X111.636 Y116.384 E6.5281
G1 X110.303 Y116.4 E6.58131
G1 X108.77 Y116.4 E6.64249
G1 X108.257 Y116.369 E6.66301
G1 X107.846 Y116.278 E6.67981
G1 X107.364 Y116.092 E6.70043
G1 X106.744 Y115.785 E6.72804
G1 X106.157 Y115.412 E6.7558
G1 X105.61 Y114.979 E6.78364
G1 X105.286 Y114.604 E6.80342
G1 X104.566 Y113.388 E6.85983
G1 X103.842 Y112.136 E6.91755
G1 X103.611 Y111.67 E6.93831
G1 X103.486 Y111.273 E6.95492
G1 X103.406 Y110.764 E6.97548
G1 X103.362 Y110.075 E7.00304
G1 X103.391 Y109.379 E7.03084
G1 X103.494 Y108.688 E7.05873
G1 X103.651 Y108.231 E7.07801
G1 X104.118 Y107.388 E7.11648
G1 X105.235 Y105.451 E7.20572
G0 F9000 X105.582 Y105.65
G1 F1800 X105.808 Y105.381 E7.21974
G1 X106.219 Y105.039 E7.24108
G1 X106.761 Y104.671 E7.26723
G1 X107.335 Y104.363 E7.29323
G1 X107.935 Y104.115 E7.31914
G1 X108.44 Y104 E7.33981
G1 X111.541 Y104 E7.46358
G1 X112.4 Y104.246 E7.49924
G1 X112.993 Y104.531 E7.5255
G1 X113.55 Y104.874 E7.55161
G1 X114.066 Y105.273 E7.57764
G1 X114.417 Y105.649 E7.59817
G1 X115.965 Y108.332 E7.7218
G1 X116.082 Y108.651 E7.73537
G1 X116.183 Y109.199 E7.75761
G1 X116.234 Y109.858 E7.78399
G1 X116.215 Y110.508 E7.80994
G1 X116.129 Y111.154 E7.83595
G1 X115.975 Y111.651 E7.85672
G1 X114.599 Y114.034 E7.96655
G1 X114.359 Y114.421 E7.98472
G1 X114.137 Y114.671 E7.99807
G1 X113.706 Y115.018 E8.02015
G1 X113.166 Y115.375 E8.04599
G1 X112.586 Y115.677 E8.07209
G1 X111.979 Y115.917 E8.09814
G1 X111.631 Y115.984 E8.11228
G1 X110.298 Y116 E8.16549
G1 X108.77 Y116 E8.22647
G1 X108.283 Y115.97 E8.24595
G1 X107.99 Y115.905 E8.25793
G1 X107.508 Y115.719 E8.27855
G1 X106.925 Y115.428 E8.30455
G1 X106.376 Y115.077 E8.33056
G1 X105.862 Y114.668 E8.35678
G1 X105.631 Y114.4 E8.3709
G1 X104.911 Y113.184 E8.4273
G1 X104.188 Y111.936 E8.48487
G1 X103.97 Y111.495 E8.5045
G1 X103.881 Y111.211 E8.51638
G1 X103.801 Y110.702 E8.53695
G1 X103.761 Y110.054 E8.56286
G1 X103.79 Y109.4 E8.58899
G1 X103.889 Y108.751 E8.61519
G1 X104.001 Y108.424 E8.62898
G1 X104.468 Y107.581 E8.66745
G1 X105.582 Y105.65 E8.75642
G0 F9000 X105.928 Y105.85
G1 F1800 X106.064 Y105.689 E8.76484
G1 X106.475 Y105.347 E8.78618
G1 X106.984 Y105.003 E8.8107
G1 X107.521 Y104.717 E8.83498
G1 X108.085 Y104.486 E8.8593
G1 X108.44 Y104.4 E8.87388
G1 X111.541 Y104.4 E8.99765
G1 X112.265 Y104.622 E9.02787
G1 X112.817 Y104.89 E9.05237
G1 X113.337 Y105.213 E9.0768
G1 X113.819 Y105.587 E9.10115
G1 X114.071 Y105.849 E9.11566
G1 X115.619 Y108.532 E9.23929
G1 X115.689 Y108.723 E9.24741
G1 X115.79 Y109.271 E9.26965
G1 X115.835 Y109.884 E9.29418
G1 X115.816 Y110.493 E9.3185
G1 X115.733 Y111.098 E9.34287
G1 X115.629 Y111.451 E9.35756
G1 X114.253 Y113.834 E9.46738
G1 X113.886 Y114.359 E9.49295
G1 X113.455 Y114.706 E9.51503
G1 X112.948 Y115.04 E9.53927
G1 X112.404 Y115.321 E9.5637
G1 X111.835 Y115.544 E9.5881
G1 X111.626 Y115.584 E9.59659
G1 X110.293 Y115.6 E9.6498
G1 X108.77 Y115.6 E9.71058
G1 X108.134 Y115.532 E9.73611
G1 X107.652 Y115.346 E9.75673
G1 X107.107 Y115.072 E9.78108
G1 X106.594 Y114.742 E9.80542
G1 X106.114 Y114.357 E9.82998
G1 X105.975 Y114.197 E9.83844
G1 X105.255 Y112.981 E9.89484
G1 X104.535 Y111.735 E9.95228
G1 X104.276 Y111.149 E9.97785
G1 X104.196 Y110.64 E9.99842
G1 X104.161 Y110.033 E10.02268
G1 X104.19 Y109.421 E10.04714
G1 X104.284 Y108.814 E10.07165
G1 X104.351 Y108.618 E10.07992
G1 X104.818 Y107.775 E10.11838
G1 X105.928 Y105.85 E10.20707
G0 F9000 X106.275 Y106.05
G1 F1800 X106.731 Y105.654 E10.23118
G1 X107.206 Y105.336 E10.25399
G1 X107.707 Y105.071 E10.27661
G1 X108.234 Y104.857 E10.29931
G1 X108.44 Y104.8 E10.30785
G1 X111.541 Y104.8 E10.43161
G1 X112.13 Y104.999 E10.45643
G1 X112.64 Y105.249 E10.4791
G1 X113.124 Y105.552 E10.50189
G1 X113.572 Y105.902 E10.52458
G1 X113.724 Y106.049 E10.53302
G1 X115.272 Y108.732 E10.65665
G1 X115.397 Y109.344 E10.68158
G1 X115.436 Y109.911 E10.70426
G1 X115.416 Y110.478 E10.7269
G1 X115.337 Y111.042 E10.74964
G1 X115.282 Y111.251 E10.75826
G1 X113.906 Y113.634 E10.86809
G1 X113.635 Y114.048 E10.88784
G1 X113.204 Y114.395 E10.90992
G1 X112.73 Y114.705 E10.93253
G1 X112.223 Y114.964 E10.95525
G1 X111.691 Y115.171 E10.97803
G1 X110.288 Y115.2 E11.03404
G1 X108.757 Y115.2 E11.09515
G1 X108.278 Y115.159 E11.11434
G1 X107.796 Y114.973 E11.13496
G1 X107.288 Y114.715 E11.1577
G1 X106.812 Y114.407 E11.18033
G1 X106.365 Y114.046 E11.20326
G1 X105.599 Y112.777 E11.26242
G1 X104.881 Y111.535 E11.31968
G1 X104.671 Y111.087 E11.33942
G1 X104.591 Y110.578 E11.35999
G1 X104.56 Y110.012 E11.38261
G1 X104.589 Y109.442 E11.40539
G1 X104.679 Y108.877 E11.42823
G1 X105.168 Y107.969 E11.46939
G1 X106.275 Y106.05 E11.55781
G1 F1800 E8.55781
;MESH:m5.stl
G0 F9000 X106.775 Y106.424
G0 X105.955 Y109.578
G0 X105.998 Y110.699
G0 X107.636 Y114.108
G0 X107.483 Y114.366
;TYPE:WALL-OUTER
G1 F1800 E11.55781
G1 X107.04 Y114.078 E11.5789
G1 X106.646 Y113.76 E11.59911
G1 X105.943 Y112.573 E11.65417
G1 X105.227 Y111.334 E11.71128
G1 X105.062 Y110.998 E11.72622
G1 X104.988 Y110.526 E11.74529
G1 X104.961 Y110 E11.76631
G1 X104.988 Y109.474 E11.78733
G1 X105.068 Y108.976 E11.80747
G1 X105.516 Y108.166 E11.84441
G1 X106.604 Y106.282 E11.93124
G1 X106.984 Y105.964 E11.95102
G1 X107.416 Y105.675 E11.97176
G1 X107.88 Y105.431 E11.99269
G1 X108.384 Y105.229 E12.01436
G1 X108.472 Y105.2 E12.01806
G1 X111.508 Y105.2 E12.13923
G1 X111.984 Y105.37 E12.1594
G1 X112.451 Y105.6 E12.18018
G1 X112.901 Y105.884 E12.20142
G1 X113.324 Y106.216 E12.22288
G1 X113.393 Y106.277 E12.22656
G1 X114.909 Y108.904 E12.34761
G1 X115.001 Y109.401 E12.36779
G1 X115.036 Y109.931 E12.38898
G1 X115.016 Y110.456 E12.40995
G1 X114.943 Y110.972 E12.43075
G1 X114.92 Y111.078 E12.43508
G1 X113.563 Y113.428 E12.54339
G1 X113.355 Y113.761 E12.55906
G1 X112.965 Y114.075 E12.57904
G1 X112.517 Y114.366 E12.60037
G1 X112.054 Y114.602 E12.62111
G1 X111.581 Y114.784 E12.64134
G1 X110.284 Y114.8 E12.69311
G1 X108.783 Y114.8 E12.75301
G1 X108.393 Y114.774 E12.76861
G1 X107.946 Y114.602 E12.78773
G1 X107.483 Y114.366 E12.80847
G0 F9000 X107.703 Y113.986
G0 X110.279 Y114.4
;TYPE:WALL-INNER
G1 F1800 X108.795 Y114.4 E12.8677
G1 X108.48 Y114.379 E12.8803
G1 X108.109 Y114.236 E12.89617
G1 X107.682 Y114.019 E12.91529
G1 X107.275 Y113.754 E12.93467
G1 X106.954 Y113.495 E12.95113
G1 X106.287 Y112.369 E13.00337
G1 X105.581 Y111.148 E13.05966
G1 X105.448 Y110.876 E13.07175
G1 X105.386 Y110.482 E13.08766
G1 X105.363 Y110.021 E13.10609
G1 X105.361 Y110 E13.10693
G1 X105.386 Y109.52 E13.12611
G1 X105.452 Y109.109 E13.14273
G1 X105.866 Y108.36 E13.17688
G1 X106.914 Y106.545 E13.26053
G1 X107.234 Y106.277 E13.27719
G1 X107.617 Y106.021 E13.29558
G1 X108.049 Y105.794 E13.31506
G1 X108.536 Y105.6 E13.33598
G1 X111.437 Y105.6 E13.45176
G1 X111.829 Y105.74 E13.46838
G1 X112.262 Y105.953 E13.48764
G1 X112.664 Y106.207 E13.50662
G1 X113.08 Y106.535 E13.52776
G1 X113.118 Y106.602 E13.53083
G1 X114.528 Y109.044 E13.64338
G1 X114.603 Y109.45 E13.65986
G1 X114.635 Y109.931 E13.6791
G1 X114.617 Y110.424 E13.69879
G1 X114.542 Y110.934 E13.71936
G1 X113.224 Y113.216 E13.82454
G1 X113.053 Y113.49 E13.83743
G1 X112.724 Y113.755 E13.85429
G1 X112.318 Y114.019 E13.87362
G1 X111.891 Y114.236 E13.89274
G1 X111.868 Y114.244 E13.89371
G1 X111.505 Y114.385 E13.90925
G1 X110.279 Y114.4 E13.95819
G0 F9000 X110.274 Y114
G1 F1800 X108.807 Y114 E14.01674
G1 X108.567 Y113.984 E14.02634
G1 X108.276 Y113.872 E14.03879
G1 X107.878 Y113.669 E14.05662
G1 X107.51 Y113.43 E14.07413
G1 X107.262 Y113.23 E14.08685
G1 X106.631 Y112.165 E14.13625
G1 X105.935 Y110.962 E14.19173
G1 X105.834 Y110.754 E14.20095
G1 X105.784 Y110.438 E14.21372
G1 X105.761 Y110 E14.23123
G1 X105.784 Y109.566 E14.24858
G1 X105.836 Y109.242 E14.26167
G1 X106.216 Y108.554 E14.29304
G1 X107.224 Y106.808 E14.37351
G1 X107.476 Y106.597 E14.38663
G1 X107.824 Y106.364 E14.40334
G1 X108.212 Y106.16 E14.42084
G1 X108.614 Y106 E14.43811
G1 X111.366 Y106 E14.54794
G1 X111.674 Y106.11 E14.561
G1 X112.068 Y106.304 E14.57853
G1 X112.432 Y106.534 E14.59571
G1 X112.773 Y106.802 E14.61302
G1 X114.147 Y109.184 E14.72278
G1 X114.205 Y109.498 E14.73552
G1 X114.234 Y109.931 E14.75284
G1 X114.218 Y110.388 E14.77109
G1 X114.157 Y110.802 E14.78779
G1 X112.885 Y113.004 E14.88929
G1 X112.751 Y113.219 E14.8994
G1 X112.483 Y113.435 E14.91314
G1 X112.123 Y113.669 E14.93028
G1 X111.724 Y113.872 E14.94814
G1 X111.429 Y113.986 E14.96077
G1 X110.274 Y114 E15.00687
G0 F9000 X110.27 Y113.61
;TYPE:SKIN
G1 F1800 X108.833 Y113.61 E15.06422
G1 X108.65 Y113.598 E15.07154
G1 X108.431 Y113.514 E15.0809
G1 X108.079 Y113.334 E15.09668
G1 X107.738 Y113.113 E15.1129
G1 X107.56 Y112.969 E15.12204
G1 X106.966 Y111.966 E15.16856
G1 X106.283 Y110.786 E15.22298
G1 X106.212 Y110.638 E15.22953
G1 X106.172 Y110.394 E15.2394
G1 X106.153 Y110 E15.25514
G1 X106.173 Y109.598 E15.27121
G1 X106.21 Y109.37 E15.28043
G1 X106.554 Y108.749 E15.30876
G1 X107.529 Y107.06 E15.3866
G1 X107.703 Y106.914 E15.39567
G1 X108.027 Y106.697 E15.41123
G1 X108.367 Y106.519 E15.42655
G1 X108.69 Y106.39 E15.44043
G1 X111.3 Y106.39 E15.5446
G1 X111.527 Y106.471 E15.55422
G1 X111.869 Y106.64 E15.56944
G1 X112.211 Y106.856 E15.58559
G1 X112.472 Y107.061 E15.59884
G1 X113.775 Y109.32 E15.70292
G1 X113.817 Y109.544 E15.71202
G1 X113.844 Y109.943 E15.72798
G1 X113.828 Y110.353 E15.74435
G1 X113.781 Y110.671 E15.75718
G1 X112.55 Y112.803 E15.85544
G1 X112.455 Y112.957 E15.86266
G1 X112.253 Y113.119 E15.873
G1 X111.922 Y113.334 E15.88875
G1 X111.57 Y113.514 E15.90453
G1 X111.354 Y113.596 E15.91375
G1 X110.27 Y113.61 E15.95702
G0 F9000 X110.27 Y113.89
G0 X108.603 Y113.815
G0 X107.609 Y113.291
G0 X107.176 Y112.868
G0 X107.554 Y112.645
G1 F1800 X107.999 Y113.09 E15.98214
G0 F9000 X108.924 Y113.449
G1 F1800 X106.753 Y111.278 E16.10468
G0 F9000 X106.373 Y111.498
