;FLAVOR:Marlin
;TIME:303
;Filament used: 0.0958698m
;Layer height: 0.24
;MINX:95.193
;MINY:93.429
;MINZ:0.3
;MAXX:124.805
;MAXY:126.605
;MAXZ:7.86
;Generated with Cura_SteamEngine 4.10.0
M82 ;absolute extrusion mode
M201 X500.00 Y500.00 Z100.00 E5000.00 ;Setup machine max acceleration
M203 X500.00 Y500.00 Z10.00 E50.00 ;Setup machine max feedrate
M204 P500.00 R1000.00 T500.00 ;Setup Print/Retract/Travel acceleration
M205 X8.00 Y8.00 Z0.40 E5.00 ;Setup Jerk
M220 S100 ;Reset Feedrate
M221 S100 ;Reset Flowrate

;*** Start Dual Nozzle/Bed Preheating ***
M140 S50 ; start preheating the bed
M104 S200 ?T0 ; start preheating hotend
M190 S50 ; heat to Cura Bed setting and WAIT
M109 S200 ?T0 ; heat to Cura Hotend and WAIT
;*** End Preheating ***

;*** Single Print Start Tone
M300 S1000 P500 ; chirp to indicate starting to print
;*** End Single Start Tone

G28 ;Home

G92 E0 ;Reset Extruder
G1 Z2.0 F3000 ;Move Z Axis up

G1 X10.1 Y20 Z0.28 F5000.0 ;Move to start position
G1 X10.1 Y200.0 Z0.28 F1500.0 E15 ;Draw the first line
G1 X10.4 Y200.0 Z0.28 F5000.0 ;Move to side a little
G1 X10.4 Y20 Z0.28 F1500.0 E30 ;Draw the second line
G92 E0 ;Reset Extruder
G1 Z2.0 F3000 ;Move Z Axis up
G92 E0
G92 E0
G1 F2400 E-3.2
;LAYER_COUNT:29
;LAYER:0
M106 S63.8
M204 S500
M205 X6 Y6
G0 F9000 X102.709 Y97.031 Z0.3
;TYPE:SKIRT
G1 F1440 E0
G1 F1800 X103.369 Y96.364 E0.04681
G1 X104.083 Y95.756 E0.0936
G1 X104.846 Y95.211 E0.14038
G1 X105.653 Y94.733 E0.18717
G1 X106.497 Y94.325 E0.23394
G1 X107.374 Y93.991 E0.28076
G1 X108.275 Y93.733 E0.32752
G1 X109.196 Y93.552 E0.37435
G1 X110.128 Y93.451 E0.42112
G1 X111.066 Y93.429 E0.46793
G1 X112.002 Y93.487 E0.51472
G1 X112.867 Y93.613 E0.55833
G1 X113.162 Y93.668 E0.5733
G1 X114.076 Y93.879 E0.6201
G1 X114.968 Y94.167 E0.66686
G1 X115.679 Y94.46 E0.70523
G1 X116.413 Y94.792 E0.74542
G1 X116.675 Y94.914 E0.75984
G1 X117.28 Y95.207 E0.79337
G1 X118.19 Y95.702 E0.84506
G1 X118.373 Y95.813 E0.85573
G1 X119.153 Y96.333 E0.9025
G1 X119.886 Y96.918 E0.94929
G1 X120.467 Y97.46 E0.98893
G1 X120.657 Y97.651 E1.00237
G1 X121.289 Y98.344 E1.04916
G1 X121.86 Y99.088 E1.09595
G1 X122.591 Y100.284 E1.16589
G1 X122.7 Y100.491 E1.17756
G1 X123.101 Y101.339 E1.22436
G1 X123.295 Y101.829 E1.25065
G1 X123.361 Y102.009 E1.26021
G1 X123.646 Y102.903 E1.30703
G1 X123.854 Y103.817 E1.35379
G1 X123.972 Y104.638 E1.39517
G1 X124.073 Y105.592 E1.44303
G1 X124.092 Y105.79 E1.45296
G1 X124.725 Y113.029 E1.81549
G1 X124.776 Y113.718 E1.84996
G1 X124.805 Y114.655 E1.89673
G1 X124.784 Y115.222 E1.92504
G1 X124.768 Y115.476 E1.93773
G1 X124.669 Y116.408 E1.98449
G1 X124.439 Y117.542 E2.04222
G1 X124.403 Y117.681 E2.04938
G1 X124.129 Y118.578 E2.09618
G1 X123.78 Y119.448 E2.14294
G1 X123.534 Y119.958 E2.17119
G1 X123.395 Y120.228 E2.18634
G1 X122.931 Y121.043 E2.23313
G1 X122.398 Y121.815 E2.27993
G1 X121.65 Y122.705 E2.33794
G1 X121.535 Y122.828 E2.34634
G1 X120.866 Y123.486 E2.39315
G1 X120.05 Y124.153 E2.44573
G1 X119.88 Y124.279 E2.45629
G1 X119.103 Y124.805 E2.5031
G1 X118.458 Y125.174 E2.54017
G1 X118.272 Y125.272 E2.55066
G1 X117.424 Y125.673 E2.59746
G1 X116.545 Y126.001 E2.64427
G1 X115.676 Y126.245 E2.6893
G1 X115.49 Y126.289 E2.69884
G1 X114.569 Y126.465 E2.74562
G1 X113.172 Y126.582 E2.81556
G1 X112.094 Y126.603 E2.86935
G1 X111.88 Y126.605 E2.88003
G1 X108.765 Y126.604 E3.03543
G1 X108.124 Y126.595 E3.06742
G1 X107.716 Y126.582 E3.08778
G1 X106.781 Y126.505 E3.13459
G1 X105.665 Y126.306 E3.19114
G1 X105.428 Y126.251 E3.20328
G1 X104.872 Y126.107 E3.23194
G1 X104.806 Y126.088 E3.23536
G1 X103.917 Y125.79 E3.28214
G1 X103.056 Y125.418 E3.32893
G1 X102.608 Y125.188 E3.35406
G1 X102.429 Y125.091 E3.36421
G1 X101.624 Y124.61 E3.411
G1 X100.785 Y123.999 E3.46278
G1 X100.704 Y123.934 E3.46796
G1 X99.999 Y123.317 E3.5147
G1 X99.642 Y122.961 E3.53986
G1 X99.486 Y122.798 E3.55111
G1 X98.867 Y122.093 E3.59792
G1 X98.31 Y121.338 E3.64473
G1 X97.978 Y120.816 E3.67559
G1 X97.523 Y119.996 E3.72238
G1 X97.128 Y119.113 E3.77064
G1 X96.725 Y118.094 E3.82531
G1 X96.651 Y117.902 E3.83557
G1 X96.139 Y116.531 E3.90858
G1 X95.898 Y115.857 E3.9443
G1 X95.608 Y114.915 E3.99347
G1 X95.553 Y114.703 E4.0044
G1 X95.357 Y113.786 E4.05118
G1 X95.24 Y112.864 E4.09755
G1 X95.232 Y112.769 E4.1023
G1 X95.193 Y111.832 E4.14909
G1 X95.252 Y110.709 E4.20519
G1 X95.276 Y110.478 E4.21678
G1 X95.412 Y109.55 E4.26357
G1 X95.651 Y108.556 E4.31458
G1 X95.673 Y108.48 E4.31852
G1 X95.858 Y107.902 E4.3488
G1 X96.229 Y106.843 E4.40478
G1 X96.309 Y106.622 E4.41651
G1 X96.998 Y104.786 E4.51435
G1 X97.253 Y104.135 E4.54923
G1 X97.632 Y103.277 E4.59602
G1 X98.082 Y102.455 E4.64278
G1 X98.73 Y101.501 E4.70031
G1 X98.868 Y101.319 E4.71171
G1 X99.548 Y100.507 E4.76455
G1 X100.222 Y99.776 E4.81415
G1 X100.593 Y99.383 E4.84112
G1 X101.38 Y98.494 E4.90035
G1 X102.709 Y97.031 E4.99896
G0 F9000 X103.005 Y97.3
G1 F1800 X103.653 Y96.646 E5.04489
G1 X104.355 Y96.05 E5.09084
G1 X105.107 Y95.518 E5.13679
G1 X105.901 Y95.054 E5.18267
G1 X106.733 Y94.659 E5.22862
G1 X107.597 Y94.339 E5.27459
G1 X108.484 Y94.095 E5.32049
G1 X109.39 Y93.928 E5.36645
G1 X110.306 Y93.841 E5.41235
G1 X111.227 Y93.834 E5.4583
G1 X112.145 Y93.906 E5.50424
G1 X112.794 Y94.007 E5.53701
G1 X113.089 Y94.062 E5.55198
G1 X113.986 Y94.269 E5.59791
G1 X114.861 Y94.554 E5.64382
G1 X115.514 Y94.824 E5.67907
G1 X116.248 Y95.156 E5.71927
G1 X116.5 Y95.274 E5.73315
G1 X117.105 Y95.567 E5.76668
G1 X117.982 Y96.044 E5.81649
G1 X118.165 Y96.155 E5.82717
G1 X118.931 Y96.666 E5.87311
G1 X119.649 Y97.242 E5.91903
G1 X120.183 Y97.742 E5.95553
G1 X120.373 Y97.933 E5.96897
G1 X120.993 Y98.614 E6.01492
G1 X121.552 Y99.345 E6.06083
G1 X122.237 Y100.47 E6.12654
G1 X122.346 Y100.677 E6.13821
G1 X122.739 Y101.51 E6.18416
G1 X122.985 Y102.147 E6.21823
G1 X123.264 Y103.024 E6.26414
G1 X123.466 Y103.922 E6.31007
G1 X123.574 Y104.68 E6.34826
G1 X123.694 Y105.825 E6.4057
G1 X124.315 Y112.916 E6.76083
G1 X124.377 Y113.748 E6.80245
G1 X124.405 Y114.668 E6.84837
G1 X124.385 Y115.196 E6.87473
G1 X124.369 Y115.45 E6.88743
G1 X124.271 Y116.366 E6.93339
G1 X124.051 Y117.442 E6.98818
G1 X124.015 Y117.581 E6.99535
G1 X123.746 Y118.461 E7.04125
G1 X123.401 Y119.315 E7.08721
G1 X123.178 Y119.775 E7.11271
G1 X123.039 Y120.045 E7.12786
G1 X122.583 Y120.844 E7.17376
G1 X122.059 Y121.601 E7.21969
G1 X121.358 Y122.432 E7.27393
G1 X121.243 Y122.555 E7.28233
G1 X120.586 Y123.2 E7.32826
G1 X119.812 Y123.832 E7.37812
G1 X119.642 Y123.958 E7.38867
G1 X118.879 Y124.473 E7.4346
G1 X118.271 Y124.82 E7.46953
G1 X118.085 Y124.918 E7.48001
G1 X117.253 Y125.311 E7.52592
G1 X116.389 Y125.631 E7.57189
G1 X115.584 Y125.855 E7.61357
G1 X115.398 Y125.899 E7.62311
G1 X114.494 Y126.072 E7.66903
G1 X113.164 Y126.182 E7.73561
G1 X112.086 Y126.203 E7.7894
G1 X111.88 Y126.205 E7.79968
G1 X108.77 Y126.204 E7.95484
G1 X108.129 Y126.195 E7.98682
G1 X107.732 Y126.183 E8.00664
G1 X106.814 Y126.106 E8.0526
G1 X105.756 Y125.917 E8.10622
G1 X105.519 Y125.862 E8.11835
G1 X104.983 Y125.722 E8.14599
G1 X104.917 Y125.703 E8.14942
G1 X104.044 Y125.41 E8.19536
G1 X102.799 Y124.837 E8.26374
G1 X102.62 Y124.74 E8.27389
G1 X101.83 Y124.266 E8.31986
G1 X101.036 Y123.687 E8.36888
G1 X100.955 Y123.622 E8.37407
G1 X100.262 Y123.015 E8.42003
G1 X99.775 Y122.521 E8.45463
G1 X99.168 Y121.829 E8.50056
G1 X98.395 Y120.731 E8.56755
G1 X98.319 Y120.607 E8.57481
G1 X97.873 Y119.802 E8.62072
G1 X97.5 Y118.966 E8.66639
G1 X97.097 Y117.947 E8.72106
G1 X97.026 Y117.762 E8.73095
G1 X96.516 Y116.396 E8.80369
G1 X96.275 Y115.722 E8.8394
G1 X95.996 Y114.815 E8.88675
G1 X95.941 Y114.603 E8.89767
G1 X95.748 Y113.703 E8.9436
G1 X95.638 Y112.83 E8.98749
G1 X95.63 Y112.735 E8.99225
G1 X95.593 Y111.816 E9.03814
G1 X95.65 Y110.751 E9.09135
G1 X95.674 Y110.52 E9.10293
G1 X95.809 Y109.609 E9.14888
G1 X96.035 Y108.668 E9.19716
G1 X96.057 Y108.592 E9.20111
G1 X96.235 Y108.034 E9.23033
G1 X96.606 Y106.975 E9.28631
G1 X96.683 Y106.762 E9.29761
G1 X97.37 Y104.932 E9.39513
G1 X97.625 Y104.281 E9.43001
G1 X97.998 Y103.439 E9.47596
G1 X98.442 Y102.633 E9.52187
G1 X99.049 Y101.743 E9.57561
G1 X99.187 Y101.561 E9.58701
G1 X99.842 Y100.778 E9.63794
G1 X100.513 Y100.051 E9.68729
G1 X100.874 Y99.67 E9.71348
G1 X101.676 Y98.763 E9.77388
G1 X103.005 Y97.3 E9.87249
G0 F9000 X103.301 Y97.569
G1 F1800 X103.937 Y96.928 E9.91754
G1 X104.628 Y96.345 E9.96265
G1 X105.367 Y95.827 E10.00767
G1 X106.149 Y95.375 E10.05273
G1 X106.968 Y94.995 E10.09778
G1 X107.818 Y94.688 E10.14287
G1 X108.691 Y94.458 E10.18791
G1 X109.581 Y94.306 E10.23295
G1 X110.481 Y94.234 E10.278
G1 X111.385 Y94.241 E10.3231
G1 X112.72 Y94.4 E10.39017
G1 X113.015 Y94.455 E10.40514
G1 X113.895 Y94.659 E10.45021
G1 X114.753 Y94.941 E10.49527
G1 X115.35 Y95.188 E10.5275
G1 X116.084 Y95.52 E10.56769
G1 X116.326 Y95.634 E10.58104
G1 X116.931 Y95.927 E10.61458
G1 X117.775 Y96.386 E10.66251
G1 X117.958 Y96.497 E10.67319
G1 X118.709 Y96.999 E10.71825
G1 X119.412 Y97.566 E10.76331
G1 X119.899 Y98.024 E10.79667
G1 X120.089 Y98.215 E10.81011
G1 X120.697 Y98.883 E10.85517
G1 X121.244 Y99.602 E10.90024
G1 X121.883 Y100.657 E10.96178
G1 X121.992 Y100.864 E10.97345
G1 X122.377 Y101.681 E11.01851
G1 X122.61 Y102.285 E11.05081
G1 X122.883 Y103.145 E11.09582
G1 X123.078 Y104.027 E11.14089
G1 X123.176 Y104.722 E11.17591
G1 X123.295 Y105.86 E11.23299
G1 X123.927 Y113.088 E11.59497
G1 X123.978 Y113.777 E11.62944
G1 X124.005 Y114.68 E11.67451
G1 X123.97 Y115.425 E11.71172
G1 X123.873 Y116.323 E11.75678
G1 X123.664 Y117.341 E11.80863
G1 X123.628 Y117.48 E11.81579
G1 X123.363 Y118.344 E11.86088
G1 X123.023 Y119.18 E11.90591
G1 X122.684 Y119.862 E11.9439
G1 X122.235 Y120.646 E11.98898
G1 X121.719 Y121.387 E12.03403
G1 X121.066 Y122.159 E12.08447
G1 X120.951 Y122.282 E12.09287
G1 X120.305 Y122.914 E12.13796
G1 X119.574 Y123.511 E12.18505
G1 X119.404 Y123.637 E12.1956
G1 X118.655 Y124.142 E12.24067
G1 X118.085 Y124.466 E12.27338
G1 X117.899 Y124.564 E12.28387
G1 X117.082 Y124.949 E12.32893
G1 X116.234 Y125.261 E12.37401
G1 X115.492 Y125.466 E12.41242
G1 X115.306 Y125.51 E12.42195
G1 X114.419 Y125.679 E12.467
G1 X113.157 Y125.782 E12.53017
G1 X112.079 Y125.803 E12.58396
G1 X111.88 Y125.805 E12.59389
G1 X108.776 Y125.804 E12.74875
G1 X108.135 Y125.795 E12.78073
G1 X107.748 Y125.783 E12.80005
G1 X106.848 Y125.707 E12.84511
G1 X105.846 Y125.527 E12.8959
G1 X105.609 Y125.472 E12.90804
G1 X105.093 Y125.338 E12.93464
G1 X105.027 Y125.319 E12.93806
G1 X104.171 Y125.031 E12.98312
G1 X102.989 Y124.485 E13.04808
G1 X102.81 Y124.388 E13.05824
G1 X102.036 Y123.923 E13.10328
G1 X101.286 Y123.375 E13.14963
G1 X101.205 Y123.31 E13.15481
G1 X100.22 Y122.408 E13.22144
G1 X100.064 Y122.245 E13.2327
G1 X99.469 Y121.565 E13.27778
G1 X98.736 Y120.522 E13.34138
G1 X98.66 Y120.398 E13.34863
G1 X98.223 Y119.608 E13.39367
G1 X97.872 Y118.819 E13.43676
G1 X97.4 Y117.622 E13.50095
G1 X96.943 Y116.4 E13.56604
G1 X96.652 Y115.587 E13.60912
G1 X96.383 Y114.714 E13.6547
G1 X96.328 Y114.502 E13.66562
G1 X96.14 Y113.619 E13.71066
G1 X96.037 Y112.797 E13.75199
G1 X96.029 Y112.702 E13.75675
G1 X95.993 Y111.8 E13.80179
G1 X96.048 Y110.792 E13.85215
G1 X96.072 Y110.561 E13.86374
G1 X96.205 Y109.668 E13.90878
G1 X96.419 Y108.779 E13.9544
G1 X96.441 Y108.703 E13.95835
G1 X96.613 Y108.167 E13.98643
G1 X96.984 Y107.108 E14.04241
G1 X97.058 Y106.902 E14.05333
G1 X97.688 Y105.22 E14.14294
G1 X97.998 Y104.427 E14.18542
G1 X98.364 Y103.601 E14.23049
G1 X98.802 Y102.811 E14.27556
G1 X99.367 Y101.984 E14.32553
G1 X99.505 Y101.802 E14.33692
G1 X100.136 Y101.049 E14.38594
G1 X100.804 Y100.326 E14.43505
G1 X101.167 Y99.942 E14.46141
G1 X101.972 Y99.032 E14.52202
G1 X103.301 Y97.569 E14.62063
G1 F2400 E11.42063
;MESH:Inland_1kg_Filament_Spool_Clip.3mf
G0 F9000 X110.112 Y104.335
G0 X111.064 Y104.775
G0 X111.088 Y104.885
G0 X110.939 Y104.609
;TYPE:WALL-OUTER
G1 F1440 E14.62063
G1 F1800 X110.999 Y104.623 E14.62371
G1 X111.267 Y104.748 E14.63846
G1 X112.443 Y105.298 E14.70323
G1 X112.699 Y105.516 E14.72001
G1 X112.837 Y105.792 E14.7354
G1 X112.862 Y105.929 E14.74235
G1 X112.959 Y107.032 E14.79759
G1 X113.614 Y114.526 E15.17289
G1 X113.608 Y114.607 E15.17695
G1 X113.603 Y114.672 E15.1802
G1 X113.591 Y114.812 E15.18721
G1 X113.502 Y114.997 E15.19745
G1 X113.462 Y115.079 E15.202
G1 X113.415 Y115.121 E15.20515
G1 X113.271 Y115.25 E15.21479
G1 X113.217 Y115.298 E15.2184
G1 X113.136 Y115.325 E15.22266
G1 X112.93 Y115.397 E15.23354
G1 X112.854 Y115.402 E15.23734
G1 X112.81 Y115.405 E15.23954
G1 X108.723 Y115.405 E15.44344
G1 X108.224 Y115.405 E15.46834
G1 X107.951 Y115.355 E15.48219
G1 X107.667 Y115.172 E15.49904
G1 X107.484 Y114.896 E15.51556
G1 X106.426 Y112.066 E15.6663
G1 X106.383 Y111.748 E15.68231
G1 X106.431 Y111.528 E15.69354
G1 X107.675 Y108.206 E15.87051
G1 X108.335 Y108.206 E15.90344
G1 X108.336 Y109.956 E15.99075
G1 X107.609 Y110.684 E16.04208
G1 X107.274 Y110.877 E16.06137
G1 X107.052 Y111.117 E16.07768
G1 X106.88 Y111.481 E16.09776
G1 X106.841 Y111.91 E16.11925
G1 X106.951 Y112.317 E16.14029
G1 X107.145 Y112.609 E16.15778
G1 X107.399 Y112.823 E16.17435
G1 X107.611 Y112.927 E16.18613
G1 X108.336 Y113.654 E16.23735
G1 X108.337 Y114.644 E16.28674
G1 X108.401 Y114.826 E16.29637
G1 X108.551 Y114.96 E16.3064
G1 X108.723 Y115.005 E16.31527
G1 X112.81 Y115.005 E16.51917
G1 X112.827 Y115.005 E16.52002
G1 X113.009 Y114.958 E16.52937
G1 X113.152 Y114.829 E16.53879
G1 X113.217 Y114.642 E16.54862
G1 X113.217 Y114.578 E16.55173
G1 X113.216 Y114.561 E16.55255
G1 X112.559 Y107.067 E16.92739
G1 X112.436 Y106.856 E16.93958
G1 X112.219 Y106.755 E16.95152
G1 X112.144 Y106.752 E16.95527
G1 X111.136 Y106.839 E17.00574
G1 X110.967 Y104.923 E17.1017
G1 X110.941 Y104.629 E17.11098
G1 X110.939 Y104.609
G0 F9000 X111.397 Y105.25
;TYPE:WALL-INNER
G1 F1800 X111.711 Y105.397 E17.12827
G1 X112.223 Y105.636 E17.15646
G1 X112.377 Y105.768 E17.16658
G1 X112.466 Y105.991 E17.17856
G1 X112.467 Y105.993 E17.17867
G1 X112.495 Y106.32 E17.19505
G1 X112.497 Y106.343 E17.1962
G1 X112.506 Y106.448 E17.20146
G1 X112.315 Y106.359 E17.20659
G1 X112.312 Y106.359 E17.20674
G1 X112.135 Y106.351 E17.21558
G1 X111.499 Y106.406 E17.24743
G1 X111.427 Y105.595 E17.28805
G1 X111.397 Y105.25 E17.29784
G0 F9000 X112.695 Y107.024
G0 X113.356 Y114.665
G0 X113.271 Y114.908
G0 X113.076 Y115.084
G0 X112.845 Y115.144
G0 X108.705 Y115.144
G0 X108.484 Y115.086
G0 X108.282 Y114.905
G0 X106.823 Y112.375
G0 X106.701 Y111.922
G0 X106.735 Y111.535
G0 X107.935 Y108.652
G1 F1800 X107.935 Y109.681 E17.34917
G1 X107.936 Y109.79 E17.35461
G1 X107.911 Y109.815 E17.35638
G1 X107.364 Y110.363 E17.39501
G1 X107.275 Y110.414 E17.40012
G1 X107.302 Y110.341
G1 X107.573 Y109.616 E17.42291
G1 X107.935 Y108.652 E17.44901
G0 F9000 X106.744 Y111.444
G0 X106.701 Y111.922
G0 X106.769 Y112.178
G0 X108.009 Y114.917
G1 F1800 X107.88 Y114.76 E17.45915
G1 X107.844 Y114.716 E17.46199
G1 X107.573 Y113.993 E17.50051
G1 X107.308 Y113.283 E17.53832
G1 X107.281 Y113.211 E17.54215
G1 X107.376 Y113.257 E17.54356
G1 X107.911 Y113.794 E17.56623
G1 X107.936 Y113.819 E17.568
G1 X107.937 Y113.94 E17.57403
G1 X107.937 Y114.712 E17.59801
G1 X108.009 Y114.917 E17.59946
G0 F9000 X108.705 Y115.144
G0 X112.845 Y115.144
G0 X113.076 Y115.084
G0 X113.271 Y114.908
G0 X113.356 Y114.573
G0 X112.695 Y107.024
G0 X111.979 Y105.963
G1 F1800 X111.862 Y105.973 E17.60532
G1 X111.856 Y105.905 E17.60873
G1 X111.887 Y105.919
G1 X111.979 Y105.963 E17.60889
G0 F9000 X112.22 Y105.997
;TYPE:SKIN
G1 F1800 X112.631 Y105.843 E17.61162
G1 X112.699 Y106.759 E17.61734
G0 F9000 X112.737 Y106.801
G0 X111.719 Y105.779
G0 X111.674 Y105.734
G1 F1800 X111.237 Y105.014 E17.62565
G0 F9000 X111.169 Y104.942
G0 X112.723 Y105.943
G0 X113.35 Y114.993
G0 X112.802 Y115.266
G0 X107.766 Y115.071
G0 X106.565 Y111.568
G0 X107.834 Y108.406
G0 X107.834 Y108.4
G1 F1800 X107.895 Y108.46 E17.62778
G0 F9000 X107.141 Y110.535
G0 X107.201 Y110.595
G1 F1800 X107.034 Y110.711 E17.62998
G1 X106.831 Y111.074 E17.63447
G1 X106.626 Y111.718 E17.64177
G1 X106.643 Y112.017 E17.645
G0 F9000 X106.937 Y112.876
G1 F1800 X107.147 Y113.086 E17.65241
G0 F9000 X108.217 Y115.005
G0 X108.319 Y115.107
