;FLAVOR:Marlin
;TIME:401
;Filament used: 0.0950642m
;Layer height: 0.16
;MINX:95.198
;MINY:93.424
;MINZ:0.24
;MAXX:124.782
;MAXY:126.605
;MAXZ:8
;Generated with Cura_SteamEngine 4.5.0
M140 S50
M105
M190 S50
M104 S215
M105
M109 S215
M82 ;absolute extrusion mode
M201 X500.00 Y500.00 Z100.00 E5000.00 ;Setup machine max acceleration
M203 X500.00 Y500.00 Z10.00 E50.00 ;Setup machine max feedrate
M204 P500.00 R1000.00 T500.00 ;Setup Print/Retract/Travel acceleration
M205 X8.00 Y8.00 Z0.40 E5.00 ;Setup Jerk
M220 S100 ;Reset Feedrate
M221 S100 ;Reset Flowrate

G28 ;Home

G92 E0 ;Reset Extruder
G1 Z2.0 F3000 ;Move Z Axis up
G1 X10.1 Y20 Z0.28 F5000.0 ;Move to start position
G1 X10.1 Y200.0 Z0.28 F1500.0 E15 ;Draw the first line
G1 X10.4 Y200.0 Z0.28 F5000.0 ;Move to side a little
G1 X10.4 Y20 Z0.28 F1500.0 E30 ;Draw the second line
G92 E0 ;Reset Extruder
G1 Z2.0 F3000 ;Move Z Axis up

G92 E0
G92 E0
G1 F1800 E-3
;LAYER_COUNT:41
;LAYER:0
M106 S63.8
M204 S500
M205 X6 Y6
G0 F9000 X102.548 Y97.206 Z0.24
;TYPE:SKIRT
G1 F1800 E0
G1 X103.502 Y96.257 E0.05371
G1 X104.348 Y95.567 E0.09728
G1 X105.126 Y95.042 E0.13474
G1 X105.945 Y94.586 E0.17215
G1 X106.801 Y94.201 E0.20961
G1 X107.686 Y93.891 E0.24704
G1 X108.594 Y93.657 E0.28446
G1 X109.519 Y93.501 E0.32191
G1 X110.453 Y93.424 E0.35931
G1 X111.391 Y93.428 E0.39675
G1 X112.325 Y93.511 E0.43417
G1 X113.249 Y93.674 E0.47162
G1 X114.156 Y93.914 E0.50907
G1 X115.137 Y94.272 E0.55075
G1 X116.131 Y94.689 E0.59377
G1 X116.929 Y95.043 E0.62861
G1 X117.768 Y95.462 E0.66604
G1 X118.631 Y95.994 E0.7065
G1 X119.722 Y96.785 E0.76029
G1 X120.423 Y97.408 E0.79772
G1 X121.069 Y98.088 E0.83516
G1 X121.903 Y99.176 E0.88987
G1 X122.582 Y100.257 E0.94082
G1 X123.002 Y101.095 E0.97823
G1 X123.349 Y101.967 E1.01569
G1 X123.591 Y102.754 E1.04855
G1 X123.883 Y103.998 E1.09955
G1 X123.995 Y104.794 E1.13164
G1 X124.057 Y105.394 E1.15571
G1 X124.686 Y112.597 E1.44429
G1 X124.742 Y113.339 E1.47399
G1 X124.782 Y114.129 E1.50556
G1 X124.782 Y115.067 E1.543
G1 X124.725 Y115.823 E1.57326
G1 X124.554 Y117.002 E1.62081
G1 X124.332 Y117.913 E1.65823
G1 X123.996 Y118.899 E1.69981
G1 X123.509 Y120.022 E1.74866
G1 X123.057 Y120.843 E1.78607
G1 X122.535 Y121.623 E1.82353
G1 X121.761 Y122.566 E1.87222
G1 X120.851 Y123.498 E1.92421
G1 X120.134 Y124.102 E1.96162
G1 X119.368 Y124.643 E1.99905
G1 X118.159 Y125.318 E2.05432
G1 X116.949 Y125.852 E2.10711
G1 X116.059 Y126.146 E2.14452
G1 X115.146 Y126.362 E2.18196
G1 X114.219 Y126.5 E2.21937
G1 X113.457 Y126.554 E2.24986
G1 X112.223 Y126.598 E2.29914
G1 X109.076 Y126.605 E2.42474
G1 X108.344 Y126.596 E2.45396
G1 X107.654 Y126.565 E2.48153
G1 X107.12 Y126.524 E2.50291
G1 X106.189 Y126.412 E2.54033
G1 X105.27 Y126.222 E2.57779
G1 X104.372 Y125.954 E2.61519
G1 X103.123 Y125.434 E2.66919
G1 X102.052 Y124.865 E2.71759
G1 X101.269 Y124.349 E2.75502
G1 X100.533 Y123.767 E2.79247
G1 X100.136 Y123.407 E2.81386
G1 X99.159 Y122.423 E2.8692
G1 X98.567 Y121.696 E2.90662
G1 X98.04 Y120.92 E2.94406
G1 X97.58 Y120.103 E2.98148
G1 X97.183 Y119.228 E3.01983
G1 X96.923 Y118.581 E3.04766
G1 X96.228 Y116.763 E3.12534
G1 X95.949 Y115.999 E3.15781
G1 X95.573 Y114.73 E3.21063
G1 X95.306 Y113.403 E3.26466
G1 X95.212 Y112.47 E3.30208
G1 X95.198 Y111.532 E3.33952
G1 X95.325 Y110.145 E3.39511
G1 X95.566 Y108.86 E3.4473
G1 X95.891 Y107.775 E3.4925
G1 X96.154 Y107.038 E3.52373
G1 X96.898 Y105.049 E3.60849
G1 X97.213 Y104.239 E3.64318
G1 X97.592 Y103.381 E3.68062
G1 X97.869 Y102.854 E3.70438
G1 X98.472 Y101.862 E3.75071
G1 X99.032 Y101.11 E3.78813
G1 X99.556 Y100.51 E3.81993
G1 X101.393 Y98.509 E3.92834
G1 X102.548 Y97.206 E3.99784
G0 F9000 X102.847 Y97.472
G1 F1800 X103.766 Y96.558 E4.04957
G1 X104.6 Y95.878 E4.09252
G1 X105.364 Y95.365 E4.12925
G1 X106.17 Y94.921 E4.16598
G1 X107.012 Y94.548 E4.20273
G1 X107.883 Y94.249 E4.23949
G1 X108.776 Y94.027 E4.27621
G1 X109.686 Y93.884 E4.31298
G1 X110.604 Y93.82 E4.34971
G1 X111.525 Y93.835 E4.38647
G1 X112.44 Y93.931 E4.42319
G1 X113.344 Y94.106 E4.45994
G1 X114.23 Y94.358 E4.49671
G1 X114.983 Y94.641 E4.52881
G1 X115.977 Y95.058 E4.57183
G1 X116.766 Y95.408 E4.60628
G1 X117.589 Y95.82 E4.64302
G1 X118.406 Y96.324 E4.68133
G1 X119.483 Y97.106 E4.73445
G1 X120.17 Y97.719 E4.7712
G1 X120.801 Y98.389 E4.80793
G1 X121.572 Y99.399 E4.85865
G1 X122.241 Y100.466 E4.90891
G1 X122.651 Y101.29 E4.94565
G1 X122.988 Y102.147 E4.9824
G1 X123.205 Y102.857 E5.01203
G1 X123.492 Y104.085 E5.06237
G1 X123.597 Y104.835 E5.09259
G1 X123.659 Y105.435 E5.11667
G1 X124.288 Y112.632 E5.40501
G1 X124.343 Y113.369 E5.43451
G1 X124.382 Y114.147 E5.4656
G1 X124.382 Y115.067 E5.50232
G1 X124.327 Y115.779 E5.53082
G1 X124.158 Y116.94 E5.57765
G1 X123.938 Y117.834 E5.61439
G1 X123.624 Y118.752 E5.65311
G1 X123.144 Y119.859 E5.70127
G1 X122.697 Y120.664 E5.73802
G1 X122.183 Y121.427 E5.77474
G1 X121.467 Y122.295 E5.81965
G1 X120.568 Y123.215 E5.87099
G1 X119.863 Y123.806 E5.90771
G1 X119.109 Y124.334 E5.94445
G1 X117.986 Y124.957 E5.9957
G1 X116.792 Y125.484 E6.04779
G1 X115.917 Y125.77 E6.08453
G1 X115.021 Y125.979 E6.12126
G1 X114.109 Y126.109 E6.15802
G1 X113.443 Y126.154 E6.18467
G1 X112.209 Y126.198 E6.23395
G1 X109.076 Y126.205 E6.35899
G1 X108.35 Y126.196 E6.38797
G1 X107.685 Y126.166 E6.41454
G1 X107.151 Y126.125 E6.43592
G1 X106.237 Y126.015 E6.47266
G1 X105.335 Y125.825 E6.50945
G1 X104.454 Y125.559 E6.54618
G1 X103.299 Y125.075 E6.59616
G1 X102.243 Y124.514 E6.64389
G1 X101.476 Y124.005 E6.68063
G1 X100.756 Y123.431 E6.71738
G1 X100.086 Y122.808 E6.7539
G1 X99.447 Y122.145 E6.79065
G1 X98.868 Y121.43 E6.82737
G1 X98.353 Y120.666 E6.86414
G1 X97.906 Y119.861 E6.90089
G1 X97.554 Y119.078 E6.93516
G1 X97.294 Y118.431 E6.96299
G1 X96.602 Y116.621 E7.04033
G1 X96.325 Y115.863 E7.07254
G1 X95.962 Y114.64 E7.12345
G1 X95.699 Y113.33 E7.17678
G1 X95.61 Y112.413 E7.21355
G1 X95.6 Y111.493 E7.25027
G1 X95.72 Y110.207 E7.30182
G1 X95.958 Y108.938 E7.35336
G1 X96.268 Y107.909 E7.39625
G1 X96.531 Y107.172 E7.42748
G1 X97.272 Y105.19 E7.51194
G1 X97.586 Y104.384 E7.54646
G1 X97.958 Y103.542 E7.5832
G1 X98.218 Y103.05 E7.60541
G1 X98.812 Y102.073 E7.65104
G1 X99.364 Y101.336 E7.6878
G1 X99.848 Y100.785 E7.71707
G1 X101.692 Y98.775 E7.82594
G1 X102.847 Y97.472 E7.89543
G0 F9000 X103.146 Y97.737
G1 F1800 X104.031 Y96.858 E7.94522
G1 X104.851 Y96.19 E7.98743
G1 X105.602 Y95.689 E8.02346
G1 X106.394 Y95.256 E8.05949
G1 X107.222 Y94.895 E8.09554
G1 X108.079 Y94.609 E8.1316
G1 X108.957 Y94.399 E8.16763
G1 X109.851 Y94.268 E8.20369
G1 X110.752 Y94.217 E8.23971
G1 X111.655 Y94.245 E8.27577
G1 X112.552 Y94.354 E8.31183
G1 X113.435 Y94.541 E8.34786
G1 X114.299 Y94.805 E8.38391
G1 X114.828 Y95.01 E8.40656
G1 X115.822 Y95.427 E8.44958
G1 X116.603 Y95.773 E8.48367
G1 X117.41 Y96.178 E8.51971
G1 X118.181 Y96.655 E8.5559
G1 X119.243 Y97.427 E8.6083
G1 X119.915 Y98.03 E8.64434
G1 X120.532 Y98.69 E8.6804
G1 X121.24 Y99.622 E8.72711
G1 X121.899 Y100.674 E8.77666
G1 X122.299 Y101.484 E8.81271
G1 X122.626 Y102.326 E8.84876
G1 X122.819 Y102.96 E8.87521
G1 X123.101 Y104.171 E8.92484
G1 X123.199 Y104.877 E8.95329
G1 X123.261 Y105.477 E8.97736
G1 X123.889 Y112.667 E9.26542
G1 X123.944 Y113.398 E9.29468
G1 X123.982 Y114.164 E9.32529
G1 X123.982 Y115.067 E9.36133
G1 X123.93 Y115.734 E9.38804
G1 X123.762 Y116.879 E9.43422
G1 X123.544 Y117.755 E9.47025
G1 X123.252 Y118.605 E9.50612
G1 X122.778 Y119.696 E9.5536
G1 X122.338 Y120.484 E9.58962
G1 X121.83 Y121.231 E9.62568
G1 X121.172 Y122.025 E9.66684
G1 X120.286 Y122.931 E9.71741
G1 X119.592 Y123.51 E9.75349
G1 X118.85 Y124.025 E9.78954
G1 X117.814 Y124.596 E9.83675
G1 X116.636 Y125.116 E9.88814
G1 X115.777 Y125.394 E9.92418
G1 X114.896 Y125.595 E9.96024
G1 X114.001 Y125.718 E9.9963
G1 X113.428 Y125.755 E10.01922
G1 X112.194 Y125.799 E10.0685
G1 X109.076 Y125.805 E10.19295
G1 X108.355 Y125.796 E10.22173
G1 X107.715 Y125.767 E10.2473
G1 X107.181 Y125.726 E10.26867
G1 X106.285 Y125.617 E10.3047
G1 X105.401 Y125.429 E10.34077
G1 X104.538 Y125.164 E10.3768
G1 X103.475 Y124.716 E10.42284
G1 X102.435 Y124.162 E10.46987
G1 X101.684 Y123.661 E10.5059
G1 X100.687 Y122.827 E10.55778
G1 X99.735 Y121.868 E10.61172
G1 X99.169 Y121.164 E10.64777
G1 X98.667 Y120.413 E10.68382
G1 X98.234 Y119.621 E10.71985
G1 X97.926 Y118.929 E10.75008
G1 X97.666 Y118.282 E10.77791
G1 X96.976 Y116.478 E10.855
G1 X96.701 Y115.726 E10.88696
G1 X96.352 Y114.549 E10.93595
G1 X96.093 Y113.256 E10.98859
G1 X96.007 Y112.357 E11.02463
G1 X96.001 Y111.454 E11.06067
G1 X96.115 Y110.268 E11.10823
G1 X96.351 Y109.017 E11.15904
G1 X96.644 Y108.044 E11.19959
G1 X96.907 Y107.307 E11.23083
G1 X97.647 Y105.33 E11.31508
G1 X97.958 Y104.53 E11.34934
G1 X98.324 Y103.704 E11.3854
G1 X98.566 Y103.246 E11.40607
G1 X99.152 Y102.285 E11.45099
G1 X99.695 Y101.563 E11.48705
G1 X100.139 Y101.059 E11.51386
G1 X102.008 Y99.022 E11.6242
G1 X103.146 Y97.737 E11.6927
G1 F1800 E8.6927
;MESH:Inland_1kg_Filament_Spool_Clip.stl
G0 F9000 X107.435 Y107.384
G0 X107.74 Y108.372
G0 X106.781 Y111.321
G0 X106.69 Y111.806
G0 X106.776 Y112.251
G0 X108.441 Y115.13
G0 X108.583 Y114.991
;TYPE:WALL-OUTER
G1 F1800 E11.6927
G1 X112.71 Y115.005 E11.85742
G1 X113.059 Y114.951 E11.87152
G1 X113.222 Y114.671 E11.88445
G1 X112.582 Y107.31 E12.17935
G1 X112.517 Y106.921 E12.19509
G1 X112.247 Y106.749 E12.20787
G1 X111.195 Y106.834 E12.24999
G1 X111.146 Y106.824 E12.25199
G1 X111.131 Y106.798 E12.25319
G1 X110.947 Y104.682 E12.33796
G1 X110.951 Y104.61 E12.34084
G1 X110.973 Y104.612 E12.34172
G1 X112.39 Y105.272 E12.40411
G1 X112.635 Y105.445 E12.41608
G1 X112.795 Y105.683 E12.42753
G1 X112.865 Y105.954 E12.4387
G1 X113.59 Y114.264 E12.77163
G1 X113.603 Y114.74 E12.79063
G1 X113.492 Y115.029 E12.80299
G1 X113.287 Y115.249 E12.81499
G1 X113.004 Y115.381 E12.82745
G1 X112.809 Y115.405 E12.8353
G1 X108.377 Y115.405 E13.01219
G1 X108.013 Y115.371 E13.02678
G1 X107.741 Y115.233 E13.03895
G1 X107.551 Y115.021 E13.05031
G1 X106.47 Y112.184 E13.17149
G1 X106.387 Y111.831 E13.18596
G1 X106.439 Y111.503 E13.19921
G1 X107.63 Y108.324 E13.33471
G1 X107.696 Y108.208 E13.34003
G1 X107.705 Y108.205 E13.34041
G1 X108.282 Y108.205 E13.36344
G1 X108.323 Y108.218 E13.36516
G1 X108.336 Y108.248 E13.36646
G1 X108.336 Y109.928 E13.43352
G1 X107.597 Y110.667 E13.47523
G1 X107.156 Y110.984 E13.4969
G1 X106.913 Y111.372 E13.51518
G1 X106.832 Y111.806 E13.5328
G1 X106.918 Y112.249 E13.55081
G1 X107.161 Y112.631 E13.56888
G1 X107.484 Y112.864 E13.58477
G1 X107.857 Y113.204 E13.60492
G1 X108.336 Y113.682 E13.63193
G1 X108.336 Y114.359 E13.65895
G1 X108.351 Y114.76 E13.67496
G1 X108.583 Y114.991 E13.68803
G0 F9000 X108.442 Y115.131
G0 X107.299 Y113.237
;TYPE:WALL-INNER
G1 F1800 X107.574 Y113.487 E13.70286
G1 X107.936 Y113.848 E13.72327
G1 X107.936 Y114.366 E13.74394
G1 X107.952 Y114.806 E13.76152
G1 X107.955 Y114.872 E13.76415
G1 X107.898 Y114.809 E13.76487
G1 X107.756 Y114.435 E13.76939
G1 X107.584 Y113.983 E13.78373
G1 X107.418 Y113.547 E13.79627
G1 X107.299 Y113.237 E13.79873
G0 F9000 X106.786 Y112.301
G0 X106.69 Y111.806
G0 X106.762 Y111.414
G0 X107.278 Y110.404
G1 F1800 X107.298 Y110.349 E13.80106
G1 X107.569 Y109.625 E13.83192
G1 X107.936 Y108.648 E13.87357
G1 X107.936 Y109.762 E13.89644
G1 X107.336 Y110.362 E13.91692
G1 X107.278 Y110.404 E13.91741
G0 F9000 X106.781 Y111.321
G0 X106.69 Y111.806
G0 X106.786 Y112.301
G0 X108.217 Y114.819
G0 X108.527 Y115.127
G0 X112.72 Y115.144
G0 X113.143 Y115.076
G0 X113.363 Y114.702
G0 X112.641 Y106.839
G0 X112.35 Y106.653
G0 X111.498 Y106.408
G1 F1800 X111.427 Y105.594 E13.95002
G1 X111.426 Y105.593 E13.95008
G1 X111.398 Y105.251 E13.96378
G1 X111.709 Y105.395 E13.97154
G1 X111.71 Y105.396 E13.97159
G1 X112.189 Y105.62 E13.9927
G1 X112.345 Y105.73 E14.00032
G1 X112.425 Y105.85 E14.00607
G1 X112.461 Y105.989 E14.0118
G1 X112.47 Y106.023 E14.01321
G1 X112.496 Y106.326 E14.02534
G1 X112.506 Y106.439 E14.02987
G1 X112.349 Y106.339 E14.0329
G1 X112.314 Y106.341 E14.0343
G1 X111.498 Y106.408 E14.06698
G0 F9000 X111.86 Y106.203
;TYPE:SKIN
G1 F1800 X111.635 Y105.979 E14.07331
G0 F9000 X111.608 Y105.668
G1 F1800 X112.121 Y106.181 E14.08779
G0 F9000 X112.299 Y106.076
G1 F1800 X111.902 Y105.679 E14.099
G0 F9000 X112.543 Y106.603
G1 F1800 X112.765 Y106.825 E14.10526
G0 F9000 X112.74 Y106.826
G0 X113.363 Y114.702
G0 X113.143 Y115.076
G0 X112.72 Y115.144
G0 X108.527 Y115.127
G0 X108.217 Y114.819
G0 X106.786 Y112.301
G0 X106.69 Y111.806
G0 X106.762 Y111.414
G0 X108.136 Y108.444
G0 X108.128 Y108.411
G1 F1800 X107.863 Y108.429 E14.10996
G0 F9000 X107.813 Y108.405
G0 X107.053 Y110.433
G0 X107.155 Y110.549
G1 F1800 X107.034 Y110.711 E14.11282
G1 X106.675 Y111.483 E14.12485
G1 X106.653 Y112.027 E14.13254
G1 X107.047 Y112.987 E14.1472
G1 X107.305 Y112.961 E14.15086
G0 F9000 X107.245 Y112.938
G0 X108.115 Y114.904
G0 X108.277 Y115.066
G1 F1800 X108.051 Y115.122 E14.16472
G0 F9000 X107.887 Y114.963
;MESH:NONMESH
G0 F300 X107.887 Y114.963 Z0.44
G0 F9000 X108.544 Y114.981
;TIME_ELAPSED:21.005963
;LAYER:1
M140 S40
M106 S127.5
;TYPE:WALL-OUTER
;MESH:Inland_1kg_Filament_Spool_Clip.stl
G1 F600 X112.599 Y115.005 E14.2996
G1 X113.018 Y114.972 E14.31357
G1 X113.219 Y114.709 E14.32458
G1 X112.598 Y107.5 E14.56524
G1 X112.518 Y106.923 E14.58462
G1 X112.245 Y106.749 E14.59539
G1 X111.213 Y106.832 E14.62982
G1 X111.145 Y106.825 E14.6321
G1 X111.133 Y106.809 E14.63276
G1 X110.951 Y104.733 E14.70207
G1 X110.954 Y104.61 E14.70617
G1 X110.973 Y104.612 E14.7068
G1 X112.39 Y105.272 E14.75879
G1 X112.633 Y105.444 E14.76869
G1 X112.807 Y105.711 E14.77929
G1 X112.865 Y105.954 E14.7876
G1 X113.615 Y114.559 E15.07489
G1 X113.57 Y114.863 E15.08511
G1 X113.419 Y115.128 E15.09526
G1 X113.193 Y115.308 E15.10487
G1 X112.909 Y115.397 E15.11477
G1 X108.495 Y115.405 E15.26158
G1 X108.04 Y115.377 E15.27674
G1 X107.765 Y115.251 E15.2868
G1 X107.568 Y115.051 E15.29614
G1 X107.474 Y114.868 E15.30298
G1 X106.497 Y112.256 E15.39573
G1 X106.389 Y111.871 E15.40903
G1 X106.42 Y111.564 E15.4193
G1 X107.604 Y108.395 E15.53181
G1 X107.688 Y108.213 E15.53848
G1 X107.71 Y108.205 E15.53926
G1 X108.271 Y108.205 E15.55792
G1 X108.324 Y108.221 E15.55976
G1 X108.336 Y108.246 E15.56068
G1 X108.336 Y110.026 E15.61988
G1 X107.7 Y110.661 E15.64978
G1 X107.352 Y110.814 E15.66242
G1 X107.028 Y111.148 E15.6779
G1 X106.859 Y111.556 E15.69259
G1 X106.848 Y111.993 E15.70712
G1 X106.986 Y112.39 E15.7211
G1 X107.273 Y112.736 E15.73606
G1 X107.638 Y112.931 E15.74982
G1 X107.786 Y113.033 E15.7558
G1 X108.336 Y113.583 E15.78167
G1 X108.341 Y114.719 E15.81945
G1 X108.544 Y114.981 E15.83048
G0 F9000 X108.543 Y115.181
G0 X108.352 Y114.947
G0 X107.274 Y113.19
;TYPE:WALL-INNER
G1 F600 X107.432 Y113.274 E15.83643
G1 X107.527 Y113.34 E15.84027
G1 X107.878 Y113.691 E15.85678
G1 X107.937 Y113.75 E15.85956
G1 X107.938 Y113.868 E15.86348
G1 X107.94 Y114.705 E15.89132
G1 X107.941 Y114.813 E15.89492
G1 X107.942 Y114.857 E15.89638
G1 X107.896 Y114.814
G1 X107.841 Y114.706 E15.89737
G1 X107.548 Y113.922 E15.9149
G1 X107.528 Y113.87 E15.91675
G1 X107.355 Y113.405 E15.92889
G1 X107.322 Y113.316 E15.92927
G1 X107.274 Y113.19 E15.92956
G0 F9000 X106.863 Y112.459
G0 X106.709 Y112.015
G0 X106.72 Y111.527
G0 X107.279 Y110.409
G1 F600 X107.329 Y110.273 E15.93438
G1 X107.529 Y109.737 E15.9534
G1 X107.55 Y109.682 E15.95536
G1 X107.936 Y108.65 E15.99201
G1 X107.936 Y109.751 E16.01061
G1 X107.936 Y109.752 E16.01064
G1 X107.936 Y109.86 E16.01423
G1 X107.875 Y109.921 E16.0171
G1 X107.47 Y110.325 E16.03033
G1 X107.279 Y110.409 E16.03286
G0 F9000 X106.72 Y111.527
G0 X106.709 Y112.015
G0 X106.863 Y112.459
G0 X108.204 Y114.766
G0 X108.478 Y115.116
G0 X112.604 Y115.144
G0 X113.089 Y115.103
G0 X113.36 Y114.75
G0 X112.644 Y106.843
G0 X112.349 Y106.654
G0 X111.499 Y106.408
G1 F600 X111.428 Y105.594 E16.06003
G1 X111.398 Y105.251 E16.07149
G1 X111.71 Y105.396 E16.07798
G1 X112.193 Y105.622 E16.09572
G1 X112.34 Y105.726 E16.10171
G1 X112.434 Y105.87 E16.10743
G1 X112.463 Y105.989 E16.1115
G1 X112.47 Y106.021 E16.11259
G1 X112.496 Y106.327 E16.1228
G1 X112.506 Y106.441 E16.12661
G1 X112.347 Y106.34 E16.12917
G1 X112.315 Y106.342 E16.13024
