;FLAVOR:Marlin
;TIME:290
;Filament used: 0.0916199m
;Layer height: 0.2
;MINX:95.228
;MINY:93.407
;MINZ:0.24
;MAXX:124.797
;MAXY:126.605
;MAXZ:7.88
;Generated with Cura_SteamEngine 4.8.0
M82 ;absolute extrusion mode
M201 X500.00 Y500.00 Z100.00 E5000.00 ;Setup machine max acceleration
M203 X500.00 Y500.00 Z10.00 E50.00 ;Setup machine max feedrate
M204 P500.00 R1000.00 T500.00 ;Setup Print/Retract/Travel acceleration
M205 X8.00 Y8.00 Z0.40 E5.00 ;Setup Jerk
M220 S100 ;Reset Feedrate
M221 S100 ;Reset Flowrate

;*** Start Dual Nozzle/Bed Preheating ***
M140 S50 ; start preheating the bed
M104 S195 ﻿T0 ; start preheating hotend
M190 S50 ; heat to Cura Bed setting and WAIT
M109 S195 ﻿T0 ; heat to Cura Hotend and WAIT
;*** End Preheating ***

G28 ; home

G92 E0 ;Reset Extruder
G1 Z2.0 F3000 ;Move Z Axis up

;*** Single Print Start Tone
M300 S1000 P500 ; chirp to indicate starting to print
;*** End Single Start Tone

G1 X10.1 Y20 Z0.28 F5000.0 ;Move to start position
G1 X10.1 Y200.0 Z0.28 F1500.0 E15 ;Draw the first line
G1 X10.4 Y200.0 Z0.28 F5000.0 ;Move to side a little
G1 X10.4 Y20 Z0.28 F1500.0 E30 ;Draw the second line
G92 E0 ;Reset Extruder
G1 Z2.0 F3000 ;Move Z Axis up
G92 E0
G92 E0
G1 F2400 E-3.2
;LAYER_COUNT:34
;LAYER:0
M106 S63.8
M204 S500
M205 X6 Y6
G0 F9000 X102.597 Y97.136 Z0.24
;TYPE:SKIRT
G1 F1440 E0
G1 F1800 X103.253 Y96.466 E0.03742
G1 X103.964 Y95.854 E0.07487
G1 X104.724 Y95.305 E0.11229
G1 X105.51 Y94.833 E0.14888
G1 X105.664 Y94.749 E0.15588
G1 X106.505 Y94.336 E0.19328
G1 X107.379 Y93.995 E0.23072
G1 X108.279 Y93.73 E0.26817
G1 X109.198 Y93.543 E0.3056
G1 X110.13 Y93.435 E0.34304
G1 X111.067 Y93.407 E0.38046
G1 X112.004 Y93.458 E0.41791
G1 X112.932 Y93.59 E0.45532
G1 X113.846 Y93.799 E0.49274
G1 X114.474 Y93.992 E0.51897
G1 X114.715 Y94.074 E0.52913
G1 X115.72 Y94.472 E0.57227
G1 X116.26 Y94.719 E0.59597
G1 X116.692 Y94.923 E0.61504
G1 X117.338 Y95.237 E0.6437
G1 X118.163 Y95.682 E0.68112
G1 X119.064 Y96.282 E0.72432
G1 X119.152 Y96.347 E0.72869
G1 X119.655 Y96.741 E0.75419
G1 X119.864 Y96.915 E0.76504
G1 X120.559 Y97.546 E0.80251
G1 X121.197 Y98.233 E0.83993
G1 X121.774 Y98.972 E0.87735
G1 X122.434 Y100.012 E0.92651
G1 X122.56 Y100.238 E0.93684
G1 X122.981 Y101.076 E0.97427
G1 X123.412 Y102.192 E1.02202
G1 X123.507 Y102.484 E1.03427
G1 X123.759 Y103.387 E1.07169
G1 X123.881 Y103.981 E1.09589
G1 X123.976 Y104.622 E1.12176
G1 X124.045 Y105.252 E1.14705
G1 X124.725 Y113.028 E1.45859
G1 X124.769 Y113.628 E1.4826
G1 X124.797 Y114.566 E1.52006
G1 X124.768 Y115.249 E1.54734
G1 X124.734 Y115.706 E1.56563
G1 X124.624 Y116.638 E1.60309
G1 X124.436 Y117.556 E1.64049
G1 X124.17 Y118.456 E1.67795
G1 X123.778 Y119.442 E1.7203
G1 X123.748 Y119.508 E1.72319
G1 X123.493 Y120.032 E1.74645
G1 X123.364 Y120.28 E1.75761
G1 X122.896 Y121.093 E1.79505
G1 X122.36 Y121.863 E1.83249
G1 X121.761 Y122.585 E1.86993
G1 X121.056 Y123.296 E1.9099
G1 X120.816 Y123.517 E1.92292
G1 X120.1 Y124.122 E1.96033
G1 X119.335 Y124.664 E1.99775
G1 X118.526 Y125.139 E2.03519
G1 X117.469 Y125.631 E2.08173
G1 X117.086 Y125.785 E2.0982
G1 X116.201 Y126.097 E2.13566
G1 X115.294 Y126.333 E2.17306
G1 X114.197 Y126.512 E2.21743
G1 X114.116 Y126.521 E2.22068
G1 X113.099 Y126.586 E2.26135
G1 X111.959 Y126.605 E2.30686
G1 X108.761 Y126.604 E2.4345
G1 X108.067 Y126.594 E2.4622
G1 X107.13 Y126.54 E2.49966
G1 X106.228 Y126.412 E2.53602
G1 X105.968 Y126.364 E2.54657
G1 X105.054 Y126.155 E2.58399
G1 X103.837 Y125.743 E2.63527
G1 X103.632 Y125.66 E2.6441
G1 X102.778 Y125.271 E2.68156
G1 X101.711 Y124.651 E2.73081
G1 X101.509 Y124.518 E2.74046
G1 X100.748 Y123.97 E2.77789
G1 X100.037 Y123.358 E2.81533
G1 X99.381 Y122.688 E2.85276
G1 X98.677 Y121.821 E2.89733
G1 X98.601 Y121.717 E2.90247
G1 X98.257 Y121.218 E2.92667
G1 X98.094 Y120.967 E2.93861
G1 X97.617 Y120.159 E2.97606
G1 X97.084 Y119.007 E3.02672
G1 X96.722 Y118.088 E3.06614
G1 X96.653 Y117.908 E3.07384
G1 X96.121 Y116.482 E3.13458
G1 X95.89 Y115.836 E3.16197
G1 X95.612 Y114.94 E3.19941
G1 X95.361 Y113.705 E3.24971
G1 X95.323 Y113.442 E3.26031
G1 X95.229 Y112.509 E3.29774
G1 X95.228 Y111.232 E3.34871
G1 X95.245 Y110.939 E3.36042
G1 X95.34 Y110.006 E3.39785
G1 X95.511 Y109.093 E3.43493
G1 X95.53 Y109.011 E3.43829
G1 X95.883 Y107.806 E3.4884
G1 X96.183 Y106.963 E3.52411
G1 X96.934 Y104.954 E3.60972
G1 X97.264 Y104.107 E3.646
G1 X97.642 Y103.249 E3.68342
G1 X98.093 Y102.426 E3.72087
G1 X98.612 Y101.645 E3.7583
G1 X99.389 Y100.694 E3.80732
G1 X100.13 Y99.885 E3.8511
G1 X100.583 Y99.404 E3.87747
G1 X101.662 Y98.176 E3.94272
G1 X102.153 Y97.63 E3.97203
G0 F1620 X102.597 Y97.136
G0 F9000 X102.894 Y97.403
G1 F1800 X103.539 Y96.746 E4.00877
G1 X104.238 Y96.147 E4.04551
G1 X104.987 Y95.611 E4.08227
G1 X105.701 Y95.184 E4.11548
G1 X105.855 Y95.1 E4.12248
G1 X106.682 Y94.695 E4.15923
G1 X107.54 Y94.363 E4.19595
G1 X108.425 Y94.107 E4.23272
G1 X109.328 Y93.928 E4.26946
G1 X110.243 Y93.828 E4.3062
G1 X111.164 Y93.809 E4.34297
G1 X112.082 Y93.869 E4.37969
G1 X112.992 Y94.008 E4.41643
G1 X113.887 Y94.226 E4.45319
G1 X114.586 Y94.453 E4.48253
G1 X115.555 Y94.836 E4.52411
G1 X116.09 Y95.081 E4.5476
G1 X116.517 Y95.283 E4.56645
G1 X117.163 Y95.597 E4.59512
G1 X117.973 Y96.035 E4.63187
G1 X118.827 Y96.604 E4.67283
G1 X118.915 Y96.669 E4.67719
G1 X119.399 Y97.049 E4.70175
G1 X119.608 Y97.223 E4.71261
G1 X120.289 Y97.842 E4.74934
G1 X120.914 Y98.518 E4.78608
G1 X121.478 Y99.246 E4.82284
G1 X122.084 Y100.207 E4.86818
G1 X122.21 Y100.433 E4.87851
G1 X122.623 Y101.256 E4.91526
G1 X123.032 Y102.316 E4.96061
G1 X123.127 Y102.608 E4.97287
G1 X123.373 Y103.495 E5.0096
G1 X123.487 Y104.052 E5.0323
G1 X123.579 Y104.669 E5.05719
G1 X123.647 Y105.292 E5.08221
G1 X124.314 Y112.91 E5.38742
G1 X124.37 Y113.658 E5.41736
G1 X124.397 Y114.578 E5.45409
G1 X124.369 Y115.219 E5.4797
G1 X124.335 Y115.676 E5.49799
G1 X124.227 Y116.591 E5.53477
G1 X124.04 Y117.492 E5.57149
G1 X123.775 Y118.374 E5.60825
G1 X123.414 Y119.276 E5.64703
G1 X123.384 Y119.342 E5.64992
G1 X123.138 Y119.848 E5.67238
G1 X123.009 Y120.096 E5.68353
G1 X122.549 Y120.893 E5.72026
G1 X122.022 Y121.648 E5.75701
G1 X121.431 Y122.354 E5.79376
G1 X120.785 Y123.002 E5.83028
G1 X120.545 Y123.223 E5.8433
G1 X119.842 Y123.816 E5.88001
G1 X119.089 Y124.347 E5.91678
G1 X118.293 Y124.81 E5.95354
G1 X117.319 Y125.26 E5.99636
G1 X116.936 Y125.414 E6.01283
G1 X116.068 Y125.72 E6.04957
G1 X115.177 Y125.949 E6.08629
G1 X114.153 Y126.114 E6.12768
G1 X114.072 Y126.123 E6.13094
G1 X113.092 Y126.186 E6.17013
G1 X111.959 Y126.205 E6.21536
G1 X108.766 Y126.204 E6.3428
G1 X108.072 Y126.194 E6.3705
G1 X107.153 Y126.141 E6.40724
G1 X106.301 Y126.019 E6.44159
G1 X106.041 Y125.971 E6.45214
G1 X105.143 Y125.765 E6.48891
G1 X103.987 Y125.372 E6.53765
G1 X103.782 Y125.289 E6.54647
G1 X102.944 Y124.907 E6.58323
G1 X101.931 Y124.317 E6.63002
G1 X101.729 Y124.184 E6.63967
G1 X100.983 Y123.645 E6.67641
G1 X100.286 Y123.043 E6.71316
G1 X99.644 Y122.383 E6.74991
G1 X99 Y121.585 E6.79084
G1 X98.924 Y121.481 E6.79598
G1 X98.592 Y121 E6.81931
G1 X98.429 Y120.749 E6.83125
G1 X97.962 Y119.956 E6.86798
G1 X97.457 Y118.861 E6.91611
G1 X97.028 Y117.768 E6.96298
G1 X96.498 Y116.347 E7.02351
G1 X96.267 Y115.701 E7.05089
G1 X95.995 Y114.822 E7.08761
G1 X95.757 Y113.648 E7.13542
G1 X95.719 Y113.385 E7.14603
G1 X95.627 Y112.469 E7.18277
G1 X95.628 Y111.255 E7.23123
G1 X95.645 Y110.962 E7.24294
G1 X95.738 Y110.046 E7.27969
G1 X95.901 Y109.183 E7.31474
G1 X95.92 Y109.101 E7.3181
G1 X96.26 Y107.94 E7.36639
G1 X96.619 Y106.934 E7.40902
G1 X97.364 Y104.948 E7.49368
G1 X97.636 Y104.253 E7.52346
G1 X98.008 Y103.411 E7.5602
G1 X98.453 Y102.604 E7.59698
G1 X98.965 Y101.84 E7.63369
G1 X99.684 Y100.964 E7.67892
G1 X100.421 Y100.159 E7.72248
G1 X100.879 Y99.673 E7.74914
G1 X101.959 Y98.443 E7.81447
G1 X102.45 Y97.897 E7.84378
G0 F1620 X102.894 Y97.403
G0 F9000 X103.192 Y97.671
G1 F1800 X103.825 Y97.026 E7.87985
G1 X104.512 Y96.441 E7.91586
G1 X105.249 Y95.918 E7.95193
G1 X105.893 Y95.535 E7.98183
G1 X106.047 Y95.451 E7.98884
G1 X106.858 Y95.055 E8.02486
G1 X107.701 Y94.731 E8.0609
G1 X108.569 Y94.483 E8.09693
G1 X109.456 Y94.313 E8.13298
G1 X110.355 Y94.222 E8.16904
G1 X111.258 Y94.211 E8.20509
G1 X112.158 Y94.28 E8.24111
G1 X113.049 Y94.428 E8.27716
G1 X114.217 Y94.75 E8.32552
G1 X114.458 Y94.832 E8.33568
G1 X115.389 Y95.201 E8.37565
G1 X115.92 Y95.443 E8.39894
G1 X116.342 Y95.642 E8.41756
G1 X116.988 Y95.956 E8.44623
G1 X117.782 Y96.387 E8.48229
G1 X118.589 Y96.925 E8.521
G1 X118.677 Y96.99 E8.52536
G1 X119.143 Y97.356 E8.54901
G1 X119.352 Y97.53 E8.55987
G1 X120.02 Y98.138 E8.59592
G1 X120.631 Y98.803 E8.63196
G1 X121.182 Y99.519 E8.66802
G1 X121.735 Y100.402 E8.70961
G1 X121.861 Y100.628 E8.71993
G1 X122.265 Y101.436 E8.75599
G1 X122.652 Y102.439 E8.7989
G1 X122.747 Y102.731 E8.81115
G1 X122.988 Y103.602 E8.84722
G1 X123.093 Y104.122 E8.8684
G1 X123.181 Y104.716 E8.89236
G1 X123.249 Y105.332 E8.9171
G1 X123.927 Y113.087 E9.2278
G1 X123.971 Y113.687 E9.25181
G1 X123.997 Y114.59 E9.28786
G1 X123.97 Y115.19 E9.31184
G1 X123.936 Y115.647 E9.33013
G1 X123.829 Y116.544 E9.36618
G1 X123.643 Y117.427 E9.4022
G1 X123.38 Y118.291 E9.43824
G1 X123.05 Y119.111 E9.47352
G1 X123.02 Y119.177 E9.47642
G1 X122.783 Y119.663 E9.498
G1 X122.654 Y119.911 E9.50915
G1 X122.202 Y120.693 E9.5452
G1 X121.683 Y121.432 E9.58125
G1 X121.1 Y122.122 E9.6173
G1 X120.514 Y122.707 E9.65035
G1 X120.274 Y122.928 E9.66337
G1 X119.584 Y123.51 E9.6994
G1 X118.844 Y124.028 E9.73545
G1 X118.062 Y124.479 E9.77148
G1 X117.17 Y124.889 E9.81066
G1 X116.787 Y125.043 E9.82714
G1 X115.935 Y125.342 E9.86318
G1 X115.06 Y125.565 E9.89921
G1 X114.108 Y125.717 E9.93769
G1 X114.027 Y125.726 E9.94095
G1 X113.085 Y125.786 E9.97862
G1 X111.959 Y125.805 E10.02357
G1 X108.772 Y125.804 E10.15077
G1 X108.078 Y125.794 E10.17847
G1 X107.176 Y125.741 E10.21453
G1 X106.373 Y125.625 E10.24691
G1 X106.113 Y125.577 E10.25747
G1 X105.233 Y125.374 E10.29351
G1 X104.137 Y125.001 E10.33972
G1 X103.932 Y124.918 E10.34855
G1 X103.111 Y124.543 E10.38457
G1 X102.151 Y123.983 E10.42893
G1 X101.949 Y123.85 E10.43858
G1 X101.217 Y123.321 E10.47463
G1 X100.535 Y122.728 E10.5107
G1 X99.909 Y122.078 E10.54672
G1 X99.323 Y121.349 E10.58405
G1 X99.247 Y121.245 E10.58919
G1 X98.928 Y120.782 E10.61163
G1 X98.765 Y120.531 E10.62357
G1 X98.307 Y119.753 E10.65961
G1 X97.829 Y118.714 E10.70525
G1 X97.402 Y117.628 E10.75183
G1 X96.924 Y116.349 E10.80632
G1 X96.644 Y115.566 E10.83951
G1 X96.377 Y114.703 E10.87557
G1 X96.153 Y113.591 E10.92084
G1 X96.115 Y113.328 E10.93145
G1 X96.025 Y112.429 E10.96751
G1 X96.027 Y111.278 E11.01345
G1 X96.044 Y110.985 E11.02516
G1 X96.136 Y110.087 E11.06119
G1 X96.29 Y109.274 E11.09422
G1 X96.309 Y109.192 E11.09758
G1 X96.636 Y108.074 E11.14407
G1 X96.936 Y107.231 E11.17978
G1 X97.683 Y105.234 E11.26488
G1 X98.009 Y104.399 E11.30065
G1 X98.375 Y103.573 E11.33671
G1 X98.812 Y102.783 E11.37275
G1 X99.318 Y102.035 E11.40879
G1 X99.979 Y101.234 E11.45024
G1 X100.712 Y100.434 E11.49355
G1 X101.16 Y99.958 E11.51963
G1 X102.257 Y98.711 E11.58592
G1 X102.748 Y98.165 E11.61523
G0 F1620 X103.192 Y97.671
G1 F2400 E8.41523
;MESH:Inland_1kg_Filament_Spool_Clip.3mf
G0 F9000 X110.084 Y104.481
G0 X111.064 Y104.774
G0 X111.088 Y104.884
G0 X110.941 Y104.634
;TYPE:WALL-OUTER
G1 F1440 E11.61523
G1 F1800 X111 Y104.623 E11.61763
G1 X111.267 Y104.748 E11.62939
G1 X112.428 Y105.291 E11.68055
G1 X112.68 Y105.496 E11.69351
G1 X112.833 Y105.781 E11.70642
G1 X112.864 Y105.943 E11.71301
G1 X112.957 Y107.003 E11.75548
G1 X113.613 Y114.516 E12.05648
G1 X113.601 Y114.645 E12.06165
G1 X113.584 Y114.824 E12.06882
G1 X113.472 Y115.05 E12.07889
G1 X113.454 Y115.085 E12.08046
G1 X113.381 Y115.152 E12.08442
G1 X113.242 Y115.279 E12.09193
G1 X113.003 Y115.371 E12.10215
G1 X112.946 Y115.393 E12.10459
G1 X112.897 Y115.397 E12.10655
G1 X112.811 Y115.405 E12.11
G1 X108.704 Y115.405 E12.27392
G1 X108.232 Y115.405 E12.29276
G1 X107.934 Y115.344 E12.3049
G1 X107.69 Y115.191 E12.31639
G1 X107.476 Y114.874 E12.33166
G1 X106.527 Y112.335 E12.43984
G1 X106.52 Y112.317 E12.44061
G1 X106.516 Y112.306 E12.44108
G1 X106.429 Y112.075 E12.45093
G1 X106.387 Y111.748 E12.46409
G1 X106.439 Y111.505 E12.47401
G1 X107.664 Y108.236 E12.61334
G1 X107.704 Y108.205 E12.61536
G1 X108.304 Y108.206 E12.63931
G1 X108.336 Y108.233 E12.64098
G1 X108.336 Y109.927 E12.70859
G1 X107.544 Y110.717 E12.75324
G1 X107.215 Y110.925 E12.76878
G1 X106.945 Y111.296 E12.78709
G1 X106.835 Y111.74 E12.80535
G1 X106.891 Y112.166 E12.82249
G1 X106.892 Y112.177 E12.82293
G1 X106.901 Y112.194 E12.8237
G1 X107.11 Y112.574 E12.84101
G1 X107.6 Y112.946 E12.86556
G1 X108.336 Y113.683 E12.90713
G1 X108.337 Y114.681 E12.94697
G1 X108.489 Y114.935 E12.95878
G1 X108.704 Y115.005 E12.9678
G1 X112.811 Y115.005 E13.13172
G1 X112.862 Y115.005 E13.13374
G1 X113.132 Y114.881 E13.14556
G1 X113.22 Y114.61 E13.15693
G1 X113.215 Y114.551 E13.1592
G1 X112.556 Y107.037 E13.45988
G1 X112.382 Y106.799 E13.47164
G1 X112.161 Y106.75 E13.48068
G1 X111.177 Y106.836 E13.5201
G1 X111.132 Y106.803 E13.52233
G1 X110.966 Y104.927 E13.5975
G1 X110.941 Y104.634 E13.60492
G0 F9000 X111.396 Y105.249
;TYPE:WALL-INNER
G1 F1800 X111.71 Y105.396 E13.61875
G1 X112.214 Y105.632 E13.64096
G1 X112.366 Y105.755 E13.64877
G1 X112.467 Y106.001 E13.65938
G1 X112.468 Y106.004 E13.65951
G1 X112.495 Y106.319 E13.67213
G1 X112.504 Y106.416 E13.67602
G1 X112.383 Y106.39 E13.67797
G1 X112.38 Y106.39 E13.67809
G1 X112.187 Y106.346 E13.68599
G1 X111.498 Y106.407 E13.7136
G1 X111.426 Y105.594 E13.74617
G1 X111.396 Y105.249 E13.754
G0 F9000 X112.69 Y106.986
G0 X113.36 Y114.626
G0 X113.243 Y114.98
G0 X112.892 Y115.144
G0 X108.682 Y115.144
G0 X108.398 Y115.049
G0 X106.757 Y112.221
G0 X106.694 Y111.732
G0 X106.763 Y111.452
G0 X107.936 Y108.651
G1 F1800 X107.936 Y109.762 E13.79835
G1 X107.295 Y110.401 E13.83447
G1 X107.275 Y110.414 E13.83542
G1 X107.281 Y110.397
G1 X107.57 Y109.626 E13.85284
G1 X107.936 Y108.651 E13.87274
G0 F9000 X106.817 Y111.237
G0 X106.694 Y111.732
G0 X106.744 Y112.128
G0 X108.016 Y114.923
G1 F1800 X107.923 Y114.803 E13.8788
G1 X107.834 Y114.688 E13.88461
G1 X107.572 Y113.986 E13.91451
G1 X107.301 Y113.263 E13.94533
G1 X107.279 Y113.205 E13.94781
G1 X107.337 Y113.249 E13.94823
G1 X107.936 Y113.849 E13.96729
G1 X107.936 Y114.687 E13.98865
G1 X107.937 Y114.792 E13.98882
G1 X108.016 Y114.923 E13.98895
G0 F9000 X108.682 Y115.144
G0 X112.892 Y115.144
G0 X113.243 Y114.98
G0 X113.36 Y114.626
G0 X112.69 Y106.986
G0 X111.978 Y105.963
G1 F1800 X111.861 Y105.973 E13.99364
G1 X111.855 Y105.905 E13.99636
G1 X111.886 Y105.919
M104 S195
G1 X111.978 Y105.963 E13.99649
;MESH:NONMESH
G0 F300 X111.978 Y105.963 Z0.48
G0 F9000 X111.11 Y104.839
G0 X110.941 Y104.634
;TIME_ELAPSED:19.810101
;LAYER:1
M140 S40
M106 S127.5
;TYPE:WALL-OUTER
;MESH:Inland_1kg_Filament_Spool_Clip.3mf
G1 F600 X111.036 Y104.641 E14.00029
G1 X111.277 Y104.753 E14.0109
G1 X112.424 Y105.289 E14.06143
G1 X112.673 Y105.487 E14.07413
G1 X112.822 Y105.751 E14.08623
G1 X112.865 Y105.952 E14.09443
G1 X112.957 Y107.001 E14.13646
G1 X113.613 Y114.516 E14.43754
G1 X113.601 Y114.644 E14.44267
G1 X113.584 Y114.824 E14.44989
G1 X113.473 Y115.047 E14.45983
G1 X113.454 Y115.085 E14.46153
G1 X113.384 Y115.15 E14.46534
G1 X113.243 Y115.279 E14.47297
G1 X113.003 Y115.37 E14.48321
G1 X112.945 Y115.393 E14.4857
G1 X112.899 Y115.397 E14.48754
G1 X112.811 Y115.405 E14.49107
G1 X108.705 Y115.405 E14.65495
G1 X108.231 Y115.405 E14.67387
G1 X107.932 Y115.344 E14.68605
G1 X107.691 Y115.192 E14.69742
G1 X107.476 Y114.873 E14.71277
G1 X106.425 Y112.061 E14.83259
G1 X106.387 Y111.749 E14.84514
G1 X106.439 Y111.505 E14.85509
G1 X107.664 Y108.236 E14.99443
G1 X107.704 Y108.205 E14.99645
G1 X108.304 Y108.206 E15.02039
G1 X108.336 Y108.233 E15.02206
G1 X108.336 Y110.046 E15.09442
G1 X107.728 Y110.653 E15.12871
G1 X107.374 Y110.8 E15.14401
G1 X107.049 Y111.116 E15.16211
G1 X106.869 Y111.515 E15.17958
G1 X106.842 Y111.957 E15.19725
G1 X106.984 Y112.389 E15.2154
G1 X107.271 Y112.734 E15.23331
G1 X107.747 Y112.975 E15.25461
G1 X108.336 Y113.565 E15.28788
G1 X108.337 Y114.683 E15.3325
