;FLAVOR:Marlin
;TIME:3503
;Filament used: 2.20573m
;Layer height: 0.2
;MINX:68.131
;MINY:69.245
;MINZ:0.24
;MAXX:151.867
;MAXY:150.771
;MAXZ:9.88
;Generated with Cura_SteamEngine 4.10.0
M82 ;absolute extrusion mode
M201 X500.00 Y500.00 Z100.00 E5000.00 ;Setup machine max acceleration
M203 X500.00 Y500.00 Z10.00 E50.00 ;Setup machine max feedrate
M204 P500.00 R1000.00 T500.00 ;Setup Print/Retract/Travel acceleration
M205 X8.00 Y8.00 Z0.40 E5.00 ;Setup Jerk
M220 S100 ;Reset Feedrate
M221 S100 ;Reset Flowrate

;*** Start Dual Nozzle/Bed Preheating ***
M140 S50 ; start preheating the bed
M104 S200 ?T0 ; start preheating hotend
M190 S50 ; heat to Cura Bed setting and WAIT
M109 S200 ?T0 ; heat to Cura Hotend and WAIT
;*** End Preheating ***

;*** Single Print Start Tone
M300 S1000 P500 ; chirp to indicate starting to print
;*** End Single Start Tone

G28 ;Home

G92 E0 ;Reset Extruder
G1 Z2.0 F3000 ;Move Z Axis up

G1 X10.1 Y20 Z0.28 F5000.0 ;Move to start position
G1 X10.1 Y200.0 Z0.28 F1500.0 E15 ;Draw the first line
G1 X10.4 Y200.0 Z0.28 F5000.0 ;Move to side a little
G1 X10.4 Y20 Z0.28 F1500.0 E30 ;Draw the second line
G92 E0 ;Reset Extruder
G1 Z2.0 F3000 ;Move Z Axis up
G92 E0
G92 E0
G1 F2400 E-3.2
;LAYER_COUNT:46
;LAYER:0
M106 S63.8
M204 S500
M205 X6 Y6
G0 F9000 X84.822 Y86.295 Z0.24
;TYPE:SKIRT
G1 F1440 E0
G1 F1800 X86.522 Y84.617 E0.09534
G1 X87.295 Y83.874 E0.13813
G1 X87.71 Y83.49 E0.1607
G1 X89.67 Y81.729 E0.26586
G1 X90.459 Y81.039 E0.30769
G1 X90.686 Y80.846 E0.31959
G1 X92.77 Y79.129 E0.42736
G1 X93.678 Y78.394 E0.47398
G1 X93.918 Y78.206 E0.48615
G1 X96.209 Y76.462 E0.60107
G1 X97.561 Y75.466 E0.66809
G1 X98.049 Y75.117 E0.69204
G1 X98.698 Y74.664 E0.72363
G1 X99.808 Y73.899 E0.77743
G1 X100.662 Y73.318 E0.81866
G1 X101.71 Y72.61 E0.86914
G1 X102.385 Y72.159 E0.90154
G1 X103.035 Y71.731 E0.9326
G1 X103.554 Y71.394 E0.9573
G1 X104.014 Y71.104 E0.979
G1 X104.603 Y70.748 E1.00647
G1 X105.398 Y70.32 E1.0425
G1 X105.965 Y70.067 E1.06729
G1 X106.126 Y70.001 E1.07423
G1 X106.976 Y69.696 E1.11027
G1 X107.85 Y69.467 E1.14633
G1 X108.74 Y69.316 E1.18236
G1 X109.64 Y69.245 E1.2184
G1 X110.543 Y69.254 E1.25444
G1 X111.442 Y69.342 E1.29049
G1 X112.33 Y69.51 E1.32656
G1 X113.199 Y69.755 E1.3626
G1 X114.043 Y70.077 E1.39865
G1 X115.118 Y70.619 E1.4467
G1 X115.693 Y70.953 E1.47324
G1 X116.431 Y71.412 E1.50793
G1 X117.079 Y71.835 E1.53882
G1 X117.703 Y72.249 E1.5687
G1 X118.395 Y72.713 E1.60196
G1 X118.901 Y73.055 E1.62633
G1 X119.711 Y73.609 E1.6655
G1 X120.178 Y73.933 E1.68819
G1 X120.546 Y74.192 E1.70615
G1 X121.02 Y74.53 E1.72938
G1 X122.855 Y75.855 E1.81972
G1 X123.938 Y76.659 E1.87355
G1 X125.398 Y77.77 E1.94678
G1 X126.645 Y78.749 E2.01005
G1 X127.864 Y79.734 E2.0726
G1 X129.161 Y80.813 E2.13994
G1 X130.176 Y81.682 E2.19327
G1 X131.534 Y82.882 E2.2656
G1 X132.433 Y83.702 E2.31417
G1 X133.739 Y84.931 E2.38574
G1 X134.593 Y85.762 E2.4333
G1 X134.72 Y85.887 E2.44041
G1 X136.06 Y87.242 E2.51647
G1 X136.581 Y87.786 E2.54654
G1 X136.717 Y87.931 E2.55447
G1 X137.986 Y89.309 E2.62924
G1 X138.467 Y89.849 E2.6581
G1 X138.605 Y90.007 E2.66648
G1 X139.917 Y91.549 E2.74728
G1 X140.05 Y91.709 E2.75559
G1 X140.588 Y92.37 E2.7896
G1 X141.19 Y93.128 E2.82824
G1 X141.386 Y93.383 E2.84107
G1 X142.228 Y94.516 E2.89741
G1 X142.865 Y95.398 E2.94084
G1 X143.043 Y95.652 E2.95322
G1 X143.716 Y96.648 E3.00119
G1 X144.276 Y97.501 E3.04192
G1 X144.441 Y97.762 E3.05424
G1 X144.895 Y98.504 E3.08896
G1 X145.013 Y98.704 E3.09823
G1 X145.431 Y99.396 E3.1305
G1 X145.8 Y100.037 E3.16002
G1 X146.231 Y100.816 E3.19555
G1 X146.728 Y101.745 E3.2376
G1 X146.883 Y102.048 E3.25119
G1 X147.396 Y103.092 E3.29761
G1 X147.751 Y103.842 E3.33073
G1 X148.021 Y104.442 E3.35699
G1 X148.381 Y105.28 E3.39339
G1 X148.697 Y106.042 E3.42632
G1 X148.955 Y106.703 E3.45464
G1 X149.251 Y107.503 E3.48868
G1 X149.519 Y108.259 E3.5207
G1 X149.604 Y108.511 E3.53131
G1 X149.825 Y109.192 E3.55989
G1 X150.026 Y109.84 E3.58696
G1 X150.292 Y110.752 E3.62488
G1 X150.442 Y111.309 E3.6479
G1 X150.613 Y111.985 E3.67574
G1 X150.807 Y112.801 E3.70921
G1 X150.869 Y113.077 E3.7205
G1 X151.039 Y113.901 E3.75408
G1 X151.148 Y114.468 E3.77713
G1 X151.27 Y115.149 E3.80474
G1 X151.317 Y115.433 E3.81623
G1 X151.439 Y116.252 E3.84928
G1 X151.515 Y116.817 E3.87203
G1 X151.633 Y117.789 E3.91111
G1 X151.692 Y118.409 E3.93597
G1 X151.801 Y119.985 E3.99902
G1 X151.821 Y120.397 E4.01548
G1 X151.863 Y121.866 E4.07414
G1 X151.867 Y122.232 E4.08875
G1 X151.862 Y122.921 E4.11625
G1 X151.841 Y123.604 E4.14352
G1 X151.782 Y124.704 E4.18749
G1 X151.736 Y125.28 E4.21055
G1 X151.648 Y126.154 E4.24561
G1 X151.563 Y126.84 E4.2732
G1 X151.493 Y127.325 E4.29275
G1 X151.347 Y128.22 E4.32895
G1 X151.284 Y128.546 E4.3422
G1 X151.124 Y129.319 E4.37371
G1 X150.986 Y129.928 E4.39863
G1 X150.913 Y130.227 E4.41091
G1 X150.731 Y130.919 E4.43947
G1 X150.528 Y131.624 E4.46875
G1 X150.459 Y131.852 E4.47826
G1 X150.276 Y132.427 E4.50234
G1 X150.023 Y133.159 E4.53326
G1 X149.932 Y133.41 E4.54391
G1 X149.663 Y134.116 E4.57407
G1 X149.461 Y134.607 E4.59526
G1 X149.107 Y135.408 E4.63021
G1 X148.951 Y135.744 E4.64499
G1 X148.655 Y136.353 E4.67202
G1 X148.482 Y136.692 E4.68721
G1 X148.152 Y137.311 E4.71521
G1 X147.956 Y137.663 E4.73129
G1 X147.615 Y138.246 E4.75824
G1 X147.41 Y138.58 E4.77389
G1 X147.051 Y139.143 E4.80054
G1 X146.819 Y139.491 E4.81723
G1 X146.419 Y140.065 E4.84515
G1 X146.186 Y140.386 E4.86098
G1 X145.798 Y140.899 E4.88666
G1 X145.538 Y141.229 E4.90342
G1 X145.1 Y141.761 E4.93093
G1 X144.833 Y142.072 E4.94729
G1 X144.324 Y142.642 E4.97779
G1 X144.051 Y142.936 E4.9938
G1 X143.418 Y143.591 E5.03016
G1 X142.948 Y144.052 E5.05643
G1 X142.366 Y144.586 E5.08796
G1 X141.971 Y144.929 E5.10884
G1 X141.473 Y145.342 E5.13466
G1 X141.253 Y145.517 E5.14588
G1 X140.853 Y145.827 E5.16608
G1 X140.407 Y146.159 E5.18827
G1 X140.188 Y146.315 E5.199
G1 X139.762 Y146.61 E5.21968
G1 X139.318 Y146.905 E5.24096
G1 X138.671 Y147.308 E5.27138
G1 X138.078 Y147.655 E5.2988
G1 X137.488 Y147.978 E5.32565
G1 X136.829 Y148.313 E5.35515
G1 X136.28 Y148.575 E5.37943
G1 X135.565 Y148.89 E5.41062
G1 X134.989 Y149.125 E5.43545
G1 X134.273 Y149.392 E5.46594
G1 X133.572 Y149.629 E5.49548
G1 X132.876 Y149.838 E5.52448
G1 X131.723 Y150.144 E5.57209
G1 X131.169 Y150.274 E5.59481
G1 X130.54 Y150.4 E5.62041
G1 X130.007 Y150.491 E5.64199
G1 X129.319 Y150.586 E5.66971
G1 X128.651 Y150.661 E5.69654
G1 X128.124 Y150.707 E5.71765
G1 X127.398 Y150.747 E5.74667
G1 X126.819 Y150.766 E5.7698
G1 X126.391 Y150.771 E5.78688
G1 X125.843 Y150.766 E5.80875
G1 X125.094 Y150.743 E5.83866
G1 X124.834 Y150.73 E5.84905
G1 X124.11 Y150.686 E5.878
G1 X123.364 Y150.617 E5.9079
G1 X123.114 Y150.587 E5.91795
G1 X122.311 Y150.48 E5.95028
G1 X120.342 Y150.229 E6.02951
G1 X117.825 Y149.975 E6.13048
G1 X115.303 Y149.792 E6.2314
G1 X112.762 Y149.68 E6.33291
G1 X110.201 Y149.64 E6.43514
G1 X107.668 Y149.672 E6.53625
G1 X105.161 Y149.775 E6.63639
G1 X102.603 Y149.952 E6.73873
G1 X100.073 Y150.199 E6.84019
G1 X99.18 Y150.313 E6.87612
G1 X98.962 Y150.331 E6.88485
G1 X96.686 Y150.609 E6.97637
G1 X95.837 Y150.688 E7.0104
G1 X95.127 Y150.73 E7.03878
G1 X94.493 Y150.752 E7.0641
G1 X93.77 Y150.763 E7.09296
G1 X93.087 Y150.757 E7.12023
G1 X92.815 Y150.749 E7.13109
G1 X92.26 Y150.726 E7.15326
G1 X91.484 Y150.676 E7.18429
G1 X90.882 Y150.62 E7.20842
G1 X90.278 Y150.543 E7.23273
G1 X89.657 Y150.434 E7.25789
G1 X88.75 Y150.245 E7.29487
G1 X88.087 Y150.095 E7.322
G1 X87.463 Y149.944 E7.34762
G1 X87.233 Y149.883 E7.35712
G1 X86.433 Y149.635 E7.39055
G1 X85.508 Y149.305 E7.42975
G1 X85.019 Y149.122 E7.45058
G1 X84.373 Y148.869 E7.47827
G1 X83.574 Y148.515 E7.51315
G1 X82.958 Y148.206 E7.54066
G1 X82.128 Y147.763 E7.57821
G1 X81.626 Y147.486 E7.60109
G1 X80.842 Y147.005 E7.63781
G1 X79.721 Y146.246 E7.69184
G1 X79.439 Y146.045 E7.70566
G1 X78.975 Y145.706 E7.72859
G1 X78.266 Y145.138 E7.76485
G1 X77.333 Y144.318 E7.81443
G1 X77.089 Y144.095 E7.82762
G1 X76.568 Y143.607 E7.85611
G1 X75.941 Y142.966 E7.8919
G1 X75.236 Y142.176 E7.93416
G1 X74.9 Y141.787 E7.95468
G1 X74.443 Y141.243 E7.98303
G1 X73.918 Y140.561 E8.01739
G1 X73.39 Y139.811 E8.05399
G1 X73.038 Y139.293 E8.07899
G1 X72.632 Y138.68 E8.10834
G1 X72.2 Y137.965 E8.14168
G1 X71.802 Y137.241 E8.17465
G1 X71.48 Y136.634 E8.20208
G1 X71.108 Y135.906 E8.23471
G1 X70.849 Y135.358 E8.2589
G1 X70.723 Y135.064 E8.27166
G1 X70.448 Y134.391 E8.30068
G1 X70.14 Y133.612 E8.33411
G1 X69.894 Y132.967 E8.36167
G1 X69.687 Y132.371 E8.38685
G1 X69.502 Y131.759 E8.41237
G1 X69.21 Y130.716 E8.45559
G1 X69.037 Y130.064 E8.48252
G1 X68.959 Y129.75 E8.49543
G1 X68.797 Y129.049 E8.52415
G1 X68.65 Y128.327 E8.55356
G1 X68.535 Y127.663 E8.58045
G1 X68.434 Y127.001 E8.60718
G1 X68.36 Y126.445 E8.62957
G1 X68.328 Y126.159 E8.64105
G1 X68.255 Y125.415 E8.67089
G1 X68.206 Y124.782 E8.69623
G1 X68.193 Y124.568 E8.70479
G1 X68.165 Y124.012 E8.72701
G1 X68.142 Y123.308 E8.75512
G1 X68.132 Y122.716 E8.77875
G1 X68.131 Y122.484 E8.78801
G1 X68.139 Y121.568 E8.82457
G1 X68.148 Y121.232 E8.83799
G1 X68.21 Y119.745 E8.89739
G1 X68.236 Y119.324 E8.91422
G1 X68.346 Y118.003 E8.96713
G1 X68.39 Y117.58 E8.9841
G1 X68.547 Y116.328 E9.03446
G1 X68.608 Y115.915 E9.05113
G1 X68.822 Y114.635 E9.10292
G1 X68.901 Y114.215 E9.11998
G1 X69.178 Y112.9 E9.17362
G1 X69.273 Y112.49 E9.19041
G1 X69.586 Y111.258 E9.24115
G1 X69.694 Y110.866 E9.25738
G1 X70.086 Y109.546 E9.31233
G1 X70.202 Y109.18 E9.32766
G1 X70.621 Y107.942 E9.37982
G1 X70.747 Y107.592 E9.39467
G1 X71.272 Y106.209 E9.45371
G1 X71.397 Y105.896 E9.46716
G1 X71.631 Y105.336 E9.49139
G1 X71.739 Y105.086 E9.50226
G1 X72.066 Y104.361 E9.534
G1 X72.692 Y103.019 E9.5931
G1 X73.057 Y102.264 E9.62657
G1 X73.368 Y101.656 E9.65383
G1 X73.502 Y101.408 E9.66508
G1 X74.536 Y99.551 E9.74991
G1 X74.896 Y98.938 E9.77829
G1 X75.511 Y97.943 E9.82497
G1 X75.614 Y97.78 E9.83267
G1 X76.51 Y96.39 E9.89867
G1 X76.631 Y96.206 E9.90746
G1 X76.935 Y95.756 E9.92914
G1 X77.104 Y95.513 E9.94095
G1 X77.515 Y94.943 E9.969
G1 X78.684 Y93.355 E10.0477
G1 X79.119 Y92.782 E10.07641
G1 X79.287 Y92.567 E10.0873
G1 X79.807 Y91.92 E10.12043
G1 X80.981 Y90.498 E10.19403
G1 X81.652 Y89.709 E10.23537
G1 X82.135 Y89.166 E10.26438
G1 X83.652 Y87.513 E10.35392
G1 X84.359 Y86.763 E10.39506
G1 X84.822 Y86.295 E10.42133
G1 F2400 E7.22133
;MESH:ValentineBoxLid.stl
G0 F9000 X91.193 Y93.402
G0 X91.954 Y94.172
G0 X86.317 Y102.165
G0 X84.693 Y104.68
G0 X83.278 Y107.222
G0 X82.092 Y109.768
G0 X81.149 Y112.258
G0 X80.441 Y114.697
G0 X79.912 Y117.127
G0 X79.599 Y119.63
G0 X79.5 Y122.68
G0 X79.648 Y125.133
G0 X79.982 Y127.012
G0 X80.526 Y128.957
G0 X81.253 Y130.79
G0 X82.133 Y132.452
G0 X83.162 Y133.96
G0 X84.345 Y135.324
G0 X85.639 Y136.505
G0 X87.053 Y137.504
G0 X88.557 Y138.304
G0 X90.158 Y138.904
G0 X91.847 Y139.288
G0 X93.891 Y139.397
G0 X95.31 Y139.333
G0 X96.864 Y139.088
G0 X98.466 Y138.623
G0 X100.056 Y137.97
G0 X101.639 Y137.132
G0 X103.196 Y136.116
G0 X104.834 Y134.779
G0 X106.143 Y133.45
G0 X109.976 Y130.357
G0 X109.939 Y130.654
;TYPE:WALL-OUTER
G1 F1440 E10.42133
G1 F1800 X109.852 Y130.733 E10.42602
G1 X109.72 Y130.855 E10.4332
G1 X109.706 Y130.878 E10.43427
G1 X109.35 Y131.353 E10.45797
G1 X108.877 Y131.932 E10.48781
G1 X108.397 Y132.49 E10.51718
G1 X107.864 Y133.085 E10.54907
G1 X107.223 Y133.77 E10.58651
G1 X106.682 Y134.33 E10.61759
G1 X106.048 Y134.961 E10.65329
G1 X105.498 Y135.487 E10.68366
G1 X105.019 Y135.922 E10.70949
G1 X104.567 Y136.3 E10.733
G1 X103.774 Y136.897 E10.77262
G1 X102.965 Y137.452 E10.81178
G1 X102.142 Y137.963 E10.85044
G1 X101.281 Y138.444 E10.8898
G1 X100.469 Y138.849 E10.92602
G1 X99.619 Y139.224 E10.9631
G1 X98.781 Y139.542 E10.99887
G1 X97.929 Y139.814 E11.03457
G1 X97.091 Y140.032 E11.06913
G1 X96.27 Y140.194 E11.10253
G1 X95.397 Y140.3 E11.13763
G1 X94.438 Y140.356 E11.17597
G1 X93.912 Y140.368 E11.19697
G1 X93.391 Y140.367 E11.21776
G1 X92.432 Y140.328 E11.25607
G1 X91.689 Y140.249 E11.28589
G1 X89.982 Y139.861 E11.35576
G1 X89.866 Y139.832 E11.36053
G1 X88.167 Y139.196 E11.43294
G1 X86.539 Y138.33 E11.50654
G1 X85.034 Y137.265 E11.58012
G1 X83.644 Y136 E11.65514
G1 X82.398 Y134.56 E11.73114
G1 X81.303 Y132.956 E11.80865
G1 X80.366 Y131.189 E11.88848
G1 X79.607 Y129.276 E11.97062
G1 X79.04 Y127.25 E12.05459
G1 X78.926 Y126.717 E12.07635
G1 X78.83 Y126.213 E12.09682
G1 X78.686 Y125.264 E12.13513
G1 X78.634 Y124.805 E12.15357
G1 X78.592 Y124.3 E12.1738
G1 X78.562 Y123.807 E12.19351
G1 X78.542 Y123.298 E12.21384
G1 X78.529 Y122.703 E12.23759
G1 X78.526 Y122.112 E12.26118
G1 X78.554 Y120.811 E12.31312
G1 X78.633 Y119.529 E12.36438
G1 X78.766 Y118.25 E12.41571
G1 X78.951 Y116.987 E12.46665
G1 X79.189 Y115.725 E12.51791
G1 X79.487 Y114.443 E12.57044
G1 X79.829 Y113.203 E12.62178
G1 X80.234 Y111.929 E12.67514
G1 X80.689 Y110.66 E12.72894
G1 X81.207 Y109.367 E12.78454
G1 X82.41 Y106.787 E12.89815
G1 X83.856 Y104.188 E13.01686
G1 X85.511 Y101.623 E13.13869
G1 X87.389 Y99.071 E13.26516
G1 X89.474 Y96.547 E13.39582
G1 X91.793 Y94.024 E13.53259
G1 X94.308 Y91.545 E13.67354
G1 X97.047 Y89.081 E13.82058
G1 X99.979 Y86.66 E13.97234
G1 X103.124 Y84.269 E14.13002
G1 X103.853 Y83.749 E14.16576
G1 X104.603 Y83.225 E14.20228
G1 X105.514 Y82.596 E14.24647
G1 X106.364 Y82.016 E14.28754
G1 X107.257 Y81.412 E14.33056
G1 X108.111 Y80.841 E14.37157
G1 X108.9 Y80.32 E14.4093
G1 X109.513 Y79.925 E14.43841
G1 X109.982 Y79.645 E14.46021
G1 X110.592 Y80.021 E14.48881
G1 X111.053 Y80.32 E14.51074
G1 X111.588 Y80.671 E14.53628
G1 X112.8 Y81.482 E14.59448
G1 X114.035 Y82.328 E14.65423
G1 X114.708 Y82.8 E14.68704
G1 X117.161 Y84.569 E14.80775
G1 X119.553 Y86.391 E14.92776
G1 X121.868 Y88.261 E15.04653
G1 X123.973 Y90.063 E15.15713
G1 X126.024 Y91.932 E15.26788
G1 X127.949 Y93.808 E15.37516
G1 X129.708 Y95.647 E15.47673
G1 X131.364 Y97.515 E15.57636
G1 X132.884 Y99.377 E15.6723
G1 X134.249 Y101.213 E15.76361
G1 X135.424 Y102.951 E15.84734
G1 X136.483 Y104.677 E15.92816
G1 X137.442 Y106.414 E16.00736
G1 X138.294 Y108.148 E16.08447
G1 X139.048 Y109.899 E16.16056
G1 X139.703 Y111.666 E16.23577
G1 X140.253 Y113.438 E16.30982
G1 X140.699 Y115.205 E16.38256
G1 X141.042 Y116.975 E16.45452
G1 X141.287 Y118.778 E16.52714
G1 X141.402 Y120.075 E16.57911
G1 X141.464 Y121.342 E16.62974
G1 X141.474 Y122.578 E16.67907
G1 X141.429 Y123.761 E16.72632
G1 X141.331 Y124.904 E16.77211
G1 X141.174 Y126.052 E16.81836
G1 X140.97 Y127.119 E16.86171
G1 X140.703 Y128.198 E16.90608
G1 X140.387 Y129.236 E16.94938
G1 X140.008 Y130.275 E16.99352
G1 X139.725 Y130.946 E17.02259
G1 X139.452 Y131.536 E17.04854
G1 X139.15 Y132.13 E17.07513
G1 X138.823 Y132.716 E17.10192
G1 X138.47 Y133.294 E17.12895
G1 X138.105 Y133.841 E17.15519
G1 X137.709 Y134.386 E17.18208
G1 X137.297 Y134.909 E17.20866
G1 X136.853 Y135.427 E17.23589
G1 X136.386 Y135.928 E17.26322
G1 X135.802 Y136.509 E17.2961
G1 X135.196 Y137.051 E17.32855
G1 X134.544 Y137.572 E17.36186
G1 X133.904 Y138.029 E17.39325
G1 X133.232 Y138.456 E17.42502
G1 X132.538 Y138.843 E17.45674
G1 X131.837 Y139.183 E17.48784
G1 X131.091 Y139.493 E17.52008
G1 X130.332 Y139.758 E17.55216
G1 X129.57 Y139.978 E17.58382
G1 X128.88 Y140.138 E17.61209
G1 X128.238 Y140.252 E17.63811
G1 X127.582 Y140.326 E17.66446
G1 X126.905 Y140.366 E17.69153
G1 X126.065 Y140.377 E17.72506
G1 X124.758 Y140.316 E17.77728
G1 X124.689 Y140.31 E17.78005
G1 X123.33 Y140.115 E17.83484
G1 X121.986 Y139.791 E17.89002
G1 X120.631 Y139.335 E17.94708
G1 X119.302 Y138.758 E18.00491
G1 X117.987 Y138.054 E18.06444
G1 X116.687 Y137.222 E18.12604
G1 X115.402 Y136.262 E18.19006
G1 X114.144 Y135.182 E18.25624
G1 X112.907 Y133.978 E18.32513
G1 X112.385 Y133.408 E18.35598
G1 X112.063 Y133.042 E18.37544
G1 X111.459 Y132.339 E18.41243
G1 X110.852 Y131.609 E18.45032
G1 X110.341 Y130.965 E18.48314
G1 X110.194 Y130.771 E18.49285
G1 X110.123 Y130.677 E18.49755
G1 X109.939 Y130.654 E18.50495
G0 F9000 X109.805 Y130.234
;TYPE:WALL-INNER
G1 F1800 X109.408 Y130.599 E18.52648
G1 X109.373 Y130.655 E18.52911
G1 X109.04 Y131.1 E18.5513
G1 X108.574 Y131.671 E18.58071
G1 X108.099 Y132.223 E18.60978
