;FLAVOR:Marlin
;TIME:1029
;Filament used: 2.01831m
;Layer height: 0.32
;MINX:91.086
;MINY:91.086
;MINZ:0.32
;MAXX:128.914
;MAXY:128.914
;MAXZ:50.88
;Generated with Cura_SteamEngine main
M82 ;absolute extrusion mode
M201 X500.00 Y500.00 Z100.00 E5000.00 ;Setup machine max acceleration
M203 X500.00 Y500.00 Z10.00 E50.00 ;Setup machine max feedrate
M204 P500.00 R1000.00 T500.00 ;Setup Print/Retract/Travel acceleration
M205 X8.00 Y8.00 Z0.40 E5.00 ;Setup Jerk
M220 S100 ;Reset Feedrate
M221 S100 ;Reset Flowrate

;*** Start Dual Nozzle/Bed Preheating ***
M140 S60 ; start preheating the bed
M104 S200 ?T0 ; start preheating hotend
M190 S60 ; heat to Cura Bed setting and WAIT
M109 S200 ?T0 ; heat to Cura Hotend and WAIT
;*** End Preheating ***


;*** Single Print Start Tone
M300 S1000 P500 ; chirp to indicate starting to print
;*** End Single Start Tone

G28 ;Home

G92 E0 ;Reset Extruder
G1 Z2.0 F3000 ;Move Z Axis up
G1 X10.1 Y20 Z0.28 F5000.0 ;Move to start position
G1 X10.1 Y200.0 Z0.28 F1500.0 E15 ;Draw the first line
G1 X10.4 Y200.0 Z0.28 F5000.0 ;Move to side a little
G1 X10.4 Y20 Z0.28 F1500.0 E30 ;Draw the second line
G92 E0 ;Reset Extruder
G1 Z2.0 F3000 ;Move Z Axis up
G92 E0
G92 E0
G1 F2700 E-5
;LAYER_COUNT:159
;LAYER:0
M106 S127.5
M204 S500
M205 X11 Y11
G0 F8100 X96.279 Y97.082 Z0.32
G0 X91.198 Y108.38
M205 X12 Y12
;TYPE:SKIRT
G1 F2700 E0
G1 F1500 X91.307 Y107.612 E0.07125
G1 X91.488 Y106.467 E0.17774
G1 X91.608 Y105.772 E0.24253
G1 X91.811 Y104.831 E0.33095
G1 X92.091 Y103.911 E0.41929
G1 X92.622 Y102.643 E0.54557
G1 X93.058 Y101.757 E0.63628
G1 X93.407 Y101.072 E0.7069
G1 X93.816 Y100.294 E0.78764
G1 X94.299 Y99.462 E0.87601
G1 X94.85 Y98.672 E0.96449
G1 X95.758 Y97.618 E1.09228
G1 X96.279 Y97.082 E1.16094
G1 X97.15 Y96.211 E1.27409
G1 X97.617 Y95.758 E1.33386
G1 X98.335 Y95.117 E1.42227
G1 X99.104 Y94.538 E1.5107
G1 X100.252 Y93.841 E1.63406
G1 X100.938 Y93.477 E1.7054
G1 X102.533 Y92.674 E1.86944
G1 X103.41 Y92.278 E1.95783
G1 X104.318 Y91.957 E2.0463
G1 X105.248 Y91.713 E2.13462
G1 X105.738 Y91.617 E2.18048
G1 X106.719 Y91.447 E2.27194
G1 X107.475 Y91.327 E2.34226
G1 X108.346 Y91.201 E2.4231
G1 X109.304 Y91.104 E2.51155
G1 X110.266 Y91.086 E2.59993
G1 X111.62 Y91.198 E2.72474
G1 X112.388 Y91.307 E2.79599
G1 X113.533 Y91.488 E2.90247
G1 X114.228 Y91.608 E2.96726
G1 X115.169 Y91.811 E3.05569
G1 X116.089 Y92.091 E3.14403
G1 X117.356 Y92.622 E3.27022
G1 X118.303 Y93.089 E3.36721
G1 X119.634 Y93.778 E3.50489
G1 X120.47 Y94.256 E3.59335
G1 X121.263 Y94.801 E3.68174
G1 X122.008 Y95.41 E3.77013
G1 X122.382 Y95.758 E3.81706
G1 X122.918 Y96.279 E3.88572
G1 X123.763 Y97.124 E3.99549
G1 X124.23 Y97.604 E4.05701
G1 X124.872 Y98.321 E4.14542
G1 X125.452 Y99.089 E4.23382
G1 X126.162 Y100.257 E4.35938
G1 X126.645 Y101.175 E4.45467
G1 X127.326 Y102.533 E4.59422
G1 X127.722 Y103.41 E4.68261
G1 X128.043 Y104.318 E4.77108
G1 X128.287 Y105.248 E4.8594
G1 X128.383 Y105.738 E4.90527
G1 X128.553 Y106.719 E4.99672
G1 X128.673 Y107.475 E5.06704
G1 X128.799 Y108.346 E5.14788
G1 X128.896 Y109.304 E5.23633
G1 X128.914 Y110.266 E5.32472
G1 X128.802 Y111.62 E5.44952
G1 X128.654 Y112.646 E5.54474
G1 X128.407 Y114.143 E5.68411
G1 X128.211 Y115.085 E5.7725
G1 X127.937 Y116.008 E5.86094
G1 X127.588 Y116.905 E5.94936
G1 X127.378 Y117.357 E5.99514
G1 X126.943 Y118.242 E6.08572
G1 X126.616 Y118.884 E6.15191
G1 X126.185 Y119.704 E6.237
G1 X125.702 Y120.536 E6.32537
G1 X125.151 Y121.325 E6.41377
G1 X124.249 Y122.374 E6.54086
G1 X123.728 Y122.911 E6.60959
G1 X122.879 Y123.76 E6.71988
G1 X122.389 Y124.236 E6.78263
G1 X121.671 Y124.877 E6.87105
G1 X120.903 Y125.457 E6.95945
G1 X119.748 Y126.159 E7.08361
G1 X119.062 Y126.523 E7.15495
G1 X117.467 Y127.326 E7.31898
G1 X116.59 Y127.722 E7.40738
G1 X115.682 Y128.043 E7.49584
G1 X114.752 Y128.287 E7.58416
G1 X114.262 Y128.383 E7.63003
G1 X113.281 Y128.553 E7.72149
G1 X112.525 Y128.673 E7.7918
G1 X111.654 Y128.799 E7.87264
G1 X110.696 Y128.896 E7.96109
G1 X109.734 Y128.914 E8.04948
G1 X108.38 Y128.802 E8.17428
G1 X107.612 Y128.693 E8.24554
G1 X106.467 Y128.512 E8.35202
G1 X105.772 Y128.392 E8.41681
G1 X104.831 Y128.189 E8.50523
G1 X103.911 Y127.909 E8.59357
G1 X102.641 Y127.377 E8.72006
G1 X101.667 Y126.896 E8.81984
G1 X100.361 Y126.219 E8.95497
G1 X99.525 Y125.741 E9.04343
G1 X98.733 Y125.195 E9.1318
G1 X97.988 Y124.586 E9.22019
G1 X97.626 Y124.249 E9.26562
G1 X97.089 Y123.728 E9.33435
G1 X96.237 Y122.876 E9.44503
G1 X95.77 Y122.396 E9.50655
G1 X95.128 Y121.679 E9.59496
G1 X94.548 Y120.911 E9.68336
G1 X93.834 Y119.735 E9.80974
G1 X93.38 Y118.876 E9.89899
G1 X93.034 Y118.198 E9.96891
G1 X92.636 Y117.391 E10.05157
G1 X92.247 Y116.511 E10.13995
G1 X91.933 Y115.602 E10.22829
G1 X91.617 Y114.263 E10.35467
G1 X91.44 Y113.238 E10.45022
G1 X91.302 Y112.357 E10.53213
G1 X91.201 Y111.654 E10.59737
G1 X91.104 Y110.696 E10.68582
G1 X91.086 Y109.734 E10.77421
G1 X91.198 Y108.38 E10.89901
M205 X11 Y11
G0 F8100 X91.719 Y109.697
M205 X12 Y12
G1 F1500 X91.824 Y108.469 E11.01222
G1 X91.959 Y107.527 E11.09964
G1 X92.111 Y106.574 E11.18829
G1 X92.231 Y105.879 E11.25307
G1 X92.429 Y104.965 E11.33898
G1 X92.705 Y104.071 E11.42493
G1 X93.189 Y102.922 E11.53946
G1 X93.621 Y102.044 E11.62934
G1 X94.375 Y100.588 E11.77996
G1 X94.846 Y99.78 E11.86587
G1 X95.384 Y99.014 E11.95186
G1 X96.212 Y98.058 E12.06803
G1 X96.733 Y97.522 E12.1367
G1 X97.59 Y96.665 E12.24803
G1 X98.057 Y96.212 E12.30779
G1 X98.756 Y95.59 E12.39374
G1 X99.505 Y95.029 E12.4797
G1 X100.548 Y94.399 E12.59164
G1 X101.234 Y94.035 E12.66297
G1 X102.816 Y93.239 E12.82565
G1 X103.67 Y92.855 E12.91167
G1 X104.553 Y92.546 E12.9976
G1 X105.846 Y92.239 E13.11968
G1 X106.818 Y92.071 E13.21029
G1 X107.574 Y91.951 E13.2806
G1 X108.436 Y91.826 E13.36061
G1 X109.367 Y91.733 E13.44656
G1 X110.303 Y91.719 E13.53255
G1 X111.531 Y91.824 E13.64576
G1 X112.473 Y91.959 E13.73318
G1 X113.426 Y92.111 E13.82183
G1 X114.121 Y92.231 E13.88661
G1 X115.035 Y92.429 E13.97252
G1 X115.929 Y92.705 E14.05847
G1 X117.078 Y93.189 E14.173
G1 X118.013 Y93.65 E14.26876
G1 X119.344 Y94.339 E14.40643
G1 X120.156 Y94.805 E14.49243
G1 X120.925 Y95.338 E14.57838
G1 X121.942 Y96.212 E14.70156
G1 X122.478 Y96.733 E14.77022
G1 X123.31 Y97.565 E14.87831
G1 X123.777 Y98.045 E14.93982
G1 X124.4 Y98.742 E15.0257
G1 X124.961 Y99.491 E15.11166
G1 X125.604 Y100.553 E15.2257
G1 X125.968 Y101.24 E15.29712
G1 X126.761 Y102.816 E15.45918
G1 X127.145 Y103.67 E15.5452
G1 X127.454 Y104.553 E15.63113
G1 X127.761 Y105.846 E15.75321
G1 X127.929 Y106.818 E15.84382
G1 X128.049 Y107.574 E15.91413
G1 X128.174 Y108.436 E15.99414
G1 X128.267 Y109.367 E16.08009
G1 X128.281 Y110.303 E16.16608
G1 X128.176 Y111.531 E16.2793
G1 X128.03 Y112.543 E16.37322
G1 X127.783 Y114.04 E16.51259
G1 X127.591 Y114.956 E16.59856
G1 X127.322 Y115.852 E16.6845
G1 X126.811 Y117.078 E16.80651
G1 X126.454 Y117.806 E16.88099
G1 X125.985 Y118.728 E16.97601
G1 X125.626 Y119.41 E17.04681
G1 X125.155 Y120.218 E17.13272
G1 X124.617 Y120.984 E17.21871
G1 X123.796 Y121.933 E17.33398
G1 X123.275 Y122.47 E17.4027
G1 X122.438 Y123.307 E17.51144
G1 X121.948 Y123.783 E17.57419
G1 X121.25 Y124.405 E17.66007
G1 X120.501 Y124.966 E17.74603
G1 X119.452 Y125.601 E17.85867
G1 X118.766 Y125.965 E17.93001
G1 X117.184 Y126.761 E18.09269
G1 X116.33 Y127.145 E18.1787
G1 X115.447 Y127.454 E18.26464
G1 X114.154 Y127.761 E18.38671
G1 X113.182 Y127.929 E18.47733
G1 X112.426 Y128.049 E18.54764
G1 X111.564 Y128.174 E18.62765
G1 X110.633 Y128.267 E18.7136
G1 X109.697 Y128.281 E18.79959
G1 X108.469 Y128.176 E18.9128
G1 X107.527 Y128.041 E19.00022
G1 X106.574 Y127.889 E19.08887
G1 X105.879 Y127.769 E19.15365
G1 X104.965 Y127.571 E19.23956
G1 X104.071 Y127.295 E19.32551
G1 X102.92 Y126.81 E19.44024
G1 X101.958 Y126.335 E19.53879
G1 X100.652 Y125.658 E19.67392
G1 X99.84 Y125.192 E19.75992
G1 X99.071 Y124.659 E19.84587
G1 X98.067 Y123.796 E19.96749
G1 X97.53 Y123.275 E20.03621
G1 X96.69 Y122.435 E20.14534
G1 X96.223 Y121.955 E20.20686
G1 X95.6 Y121.258 E20.29273
G1 X95.039 Y120.509 E20.37869
G1 X94.392 Y119.44 E20.49347
G1 X94.017 Y118.731 E20.56715
G1 X93.597 Y117.91 E20.65186
G1 X93.203 Y117.112 E20.73361
G1 X92.826 Y116.256 E20.81953
G1 X92.523 Y115.371 E20.90546
G1 X92.239 Y114.155 E21.02017
G1 X92.092 Y113.311 E21.09887
G1 X91.927 Y112.267 E21.19596
G1 X91.826 Y111.564 E21.2612
G1 X91.733 Y110.633 E21.34714
G1 X91.719 Y109.697 E21.43313
M205 X11 Y11
G0 F8100 X92.353 Y109.662
M205 X12 Y12
G1 F1500 X92.449 Y108.557 E21.53502
G1 X92.558 Y107.789 E21.60627
G1 X92.733 Y106.682 E21.70923
G1 X92.853 Y105.987 E21.77401
G1 X93.047 Y105.099 E21.85751
G1 X93.318 Y104.233 E21.94086
G1 X93.757 Y103.2 E22.04397
G1 X94.184 Y102.331 E22.13291
G1 X94.533 Y101.646 E22.20353
G1 X94.934 Y100.883 E22.28271
G1 X95.392 Y100.098 E22.36619
G1 X95.918 Y99.357 E22.44966
G1 X96.665 Y98.499 E22.55416
G1 X97.288 Y97.858 E22.63628
G1 X97.918 Y97.228 E22.71812
G1 X98.497 Y96.665 E22.7923
G1 X99.176 Y96.062 E22.87572
G1 X99.906 Y95.521 E22.95918
G1 X100.845 Y94.957 E23.0598
G1 X101.531 Y94.593 E23.13114
G1 X103.1 Y93.804 E23.29246
G1 X103.929 Y93.433 E23.37589
G1 X104.787 Y93.136 E23.4593
G1 X105.955 Y92.862 E23.5695
G1 X106.765 Y92.721 E23.64503
G1 X107.823 Y92.553 E23.74343
G1 X108.526 Y92.452 E23.80867
G1 X109.43 Y92.362 E23.89212
G1 X110.338 Y92.353 E23.97553
G1 X111.443 Y92.449 E24.07742
G1 X112.211 Y92.558 E24.14868
G1 X113.318 Y92.733 E24.25163
G1 X114.013 Y92.853 E24.31641
G1 X114.901 Y93.047 E24.39991
G1 X115.767 Y93.318 E24.48326
G1 X116.799 Y93.756 E24.58625
G1 X117.521 Y94.11 E24.66011
G1 X119.053 Y94.901 E24.81849
G1 X119.841 Y95.353 E24.90194
G1 X120.585 Y95.873 E24.98532
G1 X121.501 Y96.665 E25.09655
G1 X122.142 Y97.288 E25.17866
G1 X122.758 Y97.904 E25.25869
G1 X123.324 Y98.485 E25.3332
G1 X123.928 Y99.164 E25.41668
G1 X124.47 Y99.892 E25.50005
G1 X125.046 Y100.849 E25.60265
G1 X125.41 Y101.536 E25.67407
G1 X126.196 Y103.1 E25.83486
G1 X126.567 Y103.929 E25.91829
G1 X126.864 Y104.787 E26.00169
G1 X127.138 Y105.955 E26.1119
G1 X127.279 Y106.765 E26.18742
G1 X127.447 Y107.823 E26.28583
G1 X127.548 Y108.526 E26.35107
G1 X127.638 Y109.43 E26.43452
G1 X127.647 Y110.338 E26.51793
G1 X127.551 Y111.443 E26.61982
G1 X127.442 Y112.211 E26.69107
G1 X127.159 Y113.937 E26.85174
G1 X126.972 Y114.826 E26.93519
G1 X126.708 Y115.695 E27.01862
G1 X126.243 Y116.8 E27.12874
G1 X125.886 Y117.528 E27.20322
G1 X125.426 Y118.433 E27.29648
G1 X125.067 Y119.115 E27.36727
G1 X124.609 Y119.899 E27.45068
G1 X124.083 Y120.64 E27.53415
G1 X123.342 Y121.493 E27.63795
G1 X122.712 Y122.142 E27.72103
G1 X122.105 Y122.749 E27.79989
G1 X121.508 Y123.329 E27.87635
G1 X120.829 Y123.933 E27.95982
G1 X120.1 Y124.475 E28.04327
G1 X119.155 Y125.043 E28.14455
G1 X118.469 Y125.407 E28.21589
G1 X116.9 Y126.196 E28.37721
G1 X116.071 Y126.567 E28.46064
G1 X115.213 Y126.864 E28.54404
G1 X114.045 Y127.138 E28.65425
G1 X113.235 Y127.279 E28.72977
G1 X112.177 Y127.447 E28.82818
G1 X111.474 Y127.548 E28.89342
G1 X110.57 Y127.638 E28.97687
G1 X109.662 Y127.647 E29.06028
G1 X108.557 Y127.551 E29.16217
G1 X107.789 Y127.442 E29.23342
G1 X106.682 Y127.267 E29.33637
G1 X105.987 Y127.147 E29.40116
G1 X105.099 Y126.953 E29.48466
G1 X104.233 Y126.682 E29.56801
G1 X103.198 Y126.242 E29.67132
G1 X102.248 Y125.774 E29.7686
G1 X100.942 Y125.097 E29.90373
G1 X100.155 Y124.644 E29.98714
G1 X99.411 Y124.123 E30.07058
G1 X98.507 Y123.342 E30.18032
G1 X97.858 Y122.712 E30.2634
G1 X97.242 Y122.096 E30.34342
G1 X96.676 Y121.515 E30.41793
G1 X96.072 Y120.836 E30.50141
G1 X95.53 Y120.108 E30.58478
G1 X94.951 Y119.144 E30.68808
G1 X94.506 Y118.301 E30.77565
G1 X94.16 Y117.623 E30.84557
G1 X93.77 Y116.833 E30.9265
G1 X93.405 Y116.001 E31.00995
G1 X93.115 Y115.141 E31.09332
G1 X92.862 Y114.046 E31.19656
G1 X92.688 Y113.041 E31.29025
G1 X92.574 Y112.319 E31.3574
G1 X92.452 Y111.474 E31.43582
G1 X92.362 Y110.57 E31.51927
G1 X92.353 Y109.662 E31.60269
M205 X11 Y11
G1 F2700 E26.60269
;MESH:FencingBladeCap.stl
G0 F8100 X102.008 Y109.817
G0 X103.168 Y110
G0 X103.653 Y110
G1 F2700 E31.60269
G0 F8100 X102.989 Y110
M205 X12 Y12
;TYPE:WALL-OUTER
G1 F2520 X103.333 Y112.164 E31.81511
G1 X104.327 Y114.118 E32.02765
G1 X105.88 Y115.671 E32.24057
G1 X107.836 Y116.667 E32.45336
G1 X110 Y117.01 E32.66577
G1 X112.164 Y116.667 E32.87818
G1 X114.12 Y115.671 E33.09098
G1 X115.672 Y114.118 E33.30383
G1 X116.666 Y112.164 E33.51637
G1 X117.01 Y110 E33.72879
G1 X116.667 Y107.836 E33.9412
G1 X115.673 Y105.882 E34.15374
G1 X114.12 Y104.329 E34.36666
G1 X112.164 Y103.333 E34.57945
G1 X110 Y102.99 E34.79186
G1 X107.836 Y103.333 E35.00428
G1 X105.88 Y104.329 E35.21707
G1 X104.327 Y105.882 E35.42999
G1 X103.333 Y107.836 E35.64253
G1 X102.989 Y110 E35.85495
M205 X11 Y11
G0 F8100 X103.02 Y110.197
G1 F2700 E30.85495
G0 F8100 X103.669 Y110.095
G1 F2700 E35.85495
G0 F8100 X104.512 Y110
M205 X12 Y12
G1 F2520 X104.779 Y108.307 E36.02111
G1 X105.558 Y106.778 E36.18747
G1 X106.775 Y105.556 E36.35467
G1 X108.31 Y104.778 E36.5215
G1 X110 Y104.512 E36.68736
G1 X111.697 Y104.775 E36.85384
G1 X113.225 Y105.556 E37.0202
G1 X114.444 Y106.775 E37.18733
G1 X115.22 Y108.306 E37.35373
G1 X115.494 Y109.998 E37.5199
G1 X115.221 Y111.695 E37.68654
G1 X114.442 Y113.222 E37.85273
G1 X113.225 Y114.444 E38.01992
G1 X111.69 Y115.227 E38.18698
G1 X110 Y115.487 E38.35274
G1 X108.305 Y115.22 E38.51909
G1 X106.775 Y114.444 E38.68541
G1 X105.558 Y113.222 E38.85261
G1 X104.772 Y111.686 E39.01988
G1 X104.515 Y110.053 E39.18014
G1 X104.512 Y110 E39.18529
M205 X11 Y11
G0 F8100 X104.543 Y109.803
G0 X103.755 Y110
M205 X12 Y12
;TYPE:WALL-INNER
G1 F2141.5 X103.775 Y110.169 E39.20604
G1 F2157 X103.911 Y111.034 E39.31206
G1 F2149.2 X104.047 Y111.9 E39.41857
G1 F2141.5 X104.938 Y113.668 E39.66001
G1 F2139 X106.327 Y115.057 E39.89984
G1 F2144.1 X108.069 Y115.946 E40.13804
G1 F2151.8 X110 Y116.251 E40.3753
G1 F2149.2 X111.925 Y115.949 E40.61207
G1 X113.674 Y115.057 E40.85064
G1 F2151.8 X115.058 Y113.673 E41.08818
G1 F2149.2 X115.945 Y111.932 E41.3256
G1 F2146.7 X116.252 Y109.998 E41.56383
G1 F2149.2 X115.945 Y108.067 E41.80141
G1 F2146.7 X115.059 Y106.329 E42.03874
G1 F2144.1 X113.673 Y104.943 E42.27748
G1 F2146.7 X111.93 Y104.054 E42.51551
G1 F2151.8 X110 Y103.749 E42.75265
G1 X108.078 Y104.051 E42.98878
G1 F2146.7 X106.329 Y104.942 E43.22757
G1 X104.941 Y106.33 E43.46637
G1 X104.054 Y108.07 E43.70397
G1 F2151.8 X103.915 Y108.951 E43.81221
G1 F2157 X103.775 Y109.832 E43.92022
M104 S200
G1 F2141.5 X103.755 Y110 E43.94085
M205 X11 Y11
;MESH:NONMESH
G0 F600 X103.755 Y110 Z0.64
G0 F8100 X103.421 Y110
;TIME_ELAPSED:23.164715
;LAYER:1
M140 S40
M106 S191.2
M205 X16 Y16
;TYPE:WALL-INNER
;MESH:FencingBladeCap.stl
G1 F1773.2 X103.744 Y112.032 E44.11248
G1 X104.676 Y113.863 E44.28386
G1 X106.135 Y115.321 E44.45592
G1 F1775.9 X107.968 Y116.256 E44.62731
G1 F1773.2 X110.02 Y116.58 E44.8006
G1 X112.032 Y116.255 E44.97061
G1 X113.865 Y115.321 E45.14222
G1 X115.323 Y113.863 E45.31421
G1 F1775.9 X116.256 Y112.032 E45.48538
G1 X116.578 Y110 E45.65673
G1 F1773.2 X116.264 Y107.985 E45.82684
G1 X115.324 Y106.137 E45.99979
G1 X113.865 Y104.679 E46.17185
G1 X112.032 Y103.745 E46.34346
G1 X110 Y103.422 E46.51509
G1 F1775.9 X107.968 Y103.744 E46.68645
G1 X106.135 Y104.679 E46.85783
G1 F1773.2 X104.676 Y106.137 E47.02989
G1 X103.744 Y107.968 E47.20127
G1 X103.421 Y110 E47.3729
M205 X15.5 Y15.5
G0 F8550 X102.794 Y110
M205 X16 Y16
;TYPE:WALL-OUTER
G1 F1887.6 X103.148 Y112.226 E47.53813
G1 X104.168 Y114.232 E47.7031
G1 X105.766 Y115.83 E47.86876
G1 X107.774 Y116.852 E48.03393
G1 X110 Y117.206 E48.19916
G1 X112.226 Y116.852 E48.36439
G1 X114.234 Y115.83 E48.52955
G1 X115.832 Y114.232 E48.69522
G1 X116.852 Y112.226 E48.86018
G1 X117.206 Y110 E49.02541
G1 X116.852 Y107.774 E49.19064
G1 X115.832 Y105.768 E49.35561
G1 X114.234 Y104.17 E49.52127
G1 X112.226 Y103.148 E49.68644
G1 X110 Y102.794 E49.85167
G1 X107.774 Y103.148 E50.01689
G1 X105.766 Y104.17 E50.18206
G1 X104.168 Y105.768 E50.34772
G1 X103.148 Y107.774 E50.51269
G1 X102.794 Y110 E50.67792
M205 X15.5 Y15.5
G0 F8550 X102.825 Y110.197
G0 X103.516 Y110.089
G0 X104.003 Y109.959
G0 X104.084 Y109.972
M205 X16 Y16
