;FLAVOR:Marlin
;TIME:4162
;Filament used: 2.05229m
;Layer height: 0.16
;MINX:85.839
;MINY:88.839
;MINZ:0.24
;MAXX:134.161
;MAXY:131.139
;MAXZ:10
;Generated with Cura_SteamEngine 4.5.0
M140 S50
M105
M190 S50
M104 S220
M105
M109 S220
M82 ;absolute extrusion mode
M201 X500.00 Y500.00 Z100.00 E5000.00 ;Setup machine max acceleration
M203 X500.00 Y500.00 Z10.00 E50.00 ;Setup machine max feedrate
M204 P500.00 R1000.00 T500.00 ;Setup Print/Retract/Travel acceleration
M205 X8.00 Y8.00 Z0.40 E5.00 ;Setup Jerk
M220 S100 ;Reset Feedrate
M221 S100 ;Reset Flowrate

G28 ;Home

G92 E0 ;Reset Extruder
G1 Z2.0 F3000 ;Move Z Axis up
G1 X10.1 Y20 Z0.28 F5000.0 ;Move to start position
G1 X10.1 Y200.0 Z0.28 F1500.0 E15 ;Draw the first line
G1 X10.4 Y200.0 Z0.28 F5000.0 ;Move to side a little
G1 X10.4 Y20 Z0.28 F1500.0 E30 ;Draw the second line
G92 E0 ;Reset Extruder
G1 Z2.0 F3000 ;Move Z Axis up

G92 E0
G92 E0
G1 F1800 E-3
;LAYER_COUNT:60
;LAYER:0
M106 S63.8
M204 S500
M205 X6 Y6
G0 F9000 X114.06 Y120.754 Z0.24
;TYPE:SKIRT
G1 F1800 E0
G1 X114.763 Y120.958 E0.02922
G1 X115.925 Y121.184 E0.07646
G1 X116.956 Y121.276 E0.11778
G1 X116.457 Y121.571 E0.14091
G1 X115.664 Y121.979 E0.17651
G1 X114.83 Y122.338 E0.21275
G1 X114.223 Y122.558 E0.23851
G1 X114.275 Y121.819 E0.26808
G1 X114.213 Y121.272 E0.29005
G1 X114.06 Y120.754 E0.31161
G0 F9000 X113.626 Y120.69
G1 F1800 X113.377 Y120.079 E0.33794
G1 X114.875 Y120.574 E0.40091
G1 X115.994 Y120.79 E0.4464
G1 X117.243 Y120.895 E0.49643
G1 X118.249 Y120.875 E0.53658
G1 X117.824 Y121.186 E0.5576
G1 X117.072 Y121.675 E0.59341
G1 X116.626 Y121.934 E0.61399
G1 X115.826 Y122.344 E0.64987
G1 X114.967 Y122.714 E0.6872
G1 X114.075 Y123.028 E0.72494
G1 X113.66 Y123.15 E0.74221
G1 X113.78 Y122.786 E0.7575
G1 X113.865 Y122.272 E0.7783
G1 X113.871 Y121.751 E0.79909
G1 X113.797 Y121.235 E0.8199
G1 X113.626 Y120.69 E0.8427
G0 F9000 X113.378 Y121.206
G1 F1800 X112.623 Y119.289 E0.92493
G1 X113.857 Y119.844 E0.97893
G1 X114.986 Y120.19 E1.02606
G1 X116.063 Y120.396 E1.06983
G1 X117.27 Y120.496 E1.11816
G1 X118.312 Y120.473 E1.15976
G1 X119.543 Y120.297 E1.20939
G1 X118.824 Y120.934 E1.24773
G1 X118.044 Y121.52 E1.28667
G1 X117.27 Y122.023 E1.32351
G1 X116.815 Y122.288 E1.34453
G1 X115.977 Y122.715 E1.38207
G1 X115.132 Y123.08 E1.41881
G1 X114.224 Y123.4 E1.45723
G1 X113.293 Y123.658 E1.49579
G1 X112.999 Y123.724 E1.50782
G1 X113.247 Y123.127 E1.53362
G1 X113.398 Y122.662 E1.55313
G1 X113.471 Y122.177 E1.57271
G1 X113.464 Y121.688 E1.59222
G1 X113.378 Y121.206 E1.61177
G0 F9000 X112.886 Y120.992
G1 F1800 X112.092 Y119.045 E1.69569
G1 X111.883 Y118.64 E1.71388
G1 X111.529 Y118.195 E1.73657
G1 X111.33 Y117.995 E1.74783
G1 X112.06 Y118.507 E1.78342
G1 X113.003 Y119.042 E1.82669
G1 X114.009 Y119.474 E1.87039
G1 X115.098 Y119.806 E1.91583
G1 X116.132 Y120.002 E1.95783
G1 X117.298 Y120.097 E2.00453
G1 X118.296 Y120.073 E2.04437
G1 X119.48 Y119.902 E2.09212
G1 X120.533 Y119.63 E2.13552
G1 X120.878 Y119.511 E2.15009
G1 X120.484 Y119.943 E2.17343
G1 X119.792 Y120.629 E2.21232
G1 X119.087 Y121.236 E2.24945
G1 X118.678 Y121.555 E2.27015
G1 X118.264 Y121.854 E2.29053
G1 X117.469 Y122.37 E2.32836
G1 X117.014 Y122.634 E2.34935
G1 X116.165 Y123.069 E2.38743
G1 X115.705 Y123.277 E2.40758
G1 X114.797 Y123.632 E2.44649
G1 X113.869 Y123.923 E2.48531
G1 X112.906 Y124.155 E2.52484
G1 X112.343 Y124.257 E2.54768
G1 X112.878 Y122.973 E2.6032
G1 X113.016 Y122.539 E2.62137
G1 X113.076 Y122.087 E2.63957
G1 X113.055 Y121.632 E2.65775
G1 X112.886 Y120.992 E2.68417
G0 F9000 X112.515 Y121.143
G1 F1800 X111.721 Y119.196 E2.76809
G1 X111.527 Y118.825 E2.7848
G1 X110.965 Y118.195 E2.8185
G1 X110.643 Y117.927 E2.83522
G1 X110.247 Y117.713 E2.85318
G1 X108.994 Y117.194 E2.90731
G1 X109.345 Y116.87 E2.92638
G1 X109.918 Y116.245 E2.96022
G1 X109.998 Y116.147 E2.96527
G1 X110.639 Y116.852 E3.0033
G1 X111.405 Y117.546 E3.04455
G1 X112.289 Y118.179 E3.08795
G1 X113.196 Y118.691 E3.12952
G1 X114.162 Y119.104 E3.17145
G1 X115.209 Y119.422 E3.21512
G1 X116.201 Y119.608 E3.25541
G1 X117.325 Y119.698 E3.30041
G1 X118.281 Y119.673 E3.33858
G1 X119.416 Y119.507 E3.38436
G1 X120.428 Y119.244 E3.4261
G1 X121.384 Y118.885 E3.46685
G1 X122.188 Y118.481 E3.50277
G1 X121.772 Y119.054 E3.53103
G1 X121.15 Y119.81 E3.5701
G1 X120.782 Y120.21 E3.59179
G1 X120.081 Y120.906 E3.63122
G1 X119.323 Y121.56 E3.67118
G1 X118.493 Y122.182 E3.71258
G1 X117.667 Y122.718 E3.75188
G1 X117.214 Y122.981 E3.77278
G1 X116.315 Y123.441 E3.81309
G1 X115.383 Y123.84 E3.85355
G1 X114.441 Y124.171 E3.8934
G1 X113.481 Y124.436 E3.93315
G1 X112.989 Y124.546 E3.95327
G1 X112.479 Y124.641 E3.97398
G1 X111.979 Y124.719 E3.99417
G1 X111.705 Y124.751 E4.00518
G1 X112.509 Y122.82 E4.08867
G1 X112.632 Y122.419 E4.10541
G1 X112.678 Y122.003 E4.12211
G1 X112.643 Y121.585 E4.13886
G1 X112.515 Y121.143 E4.15722
G0 F9000 X112.227 Y121.549
G1 F1800 X111.351 Y119.347 E4.25181
G1 X111.171 Y119.013 E4.26695
G1 X110.681 Y118.477 E4.29594
G1 X110.387 Y118.237 E4.31108
G1 X110.093 Y118.082 E4.32435
G1 X108.242 Y117.314 E4.40433
G1 X108.907 Y116.739 E4.43942
G1 X109.623 Y115.974 E4.48124
G1 X109.997 Y115.482 E4.50591
G1 X110.933 Y116.581 E4.56352
G1 X111.671 Y117.247 E4.6032
G1 X112.517 Y117.851 E4.64469
G1 X113.388 Y118.341 E4.68457
G1 X114.314 Y118.734 E4.72472
G1 X115.321 Y119.038 E4.76671
G1 X116.269 Y119.214 E4.80519
G1 X117.353 Y119.299 E4.84859
G1 X118.265 Y119.274 E4.885
G1 X119.353 Y119.112 E4.9289
G1 X120.323 Y118.859 E4.96891
G1 X121.239 Y118.513 E5.00799
G1 X122.157 Y118.045 E5.04912
G1 X122.988 Y117.506 E5.08865
G1 X123.503 Y117.089 E5.1151
G1 X122.972 Y118.019 E5.15784
G1 X122.398 Y118.881 E5.19918
G1 X121.791 Y119.672 E5.23897
G1 X121.428 Y120.099 E5.26134
G1 X121.086 Y120.471 E5.28151
G1 X120.731 Y120.838 E5.30189
G1 X120.341 Y121.211 E5.32343
G1 X119.589 Y121.86 E5.36307
G1 X119.164 Y122.19 E5.38455
G1 X118.73 Y122.505 E5.40595
G1 X118.309 Y122.789 E5.42622
G1 X117.413 Y123.328 E5.46795
G1 X116.971 Y123.564 E5.48795
G1 X116.503 Y123.794 E5.50877
G1 X116.018 Y124.014 E5.53002
G1 X115.042 Y124.393 E5.57181
G1 X114.095 Y124.69 E5.61142
G1 X113.578 Y124.824 E5.63274
G1 X113.034 Y124.946 E5.65499
G1 X112.027 Y125.115 E5.69574
G1 X111.029 Y125.216 E5.73578
G1 X110.907 Y125.222 E5.74065
G1 X111.18 Y124.893 E5.75772
G1 X111.333 Y124.604 E5.77077
G1 X112.14 Y122.666 E5.85456
G1 X112.248 Y122.303 E5.86967
G1 X112.277 Y121.925 E5.8848
G1 X112.227 Y121.549 E5.89994
G0 F9000 X111.774 Y121.445
G1 F1800 X110.98 Y119.498 E5.98387
G1 X110.818 Y119.206 E5.99719
G1 X110.397 Y118.759 E6.0217
G1 X110.135 Y118.551 E6.03505
G1 X108.001 Y117.648 E6.12754
G1 X107.68 Y117.558 E6.14084
G1 X107.346 Y117.546 E6.15418
G1 X107.136 Y117.596 E6.1628
G1 X107.915 Y117.063 E6.20047
G1 X108.644 Y116.437 E6.23882
G1 X109.328 Y115.704 E6.27884
G1 X109.89 Y114.953 E6.31627
G1 X109.998 Y114.783 E6.32431
G1 X110.569 Y115.583 E6.36354
G1 X111.227 Y116.309 E6.40265
G1 X111.936 Y116.948 E6.44074
G1 X112.746 Y117.522 E6.48037
G1 X113.581 Y117.99 E6.51857
G1 X114.467 Y118.364 E6.55695
G1 X115.433 Y118.653 E6.5972
G1 X116.338 Y118.82 E6.63393
G1 X117.381 Y118.9 E6.67568
G1 X118.25 Y118.874 E6.71038
G1 X119.29 Y118.717 E6.75236
G1 X120.217 Y118.473 E6.79062
G1 X121.094 Y118.14 E6.82806
G1 X121.972 Y117.691 E6.86742
G1 X122.767 Y117.172 E6.90531
G1 X123.53 Y116.543 E6.94478
G1 X124.202 Y115.853 E6.98322
G1 X124.801 Y115.08 E7.02225
G1 X124.524 Y115.833 E7.05427
G1 X124.315 Y116.329 E7.07575
G1 X124.082 Y116.832 E7.09788
G1 X123.853 Y117.283 E7.11807
G1 X123.589 Y117.765 E7.14
G1 X123.329 Y118.203 E7.16033
G1 X123.04 Y118.654 E7.18171
G1 X122.725 Y119.111 E7.20386
G1 X122.408 Y119.539 E7.22512
G1 X121.752 Y120.336 E7.26632
G1 X121.361 Y120.762 E7.2894
G1 X120.999 Y121.135 E7.31014
G1 X120.634 Y121.485 E7.33033
G1 X120.225 Y121.849 E7.35218
G1 X119.838 Y122.172 E7.3723
G1 X119.394 Y122.517 E7.39474
G1 X118.979 Y122.819 E7.41523
G1 X118.52 Y123.129 E7.43733
G1 X118.086 Y123.4 E7.45775
G1 X117.613 Y123.675 E7.47959
G1 X117.145 Y123.924 E7.50075
G1 X116.665 Y124.16 E7.5221
G1 X116.19 Y124.376 E7.54292
G1 X115.713 Y124.571 E7.56349
G1 X115.198 Y124.762 E7.58541
G1 X114.668 Y124.938 E7.6077
G1 X113.646 Y125.219 E7.65001
G1 X113.137 Y125.333 E7.67083
G1 X112.075 Y125.512 E7.71381
G1 X111.566 Y125.574 E7.73428
G1 X111.051 Y125.616 E7.7549
G1 X110.527 Y125.642 E7.77584
G1 X109.987 Y125.651 E7.79739
G1 X109.544 Y125.642 E7.81508
G1 X110.212 Y125.326 E7.84457
G1 X110.659 Y124.904 E7.86911
G1 X110.866 Y124.641 E7.88247
G1 X111.77 Y122.512 E7.97478
G1 X111.861 Y122.191 E7.9881
G1 X111.873 Y121.857 E8.00144
G1 X111.774 Y121.445 E8.01835
G0 F9000 X111.463 Y121.803
G1 F1800 X110.61 Y119.649 E8.11082
G1 X110.394 Y119.322 E8.12646
G1 X110.114 Y119.04 E8.14232
G1 X109.787 Y118.821 E8.15803
G1 X107.848 Y118.017 E8.24181
G1 X107.575 Y117.947 E8.25305
G1 X107.293 Y117.956 E8.26431
G1 X105.14 Y118.803 E8.35666
G1 X104.81 Y119.02 E8.37242
G1 X104.528 Y119.3 E8.38828
G1 X104.309 Y119.628 E8.40402
G1 X103.505 Y121.574 E8.48806
G1 X103.435 Y121.847 E8.49931
G1 X103.444 Y122.129 E8.51057
G1 X104.298 Y124.279 E8.6029
G1 X104.514 Y124.606 E8.61854
G1 X104.794 Y124.888 E8.6344
G1 X105.119 Y125.106 E8.65002
G1 X106.398 Y125.639 E8.70533
G1 X105.662 Y125.453 E8.73562
G1 X105.141 Y125.299 E8.75731
G1 X104.638 Y125.128 E8.77851
G1 X104.122 Y124.936 E8.80049
G1 X103.612 Y124.727 E8.82248
G1 X103.117 Y124.501 E8.8442
G1 X102.646 Y124.268 E8.86518
G1 X102.136 Y123.992 E8.88832
G1 X101.704 Y123.74 E8.90828
G1 X101.224 Y123.437 E8.93094
G1 X100.762 Y123.125 E8.95319
G1 X100.335 Y122.815 E8.97425
G1 X99.892 Y122.469 E8.99668
G1 X99.495 Y122.135 E9.01739
G1 X99.069 Y121.753 E9.04023
G1 X98.671 Y121.371 E9.06225
G1 X98.294 Y120.983 E9.08384
G1 X97.943 Y120.595 E9.10472
G1 X97.59 Y120.18 E9.12646
G1 X97.234 Y119.729 E9.1494
G1 X96.916 Y119.297 E9.17081
G1 X96.615 Y118.858 E9.19205
G1 X96.317 Y118.39 E9.2142
G1 X96.048 Y117.933 E9.23536
G1 X95.778 Y117.44 E9.2578
G1 X95.536 Y116.957 E9.27936
G1 X95.297 Y116.438 E9.30216
G1 X95.097 Y115.964 E9.3227
G1 X94.905 Y115.453 E9.34448
G1 X94.718 Y114.908 E9.36748
G1 X94.57 Y114.425 E9.38764
G1 X94.42 Y113.862 E9.4109
G1 X94.307 Y113.372 E9.43097
G1 X94.197 Y112.816 E9.45359
G1 X94.11 Y112.274 E9.4755
G1 X94.043 Y111.738 E9.49706
G1 X93.996 Y111.208 E9.51829
G1 X93.963 Y110.656 E9.54036
G1 X93.949 Y110.088 E9.56304
G1 X93.955 Y109.563 E9.584
G1 X93.978 Y109.042 E9.60481
G1 X94.021 Y108.49 E9.62691
G1 X94.085 Y107.912 E9.65012
G1 X94.257 Y106.866 E9.69243
G1 X94.366 Y106.365 E9.71289
G1 X94.514 Y105.778 E9.73705
G1 X94.827 Y104.767 E9.77929
G1 X95.018 Y104.238 E9.80174
G1 X95.212 Y103.76 E9.82233
G1 X95.45 Y103.224 E9.84574
G1 X95.931 Y102.276 E9.88817
G1 X96.202 Y101.802 E9.90996
G1 X96.495 Y101.328 E9.9322
G1 X96.795 Y100.877 E9.95382
G1 X97.118 Y100.423 E9.97606
G1 X97.445 Y100 E9.9974
G1 X97.775 Y99.599 E10.01812
G1 X98.143 Y99.181 E10.04035
G1 X98.516 Y98.787 E10.06201
G1 X98.92 Y98.387 E10.0847
G1 X99.322 Y98.016 E10.10653
G1 X100.139 Y97.336 E10.14895
G1 X100.592 Y96.996 E10.17156
G1 X101.502 Y96.384 E10.21533
G1 X101.955 Y96.111 E10.23644
G1 X102.428 Y95.848 E10.25804
G1 X102.904 Y95.604 E10.27939
G1 X103.041 Y95.539 E10.28544
G1 X102.834 Y95.744 E10.29707
G1 X102.614 Y96.069 E10.31273
G1 X101.859 Y97.875 E10.39086
G1 X101.788 Y98.148 E10.40212
G1 X101.796 Y98.43 E10.41338
G1 X102.599 Y100.458 E10.50043
G1 X102.814 Y100.783 E10.51599
G1 X103.094 Y101.066 E10.53188
G1 X103.419 Y101.286 E10.54754
G1 X104.524 Y101.748 E10.59534
G1 X103.59 Y101.572 E10.63328
G1 X102.614 Y101.505 E10.67232
G1 X101.756 Y101.533 E10.70659
G1 X100.783 Y101.677 E10.74584
G1 X99.893 Y101.91 E10.78256
G1 X99.045 Y102.232 E10.81877
G1 X98.225 Y102.654 E10.85557
G1 X97.443 Y103.171 E10.89299
G1 X96.742 Y103.749 E10.92925
G1 X96.096 Y104.409 E10.96611
G1 X95.538 Y105.125 E11.00234
G1 X95.031 Y105.948 E11.04092
G1 X94.639 Y106.771 E11.07731
G1 X94.328 Y107.67 E11.11527
G1 X94.123 Y108.553 E11.15145
G1 X94.017 Y109.461 E11.18794
G1 X94.01 Y110.375 E11.22442
G1 X94.107 Y111.333 E11.26285
G1 X94.295 Y112.219 E11.299
G1 X94.593 Y113.117 E11.33676
G1 X94.952 Y113.91 E11.37151
G1 X95.456 Y114.753 E11.41071
G1 X96.003 Y115.477 E11.44692
G1 X96.638 Y116.154 E11.48397
G1 X97.353 Y116.763 E11.52146
G1 X98.102 Y117.273 E11.55762
G1 X98.942 Y117.716 E11.59553
G1 X99.781 Y118.05 E11.63157
G1 X100.688 Y118.304 E11.66916
G1 X101.578 Y118.449 E11.70515
G1 X102.524 Y118.497 E11.74296
G1 X103.44 Y118.451 E11.77956
G1 X104.364 Y118.291 E11.81699
G1 X105.24 Y118.047 E11.85328
G1 X106.096 Y117.703 E11.8901
G1 X106.933 Y117.252 E11.92805
G1 X107.686 Y116.735 E11.96451
G1 X108.381 Y116.136 E12.00113
G1 X109.033 Y115.434 E12.03937
G1 X109.568 Y114.716 E12.0751
G1 X110 Y113.987 E12.10892
G1 X110.37 Y114.629 E12.1385
G1 X110.891 Y115.346 E12.17387
G1 X111.521 Y116.038 E12.21122
G1 X112.202 Y116.648 E12.24771
G1 X112.974 Y117.194 E12.28545
G1 X113.774 Y117.639 E12.32199
G1 X114.619 Y117.995 E12.35859
G1 X115.544 Y118.269 E12.39709
G1 X116.407 Y118.426 E12.4321
G1 X117.408 Y118.501 E12.47217
G1 X118.234 Y118.474 E12.50515
G1 X119.226 Y118.322 E12.54521
G1 X120.112 Y118.087 E12.58179
G1 X120.949 Y117.767 E12.61756
G1 X121.787 Y117.336 E12.65517
G1 X122.546 Y116.839 E12.69138
G1 X123.273 Y116.237 E12.72905
G1 X123.913 Y115.577 E12.76574
G1 X124.493 Y114.824 E12.80368
G1 X124.968 Y114.053 E12.83982
G1 X125.356 Y113.243 E12.87567
G1 X125.681 Y112.301 E12.91544
G1 X125.872 Y111.448 E12.95033
G1 X125.982 Y110.531 E12.98719
G1 X125.99 Y109.592 E13.02467
G1 X125.894 Y108.665 E13.06186
G1 X125.703 Y107.778 E13.09808
G1 X125.408 Y106.89 E13.13542
G1 X125.024 Y106.039 E13.17269
G1 X124.567 Y105.276 E13.20819
G1 X123.985 Y104.51 E13.24658
G1 X123.351 Y103.836 E13.28351
G1 X122.646 Y103.236 E13.32046
G1 X121.881 Y102.717 E13.35736
G1 X121.063 Y102.282 E13.39434
G1 X120.233 Y101.951 E13.43
G1 X119.298 Y101.697 E13.46867
G1 X118.426 Y101.552 E13.50395
G1 X117.487 Y101.502 E13.54148
G1 X116.543 Y101.551 E13.57921
G1 X115.628 Y101.707 E13.61626
G1 X114.762 Y101.95 E13.65216
G1 X113.898 Y102.299 E13.68935
G1 X113.084 Y102.739 E13.72628
G1 X112.307 Y103.273 E13.76391
G1 X111.626 Y103.857 E13.79971
G1 X111.002 Y104.526 E13.83623
G1 X110.426 Y105.295 E13.87457
G1 X110 Y106.012 E13.90786
G1 X109.645 Y105.397 E13.9362
G1 X109.083 Y104.624 E13.97435
G1 X108.474 Y103.956 E14.01043
G1 X107.811 Y103.365 E14.04587
G1 X107.023 Y102.804 E14.08448
G1 X106.184 Y102.343 E14.12269
G1 X105.63 Y102.108 E14.14671
G1 X105.989 Y102.044 E14.16126
G1 X107.808 Y101.301 E14.23969
G1 X108.133 Y101.086 E14.25524
G1 X108.416 Y100.806 E14.27113
G1 X108.636 Y100.481 E14.28679
G1 X109.391 Y98.675 E14.36492
G1 X109.462 Y98.402 E14.37618
G1 X109.454 Y98.12 E14.38744
G1 X108.651 Y96.092 E14.47449
G1 X108.436 Y95.767 E14.49005
G1 X108.156 Y95.484 E14.50593
G1 X107.831 Y95.264 E14.5216
G1 X106.025 Y94.509 E14.59973
G1 X105.913 Y94.48 E14.60434
G1 X106.518 Y94.332 E14.6292
G1 X107.025 Y94.227 E14.64987
G1 X107.579 Y94.132 E14.6723
G1 X108.119 Y94.059 E14.69405
G1 X108.638 Y94.008 E14.71486
G1 X109.21 Y93.969 E14.73775
G1 X109.75 Y93.951 E14.75931
G1 X110.287 Y93.952 E14.78074
G1 X110.829 Y93.971 E14.80239
G1 X111.39 Y94.011 E14.82484
G1 X111.949 Y94.068 E14.84726
G1 X113.028 Y94.237 E14.89085
G1 X113.529 Y94.341 E14.91128
G1 X114.046 Y94.467 E14.93251
G1 X114.601 Y94.623 E14.95552
G1 X114.843 Y94.699 E14.96565
G1 X113.268 Y95.339 E15.0335
G1 X112.94 Y95.555 E15.04918
G1 X112.658 Y95.835 E15.06504
G1 X112.438 Y96.165 E15.08087
G1 X111.782 Y97.763 E15.14981
G1 X111.713 Y98.037 E15.16109
G1 X111.723 Y98.319 E15.17235
G1 X112.519 Y100.306 E15.25778
G1 X112.662 Y100.549 E15.26904
G1 X112.868 Y100.742 E15.2803
G1 X114.635 Y101.512 E15.35723
G1 X115.021 Y101.591 E15.37296
G1 X115.419 Y101.592 E15.38884
G1 X115.803 Y101.516 E15.40447
G1 X117.207 Y100.937 E15.46508
G1 X117.533 Y100.72 E15.48071
G1 X117.814 Y100.439 E15.49657
G1 X118.032 Y100.113 E15.51223
G1 X118.688 Y98.521 E15.58095
G1 X118.757 Y98.248 E15.59219
G1 X118.748 Y97.966 E15.60345
G1 X117.993 Y96.083 E15.68442
G1 X118.542 Y96.413 E15.70999
G1 X119.03 Y96.73 E15.73321
