;FLAVOR:Marlin
;TIME:3069
;Filament used: 2.2437m
;Layer height: 0.16
;MINX:76.2
;MINY:77.7
;MINZ:0.24
;MAXX:143.548
;MAXY:142.299
;MAXZ:10
;Generated with Cura_SteamEngine 4.5.0
M140 S50
M105
M190 S50
M104 S220
M105
M109 S220
M82 ;absolute extrusion mode
M201 X500.00 Y500.00 Z100.00 E5000.00 ;Setup machine max acceleration
M203 X500.00 Y500.00 Z10.00 E50.00 ;Setup machine max feedrate
M204 P500.00 R1000.00 T500.00 ;Setup Print/Retract/Travel acceleration
M205 X8.00 Y8.00 Z0.40 E5.00 ;Setup Jerk
M220 S100 ;Reset Feedrate
M221 S100 ;Reset Flowrate

G28 ;Home

G92 E0 ;Reset Extruder
G1 Z2.0 F3000 ;Move Z Axis up
G1 X10.1 Y20 Z0.28 F5000.0 ;Move to start position
G1 X10.1 Y200.0 Z0.28 F1500.0 E15 ;Draw the first line
G1 X10.4 Y200.0 Z0.28 F5000.0 ;Move to side a little
G1 X10.4 Y20 Z0.28 F1500.0 E30 ;Draw the second line
G92 E0 ;Reset Extruder
G1 Z2.0 F3000 ;Move Z Axis up

G92 E0
G92 E0
G1 F1800 E-3
;LAYER_COUNT:57
;LAYER:0
M106 S63.8
M204 S500
M205 X6 Y6
G0 F9000 X78.754 Y87.146 Z0.24
;TYPE:SKIRT
G1 F1800 E0
G1 X79.158 Y86.839 E0.02025
G1 X79.613 Y86.584 E0.04107
G1 X80.096 Y86.392 E0.06181
G1 X80.561 Y86.272 E0.08098
G1 X81.107 Y86.211 E0.10291
G1 X82.078 Y86.301 E0.14183
G1 X82.549 Y86.444 E0.16148
G1 X83.069 Y86.674 E0.18417
G1 X83.441 Y86.905 E0.20165
G1 X83.848 Y87.241 E0.22271
G1 X84.202 Y87.622 E0.24347
G1 X84.483 Y88.018 E0.26285
G1 X84.72 Y88.473 E0.28332
G1 X84.968 Y89.156 E0.31233
G1 X84.881 Y89.265 E0.31789
G1 X84.683 Y88.614 E0.34505
G1 X84.356 Y87.968 E0.37395
G1 X83.856 Y87.365 E0.40521
G1 X83.291 Y86.908 E0.43422
G1 X82.647 Y86.57 E0.46325
G1 X81.913 Y86.355 E0.49377
G1 X81.174 Y86.295 E0.52336
G1 X80.457 Y86.379 E0.55218
G1 X79.761 Y86.613 E0.58148
G1 X78.956 Y87.055 E0.61814
G1 X78.722 Y87.293 E0.63146
G1 X77.979 Y88.67 E0.69391
G1 X77.561 Y90.129 E0.75448
G1 X77.556 Y90.432 E0.76658
G1 X77.738 Y91.172 E0.79699
G1 X78.028 Y91.834 E0.82584
G1 X78.477 Y92.454 E0.85639
G1 X78.994 Y92.936 E0.8846
G1 X79.631 Y93.335 E0.9146
G1 X80.329 Y93.588 E0.94423
G1 X81.056 Y93.702 E0.97361
G1 X81.81 Y93.663 E1.00374
G1 X81.969 Y93.631 E1.01021
G1 X81.9 Y93.755 E1.01588
G1 X81.148 Y93.79 E1.04592
G1 X80.656 Y93.746 E1.06564
G1 X80.192 Y93.641 E1.08463
G1 X79.689 Y93.454 E1.10604
G1 X79.239 Y93.214 E1.1264
G1 X78.859 Y92.942 E1.14505
G1 X78.476 Y92.583 E1.166
G1 X78.168 Y92.205 E1.18546
G1 X77.887 Y91.744 E1.20701
G1 X77.679 Y91.276 E1.22745
G1 X77.548 Y90.828 E1.24608
G1 X77.472 Y90.308 E1.26706
G1 X77.466 Y89.793 E1.28761
G1 X77.528 Y89.301 E1.3074
G1 X77.66 Y88.792 E1.32839
G1 X77.847 Y88.337 E1.34803
G1 X78.1 Y87.893 E1.36842
G1 X78.418 Y87.478 E1.38929
G1 X78.754 Y87.146 E1.40814
G0 F9000 X78.496 Y86.839
G1 F1800 X78.934 Y86.506 E1.4301
G1 X79.438 Y86.224 E1.45315
G1 X79.972 Y86.011 E1.4761
G1 X80.489 Y85.878 E1.4974
G1 X81.095 Y85.81 E1.52174
G1 X82.171 Y85.912 E1.56488
G1 X82.689 Y86.068 E1.58647
G1 X83.252 Y86.317 E1.61104
G1 X83.677 Y86.58 E1.63099
G1 X84.127 Y86.952 E1.65429
G1 X84.511 Y87.366 E1.67683
G1 X84.825 Y87.807 E1.69844
G1 X85.088 Y88.314 E1.72123
G1 X85.421 Y89.229 E1.7601
G1 X85.007 Y89.75 E1.78666
G1 X84.519 Y90.399 E1.81907
G1 X84.555 Y89.983 E1.83573
G1 X84.497 Y89.37 E1.86031
G1 X84.302 Y88.734 E1.88686
G1 X84.001 Y88.153 E1.91297
G1 X83.553 Y87.626 E1.94058
G1 X83.044 Y87.223 E1.96649
G1 X82.466 Y86.927 E1.99241
G1 X81.807 Y86.741 E2.01974
G1 X81.148 Y86.694 E2.04611
G1 X80.51 Y86.776 E2.07178
G1 X79.895 Y86.99 E2.09777
G1 X79.152 Y87.404 E2.13172
G1 X79.074 Y87.483 E2.13615
G1 X78.331 Y88.86 E2.1986
G1 X77.946 Y90.236 E2.25563
G1 X78.127 Y91.077 E2.28996
G1 X78.392 Y91.669 E2.31585
G1 X78.796 Y92.213 E2.34289
G1 X79.262 Y92.639 E2.36809
G1 X79.838 Y92.993 E2.39508
G1 X80.458 Y93.209 E2.42128
G1 X81.113 Y93.306 E2.44771
G1 X81.782 Y93.264 E2.47446
G1 X82.415 Y93.094 E2.50062
G1 X82.876 Y92.867 E2.52113
G1 X82.579 Y93.363 E2.54421
G1 X82.152 Y94.123 E2.579
G1 X81.131 Y94.191 E2.61984
G1 X80.598 Y94.143 E2.6412
G1 X80.078 Y94.025 E2.66248
G1 X79.525 Y93.82 E2.68602
G1 X79.028 Y93.555 E2.7085
G1 X78.606 Y93.253 E2.72921
G1 X78.184 Y92.857 E2.75231
G1 X77.839 Y92.434 E2.7741
G1 X77.529 Y91.926 E2.79785
G1 X77.303 Y91.415 E2.82015
G1 X77.156 Y90.912 E2.84106
G1 X77.073 Y90.341 E2.86409
G1 X77.065 Y89.77 E2.88689
G1 X77.134 Y89.227 E2.90873
G1 X77.28 Y88.665 E2.93191
G1 X77.486 Y88.164 E2.95353
G1 X77.766 Y87.672 E2.97612
G1 X78.118 Y87.213 E2.99921
G1 X78.496 Y86.839 E3.02043
G1 F1800 E0.02043
G0 F9000 X78.45 Y110.862
G0 X78.619 Y113.443
G0 X78.954 Y115.747
G0 X81.096 Y125.811
G1 F1800 E3.02043
G1 X82.131 Y125.839 E3.06176
G1 X82.58 Y126.635 E3.09823
G1 X82.876 Y127.133 E3.12135
G1 X82.431 Y126.911 E3.1412
G1 X81.805 Y126.741 E3.16709
G1 X81.144 Y126.695 E3.19354
G1 X80.516 Y126.774 E3.2188
G1 X79.897 Y126.986 E3.24492
G1 X79.146 Y127.411 E3.27936
G1 X79.069 Y127.49 E3.28376
G1 X78.33 Y128.86 E3.34589
G1 X77.947 Y130.235 E3.40286
G1 X78.128 Y131.078 E3.43727
G1 X78.39 Y131.665 E3.46292
G1 X78.793 Y132.209 E3.48995
G1 X79.263 Y132.642 E3.51545
G1 X79.836 Y132.99 E3.54221
G1 X80.46 Y133.21 E3.56862
G1 X81.115 Y133.307 E3.59504
G1 X81.783 Y133.265 E3.62176
G1 X82.418 Y133.093 E3.64801
G1 X83.024 Y132.79 E3.67506
G1 X83.524 Y132.4 E3.70037
G1 X83.968 Y131.884 E3.72753
G1 X84.292 Y131.286 E3.75468
G1 X84.488 Y130.676 E3.78025
G1 X84.555 Y130.014 E3.80681
G1 X84.519 Y129.601 E3.82336
G1 X85.005 Y130.248 E3.85565
G1 X85.408 Y130.756 E3.88153
G1 X85.145 Y131.551 E3.91495
G1 X84.895 Y132.072 E3.93802
G1 X84.579 Y132.549 E3.96086
G1 X84.214 Y132.963 E3.98288
G1 X83.79 Y133.331 E4.00529
G1 X83.289 Y133.661 E4.02924
G1 X82.899 Y133.849 E4.04652
G1 X82.261 Y134.066 E4.07341
G1 X81.755 Y134.157 E4.09393
G1 X81.134 Y134.187 E4.11875
G1 X80.588 Y134.139 E4.14062
G1 X80.065 Y134.022 E4.16201
G1 X79.539 Y133.825 E4.18443
G1 X79.033 Y133.556 E4.2073
G1 X78.603 Y133.244 E4.22851
G1 X78.195 Y132.867 E4.25068
G1 X77.836 Y132.427 E4.27334
G1 X77.547 Y131.951 E4.29557
G1 X77.309 Y131.424 E4.31865
G1 X77.156 Y130.905 E4.34024
G1 X77.073 Y130.341 E4.363
G1 X77.065 Y129.743 E4.38687
G1 X77.126 Y129.242 E4.40701
G1 X77.28 Y128.656 E4.43119
G1 X77.48 Y128.176 E4.45195
G1 X77.766 Y127.671 E4.47511
G1 X78.113 Y127.221 E4.49779
G1 X78.51 Y126.83 E4.52003
G1 X78.95 Y126.498 E4.54203
G1 X79.429 Y126.225 E4.56403
G1 X79.973 Y126.013 E4.58734
G1 X80.505 Y125.878 E4.60924
G1 X81.096 Y125.811 E4.63298
G0 F9000 X81.108 Y126.212
G1 F1800 X81.893 Y126.233 E4.66433
G1 X81.972 Y126.372 E4.67071
G1 X81.169 Y126.296 E4.7029
G1 X80.464 Y126.377 E4.73122
G1 X79.764 Y126.609 E4.76066
G1 X78.947 Y127.064 E4.79798
G1 X78.717 Y127.3 E4.81113
G1 X77.978 Y128.67 E4.87326
G1 X77.561 Y130.129 E4.93382
G1 X77.557 Y130.431 E4.94588
G1 X77.739 Y131.173 E4.97637
G1 X78.025 Y131.83 E5.00497
G1 X78.473 Y132.449 E5.03547
G1 X78.994 Y132.938 E5.06399
G1 X79.631 Y133.333 E5.0939
G1 X80.329 Y133.588 E5.12356
G1 X81.058 Y133.703 E5.15302
G1 X81.811 Y133.664 E5.18311
G1 X82.525 Y133.478 E5.21256
G1 X83.205 Y133.147 E5.24274
G1 X83.772 Y132.713 E5.27124
G1 X84.273 Y132.143 E5.30153
G1 X84.645 Y131.475 E5.33205
G1 X84.869 Y130.796 E5.36058
G1 X84.881 Y130.736 E5.36303
G1 X84.96 Y130.835 E5.36808
G1 X84.769 Y131.413 E5.39238
G1 X84.549 Y131.871 E5.41266
G1 X84.264 Y132.302 E5.43328
G1 X83.93 Y132.681 E5.45344
G1 X83.528 Y133.029 E5.47466
G1 X83.094 Y133.311 E5.49532
G1 X82.751 Y133.477 E5.51053
G1 X82.16 Y133.678 E5.53544
G1 X81.704 Y133.759 E5.55393
G1 X81.149 Y133.787 E5.57611
G1 X80.644 Y133.742 E5.59634
G1 X80.183 Y133.638 E5.61521
G1 X79.702 Y133.459 E5.63569
G1 X79.247 Y133.217 E5.65626
G1 X78.854 Y132.932 E5.67564
G1 X78.485 Y132.59 E5.69572
G1 X78.165 Y132.198 E5.71591
G1 X77.897 Y131.756 E5.73654
G1 X77.685 Y131.286 E5.75712
G1 X77.548 Y130.818 E5.77658
G1 X77.472 Y130.308 E5.79716
G1 X77.466 Y129.764 E5.81888
G1 X77.519 Y129.32 E5.83672
G1 X77.662 Y128.779 E5.85906
G1 X77.838 Y128.355 E5.87738
G1 X78.097 Y127.897 E5.89838
G1 X78.415 Y127.485 E5.91915
G1 X78.782 Y127.124 E5.9397
G1 X79.165 Y126.836 E5.95883
G1 X79.6 Y126.587 E5.97883
G1 X80.101 Y126.393 E6.00027
G1 X80.577 Y126.272 E6.01988
G1 X81.108 Y126.212 E6.0412
G1 F1800 E3.0412
;MESH:Aro_1_gold.stl
G0 F9000 X85.261 Y130.032
G0 X86.128 Y129.38
G0 X91.421 Y134.666
G0 X91.235 Y134.901
;TYPE:WALL-OUTER
G1 F1800 E6.0412
G1 X90.592 Y134.37 E6.07449
G1 X89.954 Y133.815 E6.10824
G1 X89.34 Y133.251 E6.14151
G1 X88.732 Y132.663 E6.17527
G1 X88.145 Y132.063 E6.20877
G1 X87.573 Y131.449 E6.24227
G1 X87.017 Y130.819 E6.2758
G1 X86.482 Y130.179 E6.3091
G1 X85.956 Y129.516 E6.34287
G1 X85.452 Y128.845 E6.37637
G1 X84.966 Y128.16 E6.40989
G1 X84.497 Y127.463 E6.44342
G1 X84.051 Y126.758 E6.47672
G1 X83.618 Y126.033 E6.51042
G1 X83.204 Y125.301 E6.54399
G1 X82.813 Y124.559 E6.57746
G1 X82.44 Y123.805 E6.61104
G1 X82.088 Y123.049 E6.64432
G1 X81.754 Y122.273 E6.67804
G1 X81.442 Y121.493 E6.71157
G1 X81.149 Y120.705 E6.74512
G1 X80.88 Y119.915 E6.77843
G1 X80.629 Y119.109 E6.81212
G1 X80.399 Y118.3 E6.84569
G1 X80.193 Y117.488 E6.87913
G1 X80.006 Y116.668 E6.9127
G1 X79.842 Y115.844 E6.94623
G1 X79.699 Y115.017 E6.97973
G1 X79.578 Y114.185 E7.01328
G1 X79.479 Y113.351 E7.0468
G1 X79.401 Y112.521 E7.08008
G1 X79.347 Y111.677 E7.11383
G1 X79.314 Y110.838 E7.14734
G1 X79.303 Y110.003 E7.18067
G1 X79.314 Y109.162 E7.21424
G1 X79.347 Y108.323 E7.24775
G1 X79.402 Y107.479 E7.28151
G1 X79.478 Y106.649 E7.31478
G1 X79.578 Y105.815 E7.3483
G1 X79.699 Y104.983 E7.38186
G1 X79.842 Y104.156 E7.41536
G1 X80.006 Y103.332 E7.44889
G1 X80.193 Y102.512 E7.48246
G1 X80.399 Y101.7 E7.51589
G1 X80.629 Y100.891 E7.54946
G1 X80.881 Y100.085 E7.58316
G1 X81.149 Y99.295 E7.61646
G1 X81.442 Y98.507 E7.65001
G1 X81.754 Y97.727 E7.68354
G1 X82.089 Y96.951 E7.71728
G1 X82.44 Y96.195 E7.75055
G1 X82.813 Y95.441 E7.78412
G1 X83.204 Y94.699 E7.8176
G1 X83.617 Y93.967 E7.85114
G1 X84.051 Y93.242 E7.88487
G1 X84.497 Y92.537 E7.91816
G1 X84.966 Y91.84 E7.95169
G1 X85.452 Y91.155 E7.98521
G1 X85.956 Y90.484 E8.01871
G1 X86.482 Y89.821 E8.05249
G1 X87.017 Y89.181 E8.08578
G1 X87.573 Y88.551 E8.11932
G1 X88.145 Y87.937 E8.15281
G1 X88.732 Y87.337 E8.18631
G1 X89.34 Y86.749 E8.22007
G1 X89.954 Y86.185 E8.25334
G1 X90.592 Y85.63 E8.28709
G1 X91.235 Y85.099 E8.32038
G1 X91.897 Y84.581 E8.35393
G1 X92.572 Y84.081 E8.38745
G1 X93.261 Y83.599 E8.42101
G1 X93.96 Y83.135 E8.4545
G1 X94.677 Y82.688 E8.48822
G1 X95.395 Y82.264 E8.5215
G1 X96.135 Y81.854 E8.55527
G1 X96.875 Y81.468 E8.58858
G1 X97.635 Y81.099 E8.6223
G1 X98.4 Y80.75 E8.65586
G1 X99.167 Y80.425 E8.68911
G1 X99.949 Y80.118 E8.72264
G1 X100.738 Y79.831 E8.75615
G1 X101.54 Y79.564 E8.78988
G1 X102.338 Y79.32 E8.82319
G1 X103.153 Y79.095 E8.85694
G1 X103.969 Y78.893 E8.89049
G1 X104.783 Y78.713 E8.92376
G1 X105.609 Y78.554 E8.95733
G1 X106.437 Y78.417 E8.99083
G1 X107.268 Y78.301 E9.02432
G1 X108.108 Y78.206 E9.05806
G1 X108.94 Y78.134 E9.09139
G1 X109.784 Y78.085 E9.12513
G1 X110.623 Y78.058 E9.15863
G1 X111.462 Y78.052 E9.19212
G1 X112.3 Y78.069 E9.22558
G1 X113.144 Y78.108 E9.2593
G1 X113.975 Y78.168 E9.29255
G1 X114.817 Y78.251 E9.32632
G1 X115.645 Y78.354 E9.35962
G1 X116.481 Y78.483 E9.39338
G1 X117.308 Y78.631 E9.42691
G1 X118.124 Y78.8 E9.46017
G1 X118.947 Y78.993 E9.49391
G1 X119.754 Y79.204 E9.5272
G1 X120.566 Y79.439 E9.56094
G1 X121.361 Y79.693 E9.59425
G1 X122.159 Y79.972 E9.62799
G1 X122.94 Y80.266 E9.6613
G1 X123.722 Y80.586 E9.69502
G1 X124.487 Y80.922 E9.72837
G1 X125.246 Y81.28 E9.76187
G1 X126.001 Y81.66 E9.7956
G1 X126.736 Y82.055 E9.8289
G1 X127.465 Y82.472 E9.86242
G1 X128.188 Y82.91 E9.89616
G1 X128.889 Y83.361 E9.92943
G1 X129.584 Y83.835 E9.96301
G1 X130.265 Y84.325 E9.99649
G1 X130.934 Y84.834 E10.03004
G1 X131.588 Y85.361 E10.06357
G1 X132.233 Y85.907 E10.0973
G1 X132.855 Y86.464 E10.13062
G1 X133.466 Y87.039 E10.16411
G1 X134.062 Y87.631 E10.19763
G1 X134.645 Y88.242 E10.23134
G1 X135.206 Y88.86 E10.26465
G1 X135.753 Y89.497 E10.29817
G1 X136.284 Y90.148 E10.3317
G1 X136.798 Y90.814 E10.36527
G1 X137.295 Y91.496 E10.39895
G1 X137.77 Y92.182 E10.43226
G1 X138.231 Y92.89 E10.46598
G1 X138.669 Y93.602 E10.49934
G1 X139.091 Y94.327 E10.53282
G1 X139.496 Y95.069 E10.56656
G1 X139.879 Y95.816 E10.60007
G1 X140.24 Y96.569 E10.63339
G1 X140.582 Y97.336 E10.66691
G1 X140.905 Y98.111 E10.70042
G1 X141.209 Y98.9 E10.73417
G1 X141.489 Y99.686 E10.76747
G1 X141.749 Y100.484 E10.80097
G1 X141.989 Y101.29 E10.83454
G1 X142.208 Y102.1 E10.86803
G1 X142.405 Y102.917 E10.90157
G1 X142.579 Y103.738 E10.93506
G1 X142.733 Y104.563 E10.96856
G1 X142.866 Y105.398 E11.00231
G1 X142.976 Y106.226 E11.03564
G1 X143.065 Y107.066 E11.06936
G1 X143.131 Y107.898 E11.10267
G1 X143.175 Y108.737 E11.1362
G1 X143.192 Y109.392 E11.16235
G1 X143.197 Y110.422 E11.20346
G1 X143.175 Y111.257 E11.2368
G1 X143.13 Y112.102 E11.27058
G1 X143.065 Y112.934 E11.30388
G1 X142.977 Y113.769 E11.33739
G1 X142.867 Y114.602 E11.37093
G1 X142.734 Y115.431 E11.40444
G1 X142.58 Y116.257 E11.43798
G1 X142.404 Y117.083 E11.47168
G1 X142.209 Y117.895 E11.50501
G1 X141.99 Y118.705 E11.5385
G1 X141.749 Y119.516 E11.57227
G1 X141.491 Y120.309 E11.60555
G1 X141.21 Y121.1 E11.63906
G1 X140.907 Y121.884 E11.6726
G1 X140.584 Y122.659 E11.70612
G1 X140.239 Y123.431 E11.73986
G1 X139.879 Y124.184 E11.77318
G1 X139.496 Y124.931 E11.80668
G1 X139.094 Y125.668 E11.84019
G1 X138.669 Y126.398 E11.8739
G1 X138.231 Y127.11 E11.90727
G1 X137.77 Y127.818 E11.94099
G1 X137.296 Y128.504 E11.97427
G1 X136.797 Y129.186 E12.00799
G1 X136.287 Y129.848 E12.04135
G1 X135.756 Y130.499 E12.07488
G1 X135.206 Y131.14 E12.10859
G1 X134.645 Y131.758 E12.1419
G1 X134.066 Y132.365 E12.17538
G1 X133.47 Y132.957 E12.20891
G1 X132.855 Y133.536 E12.24262
G1 X132.233 Y134.093 E12.27595
G1 X131.592 Y134.636 E12.30948
G1 X130.938 Y135.163 E12.343
G1 X130.269 Y135.672 E12.37655
G1 X129.588 Y136.162 E12.41003
G1 X128.889 Y136.639 E12.44381
G1 X128.188 Y137.09 E12.47708
G1 X127.47 Y137.525 E12.51058
G1 X126.736 Y137.945 E12.54434
G1 X126.001 Y138.34 E12.57764
G1 X125.246 Y138.72 E12.61138
G1 X124.487 Y139.078 E12.64487
G1 X123.722 Y139.414 E12.67822
G1 X122.945 Y139.732 E12.71173
G1 X122.159 Y140.028 E12.74525
G1 X121.361 Y140.306 E12.77897
G1 X120.566 Y140.561 E12.8123
G1 X119.754 Y140.796 E12.84604
G1 X118.947 Y141.008 E12.87934
G1 X118.124 Y141.2 E12.91307
G1 X117.308 Y141.369 E12.94633
G1 X116.481 Y141.517 E12.97986
G1 X115.645 Y141.645 E13.01361
G1 X114.817 Y141.749 E13.04692
G1 X113.975 Y141.832 E13.08069
G1 X113.144 Y141.893 E13.11395
G1 X112.3 Y141.931 E13.14767
G1 X111.643 Y141.944 E13.17389
G1 X110.807 Y141.943 E13.20726
G1 X109.784 Y141.915 E13.24811
G1 X108.94 Y141.865 E13.28185
G1 X108.108 Y141.794 E13.31518
G1 X107.268 Y141.699 E13.34892
G1 X106.437 Y141.583 E13.38241
G1 X105.609 Y141.446 E13.4159
G1 X104.783 Y141.287 E13.44948
G1 X103.969 Y141.107 E13.48275
G1 X103.153 Y140.905 E13.5163
G1 X102.338 Y140.68 E13.55005
G1 X101.54 Y140.436 E13.58335
G1 X100.738 Y140.169 E13.61709
G1 X99.949 Y139.882 E13.6506
G1 X99.167 Y139.575 E13.68413
G1 X98.4 Y139.25 E13.71738
G1 X97.635 Y138.901 E13.75094
G1 X96.875 Y138.531 E13.78467
G1 X96.135 Y138.146 E13.81797
G1 X95.395 Y137.736 E13.85173
G1 X94.677 Y137.312 E13.88501
G1 X93.96 Y136.865 E13.91873
G1 X93.261 Y136.401 E13.95222
G1 X92.572 Y135.919 E13.98578
G1 X91.897 Y135.419 E14.01931
G1 X91.235 Y134.901 E14.05286
G0 F9000 X91.51 Y134.559
G1 F1800 E11.05286
G0 F9000 X100.365 Y138.268
G0 X102.665 Y139.049
G0 X105.021 Y139.644
G0 X107.416 Y140.046
G0 X109.837 Y140.258
G0 X112.09 Y140.278
G0 X114.685 Y140.096
G0 X117.083 Y139.724
G0 X119.448 Y139.162
G0 X121.757 Y138.411
G0 X124 Y137.476
G0 X126.162 Y136.367
G0 X128.227 Y135.088
G0 X130.181 Y133.646
G0 X132.016 Y132.055
G0 X133.716 Y130.318
G0 X135.273 Y128.454
G0 X136.674 Y126.469
G0 X137.912 Y124.379
G0 X138.978 Y122.196
G0 X139.867 Y119.936
G0 X140.571 Y117.61
G0 X141.087 Y115.237
G0 X141.409 Y112.83
G0 X141.539 Y110.408
G0 X141.488 Y108.441
G0 X141.275 Y105.551
G0 X140.979 Y105.597
G1 F1800 E14.05286
G1 X140.851 Y104.804 E14.08492
G1 X140.701 Y104.015 E14.11697
G1 X140.53 Y103.229 E14.14908
G1 X140.339 Y102.45 E14.18109
