;FLAVOR:Marlin
;TIME:2451
;Filament used: 1.65016m
;Layer height: 0.16
;MINX:83.7
;MINY:83.7
;MINZ:0.24
;MAXX:136.3
;MAXY:136.3
;MAXZ:10
;Generated with Cura_SteamEngine 4.5.0
M140 S50
M105
M190 S50
M104 S220
M105
M109 S220
M82 ;absolute extrusion mode
M201 X500.00 Y500.00 Z100.00 E5000.00 ;Setup machine max acceleration
M203 X500.00 Y500.00 Z10.00 E50.00 ;Setup machine max feedrate
M204 P500.00 R1000.00 T500.00 ;Setup Print/Retract/Travel acceleration
M205 X8.00 Y8.00 Z0.40 E5.00 ;Setup Jerk
M220 S100 ;Reset Feedrate
M221 S100 ;Reset Flowrate

G28 ;Home

G92 E0 ;Reset Extruder
G1 Z2.0 F3000 ;Move Z Axis up
G1 X10.1 Y20 Z0.28 F5000.0 ;Move to start position
G1 X10.1 Y200.0 Z0.28 F1500.0 E15 ;Draw the first line
G1 X10.4 Y200.0 Z0.28 F5000.0 ;Move to side a little
G1 X10.4 Y20 Z0.28 F1500.0 E30 ;Draw the second line
G92 E0 ;Reset Extruder
G1 Z2.0 F3000 ;Move Z Axis up

G92 E0
G92 E0
G1 F1800 E-3
;LAYER_COUNT:60
;LAYER:0
M106 S63.8
M204 S500
M205 X6 Y6
;MESH:Aro_2_gold.stl
G0 F9000 X135.151 Y116.384 Z0.24
;TYPE:WALL-OUTER
G1 F1800 E0
G1 X134.956 Y117.109 E0.02996
G1 X134.737 Y117.836 E0.06027
G1 X134.497 Y118.555 E0.09052
G1 X134.237 Y119.267 E0.12078
G1 X133.954 Y119.977 E0.15128
G1 X133.655 Y120.667 E0.18129
G1 X133.332 Y121.354 E0.21159
G1 X132.991 Y122.031 E0.24185
G1 X132.63 Y122.698 E0.27212
G1 X132.249 Y123.353 E0.30236
G1 X131.846 Y124.002 E0.33285
G1 X131.43 Y124.63 E0.36292
G1 X130.994 Y125.25 E0.39317
G1 X130.541 Y125.856 E0.42337
G1 X130.067 Y126.45 E0.4537
G1 X129.579 Y127.029 E0.48392
G1 X129.072 Y127.594 E0.51422
G1 X128.55 Y128.144 E0.54448
G1 X128.012 Y128.678 E0.57474
G1 X127.454 Y129.2 E0.60523
G1 X126.89 Y129.698 E0.63526
G1 X126.303 Y130.187 E0.66576
G1 X125.71 Y130.653 E0.69586
G1 X125.096 Y131.105 E0.72629
G1 X124.478 Y131.534 E0.75632
G1 X123.843 Y131.948 E0.78657
G1 X123.196 Y132.342 E0.8168
G1 X122.537 Y132.719 E0.84711
G1 X121.863 Y133.078 E0.87759
G1 X121.188 Y133.412 E0.90764
G1 X120.494 Y133.732 E0.93815
G1 X119.802 Y134.026 E0.96815
G1 X119.09 Y134.304 E0.99866
G1 X118.382 Y134.557 E1.02867
G1 X117.661 Y134.792 E1.05894
G1 X116.927 Y135.007 E1.08946
G1 X116.2 Y135.197 E1.11945
G1 X115.455 Y135.368 E1.14996
G1 X114.716 Y135.516 E1.18004
G1 X113.969 Y135.643 E1.21028
G1 X113.218 Y135.748 E1.24055
G1 X112.458 Y135.832 E1.27107
G1 X111.709 Y135.893 E1.30106
G1 X110.946 Y135.931 E1.33155
G1 X110.355 Y135.944 E1.35514
G1 X109.599 Y135.943 E1.38532
G1 X108.676 Y135.914 E1.42218
G1 X107.913 Y135.864 E1.45269
G1 X107.158 Y135.793 E1.48296
G1 X106.412 Y135.7 E1.51296
G1 X105.657 Y135.582 E1.54346
G1 X104.91 Y135.444 E1.57378
G1 X104.176 Y135.286 E1.60375
G1 X103.438 Y135.105 E1.63408
G1 X102.702 Y134.901 E1.66456
G1 X101.978 Y134.677 E1.69481
G1 X101.261 Y134.432 E1.72505
G1 X100.55 Y134.167 E1.75533
G1 X99.854 Y133.883 E1.78534
G1 X99.16 Y133.575 E1.81564
G1 X98.47 Y133.246 E1.84615
G1 X97.802 Y132.903 E1.87612
G1 X97.133 Y132.533 E1.90663
G1 X96.48 Y132.148 E1.93689
G1 X95.843 Y131.748 E1.96691
G1 X95.209 Y131.32 E1.99744
G1 X94.592 Y130.879 E2.02771
G1 X93.994 Y130.424 E2.0577
G1 X93.4 Y129.943 E2.08821
G1 X92.828 Y129.454 E2.11824
G1 X92.263 Y128.939 E2.14876
G1 X91.717 Y128.413 E2.17901
G1 X91.187 Y127.871 E2.20927
G1 X90.672 Y127.314 E2.23955
G1 X90.179 Y126.746 E2.26957
G1 X89.694 Y126.155 E2.30008
G1 X89.233 Y125.559 E2.33015
G1 X88.786 Y124.942 E2.36056
G1 X88.357 Y124.315 E2.39089
G1 X87.948 Y123.677 E2.42113
G1 X87.558 Y123.027 E2.45139
G1 X87.187 Y122.365 E2.48167
G1 X86.839 Y121.699 E2.51167
G1 X86.504 Y121.011 E2.54221
G1 X86.194 Y120.325 E2.57225
G1 X85.901 Y119.621 E2.60269
G1 X85.63 Y118.913 E2.63295
G1 X85.381 Y118.197 E2.6632
G1 X85.151 Y117.473 E2.69352
G1 X84.943 Y116.744 E2.72378
G1 X84.757 Y116.009 E2.75404
G1 X84.592 Y115.27 E2.78426
G1 X84.449 Y114.524 E2.81458
G1 X84.327 Y113.776 E2.84482
G1 X84.228 Y113.025 E2.87506
G1 X84.151 Y112.27 E2.90535
G1 X84.108 Y111.681 E2.92892
G1 X84.071 Y110.918 E2.95941
G1 X84.052 Y110.003 E2.99594
G1 X84.063 Y109.245 E3.02619
G1 X84.096 Y108.484 E3.05659
G1 X84.151 Y107.73 E3.08677
G1 X84.228 Y106.975 E3.11706
G1 X84.327 Y106.224 E3.14729
G1 X84.449 Y105.476 E3.17754
G1 X84.592 Y104.73 E3.20786
G1 X84.757 Y103.991 E3.23808
G1 X84.943 Y103.256 E3.26834
G1 X85.15 Y102.527 E3.29858
G1 X85.381 Y101.803 E3.32892
G1 X85.63 Y101.087 E3.35917
G1 X85.901 Y100.379 E3.38943
G1 X86.195 Y99.675 E3.41988
G1 X86.503 Y98.989 E3.44989
G1 X86.839 Y98.301 E3.48045
G1 X87.187 Y97.635 E3.51044
G1 X87.558 Y96.973 E3.54073
G1 X87.948 Y96.323 E3.57098
G1 X88.357 Y95.685 E3.60123
G1 X88.786 Y95.058 E3.63155
G1 X89.234 Y94.441 E3.66199
G1 X89.693 Y93.845 E3.69201
G1 X90.179 Y93.254 E3.72255
G1 X90.672 Y92.686 E3.75257
G1 X91.187 Y92.129 E3.78285
G1 X91.717 Y91.587 E3.8131
G1 X92.263 Y91.061 E3.84336
G1 X92.828 Y90.546 E3.87387
G1 X93.4 Y90.057 E3.90391
G1 X93.994 Y89.577 E3.93439
G1 X94.592 Y89.121 E3.9644
G1 X95.209 Y88.68 E3.99467
G1 X95.843 Y88.253 E4.02518
G1 X96.48 Y87.852 E4.05522
G1 X97.133 Y87.467 E4.08548
G1 X97.802 Y87.097 E4.11599
G1 X98.47 Y86.754 E4.14596
G1 X99.16 Y86.425 E4.17647
G1 X99.854 Y86.117 E4.20678
G1 X100.55 Y85.833 E4.23678
G1 X101.261 Y85.568 E4.26706
G1 X101.978 Y85.323 E4.29731
G1 X102.702 Y85.099 E4.32755
G1 X103.438 Y84.895 E4.35804
G1 X104.176 Y84.714 E4.38836
G1 X104.91 Y84.555 E4.41834
G1 X105.657 Y84.418 E4.44865
G1 X106.412 Y84.301 E4.47914
G1 X107.158 Y84.207 E4.50915
G1 X107.913 Y84.136 E4.53942
G1 X108.676 Y84.086 E4.56994
G1 X109.433 Y84.058 E4.60017
G1 X110.191 Y84.052 E4.63043
G1 X110.946 Y84.069 E4.66057
G1 X111.709 Y84.108 E4.69106
G1 X112.458 Y84.168 E4.72105
G1 X113.218 Y84.252 E4.75157
G1 X113.969 Y84.357 E4.78184
G1 X114.716 Y84.484 E4.81208
G1 X115.455 Y84.632 E4.84216
G1 X116.2 Y84.803 E4.87267
G1 X116.927 Y84.993 E4.90266
G1 X117.661 Y85.208 E4.93318
G1 X118.382 Y85.443 E4.96345
G1 X119.09 Y85.696 E4.99346
G1 X119.797 Y85.972 E5.02375
G1 X120.494 Y86.268 E5.05397
G1 X121.188 Y86.588 E5.08448
G1 X121.863 Y86.922 E5.11453
G1 X122.537 Y87.281 E5.14501
G1 X123.191 Y87.655 E5.17508
G1 X123.838 Y88.049 E5.20532
G1 X124.478 Y88.466 E5.2358
G1 X125.096 Y88.895 E5.26583
G1 X125.71 Y89.348 E5.29628
G1 X126.303 Y89.812 E5.32634
G1 X126.89 Y90.302 E5.35685
G1 X127.454 Y90.8 E5.38688
G1 X128.008 Y91.318 E5.41716
G1 X128.546 Y91.852 E5.44741
G1 X129.068 Y92.402 E5.47767
G1 X129.575 Y92.966 E5.50794
G1 X130.064 Y93.546 E5.53822
G1 X130.537 Y94.139 E5.5685
G1 X130.99 Y94.745 E5.59869
G1 X131.43 Y95.37 E5.6292
G1 X131.846 Y95.998 E5.65927
G1 X132.249 Y96.647 E5.68976
G1 X132.627 Y97.297 E5.71977
G1 X132.988 Y97.964 E5.75004
G1 X133.332 Y98.646 E5.78052
G1 X133.653 Y99.328 E5.81061
G1 X133.954 Y100.023 E5.84084
G1 X134.235 Y100.728 E5.87113
G1 X134.495 Y101.439 E5.90134
G1 X134.735 Y102.159 E5.93163
G1 X134.955 Y102.891 E5.96214
G1 X135.151 Y103.616 E5.99212
G1 X135.327 Y104.355 E6.02244
G1 X135.481 Y105.097 E6.05268
G1 X135.613 Y105.843 E6.08292
G1 X135.724 Y106.593 E6.11318
G1 X135.813 Y107.352 E6.14368
G1 X135.879 Y108.102 E6.17373
G1 X135.923 Y108.859 E6.20399
G1 X135.941 Y109.449 E6.22755
G1 X135.946 Y110.381 E6.26475
G1 X135.923 Y111.135 E6.29486
G1 X135.879 Y111.898 E6.32536
G1 X135.813 Y112.648 E6.35541
G1 X135.725 Y113.401 E6.38567
G1 X135.614 Y114.151 E6.41593
G1 X135.482 Y114.897 E6.44617
G1 X135.328 Y115.64 E6.47645
G1 X135.151 Y116.384 E6.50698
G0 F9000 X134.725 Y116.276
G1 F1800 E3.50698
G0 F9000 X129.904 Y123.924
G0 X128.582 Y125.645
G0 X127.111 Y127.241
G0 X126.657 Y127.653
G0 X124.396 Y129.639
G0 X124.223 Y129.395
G1 F1800 E6.50698
G1 X124.795 Y128.963 E6.53559
G1 X125.353 Y128.514 E6.56417
G1 X125.897 Y128.048 E6.59276
G1 X126.428 Y127.567 E6.62136
G1 X126.942 Y127.071 E6.64987
G1 X127.444 Y126.559 E6.67849
G1 X127.929 Y126.031 E6.7071
G1 X128.399 Y125.491 E6.73567
G1 X128.852 Y124.935 E6.7643
G1 X129.288 Y124.368 E6.79284
G1 X129.708 Y123.787 E6.82146
G1 X130.109 Y123.194 E6.85003
G1 X130.493 Y122.59 E6.8786
G1 X130.859 Y121.974 E6.90719
G1 X131.206 Y121.347 E6.9358
G1 X131.535 Y120.711 E6.96437
G1 X131.845 Y120.065 E6.99297
G1 X132.134 Y119.41 E7.02155
G1 X132.404 Y118.747 E7.05012
G1 X132.655 Y118.076 E7.07871
G1 X132.886 Y117.397 E7.10734
G1 X133.095 Y116.713 E7.13588
G1 X133.286 Y116.022 E7.1645
G1 X133.455 Y115.326 E7.19308
G1 X133.603 Y114.625 E7.22168
G1 X133.73 Y113.921 E7.25023
G1 X133.836 Y113.213 E7.2788
G1 X133.921 Y112.502 E7.30738
G1 X133.984 Y111.788 E7.33599
G1 X134.028 Y111.073 E7.36458
G1 X134.049 Y110.361 E7.39301
G1 X134.049 Y109.794 E7.41564
G1 X134.028 Y108.928 E7.45022
G1 X133.984 Y108.212 E7.47885
G1 X133.921 Y107.498 E7.50746
G1 X133.836 Y106.787 E7.53603
G1 X133.73 Y106.079 E7.56461
G1 X133.603 Y105.375 E7.59316
G1 X133.455 Y104.674 E7.62175
G1 X133.286 Y103.978 E7.65034
G1 X133.095 Y103.287 E7.67895
G1 X132.886 Y102.603 E7.7075
G1 X132.655 Y101.924 E7.73613
G1 X132.404 Y101.253 E7.76472
G1 X132.134 Y100.59 E7.79329
G1 X131.845 Y99.935 E7.82186
G1 X131.535 Y99.289 E7.85046
G1 X131.206 Y98.653 E7.87904
G1 X130.859 Y98.026 E7.90764
G1 X130.493 Y97.41 E7.93624
G1 X130.109 Y96.806 E7.96481
G1 X129.708 Y96.213 E7.99338
G1 X129.288 Y95.632 E8.02199
G1 X128.852 Y95.065 E8.05054
G1 X128.399 Y94.509 E8.07917
G1 X127.929 Y93.969 E8.10774
G1 X127.444 Y93.441 E8.13635
G1 X126.942 Y92.929 E8.16497
G1 X126.54 Y92.539 E8.18733
G1 X125.898 Y91.952 E8.22205
G1 X125.353 Y91.486 E8.25067
G1 X124.795 Y91.037 E8.27925
G1 X124.223 Y90.605 E8.30786
G1 X123.64 Y90.19 E8.33642
G1 X123.044 Y89.793 E8.365
G1 X122.437 Y89.413 E8.39359
G1 X121.818 Y89.052 E8.42219
G1 X121.189 Y88.71 E8.45076
G1 X120.551 Y88.385 E8.47934
G1 X119.901 Y88.082 E8.50796
G1 X119.245 Y87.796 E8.53653
G1 X118.58 Y87.531 E8.5651
G1 X117.907 Y87.285 E8.5937
G1 X117.227 Y87.06 E8.62228
G1 X116.541 Y86.856 E8.65085
G1 X115.849 Y86.67 E8.67945
G1 X115.152 Y86.507 E8.70802
G1 X114.45 Y86.363 E8.73662
G1 X113.744 Y86.241 E8.76521
G1 X113.035 Y86.141 E8.79379
G1 X112.323 Y86.061 E8.82239
G1 X111.609 Y86.002 E8.85098
G1 X110.894 Y85.965 E8.87956
G1 X110.184 Y85.949 E8.9079
G1 X109.463 Y85.954 E8.93668
G1 X108.747 Y85.981 E8.96528
G1 X108.034 Y86.03 E8.9938
G1 X107.321 Y86.098 E9.02239
G1 X106.61 Y86.188 E9.05099
G1 X105.903 Y86.3 E9.07956
G1 X105.199 Y86.432 E9.10815
G1 X104.499 Y86.586 E9.13676
G1 X103.804 Y86.76 E9.16535
G1 X103.116 Y86.955 E9.19389
G1 X102.432 Y87.169 E9.2225
G1 X101.755 Y87.405 E9.25111
G1 X101.087 Y87.661 E9.27967
G1 X100.425 Y87.936 E9.30828
G1 X99.773 Y88.231 E9.33684
G1 X99.13 Y88.546 E9.36542
G1 X98.494 Y88.878 E9.39405
G1 X97.871 Y89.23 E9.42261
G1 X97.259 Y89.6 E9.45115
G1 X96.656 Y89.99 E9.47982
G1 X96.067 Y90.395 E9.50835
G1 X95.489 Y90.819 E9.53696
G1 X94.925 Y91.259 E9.56551
G1 X94.373 Y91.717 E9.59413
G1 X93.836 Y92.19 E9.6227
G1 X93.312 Y92.679 E9.6513
G1 X92.804 Y93.184 E9.67989
G1 X92.311 Y93.704 E9.70849
G1 X91.834 Y94.238 E9.73707
G1 X91.372 Y94.785 E9.76564
G1 X90.928 Y95.346 E9.7942
G1 X90.5 Y95.921 E9.82281
G1 X90.089 Y96.508 E9.85141
G1 X89.696 Y97.107 E9.88
G1 X89.321 Y97.717 E9.90858
G1 X88.965 Y98.338 E9.93715
G1 X88.627 Y98.97 E9.96576
G1 X88.308 Y99.61 E9.9943
G1 X88.008 Y100.261 E10.02291
G1 X87.728 Y100.921 E10.05152
G1 X87.468 Y101.587 E10.08006
G1 X87.227 Y102.263 E10.1087
G1 X87.007 Y102.944 E10.13726
G1 X86.807 Y103.631 E10.16582
G1 X86.628 Y104.326 E10.19447
G1 X86.468 Y105.024 E10.22305
G1 X86.331 Y105.726 E10.25159
G1 X86.214 Y106.432 E10.28016
G1 X86.118 Y107.143 E10.30879
G1 X86.045 Y107.855 E10.33736
G1 X85.991 Y108.569 E10.36594
G1 X85.959 Y109.285 E10.39454
G1 X85.948 Y110 E10.42308
G1 X85.959 Y110.715 E10.45162
G1 X85.991 Y111.431 E10.48023
G1 X86.045 Y112.145 E10.50881
G1 X86.118 Y112.857 E10.53737
G1 X86.214 Y113.568 E10.56601
G1 X86.331 Y114.274 E10.59457
G1 X86.468 Y114.976 E10.62312
G1 X86.628 Y115.674 E10.6517
G1 X86.807 Y116.369 E10.68034
G1 X87.007 Y117.056 E10.7089
G1 X87.227 Y117.737 E10.73746
G1 X87.468 Y118.413 E10.76611
G1 X87.728 Y119.079 E10.79464
G1 X88.008 Y119.739 E10.82326
G1 X88.308 Y120.39 E10.85187
G1 X88.627 Y121.03 E10.88041
G1 X88.965 Y121.662 E10.90901
G1 X89.321 Y122.283 E10.93758
G1 X89.696 Y122.893 E10.96616
G1 X90.089 Y123.492 E10.99476
G1 X90.5 Y124.079 E11.02336
G1 X90.928 Y124.654 E11.05197
G1 X91.372 Y125.215 E11.08052
G1 X91.834 Y125.762 E11.1091
G1 X92.311 Y126.296 E11.13768
G1 X92.804 Y126.816 E11.16627
G1 X93.312 Y127.321 E11.19486
G1 X93.836 Y127.81 E11.22347
G1 X94.373 Y128.283 E11.25203
G1 X94.925 Y128.741 E11.28066
G1 X95.489 Y129.181 E11.30921
G1 X96.067 Y129.605 E11.33782
G1 X96.656 Y130.01 E11.36635
G1 X97.259 Y130.4 E11.39501
G1 X97.871 Y130.77 E11.42355
G1 X98.494 Y131.122 E11.45211
G1 X99.13 Y131.454 E11.48075
G1 X99.773 Y131.769 E11.50933
G1 X100.425 Y132.064 E11.53789
G1 X101.087 Y132.339 E11.5665
G1 X101.755 Y132.595 E11.59505
G1 X102.432 Y132.831 E11.62367
G1 X103.116 Y133.045 E11.65227
G1 X103.804 Y133.24 E11.68081
G1 X104.499 Y133.414 E11.70941
G1 X105.199 Y133.568 E11.73801
G1 X105.903 Y133.7 E11.7666
G1 X106.61 Y133.812 E11.79517
G1 X107.321 Y133.902 E11.82378
G1 X108.034 Y133.97 E11.85236
G1 X108.747 Y134.019 E11.88089
G1 X109.463 Y134.046 E11.90948
G1 X110.183 Y134.051 E11.93822
G1 X110.743 Y134.039 E11.96058
G1 X111.609 Y133.998 E11.99518
G1 X112.323 Y133.939 E12.02378
G1 X113.035 Y133.859 E12.05237
G1 X113.744 Y133.759 E12.08095
G1 X114.45 Y133.637 E12.10955
G1 X115.152 Y133.493 E12.13815
G1 X115.849 Y133.33 E12.16672
G1 X116.541 Y133.144 E12.19532
G1 X117.227 Y132.94 E12.22388
G1 X117.907 Y132.715 E12.25247
G1 X118.58 Y132.469 E12.28107
G1 X119.245 Y132.204 E12.30964
G1 X119.901 Y131.918 E12.3382
G1 X120.551 Y131.615 E12.36682
G1 X121.189 Y131.29 E12.3954
G1 X121.818 Y130.948 E12.42398
G1 X122.437 Y130.587 E12.45258
G1 X123.044 Y130.207 E12.48116
G1 X123.64 Y129.81 E12.50974
G1 X124.223 Y129.395 E12.5383
G0 F9000 X124.46 Y129.718
;TYPE:WALL-INNER
G1 F1800 X125.041 Y129.278 E12.56739
G1 X125.609 Y128.822 E12.59646
G1 X126.161 Y128.348 E12.6255
G1 X126.701 Y127.859 E12.65458
G1 X127.224 Y127.355 E12.68357
G1 X127.734 Y126.834 E12.71267
G1 X128.227 Y126.298 E12.74173
G1 X128.705 Y125.749 E12.77079
G1 X129.166 Y125.183 E12.79992
G1 X129.609 Y124.607 E12.82892
G1 X130.036 Y124.016 E12.85802
G1 X130.444 Y123.413 E12.88708
G1 X130.834 Y122.8 E12.91608
G1 X131.206 Y122.173 E12.94518
G1 X131.559 Y121.536 E12.97425
G1 X131.893 Y120.889 E13.00331
G1 X132.208 Y120.232 E13.03239
G1 X132.502 Y119.566 E13.06144
G1 X132.777 Y118.893 E13.09046
G1 X133.032 Y118.211 E13.11952
G1 X133.267 Y117.52 E13.14865
G1 X133.479 Y116.825 E13.17765
G1 X133.673 Y116.123 E13.20672
G1 X133.845 Y115.415 E13.2358
G1 X133.996 Y114.702 E13.26489
G1 X134.125 Y113.986 E13.29393
G1 X134.232 Y113.266 E13.32298
G1 X134.319 Y112.543 E13.35204
G1 X134.383 Y111.818 E13.38109
G1 X134.428 Y111.091 E13.41016
G1 X134.449 Y110.367 E13.43907
G1 X134.449 Y109.789 E13.46214
G1 X134.428 Y108.911 E13.49719
G1 X134.383 Y108.182 E13.52635
G1 X134.319 Y107.457 E13.55539
G1 X134.232 Y106.734 E13.58446
G1 X134.125 Y106.014 E13.61351
G1 X133.996 Y105.298 E13.64255
G1 X133.845 Y104.585 E13.67164
G1 X133.673 Y103.877 E13.70072
G1 X133.479 Y103.175 E13.72979
G1 X133.267 Y102.48 E13.75879
G1 X133.032 Y101.789 E13.78792
G1 X132.777 Y101.107 E13.81698
G1 X132.502 Y100.434 E13.84599
G1 X132.208 Y99.768 E13.87505
G1 X131.893 Y99.111 E13.90413
G1 X131.559 Y98.464 E13.93319
G1 X131.206 Y97.827 E13.96226
G1 X130.834 Y97.2 E13.99136
G1 X130.444 Y96.587 E14.02036
G1 X130.036 Y95.984 E14.04941
G1 X129.609 Y95.393 E14.07851
G1 X129.166 Y94.817 E14.10752
G1 X128.705 Y94.251 E14.13665
G1 X128.227 Y93.702 E14.16571
G1 X127.734 Y93.166 E14.19477
G1 X127.224 Y92.645 E14.22387
G1 X126.814 Y92.248 E14.24665
G1 X126.163 Y91.652 E14.28188
G1 X125.608 Y91.178 E14.31101
G1 X125.041 Y90.722 E14.34005
G1 X124.46 Y90.282 E14.36913
G1 X123.867 Y89.861 E14.39816
G1 X123.261 Y89.457 E14.42723
G1 X122.644 Y89.071 E14.45628
G1 X122.014 Y88.703 E14.4854
G1 X121.375 Y88.356 E14.51442
G1 X120.726 Y88.025 E14.5435
G1 X120.065 Y87.717 E14.5726
G1 X119.399 Y87.427 E14.60159
G1 X118.723 Y87.157 E14.63065
G1 X118.039 Y86.907 E14.65971
G1 X117.347 Y86.678 E14.68881
G1 X116.65 Y86.471 E14.71783
