;FLAVOR:Marlin
;TIME:558
;Filament used: 0.148206m
;Layer height: 0.16
;MINX:102.721
;MINY:102.716
;MINZ:0.24
;MAXX:117.283
;MAXY:117.287
;MAXZ:7.36
;Generated with Cura_SteamEngine 4.5.0
M140 S50
M105
M190 S50
M104 S215
M105
M109 S215
M82 ;absolute extrusion mode
M201 X500.00 Y500.00 Z100.00 E5000.00 ;Setup machine max acceleration
M203 X500.00 Y500.00 Z10.00 E50.00 ;Setup machine max feedrate
M204 P500.00 R1000.00 T500.00 ;Setup Print/Retract/Travel acceleration
M205 X8.00 Y8.00 Z0.40 E5.00 ;Setup Jerk
M220 S100 ;Reset Feedrate
M221 S100 ;Reset Flowrate

G28 ;Home

G92 E0 ;Reset Extruder
G1 Z2.0 F3000 ;Move Z Axis up
G1 X10.1 Y20 Z0.28 F5000.0 ;Move to start position
G1 X10.1 Y200.0 Z0.28 F1500.0 E15 ;Draw the first line
G1 X10.4 Y200.0 Z0.28 F5000.0 ;Move to side a little
G1 X10.4 Y20 Z0.28 F1500.0 E30 ;Draw the second line
G92 E0 ;Reset Extruder
G1 Z2.0 F3000 ;Move Z Axis up

G92 E0
G92 E0
G1 F1800 E-3
;LAYER_COUNT:49
;LAYER:0
M106 S63.8
M204 S500
M205 X6 Y6
G0 F9000 X109.735 Y109.675 Z0.24
;TYPE:SKIRT
G1 F1800 E0
G1 F1111.1 X110.02 Y109.588 E0.01189
G1 X110.566 Y109.792 E0.03516
G1 X110.392 Y110.183 E0.05224
G1 X110.231 Y110.347 E0.06141
G1 X109.681 Y110.537 E0.08463
G1 X109.599 Y110.027 E0.10525
G1 X109.623 Y109.851 E0.11234
G1 X109.735 Y109.675 E0.12067
G0 F9000 X109.436 Y109.401
G1 F1111.1 X109.544 Y109.314 E0.1262
G1 X109.975 Y109.183 E0.14418
G1 X110.2 Y109.2 E0.15319
G1 X111.142 Y109.603 E0.19408
G1 X111.162 Y109.66 E0.19649
G1 X110.891 Y110.03 E0.2148
G1 X110.733 Y110.401 E0.23089
G1 X110.525 Y110.644 E0.24366
G1 X109.414 Y111.053 E0.29091
G1 X109.258 Y110.948 E0.29841
G1 X109.279 Y110.498 E0.31639
G1 X109.195 Y110.033 E0.33525
G1 X109.237 Y109.713 E0.34814
G1 X109.436 Y109.401 E0.36291
G0 F9000 X109.134 Y109.13
G1 F1111.1 X109.353 Y108.955 E0.37409
G1 X109.932 Y108.778 E0.39826
G1 X110.293 Y108.806 E0.41271
G1 X111.462 Y109.306 E0.46346
G1 X111.597 Y109.793 E0.48363
G1 X111.392 Y109.993 E0.49506
G1 X111.259 Y110.187 E0.50445
G1 X111.078 Y110.612 E0.52288
G1 X110.779 Y110.962 E0.54125
G1 X110.55 Y111.083 E0.55159
G1 X109.391 Y111.485 E0.60055
G1 X109.094 Y111.344 E0.61368
G1 X108.812 Y111.075 E0.62923
G1 X108.876 Y110.826 E0.63949
G1 X108.885 Y110.57 E0.64972
G1 X108.79 Y110.047 E0.67093
G1 X108.853 Y109.572 E0.69006
G1 X109.134 Y109.13 E0.71096
G0 F9000 X108.834 Y108.857
G1 F1111.1 X109.163 Y108.594 E0.72777
G1 X109.887 Y108.373 E0.75798
G1 X110.39 Y108.412 E0.77812
G1 X111.755 Y108.996 E0.83738
G1 X111.968 Y109.543 E0.86081
G1 X112.022 Y109.959 E0.87755
G1 X111.671 Y110.28 E0.89653
G1 X111.422 Y110.825 E0.92045
G1 X111.034 Y111.278 E0.94425
G1 X110.707 Y111.452 E0.95904
G1 X109.471 Y111.88 E1.01124
G1 X109.403 Y111.932 E1.01466
G1 X108.864 Y111.677 E1.03846
G1 X108.351 Y111.188 E1.06674
G1 X108.489 Y110.727 E1.08595
G1 X108.385 Y110.053 E1.11317
G1 X108.467 Y109.433 E1.13813
G1 X108.834 Y108.857 E1.16539
G1 F1800 E-1.83461
;MESH:Capsula_x2_transparent2.stl
G0 F9000 X105.844 Y105.939
G0 X105.139 Y105.256
G0 X104.359 Y105.707
G0 X104.2 Y105.586
;TYPE:WALL-OUTER
G1 F1800 E1.16539
G1 F1111.1 X104.536 Y105.186 E1.18624
G1 X104.955 Y104.752 E1.21032
G1 X105.505 Y104.277 E1.23932
G1 X106.22 Y103.785 E1.27396
G1 X106.731 Y103.492 E1.29747
G1 X107.244 Y103.257 E1.31999
G1 X107.745 Y103.072 E1.34131
G1 X108.274 Y102.918 E1.3633
G1 X108.887 Y102.794 E1.38826
G1 X109.445 Y102.734 E1.41066
G1 X109.931 Y102.716 E1.43007
G1 X110.728 Y102.752 E1.46191
G1 X111.529 Y102.878 E1.49428
G1 X112.097 Y103.019 E1.51763
G1 X112.571 Y103.181 E1.53763
G1 X113.403 Y103.561 E1.57413
G1 X113.962 Y103.883 E1.59988
G1 X114.46 Y104.23 E1.62411
G1 X114.918 Y104.627 E1.6483
G1 X115.292 Y104.98 E1.66882
G1 X115.624 Y105.361 E1.68899
G1 X116.011 Y105.886 E1.71503
G1 X116.389 Y106.492 E1.74353
G1 X116.678 Y107.112 E1.77083
G1 X116.919 Y107.689 E1.79579
G1 X117.065 Y108.206 E1.81723
G1 X117.196 Y108.86 E1.84385
G1 X117.256 Y109.424 E1.86649
G1 X117.283 Y110.224 E1.89844
G1 X117.207 Y111.108 E1.93385
G1 X117.088 Y111.691 E1.9576
G1 X116.938 Y112.248 E1.98062
G1 X116.675 Y112.921 E2.00946
G1 X116.379 Y113.523 E2.03624
G1 X116.108 Y113.981 E2.05748
G1 X115.767 Y114.452 E2.08069
G1 X115.396 Y114.893 E2.10369
G1 X115.022 Y115.27 E2.12488
G1 X114.648 Y115.61 E2.14506
G1 X114.103 Y116.031 E2.17254
G1 X113.612 Y116.334 E2.19557
G1 X113.081 Y116.612 E2.21949
G1 X112.62 Y116.801 E2.23938
G1 X111.974 Y117.022 E2.26663
G1 X111.284 Y117.174 E2.29483
G1 X110.689 Y117.256 E2.3188
G1 X109.914 Y117.287 E2.34976
G1 X109.225 Y117.251 E2.37729
G1 X108.527 Y117.139 E2.40551
G1 X107.744 Y116.933 E2.43782
G1 X106.946 Y116.624 E2.47198
G1 X106.509 Y116.395 E2.49167
G1 X105.936 Y116.049 E2.51838
G1 X105.44 Y115.674 E2.5432
G1 X104.75 Y115.053 E2.58025
G1 X104.271 Y114.5 E2.60945
G1 X103.959 Y114.061 E2.63095
G1 X103.696 Y113.642 E2.65069
G1 X103.444 Y113.171 E2.67201
G1 X103.163 Y112.52 E2.70031
G1 X102.97 Y111.908 E2.72592
G1 X102.851 Y111.409 E2.7464
G1 X102.743 Y110.591 E2.77933
G1 X102.721 Y109.671 E2.81606
G1 X102.799 Y108.897 E2.84711
G1 X102.933 Y108.249 E2.87352
G1 X103.173 Y107.466 E2.90621
G1 X103.452 Y106.803 E2.93492
G1 X103.852 Y106.103 E2.96709
G1 X104.2 Y105.586 E2.99197
G1 F1800 E-0.00803
G0 F9000 X104.359 Y105.706
G0 X103.586 Y107.654
G0 X103.273 Y108.822
G0 X103.18 Y109.648
G0 X103.227 Y110.785
G0 X103.493 Y112.044
G0 X103.916 Y113.099
G0 X104.394 Y113.889
G0 X104.965 Y114.606
G0 X105.425 Y115.062
G0 X106.611 Y115.926
G0 X106.751 Y115.999
G0 X108.542 Y116.73
G0 X108.591 Y116.538
G1 F1800 E2.99197
G1 F1111.1 X109.35 Y116.656 E3.02262
G1 X110.263 Y116.68 E3.05908
G1 X110.847 Y116.638 E3.08245
G1 X111.45 Y116.522 E3.10695
G1 X112.023 Y116.367 E3.13065
G1 X112.691 Y116.111 E3.1592
G1 X113.414 Y115.752 E3.19142
G1 X114.004 Y115.363 E3.21962
G1 X114.488 Y114.956 E3.24486
G1 X115.064 Y114.366 E3.27777
G1 X115.408 Y113.943 E3.29953
G1 X115.817 Y113.311 E3.32958
G1 X116.116 Y112.711 E3.35633
G1 X116.318 Y112.206 E3.37804
G1 X116.506 Y111.567 E3.40463
G1 X116.67 Y110.51 E3.44732
G1 X116.688 Y109.877 E3.47259
G1 X116.648 Y109.263 E3.49715
G1 X116.523 Y108.534 E3.52667
G1 X116.303 Y107.76 E3.55879
G1 X116.034 Y107.117 E3.58661
G1 X115.773 Y106.616 E3.60915
G1 X115.379 Y106.015 E3.63784
G1 X114.974 Y105.531 E3.66302
G1 X114.445 Y105 E3.69294
G1 X113.84 Y104.525 E3.72364
G1 X113.352 Y104.231 E3.74638
G1 X112.745 Y103.905 E3.77388
G1 X112.116 Y103.663 E3.80078
G1 X111.601 Y103.505 E3.82228
G1 X111.087 Y103.4 E3.84321
G1 X110.463 Y103.334 E3.86826
G1 X109.66 Y103.32 E3.90031
G1 X108.955 Y103.402 E3.92864
G1 X108.375 Y103.512 E3.9522
G1 X107.867 Y103.676 E3.97351
G1 X107.376 Y103.846 E3.99425
G1 X106.741 Y104.166 E4.02263
G1 X105.913 Y104.715 E4.06228
G1 X105.429 Y105.129 E4.0877
G1 X104.871 Y105.703 E4.11965
G1 X104.402 Y106.344 E4.15135
G1 X104.095 Y106.868 E4.17559
G1 X103.717 Y107.702 E4.21214
G1 X103.549 Y108.278 E4.23608
G1 X103.411 Y108.846 E4.25941
G1 X103.319 Y109.656 E4.29195
G1 X103.318 Y110.246 E4.3155
G1 X103.365 Y110.769 E4.33646
G1 X103.435 Y111.253 E4.35597
G1 X103.626 Y112.002 E4.38682
G1 X103.834 Y112.549 E4.41018
G1 X104.04 Y113.035 E4.43125
G1 X104.508 Y113.81 E4.46738
G1 X105.069 Y114.513 E4.50328
G1 X105.517 Y114.958 E4.52848
G1 X106.193 Y115.492 E4.56287
G1 X106.681 Y115.805 E4.58601
G1 X107.163 Y116.058 E4.60773
G1 X108.032 Y116.395 E4.64493
G1 X108.591 Y116.538 E4.66796
G0 F9000 X108.645 Y116.847
;TYPE:SKIN
G1 F1111.1 X108.985 Y116.905 E4.67706
G1 X110.184 Y116.972 E4.70874
G1 X111.217 Y116.874 E4.73611
G1 X112.538 Y116.498 E4.77235
G1 X113.676 Y115.939 E4.80579
G1 X114.644 Y115.21 E4.83776
G1 X115.596 Y114.181 E4.87474
G1 X116.239 Y113.128 E4.90729
G1 X116.717 Y111.909 E4.94183
G1 X116.943 Y110.72 E4.97376
G1 X116.963 Y109.609 E5.00307
G1 X116.848 Y108.646 E5.02866
G1 X116.491 Y107.44 E5.06183
G1 X116.255 Y106.921 E5.07687
G1 X115.869 Y106.252 E5.09725
G0 F9000 X115.81 Y105.911
G1 F1111.1 X114.072 Y104.173 E5.1463
G0 F9000 X113.779 Y104.162
G1 F1111.1 X113.103 Y103.77 E5.16741
G1 X112.124 Y103.356 E5.19613
G1 X111.012 Y103.092 E5.22701
G1 X109.534 Y103.028 E5.26697
G1 X108.312 Y103.221 E5.3004
G1 X107.061 Y103.667 E5.33628
G1 X105.828 Y104.414 E5.37523
G1 X104.928 Y105.211 E5.4077
G1 X104.173 Y106.153 E5.44032
G1 X103.497 Y107.457 E5.48
G1 X103.126 Y108.783 E5.5172
G1 X103.023 Y110.094 E5.55273
G1 X103.162 Y111.364 E5.58724
G1 X103.52 Y112.571 E5.62126
G1 X103.759 Y113.093 E5.63677
G1 X104.194 Y113.81 E5.65942
G0 F9000 X104.208 Y114.107
G1 F1111.1 X105.901 Y115.8 E5.7072
G0 F9000 X106.197 Y115.814
G1 F1111.1 X106.926 Y116.26 E5.73988
G1 X107.871 Y116.639 E5.77881
G0 F9000 X108.109 Y116.594
G1 F1111.1 X108.451 Y116.936 E5.78846
G1 F1800 E2.78846
;MESH:NONMESH
G0 F300 X108.451 Y116.936 Z0.4
G0 F9000 X108.457 Y116.915
G0 X107.122 Y116.149
G0 X107.525 Y115.272
G0 X108.835 Y108.856
;TIME_ELAPSED:15.708521
;LAYER:1
M140 S40
M106 S127.5
;TYPE:SUPPORT
G1 F1800 E5.78846
G1 F1185.6 X109.162 Y108.596 E5.79958
G1 X109.889 Y108.373 E5.81981
G1 X110.39 Y108.412 E5.83318
G1 X111.781 Y109.007 E5.87344
G1 X111.968 Y109.543 E5.88855
G1 X112.023 Y109.958 E5.89968
G1 X111.983 Y109.974 E5.90083
G1 X111.641 Y110.308 E5.91355
G1 X111.422 Y110.825 E5.92849
G1 X111.035 Y111.277 E5.94432
G1 X110.707 Y111.452 E5.95421
G1 X109.408 Y111.902 E5.99079
G1 X109.391 Y111.927 E5.9916
G1 X108.864 Y111.677 E6.00712
G1 X108.352 Y111.189 E6.02594
G1 X108.379 Y111.155 E6.02709
G1 X108.5 Y110.684 E6.04003
G1 X108.385 Y110.053 E6.0571
G1 X108.467 Y109.434 E6.07371
G1 X108.835 Y108.856 E6.09195
G0 F9000 X109.138 Y109.126
G1 F1185.6 X109.352 Y108.956 E6.09922
G1 X109.935 Y108.777 E6.11545
G1 X110.29 Y108.804 E6.12492
G1 X111.461 Y109.305 E6.15881
G1 X111.578 Y109.641 E6.16828
G1 X111.598 Y109.791 E6.1723
G1 X111.305 Y110.078 E6.18321
G1 X111.078 Y110.611 E6.19863
G1 X110.779 Y110.961 E6.21088
G1 X110.551 Y111.084 E6.21777
G1 X109.393 Y111.484 E6.25037
G1 X109.092 Y111.341 E6.25924
G1 X108.813 Y111.075 E6.26949
G1 X108.91 Y110.698 E6.27985
G1 X108.789 Y110.039 E6.29768
G1 X108.851 Y109.577 E6.31008
G1 X109.138 Y109.126 E6.32431
G1 F1800 E3.32431
;MESH:Capsula_x2_transparent2.stl
G0 F9000 X108.071 Y108.446
G0 X107.68 Y109.061
G0 X106.007 Y114.196
G0 X105.335 Y114.921
G0 X106.028 Y115.861
G0 X105.92 Y116.029
;TYPE:WALL-OUTER
G1 F1800 E6.32431
G1 F922.1 X105.514 Y115.717 E6.33793
G1 X104.899 Y115.178 E6.35969
G1 X104.222 Y114.425 E6.38663
G1 X103.747 Y113.719 E6.40927
G1 X103.472 Y113.205 E6.42479
G1 X103.229 Y112.68 E6.44018
G1 X103.014 Y112.013 E6.45883
G1 X102.864 Y111.437 E6.47466
G1 X102.773 Y110.759 E6.49287
G1 X102.724 Y109.769 E6.51924
G1 X102.797 Y108.953 E6.54104
G1 X102.907 Y108.398 E6.55609
G1 X103.134 Y107.602 E6.57812
G1 X103.373 Y106.98 E6.59585
G1 X103.644 Y106.474 E6.61112
G1 X103.923 Y106.014 E6.62544
G1 X104.195 Y105.604 E6.63853
G1 X104.639 Y105.076 E6.65688
G1 X105.095 Y104.62 E6.67404
G1 X105.909 Y103.973 E6.70171
G1 X106.499 Y103.619 E6.72002
G1 X107.41 Y103.198 E6.74672
G1 X107.881 Y103.045 E6.7599
G1 X108.37 Y102.903 E6.77345
G1 X108.907 Y102.805 E6.78797
G1 X109.5 Y102.737 E6.80385
G1 X110.083 Y102.724 E6.81937
G1 X110.886 Y102.776 E6.84078
G1 X111.673 Y102.917 E6.86205
G1 X112.251 Y103.075 E6.878
G1 X112.936 Y103.346 E6.8976
G1 X113.434 Y103.576 E6.9122
G1 X114.216 Y104.069 E6.93679
G1 X114.726 Y104.456 E6.95383
G1 X115.268 Y104.97 E6.9737
G1 X115.636 Y105.389 E6.98854
G1 X115.935 Y105.792 E7.00189
G1 X116.205 Y106.2 E7.01491
G1 X116.565 Y106.879 E7.03536
G1 X116.81 Y107.426 E7.05131
G1 X116.961 Y107.868 E7.06374
G1 X117.114 Y108.47 E7.08026
G1 X117.214 Y108.992 E7.09441
G1 X117.257 Y109.574 E7.10993
G1 X117.276 Y110.319 E7.12976
G1 X117.207 Y111.028 E7.14872
G1 X117.036 Y111.887 E7.17202
G1 X116.89 Y112.358 E7.18514
G1 X116.662 Y112.922 E7.20133
G1 X116.451 Y113.385 E7.21487
G1 X116.181 Y113.852 E7.22922
G1 X115.662 Y114.571 E7.25282
G1 X115.293 Y114.997 E7.26781
G1 X114.854 Y115.42 E7.28403
G1 X114.409 Y115.794 E7.2995
G1 X113.74 Y116.244 E7.32095
G1 X113.134 Y116.569 E7.33925
G1 X112.629 Y116.786 E7.35388
G1 X112.009 Y116.997 E7.3713
G1 X111.434 Y117.137 E7.38705
G1 X110.745 Y117.242 E7.40559
G1 X109.983 Y117.272 E7.42589
G1 X109.387 Y117.25 E7.44175
G1 X108.724 Y117.167 E7.45953
G1 X108.074 Y117.019 E7.47727
G1 X107.231 Y116.72 E7.50107
G1 X106.537 Y116.401 E7.52139
G1 X105.92 Y116.029 E7.54056
G1 F1800 E4.54056
G0 F9000 X106.028 Y115.861
G0 X108.684 Y116.69
G0 X110.205 Y116.809
G0 X110.928 Y116.753
G0 X112.112 Y116.482
G0 X113.456 Y115.877
G0 X113.974 Y115.535
G0 X114.753 Y114.886
G0 X115.247 Y114.359
G0 X115.893 Y113.432
G0 X116.467 Y112.117
G0 X116.856 Y110.53
G0 X116.658 Y110.507
G1 F1800 E7.54056
G1 F922.1 X116.68 Y109.973 E7.55479
G1 X116.657 Y109.424 E7.56941
G1 X116.567 Y108.822 E7.5856
G1 X116.441 Y108.298 E7.59994
G1 X116.301 Y107.777 E7.6143
G1 X116.013 Y107.095 E7.634
G1 X115.678 Y106.481 E7.65261
G1 X115.325 Y105.967 E7.6692
G1 X114.915 Y105.474 E7.68626
G1 X114.493 Y105.058 E7.70203
G1 X113.748 Y104.472 E7.72725
G1 X113.347 Y104.215 E7.73992
G1 X112.827 Y103.958 E7.75535
G1 X112.295 Y103.733 E7.77072
G1 X111.563 Y103.504 E7.79113
G1 X111.005 Y103.398 E7.80624
G1 X110.443 Y103.346 E7.82126
G1 X109.627 Y103.33 E7.84298
G1 X108.974 Y103.412 E7.86049
G1 X108.294 Y103.543 E7.87892
G1 X107.745 Y103.733 E7.89437
G1 X107.31 Y103.885 E7.90663
G1 X106.764 Y104.168 E7.923
G1 X105.78 Y104.825 E7.95448
G1 X105.274 Y105.3 E7.97295
G1 X104.867 Y105.726 E7.98862
G1 X104.401 Y106.363 E8.00962
G1 X104.017 Y107.029 E8.03008
G1 X103.703 Y107.77 E8.05149
G1 X103.556 Y108.298 E8.06608
G1 X103.401 Y108.97 E8.08443
G1 X103.343 Y109.541 E8.0997
G1 X103.326 Y110.077 E8.11397
G1 X103.401 Y111.038 E8.13962
G1 X103.702 Y112.224 E8.17217
G1 X104.011 Y112.953 E8.19324
G1 X104.31 Y113.495 E8.20971
G1 X104.629 Y113.97 E8.22494
G1 X105.097 Y114.53 E8.24435
G1 X105.403 Y114.848 E8.2561
G1 X105.806 Y115.187 E8.27011
G1 X106.662 Y115.784 E8.29788
G1 X107.172 Y116.048 E8.31316
G1 X107.936 Y116.349 E8.33501
G1 X108.711 Y116.553 E8.35633
G1 X109.231 Y116.627 E8.37031
G1 X110.203 Y116.67 E8.3962
G1 X110.909 Y116.615 E8.41504
G1 X111.563 Y116.484 E8.43279
G1 X112.068 Y116.35 E8.44669
G1 X112.867 Y116.028 E8.46961
G1 X113.385 Y115.757 E8.48516
G1 X113.891 Y115.423 E8.5013
G1 X114.657 Y114.784 E8.52784
G1 X115.138 Y114.271 E8.54655
G1 X115.773 Y113.36 E8.5761
G1 X116.022 Y112.881 E8.59046
G1 X116.397 Y111.929 E8.61769
G1 X116.589 Y111.101 E8.6403
G1 X116.658 Y110.507 E8.65622
G0 F9000 X116.961 Y110.443
;TYPE:SKIN
G1 F922.1 X116.966 Y110.155 E8.66129
G1 X116.872 Y108.835 E8.68458
G1 X116.51 Y107.499 E8.70894
G1 X115.951 Y106.362 E8.73124
G1 X115.099 Y105.234 E8.75613
G1 X114.038 Y104.315 E8.78083
G1 X112.965 Y103.691 E8.80268
G1 X111.721 Y103.238 E8.82599
G1 X110.494 Y103.051 E8.84783
G1 X109.354 Y103.06 E8.8679
G1 X108.336 Y103.229 E8.88606
G1 X107.507 Y103.492 E8.90137
G1 X106.992 Y103.725 E8.91132
G1 X106.316 Y104.118 E8.92509
G0 F9000 X106.075 Y104.076
G1 F922.1 X104.121 Y106.03 E8.96185
G0 F9000 X104.097 Y106.337
G1 F922.1 X103.718 Y106.999 E8.97542
G1 X103.347 Y107.935 E8.99334
G1 X103.095 Y109.036 E9.01344
G1 X103.04 Y110.221 E9.03454
G1 X103.195 Y111.482 E9.05715
G1 X103.605 Y112.769 E9.08118
G1 X104.203 Y113.867 E9.10343
G1 X105.096 Y114.954 E9.12846
G1 X106.195 Y115.834 E9.15351
G1 X107.306 Y116.421 E9.17587
G1 X108.595 Y116.829 E9.19993
G1 X109.878 Y116.961 E9.22288
G1 X111.09 Y116.88 E9.24449
G1 X112.217 Y116.601 E9.26515
G1 X113.2 Y116.184 E9.28415
G0 F9000 X113.489 Y116.179
G1 F922.1 X114.659 Y115.008 E9.30617
G0 F9000 X115.639 Y114.028
G1 F922.1 X116.183 Y113.201 E9.32849
G1 X116.601 Y112.217 E9.3526
G1 X116.888 Y111.082 E9.379
G1 X116.928 Y110.759 E9.38634
G0 F9000 X117.047 Y110.616
G0 X115.595 Y114.323
G0 X115.614 Y114.337
G1 F922.1 X114.282 Y115.668 E9.41139
G0 F9000 X114.347 Y115.693
G1 F1800 E6.41139
;MESH:NONMESH
G0 F300 X114.347 Y115.693 Z0.6
G0 F9000 X114.295 Y115.629
G0 X113.456 Y115.854
G0 X112.943 Y115.013
G0 X108.37 Y112.399
G0 X107.192 Y111.262
G0 X107.636 Y109.13
G0 X108.106 Y108.39
G0 X108.836 Y108.855
;TIME_ELAPSED:28.565202
;LAYER:2
M106 S191.3
;TYPE:SUPPORT
G1 F1800 E9.41139
G1 F1340.6 X109.158 Y108.598 E9.4251
