;FLAVOR:Marlin
;TIME:594
;Filament used: 0.154152m
;Layer height: 0.16
;MINX:103.765
;MINY:103.76
;MINZ:0.24
;MAXX:116.243
;MAXY:116.242
;MAXZ:16.64
;Generated with Cura_SteamEngine 4.5.0
M140 S50
M105
M190 S50
M104 S215
M105
M109 S215
M82 ;absolute extrusion mode
M201 X500.00 Y500.00 Z100.00 E5000.00 ;Setup machine max acceleration
M203 X500.00 Y500.00 Z10.00 E50.00 ;Setup machine max feedrate
M204 P500.00 R1000.00 T500.00 ;Setup Print/Retract/Travel acceleration
M205 X8.00 Y8.00 Z0.40 E5.00 ;Setup Jerk
M220 S100 ;Reset Feedrate
M221 S100 ;Reset Flowrate

G28 ;Home

G92 E0 ;Reset Extruder
G1 Z2.0 F3000 ;Move Z Axis up
G1 X10.1 Y20 Z0.28 F5000.0 ;Move to start position
G1 X10.1 Y200.0 Z0.28 F1500.0 E15 ;Draw the first line
G1 X10.4 Y200.0 Z0.28 F5000.0 ;Move to side a little
G1 X10.4 Y20 Z0.28 F1500.0 E30 ;Draw the second line
G92 E0 ;Reset Extruder
G1 Z2.0 F3000 ;Move Z Axis up

G92 E0
G92 E0
G1 F1800 E-3
;LAYER_COUNT:94
;LAYER:0
M106 S63.8
M204 S500
M205 X6 Y6
G0 F9000 X105.597 Y105.575 Z0.24
;TYPE:SKIRT
G1 F1800 E0
G1 X106.135 Y105.097 E0.02872
G1 X106.502 Y104.829 E0.04686
G1 X107.103 Y104.47 E0.0748
G1 X107.521 Y104.27 E0.0933
G1 X108.194 Y104.023 E0.12191
G1 X108.635 Y103.907 E0.14011
G1 X109.345 Y103.791 E0.16882
G1 X109.802 Y103.76 E0.1871
G1 X110.353 Y103.762 E0.2091
G1 X110.861 Y103.837 E0.22959
G1 X111.759 Y104.031 E0.26626
G1 X112.288 Y104.186 E0.28826
G1 X112.759 Y104.399 E0.30889
G1 X113.16 Y104.615 E0.32707
G1 X113.756 Y105.013 E0.35568
G1 X114.115 Y105.305 E0.37414
G1 X114.617 Y105.798 E0.40223
G1 X114.915 Y106.15 E0.42063
G1 X115.332 Y106.75 E0.4498
G1 X115.554 Y107.147 E0.46795
G1 X115.834 Y107.778 E0.4955
G1 X115.982 Y108.213 E0.51384
G1 X116.151 Y108.927 E0.54313
G1 X116.213 Y109.385 E0.56157
G1 X116.243 Y110.077 E0.58922
G1 X116.221 Y110.536 E0.60756
G1 X116.117 Y111.252 E0.63644
G1 X116.009 Y111.696 E0.65468
G1 X115.773 Y112.378 E0.68348
G1 X115.581 Y112.798 E0.70191
G1 X115.237 Y113.398 E0.72951
G1 X114.975 Y113.772 E0.74774
G1 X114.504 Y114.324 E0.7767
G1 X114.174 Y114.643 E0.79502
G1 X113.618 Y115.088 E0.82344
G1 X113.231 Y115.342 E0.84192
G1 X112.6 Y115.676 E0.87042
G1 X112.18 Y115.85 E0.88856
G1 X111.506 Y116.058 E0.91671
G1 X111.053 Y116.153 E0.93519
G1 X110.348 Y116.233 E0.9635
G1 X109.891 Y116.242 E0.98175
G1 X109.165 Y116.187 E1.01081
G1 X108.711 Y116.108 E1.0292
G1 X108.042 Y115.927 E1.05686
G1 X107.61 Y115.767 E1.07525
G1 X106.951 Y115.448 E1.10447
G1 X106.006 Y114.798 E1.15025
G1 X105.664 Y114.492 E1.16856
G1 X105.175 Y113.962 E1.19734
G1 X104.897 Y113.597 E1.21566
G1 X104.518 Y112.988 E1.24429
G1 X104.312 Y112.574 E1.26274
G1 X104.055 Y111.906 E1.29131
G1 X103.822 Y110.927 E1.33147
G1 X103.765 Y109.944 E1.37077
G1 X103.78 Y109.394 E1.39273
G1 X103.911 Y108.621 E1.42403
G1 X104.111 Y107.926 E1.45289
G1 X104.279 Y107.5 E1.47117
G1 X104.601 Y106.865 E1.49958
G1 X104.846 Y106.477 E1.5179
G1 X105.28 Y105.915 E1.54624
G1 X105.597 Y105.575 E1.56479
G0 F9000 X105.889 Y105.847
G1 F1800 X106.371 Y105.42 E1.59049
G1 X107.276 Y104.831 E1.63359
G1 X107.694 Y104.631 E1.65208
G1 X108.296 Y104.41 E1.67768
G1 X108.737 Y104.294 E1.69588
G1 X109.372 Y104.19 E1.72156
G1 X109.829 Y104.159 E1.73984
G1 X110.35 Y104.163 E1.76064
G1 X111.675 Y104.422 E1.81452
G1 X112.174 Y104.57 E1.8353
G1 X112.97 Y104.968 E1.87082
G1 X113.503 Y105.323 E1.89638
G1 X114.312 Y106.056 E1.93995
G1 X114.61 Y106.408 E1.95835
G1 X114.983 Y106.946 E1.98448
G1 X115.456 Y107.907 E2.02723
G1 X115.604 Y108.342 E2.04557
G1 X115.754 Y108.981 E2.07177
G1 X115.843 Y110.058 E2.1149
G1 X115.821 Y110.517 E2.13324
G1 X115.729 Y111.158 E2.15909
G1 X115.621 Y111.602 E2.17733
G1 X115.409 Y112.212 E2.2031
G1 X114.91 Y113.169 E2.24618
G1 X114.648 Y113.543 E2.2644
G1 X114.226 Y114.037 E2.29033
G1 X113.896 Y114.356 E2.30865
G1 X113.399 Y114.753 E2.33404
G1 X113.012 Y115.007 E2.35252
G1 X112.447 Y115.306 E2.37803
G1 X111.424 Y115.667 E2.42133
G1 X110.971 Y115.762 E2.4398
G1 X110.34 Y115.833 E2.46514
G1 X109.883 Y115.842 E2.48339
G1 X109.233 Y115.793 E2.5094
G1 X108.181 Y115.552 E2.55248
G1 X107.749 Y115.392 E2.57087
G1 X107.159 Y115.106 E2.59704
G1 X106.273 Y114.5 E2.63988
G1 X105.931 Y114.194 E2.65819
G1 X105.493 Y113.72 E2.68395
G1 X105.215 Y113.355 E2.70227
G1 X104.876 Y112.81 E2.72788
G1 X104.67 Y112.396 E2.74634
G1 X104.44 Y111.798 E2.77191
G1 X104.317 Y111.359 E2.79011
G1 X104.194 Y110.595 E2.82099
G1 X104.164 Y109.927 E2.84768
G1 X104.219 Y109.148 E2.87885
G1 X104.304 Y108.694 E2.89728
G1 X104.483 Y108.073 E2.92308
G1 X104.939 Y107.079 E2.96673
G1 X105.572 Y106.187 E3.01038
G1 X105.889 Y105.847 E3.02893
G0 F9000 X105.865 Y106.46
G1 F1800 X106.607 Y105.743 E3.07012
G1 X107.448 Y105.192 E3.11025
G1 X108.398 Y104.797 E3.15131
G1 X109.399 Y104.589 E3.19211
G1 X109.856 Y104.558 E3.2104
G1 X110.345 Y104.565 E3.22992
G1 X111.59 Y104.813 E3.28058
G1 X112.059 Y104.955 E3.30014
G1 X112.781 Y105.32 E3.33243
G1 X113.251 Y105.634 E3.35499
G1 X114.007 Y106.315 E3.3956
G1 X114.633 Y107.141 E3.43697
G1 X115.077 Y108.036 E3.47684
G1 X115.358 Y109.035 E3.51826
G1 X115.444 Y110.039 E3.55848
G1 X115.34 Y111.063 E3.59956
G1 X115.045 Y112.045 E3.64048
G1 X114.582 Y112.939 E3.68067
G1 X113.948 Y113.749 E3.72172
G1 X113.179 Y114.419 E3.76243
G1 X112.294 Y114.937 E3.80336
G1 X111.342 Y115.275 E3.84368
G1 X110.332 Y115.433 E3.88448
G1 X109.302 Y115.399 E3.92561
G1 X108.32 Y115.177 E3.96579
G1 X107.367 Y114.765 E4.00723
G1 X106.54 Y114.202 E4.04716
G1 X105.811 Y113.478 E4.08817
G1 X105.234 Y112.631 E4.12907
G1 X104.825 Y111.69 E4.17002
G1 X104.702 Y111.251 E4.18822
G1 X104.594 Y110.577 E4.21546
G1 X104.564 Y109.909 E4.24215
G1 X104.612 Y109.222 E4.26964
G1 X104.855 Y108.219 E4.31083
G1 X105.277 Y107.292 E4.35148
G1 X105.865 Y106.46 E4.39214
G0 F9000 X106.157 Y106.733
G1 F1800 X106.843 Y106.066 E4.43033
G1 X107.621 Y105.553 E4.46753
G1 X108.5 Y105.184 E4.50558
G1 X109.426 Y104.988 E4.54335
G1 X109.883 Y104.957 E4.56164
G1 X110.339 Y104.966 E4.57984
G1 X111.506 Y105.204 E4.62737
G1 X112.19 Y105.456 E4.65647
G1 X112.999 Y105.944 E4.69418
G1 X113.701 Y106.573 E4.7318
G1 X114.284 Y107.336 E4.77012
G1 X114.698 Y108.165 E4.80711
G1 X114.961 Y109.088 E4.84541
G1 X115.044 Y110.019 E4.88272
G1 X114.951 Y110.969 E4.92081
G1 X114.682 Y111.879 E4.95869
G1 X114.254 Y112.71 E4.996
G1 X113.67 Y113.461 E5.03397
G1 X112.96 Y114.085 E5.07169
G1 X112.141 Y114.567 E5.10962
G1 X111.26 Y114.884 E5.14699
G1 X110.324 Y115.033 E5.18482
G1 X109.37 Y115.005 E5.22291
G1 X108.459 Y114.802 E5.26016
G1 X107.576 Y114.423 E5.29852
G1 X106.806 Y113.904 E5.33558
G1 X106.13 Y113.235 E5.37354
G1 X105.592 Y112.453 E5.41142
G1 X105.21 Y111.582 E5.44938
G1 X105.087 Y111.143 E5.46758
G1 X104.994 Y110.559 E5.49118
G1 X104.964 Y109.891 E5.51787
G1 X105.005 Y109.296 E5.54167
G1 X105.227 Y108.366 E5.57983
G1 X105.616 Y107.506 E5.61751
G1 X106.157 Y106.733 E5.65516
G0 F9000 X106.45 Y107.006
G1 F1800 X107.079 Y106.389 E5.69033
G1 X107.793 Y105.913 E5.72458
G1 X108.601 Y105.57 E5.75961
G1 X109.453 Y105.387 E5.79439
G1 X109.91 Y105.356 E5.81268
G1 X110.524 Y105.401 E5.83725
G1 X111.422 Y105.595 E5.87392
G1 X112 Y105.808 E5.8985
G1 X112.746 Y106.254 E5.93319
G1 X113.396 Y106.831 E5.96788
G1 X113.935 Y107.531 E6.00314
G1 X114.32 Y108.293 E6.03722
G1 X114.565 Y109.142 E6.07248
G1 X114.644 Y110 E6.10687
G1 X114.563 Y110.874 E6.14191
G1 X114.318 Y111.713 E6.17679
G1 X113.927 Y112.48 E6.21115
G1 X113.392 Y113.174 E6.24613
G1 X112.74 Y113.75 E6.28085
G1 X111.988 Y114.197 E6.31577
G1 X111.178 Y114.492 E6.35017
G1 X110.316 Y114.634 E6.38504
G1 X109.439 Y114.61 E6.42006
G1 X108.598 Y114.427 E6.45441
G1 X107.784 Y114.082 E6.48969
G1 X107.073 Y113.606 E6.52384
G1 X106.448 Y112.993 E6.55878
G1 X105.95 Y112.275 E6.59366
G1 X105.596 Y111.475 E6.62858
G1 X105.473 Y111.036 E6.64677
G1 X105.393 Y110.541 E6.66678
G1 X105.363 Y109.873 E6.69347
G1 X105.399 Y109.369 E6.71364
G1 X105.599 Y108.513 E6.74873
G1 X105.954 Y107.719 E6.78344
G1 X106.45 Y107.006 E6.8181
G0 F9000 X106.742 Y107.279
G1 F1800 X107.314 Y106.712 E6.85025
G1 X107.966 Y106.274 E6.8816
G1 X108.703 Y105.957 E6.91362
G1 X109.48 Y105.786 E6.94537
G1 X109.937 Y105.755 E6.96366
G1 X110.439 Y105.792 E6.98375
G1 X111.337 Y105.986 E7.02041
G1 X111.811 Y106.16 E7.04057
G1 X112.494 Y106.565 E7.07226
G1 X113.091 Y107.09 E7.10399
G1 X113.586 Y107.726 E7.13616
G1 X113.941 Y108.422 E7.16734
G1 X114.169 Y109.196 E7.19954
G1 X114.245 Y109.981 E7.23102
G1 X114.174 Y110.779 E7.263
G1 X113.954 Y111.546 E7.29484
G1 X113.599 Y112.251 E7.32635
G1 X113.114 Y112.886 E7.35824
G1 X112.521 Y113.416 E7.38998
G1 X111.835 Y113.828 E7.42192
G1 X111.095 Y114.101 E7.4534
G1 X110.308 Y114.234 E7.48526
G1 X109.507 Y114.216 E7.51724
G1 X108.737 Y114.052 E7.54866
G1 X107.992 Y113.74 E7.58089
G1 X107.34 Y113.307 E7.61213
G1 X106.766 Y112.751 E7.64403
G1 X106.308 Y112.097 E7.67589
G1 X105.981 Y111.367 E7.70782
G1 X105.793 Y110.523 E7.74233
G1 X105.763 Y109.855 E7.76902
G1 X105.792 Y109.443 E7.7855
G1 X105.972 Y108.66 E7.81757
G1 X106.292 Y107.933 E7.84927
G1 X106.742 Y107.279 E7.88096
G0 F9000 X107.352 Y107.211
G1 F1800 X107.917 Y106.767 E7.90964
G1 X108.557 Y106.435 E7.93841
G1 X109.246 Y106.228 E7.96713
G1 X109.964 Y106.154 E7.99594
G1 X111.253 Y106.377 E8.04815
G1 X111.621 Y106.512 E8.06379
G1 X112.241 Y106.875 E8.09247
G1 X112.786 Y107.348 E8.12127
G1 X113.237 Y107.922 E8.1504
G1 X113.562 Y108.551 E8.17866
G1 X113.772 Y109.249 E8.20775
G1 X113.845 Y109.962 E8.23636
G1 X113.785 Y110.685 E8.26532
G1 X113.59 Y111.38 E8.29413
G1 X113.272 Y112.021 E8.32269
G1 X112.836 Y112.599 E8.35158
G1 X112.301 Y113.081 E8.38032
G1 X111.682 Y113.458 E8.40925
G1 X111.013 Y113.709 E8.43777
G1 X110.301 Y113.834 E8.46662
G1 X109.576 Y113.822 E8.49556
G1 X108.876 Y113.677 E8.52409
G1 X108.201 Y113.399 E8.55323
G1 X107.606 Y113.009 E8.58162
G1 X107.084 Y112.508 E8.6105
G1 X106.667 Y111.919 E8.6393
G1 X106.366 Y111.259 E8.66826
G1 X106.192 Y110.505 E8.69914
G1 X106.162 Y109.837 E8.72583
G1 X106.27 Y109.062 E8.75706
G1 X106.512 Y108.38 E8.78594
G1 X106.875 Y107.759 E8.81465
G1 X107.352 Y107.211 E8.84365
G0 F9000 X107.645 Y107.484
G1 F1800 X108.153 Y107.09 E8.86931
G1 X108.729 Y106.796 E8.89512
G1 X109.348 Y106.615 E8.92086
G1 X109.991 Y106.553 E8.94664
G1 X111.168 Y106.768 E8.9944
G1 X111.832 Y107.081 E9.02369
G1 X112.348 Y107.477 E9.04965
G1 X112.778 Y107.959 E9.07543
G1 X113.11 Y108.514 E9.10125
G1 X113.332 Y109.115 E9.12682
G1 X113.438 Y109.761 E9.15295
G1 X113.424 Y110.402 E9.17854
G1 X113.289 Y111.034 E9.20433
G1 X113.034 Y111.634 E9.23035
G1 X112.682 Y112.166 E9.25581
G1 X112.228 Y112.63 E9.28172
G1 X111.695 Y113.001 E9.30764
G1 X111.109 Y113.263 E9.33326
G1 X110.478 Y113.413 E9.35915
G1 X109.836 Y113.443 E9.3848
G1 X109.191 Y113.349 E9.41081
G1 X108.583 Y113.142 E9.43645
G1 X108.019 Y112.82 E9.46237
G1 X107.531 Y112.405 E9.48794
G1 X107.124 Y111.901 E9.51379
G1 X106.819 Y111.326 E9.53977
G1 X106.628 Y110.712 E9.56543
G1 X106.562 Y109.819 E9.60117
G1 X106.663 Y109.136 E9.62873
G1 X106.884 Y108.527 E9.65459
G1 X107.213 Y107.972 E9.68034
G1 X107.645 Y107.484 E9.70635
G0 F9000 X107.937 Y107.757
G1 F1800 X108.389 Y107.413 E9.72902
G1 X108.902 Y107.157 E9.7519
G1 X109.449 Y107.002 E9.77459
G1 X110.018 Y106.952 E9.79739
G1 X111.084 Y107.159 E9.84073
G1 X111.643 Y107.433 E9.86558
G1 X112.096 Y107.788 E9.88855
G1 X112.473 Y108.217 E9.91134
G1 X112.761 Y108.709 E9.9341
G1 X112.953 Y109.244 E9.95679
G1 X113.042 Y109.815 E9.97985
G1 X113.024 Y110.383 E10.00253
G1 X112.9 Y110.94 E10.02531
G1 X112.671 Y111.467 E10.04824
G1 X112.354 Y111.936 E10.07083
G1 X111.95 Y112.342 E10.09369
G1 X111.475 Y112.667 E10.11667
G1 X110.956 Y112.893 E10.13926
G1 X110.396 Y113.021 E10.16219
G1 X109.828 Y113.043 E10.18487
G1 X109.259 Y112.955 E10.20785
G1 X108.722 Y112.767 E10.23056
G1 X108.227 Y112.478 E10.25344
G1 X107.798 Y112.107 E10.27608
G1 X107.443 Y111.659 E10.29889
G1 X107.177 Y111.148 E10.32188
G1 X107.013 Y110.604 E10.34456
G1 X106.962 Y109.801 E10.37667
G1 X107.056 Y109.21 E10.40056
G1 X107.256 Y108.674 E10.42339
G1 X107.552 Y108.186 E10.44617
G1 X107.937 Y107.757 E10.46918
G0 F9000 X108.258 Y108.004
G1 F1800 X108.657 Y107.718 E10.48877
G1 X109.11 Y107.505 E10.50875
G1 X109.588 Y107.382 E10.52845
G1 X110.045 Y107.351 E10.54673
G1 X110.999 Y107.55 E10.58563
G1 X111.453 Y107.785 E10.60603
G1 X111.843 Y108.098 E10.62599
G1 X112.19 Y108.507 E10.6474
G1 X112.426 Y108.938 E10.66701
G1 X112.583 Y109.41 E10.68686
G1 X112.647 Y109.905 E10.70678
G1 X112.619 Y110.401 E10.72661
G1 X112.499 Y110.881 E10.74636
G1 X112.289 Y111.333 E10.76625
G1 X112.002 Y111.736 E10.786
G1 X111.643 Y112.078 E10.80579
G1 X111.223 Y112.35 E10.82576
G1 X110.767 Y112.535 E10.8454
G1 X110.277 Y112.634 E10.86535
G1 X109.782 Y112.64 E10.88511
G1 X109.293 Y112.552 E10.90494
G1 X108.826 Y112.375 E10.92487
G1 X108.407 Y112.115 E10.94456
G1 X108.039 Y111.781 E10.96439
G1 X107.741 Y111.384 E10.9842
G1 X107.521 Y110.935 E11.00416
G1 X107.391 Y110.451 E11.02416
G1 X107.361 Y109.783 E11.05085
G1 X107.449 Y109.283 E11.07111
G1 X107.645 Y108.787 E11.0924
G1 X107.913 Y108.37 E11.11218
G1 X108.258 Y108.004 E11.13226
G1 F1800 E8.13226
;MESH:Object 1
G0 F9000 X108.647 Y108.487
G0 X108.377 Y109.664
G0 X108.347 Y111.03
G0 X108.091 Y111.188
;TYPE:WALL-OUTER
G1 F1800 E11.13226
G1 X107.904 Y110.813 E11.14898
G1 X107.79 Y110.408 E11.16577
G1 X107.762 Y109.786 E11.19062
G1 X107.84 Y109.374 E11.20736
G1 X107.995 Y108.982 E11.22418
G1 X108.221 Y108.624 E11.24108
G1 X108.504 Y108.32 E11.25766
G1 X108.847 Y108.07 E11.2746
G1 X109.232 Y107.886 E11.29163
G1 X109.632 Y107.781 E11.30814
G1 X110.057 Y107.752 E11.32514
G1 X110.476 Y107.802 E11.34198
G1 X110.879 Y107.929 E11.35884
G1 X111.25 Y108.13 E11.37569
G1 X111.574 Y108.393 E11.39234
G1 X111.849 Y108.719 E11.40936
G1 X112.055 Y109.086 E11.42616
G1 X112.189 Y109.483 E11.44288
G1 X112.246 Y109.9 E11.45968
G1 X112.226 Y110.327 E11.47674
G1 X112.127 Y110.731 E11.49335
G1 X111.952 Y111.115 E11.51019
G1 X111.709 Y111.463 E11.52713
G1 X111.405 Y111.756 E11.54398
G1 X111.056 Y111.985 E11.56064
G1 X110.664 Y112.148 E11.57758
G1 X110.251 Y112.234 E11.59442
G1 X109.829 Y112.243 E11.61127
G1 X109.413 Y112.171 E11.62812
G1 X109.022 Y112.025 E11.64478
G1 X108.661 Y111.805 E11.66165
G1 X108.344 Y111.52 E11.67866
G1 X108.091 Y111.188 E11.69532
G0 F9000 X108.346 Y111.03
G0 X108.299 Y110.285
G0 X108.588 Y110.204
G1 F1800 X108.692 Y110.57 E11.71051
G1 X108.89 Y110.895 E11.7257
G1 X109.165 Y111.155 E11.7408
G1 X109.5 Y111.336 E11.756
G1 X109.871 Y111.42 E11.77118
G1 X110.252 Y111.404 E11.7864
G1 X110.614 Y111.287 E11.80159
G1 X110.932 Y111.08 E11.81673
G1 X111.184 Y110.795 E11.83192
G1 X111.351 Y110.454 E11.84707
G1 X111.423 Y110.082 E11.86219
G1 X111.394 Y109.702 E11.8774
G1 X111.266 Y109.345 E11.89254
G1 X111.049 Y109.033 E11.90771
G1 X110.755 Y108.79 E11.92293
G1 X110.409 Y108.634 E11.93808
G1 X110.034 Y108.574 E11.95324
G1 X109.656 Y108.616 E11.96842
G1 X109.302 Y108.756 E11.98361
G1 X108.993 Y108.988 E11.99903
G1 X108.683 Y109.45 E12.02124
G1 X108.585 Y109.824 E12.03667
G1 X108.588 Y110.204 E12.05184
G0 F9000 X108.299 Y110.285
G0 X108.462 Y109.351
G0 X108.662 Y109.051
G0 X109.369 Y108.264
;TYPE:WALL-INNER
G1 F1800 X109.556 Y108.215 E12.05955
G1 X109.699 Y108.177 E12.06546
G1 X110.048 Y108.153 E12.07942
G1 X110.388 Y108.194 E12.09309
G1 X110.527 Y108.237 E12.0989
G1 X110.722 Y108.299 E12.10706
G1 X110.973 Y108.436 E12.11848
G1 X111.027 Y108.465 E12.12092
G1 X111.293 Y108.68 E12.13457
G1 X111.354 Y108.753 E12.13837
G1 X111.518 Y108.948 E12.14854
G1 X111.634 Y109.154 E12.15798
G1 X111.688 Y109.251 E12.16241
G1 X111.798 Y109.577 E12.17614
G1 X111.803 Y109.616 E12.17771
G1 X111.844 Y109.914 E12.18971
G1 X111.836 Y110.105 E12.19734
G1 X111.828 Y110.27 E12.20394
G1 X111.751 Y110.586 E12.21692
G1 X111.747 Y110.601 E12.21754
G1 X111.603 Y110.916 E12.23136
G1 X111.528 Y111.024 E12.23661
G1 X111.404 Y111.201 E12.24524
G1 X111.204 Y111.394 E12.25633
G1 X111.151 Y111.445 E12.25926
G1 X110.87 Y111.629 E12.27267
G1 X110.793 Y111.661 E12.276
G1 X110.549 Y111.763 E12.28655
G1 X110.325 Y111.809 E12.29568
G1 X110.203 Y111.835 E12.30066
G1 X109.858 Y111.842 E12.31443
