;FLAVOR:Marlin
;TIME:616
;Filament used: 0.163845m
;Layer height: 0.16
;MINX:103.715
;MINY:103.71
;MINZ:0.24
;MAXX:116.292
;MAXY:116.292
;MAXZ:17.04
;Generated with Cura_SteamEngine 4.5.0
M140 S50
M105
M190 S50
M104 S215
M105
M109 S215
M82 ;absolute extrusion mode
M201 X500.00 Y500.00 Z100.00 E5000.00 ;Setup machine max acceleration
M203 X500.00 Y500.00 Z10.00 E50.00 ;Setup machine max feedrate
M204 P500.00 R1000.00 T500.00 ;Setup Print/Retract/Travel acceleration
M205 X8.00 Y8.00 Z0.40 E5.00 ;Setup Jerk
M220 S100 ;Reset Feedrate
M221 S100 ;Reset Flowrate

G28 ;Home

G92 E0 ;Reset Extruder
G1 Z2.0 F3000 ;Move Z Axis up
G1 X10.1 Y20 Z0.28 F5000.0 ;Move to start position
G1 X10.1 Y200.0 Z0.28 F1500.0 E15 ;Draw the first line
G1 X10.4 Y200.0 Z0.28 F5000.0 ;Move to side a little
G1 X10.4 Y20 Z0.28 F1500.0 E30 ;Draw the second line
G92 E0 ;Reset Extruder
G1 Z2.0 F3000 ;Move Z Axis up

G92 E0
G92 E0
G1 F1800 E-3
;LAYER_COUNT:96
;LAYER:0
M106 S63.8
M204 S500
M205 X6 Y6
G0 F9000 X105.569 Y105.533 Z0.24
;TYPE:SKIRT
G1 F1800 E0
G1 X106.092 Y105.069 E0.0279
G1 X106.466 Y104.794 E0.04643
G1 X107.079 Y104.426 E0.07497
G1 X107.506 Y104.222 E0.09386
G1 X108.18 Y103.975 E0.12251
G1 X108.63 Y103.857 E0.14107
G1 X109.334 Y103.742 E0.16955
G1 X109.801 Y103.71 E0.18823
G1 X110.352 Y103.712 E0.21022
G1 X110.865 Y103.787 E0.23091
G1 X111.78 Y103.985 E0.26828
G1 X112.308 Y104.14 E0.29024
G1 X112.772 Y104.35 E0.31057
G1 X113.186 Y104.572 E0.32932
G1 X113.794 Y104.978 E0.3585
G1 X114.154 Y105.272 E0.37705
G1 X114.656 Y105.767 E0.40519
G1 X114.961 Y106.129 E0.42408
G1 X115.364 Y106.709 E0.45227
G1 X115.592 Y107.113 E0.47078
G1 X115.881 Y107.757 E0.49896
G1 X116.032 Y108.201 E0.51767
G1 X116.2 Y108.918 E0.54707
G1 X116.263 Y109.386 E0.56591
G1 X116.292 Y110.079 E0.5936
G1 X116.269 Y110.548 E0.61234
G1 X116.168 Y111.253 E0.64076
G1 X116.059 Y111.705 E0.65932
G1 X115.822 Y112.392 E0.68833
G1 X115.628 Y112.817 E0.70697
G1 X115.28 Y113.424 E0.7349
G1 X115.008 Y113.811 E0.75378
G1 X114.541 Y114.358 E0.78248
G1 X114.207 Y114.681 E0.80103
G1 X113.654 Y115.123 E0.82928
G1 X113.259 Y115.383 E0.84816
G1 X112.626 Y115.719 E0.87676
G1 X112.197 Y115.897 E0.8953
G1 X111.52 Y116.106 E0.92358
G1 X111.057 Y116.203 E0.94246
G1 X110.351 Y116.283 E0.97082
G1 X109.885 Y116.292 E0.98942
G1 X109.157 Y116.236 E1.01856
G1 X108.694 Y116.155 E1.03732
G1 X108.029 Y115.975 E1.06482
G1 X107.589 Y115.812 E1.08354
G1 X106.938 Y115.498 E1.11239
G1 X106.539 Y115.256 E1.13102
G1 X105.977 Y114.84 E1.15892
G1 X105.628 Y114.528 E1.17761
G1 X105.138 Y113.997 E1.20645
G1 X104.854 Y113.624 E1.22516
G1 X104.47 Y113.005 E1.25423
G1 X104.261 Y112.582 E1.27306
G1 X104.01 Y111.928 E1.30102
G1 X103.774 Y110.94 E1.34156
G1 X103.715 Y109.942 E1.38147
G1 X103.73 Y109.391 E1.40347
G1 X103.863 Y108.604 E1.43532
G1 X104.064 Y107.909 E1.4642
G1 X104.236 Y107.474 E1.48287
G1 X104.557 Y106.842 E1.51116
G1 X104.807 Y106.446 E1.52985
G1 X105.246 Y105.878 E1.5585
G1 X105.569 Y105.533 E1.57736
G0 F9000 X105.538 Y106.151
G1 F1800 X106.329 Y105.391 E1.62115
G1 X106.703 Y105.116 E1.63967
G1 X107.251 Y104.787 E1.66518
G1 X107.678 Y104.583 E1.68407
G1 X108.282 Y104.362 E1.70974
G1 X108.732 Y104.244 E1.72831
G1 X109.362 Y104.141 E1.75379
G1 X109.829 Y104.109 E1.77247
G1 X110.35 Y104.113 E1.79327
G1 X111.695 Y104.376 E1.84796
G1 X112.195 Y104.525 E1.86879
G1 X112.997 Y104.925 E1.90456
G1 X113.541 Y105.288 E1.93066
G1 X114.35 Y106.024 E1.97431
G1 X114.655 Y106.386 E1.9932
G1 X115.016 Y106.906 E2.01847
G1 X115.502 Y107.886 E2.06213
G1 X115.653 Y108.33 E2.08085
G1 X115.804 Y108.971 E2.10713
G1 X115.893 Y110.06 E2.15074
G1 X115.87 Y110.529 E2.16948
G1 X115.779 Y111.159 E2.19489
G1 X115.67 Y111.611 E2.21344
G1 X115.458 Y112.226 E2.23941
G1 X114.953 Y113.194 E2.28298
G1 X114.681 Y113.581 E2.30186
G1 X114.263 Y114.07 E2.32754
G1 X113.929 Y114.393 E2.34608
G1 X113.434 Y114.789 E2.37139
G1 X113.039 Y115.049 E2.39026
G1 X112.473 Y115.349 E2.41583
G1 X111.438 Y115.715 E2.45964
G1 X110.975 Y115.812 E2.47852
G1 X110.344 Y115.883 E2.50387
G1 X109.878 Y115.892 E2.52247
G1 X109.226 Y115.842 E2.54857
G1 X108.168 Y115.6 E2.59189
G1 X107.728 Y115.437 E2.61061
G1 X107.146 Y115.156 E2.63641
G1 X106.244 Y114.542 E2.67996
G1 X105.895 Y114.23 E2.69864
G1 X105.456 Y113.755 E2.72446
G1 X105.172 Y113.382 E2.74317
G1 X104.829 Y112.828 E2.76917
G1 X104.395 Y111.82 E2.81298
G1 X104.269 Y111.372 E2.83155
G1 X104.146 Y110.605 E2.86255
G1 X104.115 Y109.923 E2.8898
G1 X104.131 Y109.402 E2.91061
G1 X104.256 Y108.678 E2.93993
G1 X104.436 Y108.056 E2.96578
G1 X104.608 Y107.621 E2.98444
G1 X104.895 Y107.056 E3.00974
G1 X105.145 Y106.66 E3.02843
G1 X105.538 Y106.151 E3.0541
G0 F9000 X105.83 Y106.425
G1 F1800 X106.566 Y105.713 E3.09497
G1 X107.424 Y105.148 E3.13597
G1 X108.383 Y104.749 E3.17743
G1 X109.389 Y104.54 E3.21843
G1 X109.856 Y104.508 E3.23712
G1 X110.345 Y104.515 E3.25664
G1 X111.61 Y104.767 E3.30812
G1 X112.079 Y104.909 E3.32768
G1 X112.808 Y105.277 E3.36027
G1 X113.288 Y105.597 E3.38329
G1 X114.044 Y106.282 E3.42401
G1 X114.668 Y107.103 E3.46517
G1 X115.123 Y108.015 E3.50585
G1 X115.274 Y108.459 E3.52456
G1 X115.407 Y109.025 E3.54777
G1 X115.493 Y110.04 E3.58843
G1 X115.39 Y111.065 E3.62954
G1 X115.094 Y112.06 E3.67098
G1 X114.625 Y112.964 E3.71162
G1 X113.985 Y113.783 E3.75311
G1 X113.214 Y114.455 E3.79393
G1 X112.32 Y114.98 E3.83531
G1 X111.356 Y115.323 E3.87615
G1 X110.336 Y115.483 E3.91735
G1 X109.295 Y115.448 E3.95893
G1 X108.307 Y115.225 E3.99935
G1 X107.353 Y114.814 E4.04081
G1 X106.511 Y114.244 E4.08139
G1 X105.774 Y113.512 E4.12285
G1 X105.187 Y112.651 E4.16444
G1 X104.78 Y111.711 E4.20532
G1 X104.654 Y111.263 E4.2239
G1 X104.545 Y110.587 E4.25123
G1 X104.514 Y109.905 E4.27848
G1 X104.563 Y109.215 E4.30609
G1 X104.808 Y108.203 E4.34764
G1 X105.233 Y107.27 E4.38856
G1 X105.83 Y106.425 E4.42986
G0 F9000 X106.122 Y106.698
G1 F1800 X106.803 Y106.035 E4.46779
G1 X107.596 Y105.509 E4.50577
G1 X108.485 Y105.136 E4.54425
G1 X109.416 Y104.939 E4.58223
G1 X109.883 Y104.907 E4.60091
G1 X110.339 Y104.916 E4.61912
G1 X111.526 Y105.158 E4.66747
G1 X112.205 Y105.408 E4.69635
G1 X113.035 Y105.907 E4.735
G1 X113.738 Y106.54 E4.77276
G1 X114.319 Y107.299 E4.8109
G1 X114.745 Y108.144 E4.84867
G1 X115.011 Y109.078 E4.88743
G1 X115.094 Y110.02 E4.92518
G1 X115.002 Y110.972 E4.96335
G1 X114.73 Y111.894 E5.00172
G1 X114.298 Y112.734 E5.03942
G1 X113.706 Y113.495 E5.0779
G1 X112.995 Y114.121 E5.11571
G1 X112.166 Y114.61 E5.15412
G1 X111.274 Y114.932 E5.19197
G1 X110.328 Y115.084 E5.23021
G1 X109.364 Y115.054 E5.26871
G1 X108.446 Y114.85 E5.30624
G1 X107.561 Y114.472 E5.34465
G1 X106.777 Y113.945 E5.38235
G1 X106.092 Y113.27 E5.42074
G1 X105.546 Y112.474 E5.45926
G1 X105.165 Y111.603 E5.49721
G1 X105.039 Y111.155 E5.51578
G1 X104.945 Y110.569 E5.53947
G1 X104.914 Y109.887 E5.56672
G1 X104.956 Y109.289 E5.59064
G1 X105.18 Y108.35 E5.62917
G1 X105.571 Y107.483 E5.66713
G1 X106.122 Y106.698 E5.70541
G0 F9000 X106.414 Y106.971
G1 F1800 X107.04 Y106.358 E5.74038
G1 X107.769 Y105.87 E5.77539
G1 X108.586 Y105.523 E5.81082
G1 X109.444 Y105.338 E5.84585
G1 X109.911 Y105.306 E5.86454
G1 X110.526 Y105.351 E5.88915
G1 X111.441 Y105.549 E5.92651
G1 X112.016 Y105.76 E5.95096
G1 X112.782 Y106.217 E5.98656
G1 X113.432 Y106.797 E6.02133
G1 X113.971 Y107.496 E6.05656
G1 X114.366 Y108.273 E6.09135
G1 X114.614 Y109.131 E6.12699
G1 X114.694 Y110.001 E6.16186
G1 X114.613 Y110.878 E6.19701
G1 X114.366 Y111.728 E6.23234
G1 X113.971 Y112.504 E6.2671
G1 X113.428 Y113.207 E6.30255
G1 X112.775 Y113.787 E6.33741
G1 X112.013 Y114.241 E6.37281
G1 X111.192 Y114.54 E6.40768
G1 X110.32 Y114.684 E6.44296
G1 X109.433 Y114.66 E6.47837
G1 X108.585 Y114.475 E6.51302
G1 X107.768 Y114.13 E6.54841
G1 X107.044 Y113.647 E6.58315
G1 X106.411 Y113.028 E6.61849
G1 X105.905 Y112.297 E6.65397
G1 X105.55 Y111.495 E6.68897
G1 X105.424 Y111.047 E6.70755
G1 X105.344 Y110.551 E6.7276
G1 X105.313 Y109.869 E6.75485
G1 X105.349 Y109.363 E6.7751
G1 X105.552 Y108.497 E6.8106
G1 X105.91 Y107.697 E6.84558
G1 X106.414 Y106.971 E6.88085
G0 F9000 X106.706 Y107.245
G1 F1800 X107.277 Y106.68 E6.91291
G1 X107.941 Y106.231 E6.9449
G1 X108.687 Y105.91 E6.97732
G1 X109.471 Y105.737 E7.00936
G1 X109.938 Y105.705 E7.02804
G1 X110.442 Y105.742 E7.04821
G1 X111.357 Y105.94 E7.08558
G1 X111.827 Y106.113 E7.10557
G1 X112.529 Y106.527 E7.1381
G1 X113.127 Y107.055 E7.16994
G1 X113.623 Y107.692 E7.20216
G1 X113.987 Y108.401 E7.23397
G1 X114.218 Y109.185 E7.26659
G1 X114.295 Y109.981 E7.29851
G1 X114.224 Y110.784 E7.33068
G1 X114.002 Y111.561 E7.36293
G1 X113.644 Y112.274 E7.39478
G1 X113.15 Y112.92 E7.42724
G1 X112.555 Y113.453 E7.45912
G1 X111.86 Y113.872 E7.49151
G1 X111.11 Y114.149 E7.52342
G1 X110.313 Y114.284 E7.55568
G1 X109.502 Y114.266 E7.58806
G1 X108.724 Y114.1 E7.61981
G1 X107.976 Y113.788 E7.65216
G1 X107.31 Y113.349 E7.68399
G1 X106.729 Y112.785 E7.71631
G1 X106.263 Y112.119 E7.74875
G1 X105.935 Y111.386 E7.7808
G1 X105.809 Y110.938 E7.79938
G1 X105.744 Y110.533 E7.81575
G1 X105.713 Y109.851 E7.843
G1 X105.742 Y109.437 E7.85956
G1 X105.924 Y108.644 E7.89204
G1 X106.248 Y107.91 E7.92406
G1 X106.706 Y107.245 E7.95629
G0 F9000 X107.321 Y107.173
G1 F1800 X107.888 Y106.727 E7.98508
G1 X108.54 Y106.388 E8.01441
G1 X109.239 Y106.179 E8.04353
G1 X109.965 Y106.104 E8.07266
G1 X111.272 Y106.331 E8.1256
G1 X111.638 Y106.465 E8.14116
G1 X112.276 Y106.837 E8.17064
G1 X112.821 Y107.313 E8.19952
G1 X113.274 Y107.889 E8.22876
G1 X113.608 Y108.53 E8.25761
G1 X113.821 Y109.238 E8.28712
G1 X113.895 Y109.962 E8.31617
G1 X113.835 Y110.69 E8.34532
G1 X113.639 Y111.395 E8.37453
G1 X113.316 Y112.044 E8.40346
G1 X112.872 Y112.632 E8.43287
G1 X112.335 Y113.118 E8.46178
G1 X111.707 Y113.502 E8.49116
G1 X111.028 Y113.757 E8.5201
G1 X110.305 Y113.884 E8.5494
G1 X109.571 Y113.872 E8.5787
G1 X108.863 Y113.725 E8.60756
G1 X108.183 Y113.446 E8.6369
G1 X107.577 Y113.051 E8.66577
G1 X107.047 Y112.543 E8.69507
G1 X106.622 Y111.942 E8.72445
G1 X106.32 Y111.278 E8.75356
G1 X106.143 Y110.515 E8.78482
G1 X106.112 Y109.833 E8.81207
G1 X106.222 Y109.047 E8.84375
G1 X106.468 Y108.356 E8.87302
G1 X106.836 Y107.728 E8.90208
G1 X107.321 Y107.173 E8.93149
G0 F9000 X107.613 Y107.447
G1 F1800 X108.125 Y107.049 E8.95738
G1 X108.713 Y106.749 E8.98372
G1 X109.34 Y106.566 E9.00979
G1 X109.993 Y106.503 E9.03598
G1 X111.187 Y106.722 E9.08443
G1 X111.863 Y107.04 E9.11424
G1 X112.383 Y107.44 E9.14043
G1 X112.82 Y107.933 E9.16672
G1 X113.154 Y108.49 E9.19264
G1 X113.381 Y109.103 E9.21873
G1 X113.488 Y109.76 E9.2453
G1 X113.473 Y110.411 E9.27129
G1 X113.337 Y111.048 E9.29729
G1 X113.081 Y111.654 E9.32354
G1 X112.717 Y112.201 E9.34977
G1 X112.26 Y112.668 E9.37585
G1 X111.72 Y113.044 E9.40211
G1 X111.124 Y113.311 E9.42817
G1 X110.483 Y113.463 E9.45447
G1 X109.831 Y113.493 E9.48052
G1 X109.177 Y113.397 E9.5069
G1 X108.562 Y113.187 E9.53284
G1 X107.991 Y112.862 E9.55906
G1 X107.495 Y112.441 E9.58503
G1 X107.081 Y111.928 E9.61134
G1 X106.771 Y111.342 E9.6378
G1 X106.579 Y110.722 E9.6637
G1 X106.512 Y109.814 E9.70004
G1 X106.615 Y109.121 E9.728
G1 X106.84 Y108.503 E9.75425
G1 X107.174 Y107.941 E9.78035
G1 X107.613 Y107.447 E9.80672
G0 F9000 X107.905 Y107.72
G1 F1800 X108.362 Y107.372 E9.82965
G1 X108.885 Y107.11 E9.853
G1 X109.442 Y106.953 E9.87609
G1 X110.02 Y106.902 E9.89925
G1 X111.103 Y107.113 E9.94329
G1 X111.674 Y107.392 E9.96865
G1 X112.13 Y107.75 E9.99179
G1 X112.514 Y108.19 E10.0151
G1 X112.806 Y108.686 E10.03807
G1 X113.002 Y109.232 E10.06123
G1 X113.092 Y109.813 E10.08469
G1 X113.073 Y110.391 E10.10777
G1 X112.948 Y110.955 E10.13083
G1 X112.717 Y111.488 E10.15402
G1 X112.39 Y111.971 E10.1773
G1 X111.982 Y112.38 E10.20035
G1 X111.5 Y112.71 E10.22367
G1 X110.971 Y112.941 E10.24671
G1 X110.401 Y113.071 E10.27004
G1 X109.824 Y113.093 E10.29309
G1 X109.246 Y113.003 E10.31643
G1 X108.701 Y112.812 E10.33948
G1 X108.199 Y112.52 E10.36266
G1 X107.761 Y112.142 E10.38575
G1 X107.4 Y111.685 E10.409
G1 X107.13 Y111.165 E10.43238
G1 X106.964 Y110.613 E10.45539
G1 X106.912 Y109.796 E10.48806
G1 X107.008 Y109.195 E10.51236
G1 X107.212 Y108.65 E10.53558
G1 X107.513 Y108.155 E10.5587
G1 X107.905 Y107.72 E10.58207
G0 F9000 X108.197 Y107.993
G1 F1800 X108.599 Y107.694 E10.60207
G1 X109.058 Y107.471 E10.62244
G1 X109.543 Y107.34 E10.64249
G1 X110.047 Y107.301 E10.66267
G1 X111.018 Y107.504 E10.70226
G1 X111.485 Y107.745 E10.72323
G1 X111.877 Y108.06 E10.7433
G1 X112.208 Y108.448 E10.76366
G1 X112.457 Y108.883 E10.78366
G1 X112.623 Y109.361 E10.80386
G1 X112.695 Y109.866 E10.82422
G1 X112.674 Y110.372 E10.84443
G1 X112.559 Y110.861 E10.86448
G1 X112.353 Y111.322 E10.88463
G1 X112.063 Y111.741 E10.90497
G1 X111.704 Y112.093 E10.92504
G1 X111.28 Y112.376 E10.94539
G1 X110.818 Y112.572 E10.96542
G1 X110.319 Y112.68 E10.98579
G1 X109.816 Y112.693 E11.00588
G1 X109.315 Y112.609 E11.02615
G1 X108.84 Y112.437 E11.04631
G1 X108.406 Y112.178 E11.06649
G1 X108.028 Y111.844 E11.08662
G1 X107.718 Y111.443 E11.10685
G1 X107.489 Y110.988 E11.12718
G1 X107.349 Y110.505 E11.14725
G1 X107.311 Y109.778 E11.1763
G1 X107.401 Y109.269 E11.19694
G1 X107.584 Y108.797 E11.21714
G1 X107.851 Y108.368 E11.23731
G1 X108.197 Y107.993 E11.25767
G1 F1800 E8.25767
;MESH:Object 1
G0 F9000 X108.626 Y108.441
G0 X108.352 Y109.656
G0 X108.304 Y111.059
G0 X108.048 Y111.216
;TYPE:WALL-OUTER
G1 F1800 E11.25767
G1 X107.858 Y110.831 E11.27481
G1 X107.741 Y110.417 E11.29198
G1 X107.712 Y109.781 E11.31739
G1 X107.792 Y109.36 E11.33449
G1 X107.951 Y108.959 E11.35171
G1 X108.179 Y108.597 E11.36878
G1 X108.477 Y108.279 E11.38618
G1 X108.818 Y108.029 E11.40305
G1 X109.215 Y107.839 E11.42062
G1 X109.624 Y107.732 E11.43749
G1 X110.059 Y107.702 E11.4549
G1 X110.486 Y107.753 E11.47206
G1 X110.899 Y107.884 E11.48935
G1 X111.278 Y108.088 E11.50653
G1 X111.609 Y108.358 E11.52358
G1 X111.89 Y108.691 E11.54097
G1 X112.101 Y109.065 E11.55811
G1 X112.238 Y109.471 E11.57521
G1 X112.296 Y109.897 E11.59237
G1 X112.275 Y110.335 E11.60987
G1 X112.175 Y110.747 E11.6268
G1 X111.996 Y111.14 E11.64403
G1 X111.747 Y111.495 E11.66134
G1 X111.437 Y111.794 E11.67853
G1 X111.08 Y112.029 E11.69559
G1 X110.679 Y112.196 E11.71292
G1 X110.256 Y112.284 E11.73017
G1 X109.826 Y112.293 E11.74733
G1 X109.4 Y112.219 E11.76459
G1 X109.001 Y112.07 E11.78159
G1 X108.631 Y111.846 E11.79885
G1 X108.307 Y111.555 E11.81624
G1 X108.048 Y111.216 E11.83326
G0 F9000 X108.421 Y110.984
G0 X108.563 Y110.208
G1 F1800 X108.669 Y110.58 E11.8487
G1 X108.87 Y110.911 E11.86416
G1 X109.151 Y111.176 E11.87957
G1 X109.491 Y111.359 E11.89498
G1 X109.869 Y111.445 E11.91046
G1 X110.255 Y111.429 E11.92587
G1 X110.624 Y111.31 E11.94135
G1 X110.948 Y111.1 E11.95676
G1 X111.205 Y110.809 E11.97226
G1 X111.375 Y110.462 E11.98768
G1 X111.448 Y110.083 E12.00308
G1 X111.419 Y109.697 E12.01853
G1 X111.289 Y109.333 E12.03396
G1 X111.066 Y109.017 E12.0494
G1 X110.769 Y108.769 E12.06484
G1 X110.416 Y108.61 E12.08029
G1 X110.035 Y108.549 E12.09569
G1 X109.65 Y108.592 E12.11115
G1 X109.291 Y108.734 E12.12656
G1 X108.976 Y108.97 E12.14227
G1 X108.66 Y109.439 E12.16484
G1 X108.56 Y109.82 E12.18056
G1 X108.563 Y110.208 E12.19605
G0 F9000 X108.274 Y110.289
G0 X108.439 Y109.339
G0 X108.643 Y109.036
G0 X109.355 Y108.216
;TYPE:WALL-INNER
G1 F1800 X109.544 Y108.167 E12.20384
G1 X109.689 Y108.128 E12.20984
G1 X110.05 Y108.104 E12.22428
G1 X110.401 Y108.145 E12.23838
G1 X110.542 Y108.189 E12.24428
G1 X110.741 Y108.253 E12.25262
G1 X111.001 Y108.393 E12.2644
G1 X111.054 Y108.422 E12.26682
G1 X111.327 Y108.644 E12.28086
G1 X111.391 Y108.72 E12.28483
G1 X111.561 Y108.922 E12.29536
G1 X111.678 Y109.129 E12.30485
G1 X111.734 Y109.228 E12.30939
G1 X111.847 Y109.565 E12.32358
G1 X111.852 Y109.607 E12.32527
G1 X111.894 Y109.91 E12.33748
G1 X111.885 Y110.107 E12.34535
G1 X111.877 Y110.279 E12.35222
G1 X111.799 Y110.599 E12.36536
G1 X111.795 Y110.616 E12.36606
G1 X111.647 Y110.942 E12.38035
G1 X111.569 Y111.053 E12.38577
G1 X111.443 Y111.232 E12.3945
G1 X111.237 Y111.431 E12.40593
G1 X111.185 Y111.481 E12.40881
G1 X110.892 Y111.674 E12.42282
G1 X110.811 Y111.707 E12.42631
G1 X110.562 Y111.811 E12.43708
