;FLAVOR:Marlin
;TIME:829
;Filament used: 0.260906m
;Layer height: 0.16
;MINX:103.267
;MINY:103.266
;MINZ:0.24
;MAXX:116.729
;MAXY:116.724
;MAXZ:17.04
;Generated with Cura_SteamEngine 4.5.0
M140 S50
M105
M190 S50
M104 S215
M105
M109 S215
M82 ;absolute extrusion mode
M201 X500.00 Y500.00 Z100.00 E5000.00 ;Setup machine max acceleration
M203 X500.00 Y500.00 Z10.00 E50.00 ;Setup machine max feedrate
M204 P500.00 R1000.00 T500.00 ;Setup Print/Retract/Travel acceleration
M205 X8.00 Y8.00 Z0.40 E5.00 ;Setup Jerk
M220 S100 ;Reset Feedrate
M221 S100 ;Reset Flowrate

G28 ;Home

G92 E0 ;Reset Extruder
G1 Z2.0 F3000 ;Move Z Axis up
G1 X10.1 Y20 Z0.28 F5000.0 ;Move to start position
G1 X10.1 Y200.0 Z0.28 F1500.0 E15 ;Draw the first line
G1 X10.4 Y200.0 Z0.28 F5000.0 ;Move to side a little
G1 X10.4 Y20 Z0.28 F1500.0 E30 ;Draw the second line
G92 E0 ;Reset Extruder
G1 Z2.0 F3000 ;Move Z Axis up

G92 E0
G92 E0
G1 F1800 E-3
;LAYER_COUNT:96
;LAYER:0
M106 S63.8
M204 S500
M205 X6 Y6
G0 F9000 X105.24 Y105.237 Z0.24
;TYPE:SKIRT
G1 F1800 E0
G1 X105.888 Y104.663 E0.03455
G1 X106.65 Y104.152 E0.07117
G1 X107.435 Y103.769 E0.10603
G1 X108.288 Y103.486 E0.1419
G1 X109.177 Y103.316 E0.17803
G1 X110.083 Y103.266 E0.21424
G1 X110.936 Y103.329 E0.24838
G1 X111.867 Y103.526 E0.28636
G1 X112.708 Y103.828 E0.32202
G1 X113.479 Y104.226 E0.35665
G1 X114.259 Y104.782 E0.39489
G1 X114.9 Y105.376 E0.42977
G1 X115.461 Y106.051 E0.4648
G1 X115.953 Y106.841 E0.50194
G1 X116.322 Y107.668 E0.53809
G1 X116.565 Y108.49 E0.5723
G1 X116.709 Y109.41 E0.60946
G1 X116.729 Y110.316 E0.64563
G1 X116.63 Y111.179 E0.6803
G1 X116.411 Y112.064 E0.71669
G1 X116.089 Y112.884 E0.75185
G1 X115.61 Y113.732 E0.79072
G1 X115.129 Y114.375 E0.82277
G1 X114.459 Y115.048 E0.86067
G1 X113.732 Y115.606 E0.89725
G1 X112.99 Y116.035 E0.93146
G1 X112.111 Y116.398 E0.96942
G1 X111.255 Y116.622 E1.00473
G1 X110.451 Y116.724 E1.03708
G1 X109.422 Y116.71 E1.07815
G1 X108.547 Y116.578 E1.11347
G1 X107.747 Y116.352 E1.14665
G1 X106.873 Y115.968 E1.18475
G1 X106.121 Y115.511 E1.21987
G1 X105.412 Y114.934 E1.25636
G1 X104.817 Y114.305 E1.29091
G1 X104.265 Y113.521 E1.32918
G1 X103.862 Y112.771 E1.36317
G1 X103.541 Y111.903 E1.4001
G1 X103.341 Y111.012 E1.43655
G1 X103.267 Y110.148 E1.47116
G1 X103.318 Y109.193 E1.50933
G1 X103.471 Y108.358 E1.54321
G1 X103.737 Y107.519 E1.57834
G1 X104.124 Y106.699 E1.61453
G1 X104.609 Y105.951 E1.65011
G1 X105.24 Y105.237 E1.68814
G0 F9000 X105.533 Y105.509
G1 F1800 X106.149 Y104.966 E1.72092
G1 X106.865 Y104.49 E1.75523
G1 X107.603 Y104.133 E1.78795
G1 X108.406 Y103.868 E1.8217
G1 X109.243 Y103.711 E1.85569
G1 X110.097 Y103.666 E1.88982
G1 X110.898 Y103.727 E1.92189
G1 X111.775 Y103.916 E1.95769
G1 X112.564 Y104.201 E1.99117
G1 X113.288 Y104.578 E2.02375
G1 X114.019 Y105.102 E2.05965
G1 X114.623 Y105.665 E2.09261
G1 X115.148 Y106.3 E2.12549
G1 X115.609 Y107.045 E2.16046
G1 X115.953 Y107.822 E2.19437
G1 X116.179 Y108.595 E2.22652
G1 X116.312 Y109.464 E2.2616
G1 X116.329 Y110.316 E2.29562
G1 X116.234 Y111.124 E2.32809
G1 X116.024 Y111.961 E2.36253
G1 X115.72 Y112.73 E2.39553
G1 X115.266 Y113.528 E2.43218
G1 X114.814 Y114.128 E2.46216
G1 X114.182 Y114.759 E2.4978
G1 X113.495 Y115.284 E2.53231
G1 X112.797 Y115.684 E2.56442
G1 X111.965 Y116.026 E2.60033
G1 X111.163 Y116.233 E2.63338
G1 X110.41 Y116.326 E2.66367
G1 X109.436 Y116.31 E2.70255
G1 X108.616 Y116.184 E2.73566
G1 X107.863 Y115.97 E2.7669
G1 X107.043 Y115.606 E2.80271
G1 X106.336 Y115.173 E2.8358
G1 X105.672 Y114.629 E2.87006
G1 X105.113 Y114.036 E2.90259
G1 X104.597 Y113.299 E2.93849
G1 X104.217 Y112.587 E2.9707
G1 X103.92 Y111.774 E3.00525
G1 X103.733 Y110.931 E3.03971
G1 X103.666 Y110.124 E3.07203
G1 X103.717 Y109.223 E3.10805
G1 X103.862 Y108.438 E3.13991
G1 X104.115 Y107.648 E3.17302
G1 X104.481 Y106.877 E3.20709
G1 X104.94 Y106.177 E3.24049
G1 X105.533 Y105.509 E3.27615
G0 F9000 X105.826 Y105.782
G1 F1800 X106.409 Y105.27 E3.30711
G1 X107.079 Y104.828 E3.33915
G1 X107.77 Y104.496 E3.36975
G1 X108.525 Y104.25 E3.40144
G1 X109.309 Y104.105 E3.43326
G1 X110.11 Y104.066 E3.46527
G1 X110.861 Y104.125 E3.49534
G1 X111.684 Y104.305 E3.52896
G1 X112.42 Y104.574 E3.56024
G1 X113.096 Y104.929 E3.59071
G1 X113.779 Y105.422 E3.62433
G1 X114.345 Y105.953 E3.65531
G1 X114.835 Y106.549 E3.6861
G1 X115.265 Y107.249 E3.71889
G1 X115.584 Y107.977 E3.75061
G1 X115.792 Y108.699 E3.7806
G1 X115.916 Y109.518 E3.81366
G1 X115.929 Y110.316 E3.84552
G1 X115.838 Y111.068 E3.87575
G1 X115.638 Y111.858 E3.90827
G1 X115.351 Y112.575 E3.9391
G1 X114.922 Y113.323 E3.97351
G1 X114.499 Y113.881 E4.00146
G1 X113.905 Y114.471 E4.03488
G1 X113.258 Y114.961 E4.06727
G1 X112.605 Y115.334 E4.09728
G1 X111.819 Y115.653 E4.13114
G1 X111.071 Y115.844 E4.16195
G1 X110.368 Y115.928 E4.19021
G1 X109.45 Y115.91 E4.22686
G1 X108.685 Y115.79 E4.25776
G1 X107.979 Y115.587 E4.28708
G1 X107.213 Y115.244 E4.32058
G1 X106.551 Y114.836 E4.35162
G1 X105.931 Y114.325 E4.38368
G1 X105.409 Y113.767 E4.41418
G1 X104.93 Y113.077 E4.44771
G1 X104.572 Y112.404 E4.47813
G1 X104.299 Y111.646 E4.51029
G1 X104.125 Y110.851 E4.54277
G1 X104.065 Y110.101 E4.5728
G1 X104.116 Y109.253 E4.6067
G1 X104.254 Y108.518 E4.63655
G1 X104.494 Y107.776 E4.66768
G1 X104.839 Y107.056 E4.69954
G1 X105.27 Y106.402 E4.7308
G1 X105.826 Y105.782 E4.76404
G0 F9000 X106.119 Y106.054
G1 F1800 X106.669 Y105.574 E4.79318
G1 X107.293 Y105.166 E4.82294
G1 X107.937 Y104.86 E4.85139
G1 X108.643 Y104.632 E4.881
G1 X109.376 Y104.5 E4.91073
G1 X110.124 Y104.466 E4.94062
G1 X110.823 Y104.523 E4.96861
G1 X111.592 Y104.694 E5.00005
G1 X112.277 Y104.948 E5.02921
G1 X112.905 Y105.28 E5.05756
G1 X113.54 Y105.743 E5.08893
G1 X114.068 Y106.241 E5.11789
G1 X114.522 Y106.798 E5.14657
G1 X114.92 Y107.452 E5.17713
G1 X115.215 Y108.132 E5.20671
G1 X115.406 Y108.804 E5.2346
G1 X115.52 Y109.572 E5.26559
G1 X115.529 Y110.316 E5.29528
G1 X115.441 Y111.013 E5.32332
G1 X115.251 Y111.755 E5.35389
G1 X114.982 Y112.42 E5.38252
G1 X114.578 Y113.118 E5.41471
G1 X114.184 Y113.635 E5.44066
G1 X113.628 Y114.182 E5.47179
G1 X113.021 Y114.639 E5.50211
G1 X112.413 Y114.983 E5.52999
G1 X111.674 Y115.28 E5.56178
G1 X110.979 Y115.454 E5.59038
G1 X110.327 Y115.531 E5.61658
G1 X109.464 Y115.51 E5.65103
G1 X108.754 Y115.396 E5.67973
G1 X108.095 Y115.204 E5.70713
G1 X107.382 Y114.881 E5.73837
G1 X106.766 Y114.498 E5.76732
G1 X106.191 Y114.021 E5.79714
G1 X105.706 Y113.498 E5.82561
G1 X105.262 Y112.854 E5.85683
G1 X104.928 Y112.22 E5.88543
G1 X104.678 Y111.518 E5.91517
G1 X104.516 Y110.77 E5.94572
G1 X104.465 Y110.077 E5.97345
G1 X104.515 Y109.282 E6.00524
G1 X104.646 Y108.598 E6.03304
G1 X104.873 Y107.905 E6.06215
G1 X105.197 Y107.234 E6.09189
G1 X105.6 Y106.628 E6.12093
G1 X106.119 Y106.054 E6.15182
G0 F9000 X106.412 Y106.326
G1 F1800 X106.93 Y105.877 E6.17918
G1 X107.508 Y105.503 E6.20666
G1 X108.104 Y105.223 E6.23294
G1 X108.761 Y105.014 E6.26045
G1 X109.442 Y104.894 E6.28805
G1 X110.138 Y104.865 E6.31586
G1 X110.785 Y104.922 E6.34178
G1 X111.501 Y105.084 E6.37108
G1 X112.133 Y105.321 E6.39802
G1 X112.713 Y105.631 E6.42427
G1 X113.3 Y106.063 E6.45336
G1 X113.79 Y106.529 E6.48035
G1 X114.209 Y107.047 E6.50694
G1 X114.576 Y107.656 E6.53532
G1 X114.846 Y108.286 E6.56267
G1 X115.02 Y108.908 E6.58845
G1 X115.123 Y109.627 E6.61744
G1 X115.129 Y110.316 E6.64494
G1 X115.045 Y110.958 E6.67078
G1 X114.865 Y111.652 E6.6994
G1 X114.613 Y112.266 E6.72589
G1 X114.235 Y112.914 E6.75583
G1 X113.869 Y113.388 E6.77973
G1 X113.351 Y113.893 E6.80861
G1 X112.784 Y114.317 E6.83686
G1 X112.22 Y114.632 E6.86265
G1 X111.528 Y114.908 E6.89238
G1 X110.888 Y115.065 E6.91868
G1 X110.285 Y115.133 E6.9429
G1 X109.477 Y115.111 E6.97516
G1 X108.823 Y115.002 E7.00163
G1 X108.211 Y114.821 E7.0271
G1 X107.552 Y114.519 E7.05603
G1 X106.981 Y114.161 E7.08293
G1 X106.451 Y113.716 E7.11055
G1 X106.002 Y113.229 E7.13699
G1 X105.595 Y112.632 E7.16583
G1 X105.283 Y112.036 E7.19268
G1 X105.057 Y111.389 E7.22003
G1 X104.908 Y110.69 E7.24855
G1 X104.864 Y110.053 E7.27404
G1 X104.914 Y109.312 E7.30368
G1 X105.038 Y108.678 E7.32946
G1 X105.252 Y108.033 E7.35659
G1 X105.555 Y107.413 E7.38413
G1 X105.931 Y106.854 E7.41102
G1 X106.412 Y106.326 E7.43953
G0 F9000 X106.705 Y106.599
G1 F1800 X107.19 Y106.181 E7.46508
G1 X107.722 Y105.841 E7.49028
G1 X108.271 Y105.586 E7.51444
G1 X108.88 Y105.396 E7.5399
G1 X109.508 Y105.289 E7.56533
G1 X110.151 Y105.265 E7.59101
G1 X110.748 Y105.32 E7.61494
G1 X111.41 Y105.473 E7.64206
G1 X111.99 Y105.694 E7.66683
G1 X112.522 Y105.982 E7.69097
G1 X113.06 Y106.383 E7.71776
G1 X113.513 Y106.817 E7.74279
G1 X113.896 Y107.296 E7.76727
G1 X114.232 Y107.86 E7.79347
G1 X114.477 Y108.441 E7.81864
G1 X114.634 Y109.013 E7.84231
G1 X114.727 Y109.681 E7.86923
G1 X114.729 Y110.316 E7.89458
G1 X114.649 Y110.903 E7.91822
G1 X114.478 Y111.549 E7.94489
G1 X114.244 Y112.111 E7.96919
G1 X113.891 Y112.709 E7.99691
G1 X113.554 Y113.141 E8.01877
G1 X113.074 Y113.604 E8.04539
G1 X112.547 Y113.995 E8.07158
G1 X112.028 Y114.281 E8.09523
G1 X111.383 Y114.535 E8.1229
G1 X110.796 Y114.676 E8.147
G1 X110.244 Y114.735 E8.16915
G1 X109.491 Y114.711 E8.19922
G1 X108.892 Y114.608 E8.22348
G1 X108.327 Y114.438 E8.24703
G1 X107.722 Y114.157 E8.27365
G1 X107.196 Y113.824 E8.2985
G1 X106.71 Y113.412 E8.32393
G1 X106.298 Y112.96 E8.34834
G1 X105.928 Y112.41 E8.3748
G1 X105.638 Y111.853 E8.39986
G1 X105.436 Y111.261 E8.42483
G1 X105.3 Y110.609 E8.45141
G1 X105.263 Y110.029 E8.47461
G1 X105.313 Y109.341 E8.50214
G1 X105.43 Y108.758 E8.52587
G1 X105.631 Y108.162 E8.55097
G1 X105.913 Y107.592 E8.57636
G1 X106.261 Y107.079 E8.6011
G1 X106.705 Y106.599 E8.6272
G0 F9000 X106.991 Y106.878
G1 F1800 X107.44 Y106.493 E8.6508
G1 X107.921 Y106.189 E8.67351
G1 X108.432 Y105.954 E8.69596
G1 X108.989 Y105.782 E8.71923
G1 X109.557 Y105.686 E8.74222
G1 X110.154 Y105.665 E8.76606
G1 X110.692 Y105.716 E8.78763
G1 X111.306 Y105.86 E8.8128
G1 X111.841 Y106.065 E8.83567
G1 X112.314 Y106.324 E8.85719
G1 X112.808 Y106.694 E8.88183
G1 X113.227 Y107.097 E8.90503
G1 X113.573 Y107.533 E8.92724
G1 X113.879 Y108.05 E8.95122
G1 X114.105 Y108.589 E8.97455
G1 X114.245 Y109.106 E8.99593
G1 X114.329 Y109.721 E9.0207
G1 X114.329 Y110.304 E9.04397
G1 X114.255 Y110.835 E9.06537
G1 X114.094 Y111.437 E9.09024
G1 X113.882 Y111.942 E9.1121
G1 X113.551 Y112.498 E9.13792
G1 X113.248 Y112.885 E9.15754
G1 X112.811 Y113.304 E9.18171
G1 X112.315 Y113.669 E9.20628
G1 X111.851 Y113.924 E9.22742
G1 X111.255 Y114.156 E9.25294
G1 X110.714 Y114.284 E9.27513
G1 X110.216 Y114.336 E9.29512
G1 X109.516 Y114.311 E9.32307
G1 X108.972 Y114.217 E9.34511
G1 X108.46 Y114.061 E9.36647
G1 X107.903 Y113.8 E9.39102
G1 X107.423 Y113.495 E9.41372
G1 X106.978 Y113.115 E9.43707
G1 X106.603 Y112.702 E9.45934
G1 X106.27 Y112.203 E9.48328
G1 X105.998 Y111.678 E9.50688
G1 X105.818 Y111.148 E9.52922
G1 X105.695 Y110.546 E9.55374
G1 X105.663 Y110.011 E9.57513
G1 X105.71 Y109.386 E9.60015
G1 X105.821 Y108.839 E9.62243
G1 X106.006 Y108.301 E9.64513
G1 X106.263 Y107.784 E9.66818
G1 X106.584 Y107.319 E9.69073
G1 X106.991 Y106.878 E9.71468
G0 F9000 X107.267 Y107.168
G1 F1800 X107.678 Y106.816 E9.73628
G1 X108.116 Y106.539 E9.75696
G1 X108.573 Y106.329 E9.77704
G1 X109.075 Y106.173 E9.79802
G1 X109.601 Y106.085 E9.8193
G1 X110.145 Y106.066 E9.84103
G1 X111.188 Y106.243 E9.88325
G1 X111.669 Y106.427 E9.90381
G1 X112.098 Y106.662 E9.92333
G1 X112.551 Y107.001 E9.94591
G1 X112.929 Y107.365 E9.96686
G1 X113.243 Y107.761 E9.98703
G1 X113.52 Y108.228 E10.0087
G1 X113.726 Y108.72 E10.02999
G1 X113.853 Y109.189 E10.04938
G1 X113.929 Y109.746 E10.07182
G1 X113.929 Y110.278 E10.09305
G1 X113.863 Y110.75 E10.11207
G1 X113.713 Y111.309 E10.13517
G1 X113.524 Y111.759 E10.15465
G1 X113.219 Y112.273 E10.17851
G1 X112.95 Y112.615 E10.19587
G1 X112.549 Y113 E10.21806
G1 X112.104 Y113.328 E10.24012
G1 X111.678 Y113.562 E10.25952
G1 X111.132 Y113.775 E10.28292
G1 X110.652 Y113.888 E10.3026
G1 X110.203 Y113.935 E10.32062
G1 X109.556 Y113.912 E10.34645
G1 X109.069 Y113.828 E10.36618
G1 X108.601 Y113.685 E10.38571
G1 X108.094 Y113.448 E10.40805
G1 X107.659 Y113.171 E10.42863
G1 X107.26 Y112.831 E10.44955
G1 X106.92 Y112.456 E10.46976
G1 X106.611 Y111.994 E10.49194
G1 X106.37 Y111.527 E10.51291
G1 X106.205 Y111.041 E10.5334
G1 X106.092 Y110.491 E10.55581
G1 X106.064 Y110.016 E10.5748
G1 X106.107 Y109.44 E10.59785
G1 X106.208 Y108.944 E10.61806
G1 X106.375 Y108.458 E10.63857
G1 X106.611 Y107.985 E10.65966
G1 X106.896 Y107.57 E10.67976
G1 X107.267 Y107.168 E10.70159
G0 F9000 X107.467 Y107.035
G1 F1800 X106.956 Y107.563 E10.73092
G1 X106.556 Y108.172 E10.76
G1 X106.274 Y108.847 E10.7892
G1 X106.119 Y109.61 E10.82027
G1 X106.148 Y110.591 E10.85944
G1 X106.339 Y111.339 E10.89025
G1 X106.649 Y111.997 E10.91929
G1 X107.083 Y112.589 E10.94858
G1 X107.621 Y113.089 E10.9779
G1 X108.239 Y113.48 E11.00708
G1 X108.914 Y113.746 E11.03604
G1 X109.633 Y113.884 E11.06526
G1 X110.367 Y113.883 E11.09456
G1 X111.084 Y113.747 E11.12369
G1 X111.769 Y113.476 E11.15309
G1 X112.383 Y113.088 E11.18208
G1 X112.917 Y112.589 E11.21125
G1 X113.351 Y111.994 E11.24064
G1 X113.664 Y111.338 E11.26965
G1 X113.849 Y110.634 E11.2987
G1 X113.898 Y109.896 E11.32822
G1 X113.813 Y109.175 E11.3572
G1 X113.591 Y108.478 E11.38639
G1 X113.246 Y107.837 E11.41545
G1 X112.781 Y107.265 E11.44487
G1 X112.227 Y106.797 E11.47381
G1 X111.557 Y106.419 E11.50452
G1 X110.263 Y106.11 E11.55762
G1 X110.094 Y106.097 E11.56438
G1 X109.434 Y106.141 E11.59078
G1 X108.732 Y106.311 E11.61961
G1 X108.055 Y106.62 E11.64931
G1 X107.467 Y107.035 E11.67804
G0 F9000 X107.702 Y107.358
G1 F1800 X107.247 Y107.837 E11.70441
G1 X106.893 Y108.387 E11.73051
G1 X106.645 Y108.996 E11.75676
G1 X106.512 Y109.684 E11.78472
G1 X106.547 Y110.573 E11.82023
G1 X106.724 Y111.232 E11.84747
G1 X107.008 Y111.822 E11.8736
G1 X107.402 Y112.348 E11.89983
G1 X107.889 Y112.792 E11.92613
G1 X108.448 Y113.139 E11.95239
G1 X109.055 Y113.372 E11.97834
G1 X109.702 Y113.49 E12.00459
G1 X110.36 Y113.483 E12.03086
G1 X111.004 Y113.355 E12.05706
G1 X111.616 Y113.106 E12.08343
G1 X112.164 Y112.753 E12.10945
G1 X112.64 Y112.3 E12.13568
G1 X113.024 Y111.763 E12.16203
G1 X113.301 Y111.171 E12.18811
G1 X113.461 Y110.538 E12.21417
G1 X113.499 Y109.875 E12.24068
G1 X113.416 Y109.228 E12.26671
G1 X113.212 Y108.605 E12.29288
G1 X112.897 Y108.032 E12.31897
G1 X112.474 Y107.522 E12.34542
G1 X111.973 Y107.106 E12.37141
G1 X111.365 Y106.77 E12.39914
G1 X110.177 Y106.501 E12.44775
G1 X109.461 Y106.54 E12.47637
G1 X108.831 Y106.698 E12.50229
G1 X108.227 Y106.981 E12.52892
G1 X107.702 Y107.358 E12.55471
G0 F9000 X107.954 Y107.671
G1 F1800 X107.55 Y108.1 E12.57823
G1 X107.24 Y108.587 E12.60127
G1 X107.025 Y109.126 E12.62443
G1 X106.91 Y109.739 E12.64933
G1 X106.946 Y110.535 E12.68113
G1 X107.104 Y111.105 E12.70474
G1 X107.361 Y111.631 E12.7281
G1 X107.708 Y112.091 E12.7511
G1 X108.142 Y112.482 E12.77442
G1 X108.643 Y112.789 E12.79787
G1 X109.178 Y112.99 E12.82068
G1 X109.754 Y113.093 E12.84403
G1 X110.333 Y113.083 E12.86714
G1 X110.907 Y112.966 E12.89053
G1 X111.447 Y112.743 E12.91384
G1 X111.931 Y112.427 E12.93691
G1 X112.349 Y112.026 E12.96003
G1 X112.686 Y111.549 E12.98334
G1 X112.931 Y111.016 E13.00676
G1 X113.068 Y110.465 E13.02942
G1 X113.098 Y109.867 E13.05331
G1 X113.023 Y109.301 E13.0761
G1 X112.836 Y108.745 E13.09951
G1 X112.559 Y108.245 E13.12233
G1 X112.18 Y107.794 E13.14584
G1 X111.735 Y107.429 E13.16881
G1 X111.195 Y107.134 E13.19337
G1 X110.12 Y106.898 E13.2373
G1 X109.503 Y106.939 E13.26198
G1 X108.952 Y107.08 E13.28468
G1 X108.415 Y107.336 E13.30842
G1 X107.954 Y107.671 E13.33117
G0 F9000 X108.207 Y107.985
G1 F1800 X108.636 Y107.673 E13.35234
G1 X109.107 Y107.453 E13.37309
G1 X109.586 Y107.333 E13.3928
G1 X110.059 Y107.302 E13.41171
G1 X111.028 Y107.508 E13.45125
G1 X111.494 Y107.752 E13.47225
G1 X111.908 Y108.092 E13.49363
G1 X112.237 Y108.49 E13.51424
G1 X112.476 Y108.926 E13.53408
G1 X112.633 Y109.407 E13.55428
G1 X112.696 Y109.909 E13.57447
G1 X112.666 Y110.423 E13.59502
G1 X112.544 Y110.904 E13.61483
G1 X112.329 Y111.36 E13.63495
G1 X112.03 Y111.777 E13.65543
