;FLAVOR:Marlin
;TIME:938
;Filament used: 0.268167m
;Layer height: 0.16
;MINX:91.521
;MINY:91.517
;MINZ:0.24
;MAXX:128.483
;MAXY:128.477
;MAXZ:14.88
;Generated with Cura_SteamEngine 4.5.0
M140 S50
M105
M190 S50
M104 S215
M105
M109 S215
M82 ;absolute extrusion mode
M201 X500.00 Y500.00 Z100.00 E5000.00 ;Setup machine max acceleration
M203 X500.00 Y500.00 Z10.00 E50.00 ;Setup machine max feedrate
M204 P500.00 R1000.00 T500.00 ;Setup Print/Retract/Travel acceleration
M205 X8.00 Y8.00 Z0.40 E5.00 ;Setup Jerk
M220 S100 ;Reset Feedrate
M221 S100 ;Reset Flowrate

G28 ;Home

G92 E0 ;Reset Extruder
G1 Z2.0 F3000 ;Move Z Axis up
G1 X10.1 Y20 Z0.28 F5000.0 ;Move to start position
G1 X10.1 Y200.0 Z0.28 F1500.0 E15 ;Draw the first line
G1 X10.4 Y200.0 Z0.28 F5000.0 ;Move to side a little
G1 X10.4 Y20 Z0.28 F1500.0 E30 ;Draw the second line
G92 E0 ;Reset Extruder
G1 Z2.0 F3000 ;Move Z Axis up

G92 E0
G92 E0
G1 F1800 E-3
;LAYER_COUNT:86
;LAYER:0
M106 S63.8
M204 S500
M205 X6 Y6
G0 F9000 X96.709 Y97.15 Z0.24
;TYPE:SKIRT
G1 F1800 E0
G1 X97.415 Y96.462 E0.03934
G1 X97.859 Y96.064 E0.06314
G1 X98.413 Y95.599 E0.09201
G1 X99.478 Y94.809 E0.14494
G1 X100.124 Y94.382 E0.17584
G1 X100.8 Y93.97 E0.20744
G1 X101.716 Y93.48 E0.2489
G1 X102.286 Y93.205 E0.27416
G1 X103.066 Y92.865 E0.30812
G1 X103.815 Y92.582 E0.34008
G1 X104.867 Y92.241 E0.38422
G1 X105.602 Y92.047 E0.41456
G1 X106.104 Y91.93 E0.43513
G1 X106.909 Y91.774 E0.46786
G1 X107.596 Y91.674 E0.49556
G1 X108.625 Y91.565 E0.53686
G1 X109.377 Y91.528 E0.56691
G1 X109.982 Y91.517 E0.59106
G1 X110.82 Y91.533 E0.62452
G1 X111.482 Y91.578 E0.651
G1 X112.525 Y91.687 E0.69286
G1 X113.106 Y91.776 E0.71631
G1 X114.011 Y91.955 E0.75313
G1 X114.696 Y92.123 E0.78129
G1 X115.702 Y92.415 E0.82309
G1 X116.856 Y92.835 E0.87211
G1 X117.35 Y93.043 E0.8935
G1 X117.943 Y93.309 E0.91944
G1 X118.477 Y93.571 E0.94318
G1 X119.123 Y93.925 E0.97258
G1 X119.65 Y94.235 E0.99699
G1 X120.406 Y94.722 E1.03288
G1 X120.967 Y95.123 E1.0604
G1 X121.93 Y95.88 E1.10929
G1 X122.468 Y96.356 E1.13796
G1 X123.389 Y97.255 E1.18933
G1 X123.909 Y97.827 E1.22018
G1 X124.66 Y98.74 E1.26736
G1 X125.163 Y99.428 E1.30138
G1 X125.844 Y100.477 E1.3513
G1 X126.221 Y101.139 E1.3817
G1 X126.756 Y102.191 E1.42881
G1 X127.058 Y102.882 E1.45891
G1 X127.516 Y104.089 E1.51043
G1 X127.738 Y104.801 E1.5402
G1 X128.058 Y106.044 E1.59143
G1 X128.2 Y106.775 E1.62115
G1 X128.371 Y107.938 E1.66807
G1 X128.432 Y108.617 E1.69528
G1 X128.483 Y109.705 E1.73875
G1 X128.478 Y110.468 E1.7692
G1 X128.415 Y111.619 E1.81521
G1 X128.36 Y112.155 E1.83671
G1 X128.253 Y112.931 E1.86798
G1 X128.06 Y113.918 E1.90812
G1 X127.898 Y114.59 E1.93571
G1 X127.704 Y115.289 E1.96466
G1 X127.503 Y115.933 E1.99159
G1 X127.154 Y116.894 E2.03239
G1 X126.758 Y117.789 E2.07146
G1 X126.406 Y118.506 E2.10333
G1 X125.914 Y119.4 E2.14406
G1 X125.608 Y119.9 E2.16746
G1 X125.186 Y120.54 E2.19806
G1 X124.817 Y121.051 E2.22321
G1 X124.229 Y121.792 E2.26097
G1 X123.787 Y122.305 E2.28799
G1 X123.432 Y122.698 E2.30913
G1 X122.813 Y123.326 E2.34433
G1 X122.087 Y123.978 E2.38327
G1 X121.525 Y124.443 E2.41239
G1 X121.042 Y124.824 E2.43694
G1 X120.446 Y125.254 E2.46627
G1 X119.646 Y125.76 E2.50405
G1 X118.893 Y126.195 E2.53876
G1 X117.94 Y126.685 E2.58153
G1 X117.449 Y126.908 E2.60305
G1 X116.745 Y127.199 E2.63346
G1 X116.107 Y127.437 E2.66063
G1 X115.122 Y127.753 E2.70192
G1 X114.55 Y127.907 E2.72556
G1 X113.787 Y128.083 E2.75682
G1 X113.169 Y128.203 E2.78194
G1 X112.133 Y128.354 E2.82373
G1 X111.524 Y128.413 E2.84815
G1 X110.782 Y128.459 E2.87782
G1 X110.162 Y128.477 E2.90258
G1 X109.127 Y128.459 E2.94389
G1 X108.529 Y128.42 E2.96781
G1 X107.717 Y128.341 E3.00037
G1 X107.046 Y128.247 E3.02742
G1 X106.048 Y128.055 E3.06798
G1 X105.337 Y127.884 E3.09716
G1 X104.415 Y127.618 E3.13546
G1 X103.932 Y127.458 E3.15577
G1 X103.162 Y127.171 E3.18857
G1 X102.477 Y126.88 E3.21827
G1 X101.634 Y126.48 E3.25552
G1 X100.52 Y125.865 E3.3063
G1 X100.091 Y125.599 E3.32645
G1 X99.58 Y125.264 E3.35084
G1 X99.071 Y124.904 E3.37572
G1 X98.661 Y124.595 E3.39621
G1 X98.054 Y124.102 E3.42742
G1 X97.493 Y123.606 E3.45731
G1 X96.777 Y122.913 E3.49708
G1 X95.921 Y121.972 E3.54785
G1 X95.44 Y121.381 E3.57826
G1 X94.899 Y120.655 E3.6144
G1 X94.186 Y119.566 E3.66635
G1 X93.623 Y118.552 E3.71264
G1 X93.272 Y117.845 E3.74415
G1 X92.859 Y116.904 E3.78516
G1 X92.45 Y115.774 E3.83313
G1 X92.232 Y115.07 E3.86254
G1 X91.974 Y114.071 E3.90372
G1 X91.759 Y112.926 E3.95022
G1 X91.645 Y112.117 E3.98283
G1 X91.554 Y111.185 E4.0202
G1 X91.521 Y110.454 E4.04941
G1 X91.523 Y109.523 E4.08657
G1 X91.546 Y108.969 E4.1087
G1 X91.613 Y108.134 E4.14213
G1 X91.68 Y107.567 E4.16492
G1 X91.802 Y106.754 E4.19773
G1 X91.927 Y106.112 E4.22384
G1 X92.176 Y105.107 E4.26516
G1 X92.352 Y104.505 E4.29019
G1 X92.568 Y103.846 E4.31787
G1 X92.766 Y103.315 E4.34049
G1 X93.235 Y102.21 E4.3884
G1 X93.737 Y101.211 E4.43302
G1 X94.193 Y100.426 E4.46926
G1 X94.554 Y99.854 E4.49625
G1 X95.132 Y99.024 E4.53662
G1 X95.493 Y98.554 E4.56028
G1 X95.886 Y98.065 E4.58532
G1 X96.29 Y97.599 E4.60993
G1 X96.709 Y97.15 E4.63444
G0 F9000 X96.995 Y97.43
G1 F1800 X97.682 Y96.76 E4.67274
G1 X98.126 Y96.362 E4.69654
G1 X98.66 Y95.914 E4.72436
G1 X99.699 Y95.143 E4.776
G1 X100.345 Y94.716 E4.80691
G1 X100.996 Y94.319 E4.83734
G1 X101.89 Y93.84 E4.87782
G1 X102.46 Y93.565 E4.90308
G1 X103.211 Y93.238 E4.93577
G1 X103.945 Y92.961 E4.96708
G1 X104.974 Y92.627 E5.01026
G1 X105.693 Y92.437 E5.03995
G1 X106.195 Y92.32 E5.06052
G1 X106.971 Y92.169 E5.09207
G1 X107.644 Y92.071 E5.11922
G1 X108.652 Y91.964 E5.15967
G1 X109.384 Y91.928 E5.18892
G1 X109.989 Y91.917 E5.21307
G1 X110.796 Y91.933 E5.24529
G1 X111.446 Y91.976 E5.27129
G1 X112.468 Y92.083 E5.3123
G1 X113.037 Y92.17 E5.33528
G1 X113.918 Y92.344 E5.37112
G1 X114.593 Y92.509 E5.39885
G1 X115.575 Y92.794 E5.43966
G1 X116.7 Y93.204 E5.48745
G1 X117.194 Y93.412 E5.50885
G1 X117.777 Y93.673 E5.53434
G1 X118.291 Y93.925 E5.55719
G1 X118.92 Y94.269 E5.5858
G1 X119.447 Y94.579 E5.61021
G1 X120.175 Y95.049 E5.64479
G1 X120.727 Y95.443 E5.67186
G1 X121.667 Y96.182 E5.71958
G1 X122.195 Y96.649 E5.74772
G1 X123.096 Y97.527 E5.79793
G1 X123.606 Y98.088 E5.82819
G1 X124.34 Y98.979 E5.87426
G1 X124.832 Y99.654 E5.9076
G1 X125.498 Y100.678 E5.95635
G1 X125.869 Y101.328 E5.98622
G1 X126.391 Y102.355 E6.03221
G1 X126.688 Y103.032 E6.06171
G1 X127.135 Y104.211 E6.11204
G1 X127.353 Y104.91 E6.14126
G1 X127.666 Y106.124 E6.1913
G1 X127.806 Y106.84 E6.22042
G1 X127.973 Y107.978 E6.26632
G1 X128.032 Y108.642 E6.29293
G1 X128.083 Y109.708 E6.33552
G1 X128.078 Y110.453 E6.36526
G1 X128.017 Y111.581 E6.41035
G1 X127.963 Y112.107 E6.43145
G1 X127.859 Y112.864 E6.46195
G1 X127.671 Y113.824 E6.50099
G1 X127.509 Y114.496 E6.52858
G1 X127.323 Y115.17 E6.55649
G1 X127.122 Y115.814 E6.58341
G1 X126.785 Y116.74 E6.62274
G1 X126.399 Y117.612 E6.6608
G1 X126.047 Y118.329 E6.69268
G1 X125.573 Y119.191 E6.73195
G1 X125.267 Y119.691 E6.75534
G1 X124.86 Y120.308 E6.78484
G1 X124.497 Y120.811 E6.8096
G1 X123.926 Y121.531 E6.84628
G1 X123.484 Y122.044 E6.87331
G1 X123.142 Y122.423 E6.89368
G1 X122.538 Y123.035 E6.928
G1 X121.832 Y123.67 E6.9659
G1 X121.27 Y124.135 E6.99501
G1 X120.798 Y124.507 E7.019
G1 X120.223 Y124.921 E7.04728
G1 X119.446 Y125.414 E7.084
G1 X118.693 Y125.849 E7.11871
G1 X117.774 Y126.321 E7.15995
G1 X117.283 Y126.544 E7.18147
G1 X116.605 Y126.824 E7.21075
G1 X115.967 Y127.062 E7.23792
G1 X115.018 Y127.367 E7.27771
G1 X114.446 Y127.521 E7.30135
G1 X113.711 Y127.691 E7.33146
G1 X113.093 Y127.811 E7.35659
G1 X112.094 Y127.956 E7.39688
G1 X111.485 Y128.015 E7.4213
G1 X110.771 Y128.06 E7.44985
G1 X110.151 Y128.078 E7.47461
G1 X109.153 Y128.06 E7.51445
G1 X108.555 Y128.021 E7.53837
G1 X107.761 Y127.944 E7.5702
G1 X107.114 Y127.853 E7.59628
G1 X106.139 Y127.666 E7.63591
G1 X105.44 Y127.497 E7.66461
G1 X104.541 Y127.238 E7.70195
G1 X104.058 Y127.078 E7.72226
G1 X103.316 Y126.801 E7.75387
G1 X102.642 Y126.516 E7.78307
G1 X101.819 Y126.125 E7.81944
G1 X100.731 Y125.525 E7.86903
G1 X100.302 Y125.259 E7.88918
G1 X99.802 Y124.932 E7.91302
G1 X99.312 Y124.584 E7.93701
G1 X98.902 Y124.275 E7.9575
G1 X98.317 Y123.8 E7.98758
G1 X97.765 Y123.313 E8.01696
G1 X97.067 Y122.637 E8.05574
G1 X96.23 Y121.718 E8.10535
G1 X95.756 Y121.135 E8.13534
G1 X95.228 Y120.428 E8.17056
G1 X94.532 Y119.364 E8.2213
G1 X93.982 Y118.375 E8.26647
G1 X93.631 Y117.668 E8.29797
G1 X93.232 Y116.761 E8.33752
G1 X92.832 Y115.655 E8.38446
G1 X92.614 Y114.951 E8.41388
G1 X92.365 Y113.989 E8.45354
G1 X92.155 Y112.87 E8.49898
G1 X92.041 Y112.061 E8.53159
G1 X91.953 Y111.163 E8.5676
G1 X91.921 Y110.447 E8.59621
G1 X91.923 Y109.539 E8.63245
G1 X91.946 Y108.985 E8.65458
G1 X92.01 Y108.181 E8.68677
G1 X92.077 Y107.614 E8.70956
G1 X92.197 Y106.819 E8.74165
G1 X92.317 Y106.2 E8.76681
G1 X92.56 Y105.22 E8.80711
G1 X92.736 Y104.618 E8.83214
G1 X92.944 Y103.982 E8.85885
G1 X93.138 Y103.463 E8.88096
G1 X93.596 Y102.383 E8.92778
G1 X94.087 Y101.405 E8.97146
G1 X94.531 Y100.64 E9.00676
G1 X94.892 Y100.068 E9.03376
G1 X95.45 Y99.268 E9.07269
G1 X95.811 Y98.798 E9.09634
G1 X96.196 Y98.318 E9.1209
G1 X96.585 Y97.868 E9.14464
G1 X96.995 Y97.43 E9.16859
G0 F9000 X97.28 Y97.709
G1 F1800 X97.949 Y97.058 E9.20585
G1 X98.393 Y96.66 E9.22964
G1 X98.906 Y96.229 E9.25639
G1 X99.92 Y95.477 E9.30677
G1 X100.566 Y95.05 E9.33768
G1 X101.192 Y94.667 E9.36697
G1 X102.064 Y94.2 E9.40645
G1 X102.634 Y93.925 E9.43171
G1 X103.357 Y93.61 E9.46319
G1 X104.075 Y93.339 E9.49382
G1 X105.081 Y93.012 E9.53603
G1 X105.784 Y92.826 E9.56506
G1 X106.286 Y92.709 E9.58563
G1 X107.032 Y92.564 E9.61596
G1 X107.691 Y92.468 E9.64254
G1 X108.679 Y92.363 E9.6822
G1 X109.392 Y92.328 E9.71069
G1 X109.997 Y92.317 E9.73484
G1 X110.773 Y92.332 E9.76582
G1 X111.41 Y92.374 E9.7913
G1 X112.411 Y92.479 E9.83147
G1 X112.968 Y92.564 E9.85396
G1 X113.825 Y92.733 E9.88882
G1 X114.489 Y92.896 E9.91611
G1 X115.447 Y93.173 E9.95591
G1 X116.545 Y93.572 E10.00254
G1 X117.039 Y93.78 E10.02393
G1 X117.61 Y94.036 E10.04891
G1 X118.105 Y94.279 E10.07092
G1 X118.718 Y94.614 E10.0988
G1 X119.245 Y94.924 E10.1232
G1 X119.945 Y95.376 E10.15646
G1 X120.487 Y95.763 E10.18304
G1 X121.405 Y96.484 E10.22963
G1 X121.923 Y96.942 E10.25722
G1 X122.802 Y97.799 E10.30622
G1 X123.303 Y98.349 E10.33591
G1 X124.019 Y99.219 E10.38089
G1 X124.502 Y99.88 E10.41356
G1 X125.152 Y100.879 E10.46113
G1 X125.516 Y101.517 E10.49045
G1 X126.026 Y102.519 E10.53532
G1 X126.317 Y103.182 E10.56422
G1 X126.754 Y104.334 E10.61339
G1 X126.968 Y105.018 E10.642
G1 X127.275 Y106.204 E10.6909
G1 X127.411 Y106.906 E10.71944
G1 X127.575 Y108.018 E10.7643
G1 X127.633 Y108.667 E10.7903
G1 X127.683 Y109.711 E10.83202
G1 X127.678 Y110.439 E10.86108
G1 X127.619 Y111.542 E10.90516
G1 X127.566 Y112.059 E10.92591
G1 X127.465 Y112.797 E10.95564
G1 X127.282 Y113.73 E10.99358
G1 X127.12 Y114.402 E11.02117
G1 X126.941 Y115.051 E11.04804
G1 X126.74 Y115.695 E11.07497
G1 X126.415 Y116.586 E11.11282
G1 X126.04 Y117.436 E11.1499
G1 X125.688 Y118.153 E11.18178
G1 X125.232 Y118.982 E11.21954
G1 X124.926 Y119.482 E11.24294
G1 X124.534 Y120.076 E11.27135
G1 X124.177 Y120.571 E11.2957
G1 X123.623 Y121.27 E11.3313
G1 X123.181 Y121.783 E11.35833
G1 X122.665 Y122.344 E11.38875
G1 X122.264 Y122.744 E11.41136
G1 X121.577 Y123.362 E11.44824
G1 X121.015 Y123.827 E11.47735
G1 X120.553 Y124.191 E11.50083
G1 X120 Y124.589 E11.52802
G1 X119.246 Y125.067 E11.56365
G1 X118.493 Y125.502 E11.59836
G1 X117.609 Y125.957 E11.63804
G1 X117.118 Y126.18 E11.65957
G1 X116.465 Y126.45 E11.68777
G1 X115.827 Y126.688 E11.71495
G1 X114.914 Y126.98 E11.7532
G1 X114.342 Y127.134 E11.77685
G1 X113.634 Y127.298 E11.80585
G1 X113.016 Y127.418 E11.83098
G1 X112.056 Y127.557 E11.86969
G1 X111.447 Y127.616 E11.89411
G1 X110.759 Y127.66 E11.92163
G1 X110.139 Y127.678 E11.94639
G1 X109.179 Y127.66 E11.98471
G1 X108.581 Y127.621 E12.00863
G1 X107.804 Y127.546 E12.03978
G1 X107.182 Y127.458 E12.06486
G1 X106.23 Y127.276 E12.10354
G1 X105.543 Y127.111 E12.13174
G1 X104.667 Y126.859 E12.16812
G1 X104.184 Y126.699 E12.18843
G1 X103.47 Y126.432 E12.21885
G1 X102.807 Y126.151 E12.24759
G1 X102.004 Y125.77 E12.28307
G1 X100.942 Y125.185 E12.33146
G1 X100.513 Y124.919 E12.35161
G1 X100.024 Y124.599 E12.37493
G1 X99.553 Y124.265 E12.39798
G1 X99.143 Y123.956 E12.41847
G1 X98.58 Y123.499 E12.44741
G1 X98.037 Y123.019 E12.47633
G1 X97.356 Y122.361 E12.51413
G1 X96.539 Y121.464 E12.56255
G1 X96.072 Y120.89 E12.59209
G1 X95.558 Y120.201 E12.6264
G1 X94.877 Y119.163 E12.67595
G1 X94.34 Y118.197 E12.72006
G1 X93.989 Y117.49 E12.75156
G1 X93.605 Y116.617 E12.78963
G1 X93.214 Y115.537 E12.83547
G1 X92.996 Y114.833 E12.86489
G1 X92.757 Y113.907 E12.90305
G1 X92.551 Y112.814 E12.94745
G1 X92.437 Y112.005 E12.98005
G1 X92.352 Y111.141 E13.01471
G1 X92.321 Y110.439 E13.04275
G1 X92.323 Y109.556 E13.07799
G1 X92.346 Y109.002 E13.10012
G1 X92.407 Y108.228 E13.13111
G1 X92.474 Y107.661 E13.1539
G1 X92.592 Y106.883 E13.18531
G1 X92.708 Y106.288 E13.2095
G1 X92.944 Y105.332 E13.2488
G1 X93.12 Y104.73 E13.27384
G1 X93.32 Y104.118 E13.29953
G1 X93.509 Y103.612 E13.32109
G1 X93.956 Y102.556 E13.36686
G1 X94.436 Y101.6 E13.40955
G1 X94.869 Y100.853 E13.44402
G1 X95.23 Y100.281 E13.47101
G1 X95.767 Y99.512 E13.50845
G1 X96.128 Y99.042 E13.5321
G1 X96.506 Y98.571 E13.5562
G1 X96.88 Y98.138 E13.57904
G1 X97.28 Y97.709 E13.60245
G1 F1800 E10.60245
;MESH:Union_Capsula_transparent.stl
G0 F9000 X102.526 Y106.718
G0 X103.416 Y107.139
G0 X103.174 Y109.598
G0 X103.231 Y110.942
G0 X103.511 Y112.143
G0 X103.994 Y113.26
G0 X104.662 Y114.265
G0 X105.491 Y115.134
G0 X106.36 Y115.77
G0 X108.596 Y116.955
G0 X108.56 Y117.152
;TYPE:WALL-OUTER
G1 F1800 E13.60245
G1 X107.932 Y116.995 E13.62829
G1 X107.42 Y116.824 E13.64983
G1 X106.825 Y116.566 E13.67572
G1 X106.35 Y116.318 E13.6971
G1 X105.805 Y115.966 E13.723
G1 X105.382 Y115.647 E13.74414
G1 X104.888 Y115.202 E13.77068
G1 X104.524 Y114.82 E13.79174
G1 X104.123 Y114.319 E13.81735
G1 X103.815 Y113.87 E13.83908
G1 X103.508 Y113.324 E13.86408
G1 X103.271 Y112.82 E13.88631
G1 X103.059 Y112.239 E13.911
G1 X102.902 Y111.694 E13.93363
G1 X102.795 Y111.131 E13.95651
G1 X102.721 Y110.513 E13.98135
G1 X102.704 Y109.996 E14.00199
G1 X102.733 Y109.329 E14.02864
G1 X102.815 Y108.73 E14.05277
G1 X102.918 Y108.24 E14.07276
G1 X103.084 Y107.675 E14.09626
G1 X103.308 Y107.089 E14.1213
G1 X103.52 Y106.642 E14.14104
G1 X103.761 Y106.218 E14.16051
G1 X104.067 Y105.753 E14.18273
G1 X104.55 Y105.147 E14.21366
G1 X104.876 Y104.803 E14.23257
G1 X105.315 Y104.408 E14.25614
G1 X105.795 Y104.036 E14.28038
G1 X106.399 Y103.654 E14.3089
G1 X107.149 Y103.283 E14.3423
G1 X107.874 Y103.019 E14.37309
G1 X108.638 Y102.831 E14.4045
G1 X109.391 Y102.729 E14.43482
G1 X110.176 Y102.705 E14.46617
G1 X110.958 Y102.766 E14.49748
G1 X111.433 Y102.844 E14.51669
G1 X112.109 Y103.015 E14.54452
G1 X112.58 Y103.173 E14.56435
G1 X113.281 Y103.482 E14.59492
G1 X113.965 Y103.873 E14.62637
G1 X114.61 Y104.343 E14.65822
G1 X115.195 Y104.875 E14.68978
G1 X115.724 Y105.473 E14.72165
G1 X116.18 Y106.116 E14.75311
G1 X116.567 Y106.815 E14.785
G1 X116.869 Y107.533 E14.81609
G1 X117.099 Y108.304 E14.8482
G1 X117.238 Y109.068 E14.87919
G1 X117.294 Y109.808 E14.90881
G1 X117.276 Y110.555 E14.93864
G1 X117.223 Y111.046 E14.95835
G1 X117.121 Y111.589 E14.9804
G1 X116.983 Y112.116 E15.00214
G1 X116.825 Y112.588 E15.02201
G1 X116.594 Y113.122 E15.04523
G1 X116.358 Y113.579 E15.06576
G1 X116.068 Y114.052 E15.0879
G1 X115.649 Y114.621 E15.1161
G1 X115.249 Y115.068 E15.14004
G1 X114.858 Y115.445 E15.16172
G1 X114.205 Y115.966 E15.19506
G1 X113.786 Y116.235 E15.21494
G1 X113.192 Y116.562 E15.242
G1 X112.666 Y116.789 E15.26487
G1 X112.078 Y116.995 E15.28973
G1 X111.497 Y117.138 E15.31361
G1 X110.92 Y117.239 E15.33699
G1 X110.304 Y117.286 E15.36165
G1 X109.736 Y117.292 E15.38432
G1 X109.107 Y117.239 E15.40952
G1 X108.56 Y117.152 E15.43162
G1 F1800 E12.43162
G0 F9000 X108.595 Y116.956
G0 X111.008 Y116.76
G0 X112.138 Y116.49
G0 X113.189 Y116.046
G0 X114.248 Y115.353
G0 X115.065 Y114.589
G0 X115.463 Y114.067
