;FLAVOR:Marlin
;TIME:1424
;Filament used: 1.32838m
;Layer height: 0.28
;MINX:96.536
;MINY:93.539
;MINZ:0.28
;MAXX:123.458
;MAXY:130.363
;MAXZ:29.96
;Generated with Cura_SteamEngine main
M82 ;absolute extrusion mode
M201 X500.00 Y500.00 Z100.00 E5000.00 ;Setup machine max acceleration
M203 X500.00 Y500.00 Z10.00 E50.00 ;Setup machine max feedrate
M204 P500.00 R1000.00 T500.00 ;Setup Print/Retract/Travel acceleration
M205 X8.00 Y8.00 Z0.40 E5.00 ;Setup Jerk
M220 S100 ;Reset Feedrate
M221 S100 ;Reset Flowrate

;*** Start Dual Nozzle/Bed Preheating ***
M140 S50 ; start preheating the bed
M104 S210 ?T0 ; start preheating hotend
M190 S50 ; heat to Cura Bed setting and WAIT
M109 S210 ?T0 ; heat to Cura Hotend and WAIT
;*** End Preheating ***


;*** Single Print Start Tone
M300 S1000 P500 ; chirp to indicate starting to print
;*** End Single Start Tone

G28 ;Home

G92 E0 ;Reset Extruder
G1 Z2.0 F3000 ;Move Z Axis up
G1 X10.1 Y20 Z0.28 F5000.0 ;Move to start position
G1 X10.1 Y200.0 Z0.28 F1500.0 E15 ;Draw the first line
G1 X10.4 Y200.0 Z0.28 F5000.0 ;Move to side a little
G1 X10.4 Y20 Z0.28 F1500.0 E30 ;Draw the second line
G92 E0 ;Reset Extruder
G1 Z2.0 F3000 ;Move Z Axis up
G92 E0
G92 E0
G1 F2400 E-2
;LAYER_COUNT:107
;LAYER:0
M107
M204 S500
M205 X5 Y5
G0 F7500 X104.178 Y106.954 Z0.28
G0 X102.825 Y109.873
M205 X8 Y8
;TYPE:SKIRT
G1 F1200 E0
G1 F1500 X102.865 Y109.321 E0.02617
G1 X102.984 Y108.781 E0.05231
G1 X103.18 Y108.264 E0.07845
G1 X103.448 Y107.781 E0.10456
G1 X103.783 Y107.341 E0.13071
G1 X104.178 Y106.954 E0.15685
G1 X104.624 Y106.628 E0.18297
G1 X105.113 Y106.37 E0.20911
G1 X105.634 Y106.185 E0.23525
G1 X106.176 Y106.077 E0.26137
G1 X106.649 Y106.048 E0.28378
G1 X113.349 Y106.047 E0.60054
G1 X113.901 Y106.087 E0.6267
G1 X114.441 Y106.206 E0.65284
G1 X114.958 Y106.401 E0.67897
G1 X115.441 Y106.669 E0.70508
G1 X115.881 Y107.004 E0.73123
G1 X116.268 Y107.399 E0.75737
G1 X116.594 Y107.845 E0.78349
G1 X116.852 Y108.334 E0.80963
G1 X117.037 Y108.855 E0.83576
G1 X117.145 Y109.397 E0.86189
G1 X117.175 Y109.872 E0.88439
G1 X117.176 Y118.666 E1.30015
G1 X122.344 Y123.833 E1.64565
G1 X122.706 Y124.251 E1.67179
G1 X123.004 Y124.717 E1.69794
G1 X123.231 Y125.221 E1.72407
G1 X123.383 Y125.752 E1.75019
G1 X123.458 Y126.3 E1.77634
G1 X123.452 Y126.853 E1.80248
G1 X123.367 Y127.399 E1.82861
G1 X123.204 Y127.927 E1.85473
G1 X122.966 Y128.427 E1.88091
G1 X122.659 Y128.886 E1.90702
G1 X122.289 Y129.297 E1.93316
G1 X121.864 Y129.65 E1.95928
G1 X121.392 Y129.938 E1.98542
G1 X120.884 Y130.155 E2.01154
G1 X120.349 Y130.297 E2.03771
G1 X119.64 Y130.363 E2.07137
G1 X100.36 Y130.363 E2.98288
G1 X99.809 Y130.323 E3.009
G1 X99.269 Y130.204 E3.03514
G1 X98.752 Y130.008 E3.06128
G1 X98.268 Y129.74 E3.08743
G1 X97.828 Y129.405 E3.11358
G1 X97.442 Y129.011 E3.13966
G1 X97.116 Y128.564 E3.16581
G1 X96.857 Y128.075 E3.19197
G1 X96.672 Y127.554 E3.21811
G1 X96.565 Y127.012 E3.24423
G1 X96.536 Y126.46 E3.27036
G1 X96.587 Y125.91 E3.29648
G1 X96.717 Y125.372 E3.32264
G1 X96.923 Y124.859 E3.34878
G1 X97.201 Y124.381 E3.37492
G1 X97.656 Y123.833 E3.4086
G1 X102.824 Y118.666 E3.7541
G1 X102.825 Y109.873 E4.1698
M205 X5 Y5
G0 F7500 X103.275 Y109.873
M205 X8 Y8
G1 F1500 X103.315 Y109.355 E4.19437
G1 X103.434 Y108.85 E4.2189
G1 X103.629 Y108.368 E4.24348
G1 X103.896 Y107.923 E4.26801
G1 X104.227 Y107.523 E4.29256
G1 X104.616 Y107.18 E4.31708
G1 X105.054 Y106.899 E4.34168
G1 X105.529 Y106.69 E4.36621
G1 X106.03 Y106.555 E4.39075
G1 X106.649 Y106.498 E4.42013
G1 X113.349 Y106.497 E4.73689
G1 X113.867 Y106.537 E4.76145
G1 X114.373 Y106.656 E4.78603
G1 X114.854 Y106.851 E4.81057
G1 X115.3 Y107.117 E4.83512
G1 X115.699 Y107.449 E4.85966
G1 X116.043 Y107.838 E4.88421
G1 X116.323 Y108.275 E4.90874
G1 X116.533 Y108.75 E4.9333
G1 X116.667 Y109.251 E4.95782
G1 X116.725 Y109.872 E4.9873
G1 X116.726 Y118.852 E5.41185
G1 X122.026 Y124.151 E5.76618
G1 X122.364 Y124.546 E5.79076
G1 X122.637 Y124.987 E5.81528
G1 X122.84 Y125.465 E5.83983
G1 X122.967 Y125.969 E5.8644
G1 X123.015 Y126.486 E5.88895
G1 X122.983 Y127.004 E5.91348
G1 X122.872 Y127.511 E5.93802
G1 X122.684 Y127.995 E5.96257
G1 X122.425 Y128.445 E5.98712
G1 X122.099 Y128.85 E6.0117
G1 X121.715 Y129.199 E6.03623
G1 X121.283 Y129.486 E6.06075
G1 X120.811 Y129.703 E6.08531
G1 X120.312 Y129.846 E6.10985
G1 X119.64 Y129.913 E6.14178
G1 X100.36 Y129.913 E7.05328
G1 X99.842 Y129.873 E7.07784
G1 X99.337 Y129.754 E7.10237
G1 X98.856 Y129.559 E7.12691
G1 X98.41 Y129.293 E7.15146
G1 X98.011 Y128.961 E7.176
G1 X97.667 Y128.572 E7.20055
G1 X97.387 Y128.135 E7.22509
G1 X97.177 Y127.66 E7.24964
G1 X97.042 Y127.158 E7.27422
G1 X96.987 Y126.642 E7.29875
G1 X97.011 Y126.123 E7.32332
G1 X97.114 Y125.614 E7.34787
G1 X97.294 Y125.127 E7.37241
G1 X97.547 Y124.674 E7.39694
G1 X97.974 Y124.151 E7.42886
G1 X103.274 Y118.852 E7.78319
G1 X103.275 Y109.873 E8.20769
M205 X5 Y5
G0 F7500 X103.725 Y109.873
M205 X8 Y8
G1 F1500 X103.765 Y109.391 E8.23056
G1 X103.884 Y108.923 E8.25339
G1 X104.078 Y108.48 E8.27625
G1 X104.343 Y108.075 E8.29913
G1 X104.67 Y107.72 E8.32195
G1 X105.052 Y107.423 E8.34483
G1 X105.477 Y107.194 E8.36765
G1 X105.934 Y107.037 E8.3905
G1 X106.65 Y106.948 E8.42461
G1 X113.35 Y106.947 E8.74137
G1 X113.831 Y106.987 E8.76418
G1 X114.3 Y107.105 E8.78705
G1 X114.742 Y107.3 E8.80989
G1 X115.147 Y107.564 E8.83274
G1 X115.502 Y107.891 E8.85556
G1 X115.799 Y108.273 E8.87844
G1 X116.029 Y108.698 E8.90129
G1 X116.186 Y109.155 E8.92413
G1 X116.275 Y109.872 E8.95829
G1 X116.276 Y119.07 E9.39314
G1 X116.499 Y119.262 E9.40706
G1 X121.708 Y124.47 E9.7553
G1 X122.02 Y124.838 E9.77811
G1 X122.268 Y125.254 E9.801
G1 X122.444 Y125.704 E9.82385
G1 X122.543 Y126.177 E9.84669
G1 X122.562 Y126.66 E9.86955
G1 X122.503 Y127.139 E9.89236
G1 X122.364 Y127.603 E9.91526
G1 X122.152 Y128.037 E9.9381
G1 X121.871 Y128.43 E9.96094
G1 X121.529 Y128.771 E9.98377
G1 X121.135 Y129.052 E10.00665
G1 X120.701 Y129.264 E10.02949
G1 X120.238 Y129.401 E10.05231
G1 X119.64 Y129.463 E10.08074
G1 X100.36 Y129.463 E10.99224
G1 X99.878 Y129.423 E11.01511
G1 X99.41 Y129.304 E11.03794
G1 X98.967 Y129.11 E11.0608
G1 X98.563 Y128.846 E11.08362
G1 X98.207 Y128.518 E11.1065
G1 X97.911 Y128.137 E11.12931
G1 X97.681 Y127.711 E11.1522
G1 X97.524 Y127.254 E11.17505
G1 X97.445 Y126.777 E11.1979
G1 X97.445 Y126.294 E11.22074
G1 X97.525 Y125.817 E11.24361
G1 X97.682 Y125.36 E11.26645
G1 X97.913 Y124.936 E11.28928
G1 X98.292 Y124.47 E11.31768
G1 X103.503 Y119.26 E11.66605
G1 X103.724 Y119.072 E11.67977
G1 X103.725 Y109.873 E12.11467
M205 X5 Y5
G0 F7500 X104.175 Y109.873
M205 X8 Y8
G1 F1500 X104.215 Y109.43 E12.1357
G1 X104.333 Y109.002 E12.15669
G1 X104.527 Y108.601 E12.17775
G1 X104.788 Y108.242 E12.19873
G1 X105.11 Y107.935 E12.21977
G1 X105.482 Y107.691 E12.2408
G1 X105.891 Y107.517 E12.26181
G1 X106.324 Y107.42 E12.28279
G1 X106.65 Y107.398 E12.29824
G1 X113.35 Y107.397 E12.615
G1 X113.792 Y107.437 E12.63598
G1 X114.221 Y107.555 E12.65701
G1 X114.621 Y107.748 E12.67801
G1 X114.981 Y108.01 E12.69906
G1 X115.287 Y108.332 E12.72006
G1 X115.532 Y108.703 E12.74108
G1 X115.705 Y109.112 E12.76208
G1 X115.803 Y109.546 E12.78311
G1 X115.825 Y109.872 E12.79856
G1 X115.826 Y119.297 E13.24415
G1 X115.984 Y119.403 E13.25314
G1 X116.181 Y119.58 E13.26566
G1 X121.39 Y124.788 E13.6139
G1 X121.675 Y125.129 E13.63491
G1 X121.894 Y125.516 E13.65594
G1 X122.041 Y125.935 E13.67693
G1 X122.11 Y126.375 E13.69798
G1 X122.099 Y126.819 E13.71898
G1 X122.009 Y127.254 E13.73998
G1 X121.843 Y127.666 E13.76098
G1 X121.605 Y128.042 E13.78202
G1 X121.305 Y128.37 E13.80304
G1 X120.95 Y128.638 E13.82407
G1 X120.553 Y128.838 E13.84508
G1 X120.127 Y128.965 E13.8661
G1 X119.64 Y129.013 E13.88923
G1 X100.36 Y129.013 E14.80074
G1 X99.917 Y128.973 E14.82177
G1 X99.489 Y128.855 E14.84276
G1 X99.088 Y128.661 E14.86382
G1 X98.729 Y128.4 E14.8848
G1 X98.422 Y128.078 E14.90583
G1 X98.178 Y127.707 E14.92683
G1 X98.004 Y127.297 E14.94788
G1 X97.907 Y126.864 E14.96886
G1 X97.888 Y126.42 E14.98987
G1 X97.949 Y125.979 E15.01092
G1 X98.088 Y125.557 E15.03193
G1 X98.3 Y125.166 E15.05295
G1 X98.61 Y124.788 E15.07607
G1 X103.821 Y119.578 E15.42444
G1 X104.174 Y119.286 E15.4461
G1 X104.175 Y109.873 E15.89112
M205 X5 Y5
G0 F7500 X104.625 Y109.873
M205 X8 Y8
G1 F1500 X104.665 Y109.473 E15.91012
G1 X104.783 Y109.089 E15.92912
G1 X104.975 Y108.735 E15.94816
G1 X105.233 Y108.427 E15.96715
G1 X105.546 Y108.175 E15.98615
G1 X105.903 Y107.991 E16.00514
G1 X106.29 Y107.88 E16.02417
G1 X106.65 Y107.848 E16.04126
G1 X113.35 Y107.847 E16.35801
G1 X113.75 Y107.887 E16.37702
G1 X114.134 Y108.005 E16.39601
G1 X114.487 Y108.197 E16.41501
G1 X114.796 Y108.454 E16.43401
G1 X115.047 Y108.768 E16.45302
G1 X115.232 Y109.125 E16.47203
G1 X115.343 Y109.511 E16.49101
G1 X115.375 Y109.872 E16.50815
G1 X115.376 Y119.548 E16.9656
G1 X115.466 Y119.59 E16.9703
G1 X115.863 Y119.898 E16.99405
G1 X121.072 Y125.106 E17.34229
G1 X121.326 Y125.417 E17.36128
G1 X121.515 Y125.772 E17.38029
G1 X121.629 Y126.158 E17.39932
G1 X121.665 Y126.558 E17.41831
G1 X121.621 Y126.958 E17.43733
G1 X121.499 Y127.341 E17.45633
G1 X121.304 Y127.692 E17.47532
G1 X121.043 Y127.998 E17.49433
G1 X120.727 Y128.246 E17.51332
G1 X120.368 Y128.428 E17.53235
G1 X119.981 Y128.534 E17.55132
G1 X119.64 Y128.563 E17.5675
G1 X100.36 Y128.563 E18.47901
G1 X99.96 Y128.523 E18.49801
G1 X99.576 Y128.405 E18.517
G1 X99.222 Y128.213 E18.53604
G1 X98.914 Y127.956 E18.55501
G1 X98.662 Y127.642 E18.57404
G1 X98.478 Y127.285 E18.59303
G1 X98.367 Y126.898 E18.61206
G1 X98.335 Y126.498 E18.63104
G1 X98.383 Y126.098 E18.65008
G1 X98.509 Y125.717 E18.66905
G1 X98.708 Y125.367 E18.68809
G1 X98.928 Y125.106 E18.70423
G1 X104.139 Y119.896 E19.0526
G1 X104.45 Y119.641 E19.07162
G1 X104.624 Y119.549 E19.08092
G1 X104.625 Y109.873 E19.53838
M205 X5 Y5
G0 F7500 X105.075 Y109.873
M205 X8 Y8
G1 F1500 X105.115 Y109.521 E19.55512
G1 X105.233 Y109.186 E19.57192
G1 X105.422 Y108.887 E19.58864
G1 X105.674 Y108.637 E19.60542
G1 X105.975 Y108.45 E19.62217
G1 X106.31 Y108.335 E19.63892
G1 X106.65 Y108.298 E19.65509
G1 X113.35 Y108.297 E19.97185
G1 X113.702 Y108.337 E19.98859
G1 X114.036 Y108.454 E20.00533
G1 X114.336 Y108.644 E20.02211
G1 X114.586 Y108.895 E20.03886
G1 X114.773 Y109.196 E20.05562
G1 X114.888 Y109.531 E20.07236
G1 X114.925 Y109.872 E20.08858
G1 X114.926 Y119.824 E20.55908
G1 X115.307 Y120.021 E20.57936
G1 X115.545 Y120.216 E20.5939
G1 X120.754 Y125.424 E20.94214
G1 X120.974 Y125.701 E20.95887
G1 X121.128 Y126.021 E20.97566
G1 X121.206 Y126.367 E20.99243
G1 X121.204 Y126.721 E21.00916
G1 X121.124 Y127.066 E21.02591
G1 X120.968 Y127.385 E21.04269
G1 X120.745 Y127.66 E21.05943
G1 X120.466 Y127.879 E21.0762
G1 X120.146 Y128.03 E21.09293
G1 X119.64 Y128.113 E21.11717
G1 X100.36 Y128.113 E22.02868
G1 X100.008 Y128.073 E22.04542
G1 X99.674 Y127.956 E22.06216
G1 X99.374 Y127.766 E22.07894
G1 X99.124 Y127.515 E22.09569
G1 X98.937 Y127.214 E22.11245
G1 X98.822 Y126.878 E22.12924
G1 X98.785 Y126.526 E22.14597
G1 X98.828 Y126.174 E22.16273
G1 X98.948 Y125.841 E22.17947
G1 X99.246 Y125.424 E22.2037
G1 X104.457 Y120.214 E22.55207
G1 X104.735 Y119.993 E22.56886
G1 X105.074 Y119.835 E22.58655
G1 X105.075 Y109.873 E23.05752
M205 X5 Y5
G0 F7500 X105.525 Y109.873
M205 X8 Y8
G1 F1500 X105.565 Y109.576 E23.07169
G1 X105.682 Y109.301 E23.08582
G1 X105.867 Y109.065 E23.1
G1 X106.107 Y108.887 E23.11412
G1 X106.387 Y108.779 E23.12831
G1 X106.65 Y108.748 E23.14083
G1 X113.35 Y108.747 E23.45759
G1 X113.647 Y108.787 E23.47176
G1 X113.922 Y108.903 E23.48587
G1 X114.157 Y109.089 E23.50004
G1 X114.335 Y109.329 E23.51416
G1 X114.444 Y109.608 E23.52832
G1 X114.475 Y109.872 E23.54089
G1 X114.476 Y120.185 E24.02846
G1 X114.875 Y120.296 E24.04804
G1 X115.226 Y120.534 E24.06809
G1 X120.435 Y125.742 E24.41633
G1 X120.617 Y125.98 E24.4305
G1 X120.73 Y126.258 E24.44468
G1 X120.765 Y126.555 E24.45882
G1 X120.721 Y126.851 E24.47297
G1 X120.6 Y127.125 E24.48713
G1 X120.411 Y127.357 E24.50128
G1 X120.168 Y127.532 E24.51543
G1 X119.887 Y127.636 E24.5296
G1 X119.64 Y127.663 E24.54135
G1 X100.36 Y127.663 E25.45285
G1 X100.063 Y127.623 E25.46702
G1 X99.788 Y127.507 E25.48113
G1 X99.553 Y127.321 E25.4953
G1 X99.375 Y127.081 E25.50943
G1 X99.266 Y126.802 E25.52359
G1 X99.236 Y126.504 E25.53775
G1 X99.284 Y126.208 E25.55192
G1 X99.409 Y125.936 E25.56608
G1 X99.565 Y125.742 E25.57785
G1 X104.776 Y120.532 E25.92622
G1 X105.014 Y120.351 E25.94036
G1 X105.371 Y120.221 E25.95832
G1 X105.524 Y120.193 E25.96567
G1 X105.525 Y109.873 E26.45357
M205 X5 Y5
G0 F7500 X105.975 Y109.873
M205 X8 Y8
G1 F1500 X106.015 Y109.645 E26.46452
G1 X106.129 Y109.444 E26.47544
G1 X106.305 Y109.293 E26.4864
G1 X106.552 Y109.198 E26.49892
G1 X113.35 Y109.197 E26.82031
G1 X113.578 Y109.237 E26.83125
G1 X113.779 Y109.351 E26.84218
G1 X113.93 Y109.527 E26.85314
G1 X114.025 Y109.774 E26.86565
G1 X114.026 Y120.238 E27.36036
G1 X114.14 Y120.487 E27.37331
G1 X114.291 Y120.61 E27.38251
G1 X114.745 Y120.732 E27.40474
G1 X114.908 Y120.853 E27.41434
G1 X120.117 Y126.061 E27.76258
G1 X120.25 Y126.25 E27.7735
G1 X120.312 Y126.473 E27.78445
G1 X120.294 Y126.704 E27.7954
G1 X120.2 Y126.915 E27.80632
G1 X120.039 Y127.082 E27.81729
G1 X119.832 Y127.185 E27.82822
G1 X119.64 Y127.213 E27.83739
G1 X100.36 Y127.213 E28.7489
G1 X100.132 Y127.173 E28.75984
G1 X99.931 Y127.059 E28.77076
G1 X99.78 Y126.883 E28.78173
G1 X99.697 Y126.667 E28.79267
G1 X99.693 Y126.435 E28.80364
G1 X99.767 Y126.216 E28.81457
G1 X99.883 Y126.061 E28.82372
G1 X105.094 Y120.851 E29.17209
G1 X105.283 Y120.717 E29.18305
G1 X105.664 Y120.625 E29.20158
G1 X105.834 Y120.518 E29.21107
G1 X105.974 Y120.239 E29.22583
G1 X105.975 Y109.873 E29.71591
M205 X5 Y5
G0 F7500 X106.425 Y109.873
M205 X8 Y8
G1 F1500 X106.464 Y109.746 E29.72219
G1 X106.588 Y109.648 E29.72966
G1 X113.35 Y109.647 E30.04935
G1 X113.477 Y109.686 E30.05563
G1 X113.575 Y109.81 E30.0631
G1 X113.576 Y120.303 E30.55918
G1 X113.648 Y120.542 E30.57098
G1 X113.797 Y120.788 E30.58458
G1 X114.06 Y121.003 E30.60064
G1 X114.548 Y121.129 E30.62447
G1 X119.799 Y126.379 E30.97552
G1 X119.861 Y126.496 E30.98178
G1 X119.846 Y126.628 E30.98806
G1 X119.76 Y126.729 E30.99433
G1 X119.64 Y126.763 E31.00023
G1 X100.36 Y126.763 E31.91173
G1 X100.233 Y126.724 E31.91801
G1 X100.151 Y126.62 E31.92427
G1 X100.141 Y126.488 E31.93053
G1 X100.201 Y126.379 E31.93641
G1 X105.412 Y121.169 E32.28479
G1 X105.531 Y121.107 E32.29113
G1 X105.817 Y121.055 E32.30487
G1 X106.136 Y120.877 E32.32214
G1 X106.348 Y120.557 E32.34029
G1 X106.424 Y120.304 E32.35278
G1 X106.425 Y109.873 E32.84593
M205 X5 Y5
G1 F2400 E30.84593
;MESH:wall_hook_hook.stl
G0 F7500 X105.984 Y109.873
G0 X105.671 Y120.636
G0 X105.787 Y121.74
G0 X103.26 Y125.338
M205 X8 Y8
;TYPE:WALL-INNER
G1 F1200 E32.84593
G1 F1500 X116.74 Y125.337 E33.55404
G1 X113.851 Y122.45 E33.76858
G1 X113.511 Y122.317 E33.78776
G1 X113.196 Y122.134 E33.8069
G1 X112.872 Y121.873 E33.82875
G1 X112.607 Y121.575 E33.8497
G1 X112.37 Y121.193 E33.87332
G1 X112.17 Y120.592 E33.90659
G1 X112.151 Y120.339 E33.91992
G1 X112.15 Y111.072 E34.40671
G1 X107.85 Y111.073 E34.63259
G1 X107.849 Y120.339 E35.11934
G1 X107.83 Y120.594 E35.13277
G1 X107.625 Y121.203 E35.16653
G1 X107.35 Y121.627 E35.19307
G1 X107.086 Y121.932 E35.21426
G1 X106.782 Y122.149 E35.23388
G1 X106.381 Y122.369 E35.25791
G1 X106.165 Y122.434 E35.26976
G1 X103.26 Y125.338 E35.48553
M205 X5 Y5
G0 F7500 X102.444 Y125.675
G0 X102.052 Y125.838
M205 X8 Y8
G1 F1500 X117.948 Y125.837 E36.32055
G1 X114.1 Y121.992 E36.60631
G1 X113.946 Y121.951 E36.61468
G1 X113.593 Y121.813 E36.63459
G1 X113.093 Y121.41 E36.66832
G1 X112.822 Y120.974 E36.69529
G1 X112.653 Y120.457 E36.72386
G1 X112.65 Y110.572 E37.24312
G1 X107.35 Y110.573 E37.52153
G1 X107.347 Y120.46 E38.0409
G1 X107.174 Y120.983 E38.06984
G1 X106.878 Y121.435 E38.09822
G1 X106.537 Y121.714 E38.12136
G1 X106.18 Y121.911 E38.14278
G1 X105.914 Y121.978 E38.15719
G1 X102.052 Y125.838 E38.44402
M205 X5 Y5
G0 F7500 X102.444 Y125.675
G0 X101.478 Y126.075
G0 X100.905 Y126.313
M205 X8 Y8
;TYPE:WALL-OUTER
G1 F1500 X119.095 Y126.312 E39.30399
G1 X114.324 Y121.544 E39.62288
