;FLAVOR:Marlin
;TIME:1399
;Filament used: 1.22602m
;Layer height: 0.28
;MINX:94.125
;MINY:102.325
;MINZ:0.28
;MAXX:125.875
;MAXY:117.675
;MAXZ:29.96
;Generated with Cura_SteamEngine main
M82 ;absolute extrusion mode
M201 X500.00 Y500.00 Z100.00 E5000.00 ;Setup machine max acceleration
M203 X500.00 Y500.00 Z10.00 E50.00 ;Setup machine max feedrate
M204 P500.00 R1000.00 T500.00 ;Setup Print/Retract/Travel acceleration
M205 X8.00 Y8.00 Z0.40 E5.00 ;Setup Jerk
M220 S100 ;Reset Feedrate
M221 S100 ;Reset Flowrate

;*** Start Dual Nozzle/Bed Preheating ***
M140 S60 ; start preheating the bed
M104 S200 ?T0 ; start preheating hotend
M190 S60 ; heat to Cura Bed setting and WAIT
M109 S200 ?T0 ; heat to Cura Hotend and WAIT
;*** End Preheating ***


;*** Single Print Start Tone
M300 S1000 P500 ; chirp to indicate starting to print
;*** End Single Start Tone

G28 ;Home

G92 E0 ;Reset Extruder
G1 Z2.0 F3000 ;Move Z Axis up
G1 X10.1 Y20 Z0.28 F5000.0 ;Move to start position
G1 X10.1 Y200.0 Z0.28 F1500.0 E15 ;Draw the first line
G1 X10.4 Y200.0 Z0.28 F5000.0 ;Move to side a little
G1 X10.4 Y20 Z0.28 F1500.0 E30 ;Draw the second line
G92 E0 ;Reset Extruder
G1 Z2.0 F3000 ;Move Z Axis up
G92 E0
G92 E0
G1 F1500 E-2.5
;LAYER_COUNT:107
;LAYER:0
M107
M204 S500
M205 X5 Y5
G0 F7500 X95.477 Y103.232 Z0.28
G0 X94.125 Y106.15
M205 X8 Y8
;TYPE:SKIRT
G1 F1500 E0
G1 X94.165 Y105.599 E0.02612
G1 X94.284 Y105.059 E0.05226
G1 X94.48 Y104.542 E0.0784
G1 X94.748 Y104.058 E0.10456
G1 X95.083 Y103.618 E0.1307
G1 X95.477 Y103.232 E0.15678
G1 X95.924 Y102.906 E0.18293
G1 X96.413 Y102.647 E0.2091
G1 X96.934 Y102.462 E0.23523
G1 X97.476 Y102.355 E0.26135
G1 X97.95 Y102.325 E0.28381
G1 X104.937 Y102.325 E0.61413
G1 X105.488 Y102.365 E0.64025
G1 X106.028 Y102.484 E0.66639
G1 X106.545 Y102.68 E0.69253
G1 X107.029 Y102.948 E0.71869
G1 X107.469 Y103.283 E0.74483
G1 X107.855 Y103.677 E0.77091
G1 X108.181 Y104.124 E0.79707
G1 X108.44 Y104.613 E0.82323
G1 X108.625 Y105.134 E0.84937
G1 X108.732 Y105.676 E0.87548
G1 X108.761 Y106.228 E0.90162
G1 X108.71 Y106.778 E0.92773
G1 X108.58 Y107.316 E0.9539
G1 X108.376 Y107.825 E0.97982
G1 X111.633 Y107.825 E1.13381
G1 X111.472 Y107.467 E1.15236
G1 X111.32 Y106.936 E1.17848
G1 X111.245 Y106.388 E1.20463
G1 X111.251 Y105.835 E1.23077
G1 X111.336 Y105.289 E1.2569
G1 X111.499 Y104.761 E1.28302
G1 X111.737 Y104.261 E1.3092
G1 X112.044 Y103.802 E1.33531
G1 X112.414 Y103.391 E1.36145
G1 X112.839 Y103.038 E1.38757
G1 X113.311 Y102.75 E1.41371
G1 X113.819 Y102.533 E1.43983
G1 X114.354 Y102.391 E1.466
G1 X115.063 Y102.325 E1.49966
G1 X122.05 Y102.325 E1.82999
G1 X122.601 Y102.365 E1.85611
G1 X123.141 Y102.484 E1.88225
G1 X123.658 Y102.68 E1.90839
G1 X124.142 Y102.948 E1.93454
G1 X124.582 Y103.283 E1.96069
G1 X124.968 Y103.677 E1.98677
G1 X125.294 Y104.124 E2.01292
G1 X125.553 Y104.613 E2.03908
G1 X125.738 Y105.134 E2.06522
G1 X125.845 Y105.676 E2.09134
G1 X125.875 Y106.15 E2.11379
G1 X125.875 Y113.85 E2.47783
G1 X125.835 Y114.401 E2.50395
G1 X125.716 Y114.941 E2.53009
G1 X125.52 Y115.458 E2.55623
G1 X125.252 Y115.942 E2.58238
G1 X124.917 Y116.382 E2.60853
G1 X124.523 Y116.768 E2.63461
G1 X124.076 Y117.094 E2.66076
G1 X123.587 Y117.353 E2.68692
G1 X123.066 Y117.538 E2.71306
G1 X122.524 Y117.645 E2.73918
G1 X122.05 Y117.675 E2.76164
G1 X97.95 Y117.675 E3.90102
G1 X97.399 Y117.635 E3.92713
G1 X96.859 Y117.516 E3.95328
G1 X96.342 Y117.32 E3.97942
G1 X95.858 Y117.052 E4.00557
G1 X95.418 Y116.717 E4.03172
G1 X95.032 Y116.323 E4.05779
G1 X94.706 Y115.876 E4.08395
G1 X94.447 Y115.387 E4.11011
G1 X94.262 Y114.866 E4.13625
G1 X94.155 Y114.324 E4.16237
G1 X94.125 Y113.85 E4.18482
G1 X94.125 Y106.15 E4.54886
M205 X5 Y5
G0 F7500 X94.575 Y106.15
M205 X8 Y8
G1 F1500 X94.615 Y105.632 E4.57342
G1 X94.734 Y105.127 E4.59795
G1 X94.929 Y104.646 E4.62249
G1 X95.195 Y104.2 E4.64704
G1 X95.527 Y103.801 E4.67158
G1 X95.916 Y103.457 E4.69613
G1 X96.353 Y103.177 E4.72066
G1 X96.828 Y102.967 E4.74522
G1 X97.33 Y102.832 E4.76979
G1 X97.95 Y102.775 E4.79923
G1 X104.937 Y102.775 E5.12956
G1 X105.455 Y102.815 E5.15412
G1 X105.96 Y102.934 E5.17865
G1 X106.441 Y103.129 E5.20318
G1 X106.887 Y103.395 E5.22774
G1 X107.286 Y103.727 E5.25228
G1 X107.63 Y104.116 E5.27683
G1 X107.91 Y104.553 E5.30136
G1 X108.12 Y105.028 E5.32592
G1 X108.255 Y105.53 E5.35049
G1 X108.31 Y106.046 E5.37503
G1 X108.286 Y106.565 E5.39959
G1 X108.183 Y107.074 E5.42414
G1 X108.003 Y107.561 E5.44869
G1 X107.75 Y108.014 E5.47322
G1 X107.537 Y108.275 E5.48914
G1 X112.421 Y108.275 E5.72005
G1 X112.066 Y107.701 E5.75195
G1 X111.863 Y107.223 E5.77651
G1 X111.736 Y106.719 E5.80108
G1 X111.688 Y106.202 E5.82563
G1 X111.72 Y105.684 E5.85016
G1 X111.831 Y105.177 E5.8747
G1 X112.019 Y104.693 E5.89925
G1 X112.278 Y104.243 E5.92379
G1 X112.604 Y103.838 E5.94837
G1 X112.988 Y103.489 E5.97291
G1 X113.42 Y103.202 E5.99743
G1 X113.892 Y102.985 E6.02199
G1 X114.391 Y102.842 E6.04653
G1 X115.063 Y102.775 E6.07846
G1 X122.05 Y102.775 E6.40878
G1 X122.568 Y102.815 E6.43334
G1 X123.073 Y102.934 E6.45787
G1 X123.554 Y103.129 E6.48241
G1 X124 Y103.395 E6.50696
G1 X124.399 Y103.727 E6.5315
G1 X124.743 Y104.116 E6.55605
G1 X125.023 Y104.553 E6.58059
G1 X125.233 Y105.028 E6.60514
G1 X125.368 Y105.53 E6.62972
G1 X125.425 Y106.15 E6.65915
G1 X125.425 Y113.85 E7.02319
G1 X125.385 Y114.368 E7.04775
G1 X125.266 Y114.873 E7.07228
G1 X125.071 Y115.354 E7.09682
G1 X124.805 Y115.8 E7.12137
G1 X124.473 Y116.199 E7.14591
G1 X124.084 Y116.543 E7.17046
G1 X123.647 Y116.823 E7.195
G1 X123.172 Y117.033 E7.21955
G1 X122.67 Y117.168 E7.24413
G1 X122.05 Y117.225 E7.27356
G1 X97.95 Y117.225 E8.41294
G1 X97.432 Y117.185 E8.4375
G1 X96.927 Y117.066 E8.46203
G1 X96.446 Y116.871 E8.48657
G1 X96 Y116.605 E8.51112
G1 X95.601 Y116.273 E8.53566
G1 X95.257 Y115.884 E8.56021
G1 X94.977 Y115.447 E8.58475
G1 X94.767 Y114.972 E8.6093
G1 X94.632 Y114.47 E8.63388
G1 X94.575 Y113.85 E8.66332
G1 X94.575 Y106.15 E9.02735
M205 X5 Y5
G0 F7500 X95.025 Y106.15
M205 X8 Y8
G1 F1500 X95.065 Y105.668 E9.05022
G1 X95.184 Y105.2 E9.07305
G1 X95.378 Y104.757 E9.09591
G1 X95.642 Y104.353 E9.11873
G1 X95.97 Y103.997 E9.14161
G1 X96.351 Y103.701 E9.16442
G1 X96.777 Y103.471 E9.18731
G1 X97.234 Y103.314 E9.21015
G1 X97.95 Y103.225 E9.24427
G1 X104.937 Y103.225 E9.57459
G1 X105.419 Y103.265 E9.59746
G1 X105.887 Y103.384 E9.62029
G1 X106.33 Y103.578 E9.64315
G1 X106.734 Y103.842 E9.66597
G1 X107.09 Y104.17 E9.68885
G1 X107.386 Y104.551 E9.71166
G1 X107.616 Y104.977 E9.73455
G1 X107.773 Y105.434 E9.7574
G1 X107.852 Y105.911 E9.78025
G1 X107.852 Y106.394 E9.80309
G1 X107.772 Y106.871 E9.82596
G1 X107.615 Y107.328 E9.8488
G1 X107.384 Y107.752 E9.87163
G1 X107.005 Y108.219 E9.90006
G1 X106.499 Y108.725 E9.93389
G1 X113.502 Y108.725 E10.26498
G1 X112.995 Y108.218 E10.29887
G1 X112.683 Y107.85 E10.32168
G1 X112.435 Y107.434 E10.34458
G1 X112.259 Y106.984 E10.36742
G1 X112.16 Y106.511 E10.39027
G1 X112.141 Y106.028 E10.41312
G1 X112.2 Y105.549 E10.43594
G1 X112.339 Y105.085 E10.45884
G1 X112.551 Y104.651 E10.48168
G1 X112.832 Y104.258 E10.50452
G1 X113.174 Y103.917 E10.52735
G1 X113.568 Y103.636 E10.55023
G1 X114.002 Y103.424 E10.57306
G1 X114.465 Y103.287 E10.59589
G1 X115.063 Y103.225 E10.62431
G1 X122.05 Y103.225 E10.95464
G1 X122.532 Y103.265 E10.97751
G1 X123 Y103.384 E11.00034
G1 X123.443 Y103.578 E11.0232
G1 X123.847 Y103.842 E11.04602
G1 X124.203 Y104.17 E11.0689
G1 X124.499 Y104.551 E11.09171
G1 X124.729 Y104.977 E11.1146
G1 X124.886 Y105.434 E11.13744
G1 X124.975 Y106.15 E11.17156
G1 X124.975 Y113.85 E11.53559
G1 X124.935 Y114.332 E11.55846
G1 X124.816 Y114.8 E11.58129
G1 X124.622 Y115.243 E11.60415
G1 X124.358 Y115.647 E11.62697
G1 X124.03 Y116.003 E11.64985
G1 X123.649 Y116.299 E11.67266
G1 X123.223 Y116.529 E11.69555
G1 X122.766 Y116.686 E11.71839
G1 X122.05 Y116.775 E11.75251
G1 X97.95 Y116.775 E12.89189
G1 X97.468 Y116.735 E12.91475
G1 X97 Y116.616 E12.93758
G1 X96.557 Y116.422 E12.96045
G1 X96.153 Y116.158 E12.98326
G1 X95.797 Y115.83 E13.00615
G1 X95.501 Y115.449 E13.02896
G1 X95.271 Y115.023 E13.05185
G1 X95.114 Y114.566 E13.07469
G1 X95.025 Y113.85 E13.1088
G1 X95.025 Y106.15 E13.47284
M205 X5 Y5
G0 F7500 X95.475 Y106.15
M205 X8 Y8
G1 F1500 X95.515 Y105.707 E13.49387
G1 X95.633 Y105.279 E13.51485
G1 X95.827 Y104.878 E13.53591
G1 X96.088 Y104.519 E13.5569
G1 X96.41 Y104.212 E13.57793
G1 X96.781 Y103.968 E13.59893
G1 X97.191 Y103.794 E13.61998
G1 X97.624 Y103.697 E13.64096
G1 X97.95 Y103.675 E13.65641
G1 X104.937 Y103.675 E13.98673
G1 X105.38 Y103.715 E14.00776
G1 X105.808 Y103.833 E14.02875
G1 X106.209 Y104.027 E14.04981
G1 X106.568 Y104.288 E14.0708
G1 X106.875 Y104.61 E14.09183
G1 X107.119 Y104.981 E14.11282
G1 X107.293 Y105.391 E14.13388
G1 X107.39 Y105.824 E14.15486
G1 X107.409 Y106.268 E14.17587
G1 X107.348 Y106.709 E14.19692
G1 X107.209 Y107.131 E14.21792
G1 X106.997 Y107.522 E14.23895
G1 X106.687 Y107.9 E14.26206
G1 X105.412 Y109.175 E14.34731
G1 X114.588 Y109.175 E14.78112
G1 X113.313 Y107.9 E14.86637
G1 X113.028 Y107.559 E14.88738
G1 X112.809 Y107.172 E14.9084
G1 X112.662 Y106.753 E14.9294
G1 X112.593 Y106.313 E14.95045
G1 X112.604 Y105.869 E14.97145
G1 X112.694 Y105.434 E14.99245
G1 X112.86 Y105.022 E15.01345
G1 X113.098 Y104.646 E15.03449
G1 X113.398 Y104.318 E15.05551
G1 X113.753 Y104.05 E15.07653
G1 X114.15 Y103.85 E15.09755
G1 X114.576 Y103.723 E15.11857
G1 X115.063 Y103.675 E15.1417
G1 X122.05 Y103.675 E15.47203
G1 X122.493 Y103.715 E15.49306
G1 X122.921 Y103.833 E15.51405
G1 X123.322 Y104.027 E15.53511
G1 X123.681 Y104.288 E15.55609
G1 X123.988 Y104.61 E15.57712
G1 X124.232 Y104.981 E15.59812
G1 X124.406 Y105.391 E15.61917
G1 X124.503 Y105.824 E15.64015
G1 X124.525 Y106.15 E15.6556
G1 X124.525 Y113.85 E16.01963
G1 X124.485 Y114.293 E16.04066
G1 X124.367 Y114.721 E16.06165
G1 X124.173 Y115.122 E16.08271
G1 X123.912 Y115.481 E16.1037
G1 X123.59 Y115.788 E16.12473
G1 X123.219 Y116.032 E16.14572
G1 X122.809 Y116.206 E16.16678
G1 X122.376 Y116.303 E16.18776
G1 X122.05 Y116.325 E16.20321
G1 X97.95 Y116.325 E17.34259
G1 X97.507 Y116.285 E17.36362
G1 X97.079 Y116.167 E17.38461
G1 X96.678 Y115.973 E17.40567
G1 X96.319 Y115.712 E17.42665
G1 X96.012 Y115.39 E17.44768
G1 X95.768 Y115.019 E17.46868
G1 X95.594 Y114.609 E17.48973
G1 X95.497 Y114.176 E17.51071
G1 X95.475 Y113.85 E17.52616
G1 X95.475 Y106.15 E17.89019
M205 X5 Y5
G0 F7500 X95.925 Y106.15
M205 X8 Y8
G1 F1500 X95.965 Y105.75 E17.9092
G1 X96.083 Y105.366 E17.92819
G1 X96.275 Y105.012 E17.94723
G1 X96.532 Y104.704 E17.9662
G1 X96.846 Y104.452 E17.98523
G1 X97.203 Y104.268 E18.00422
G1 X97.59 Y104.157 E18.02325
G1 X97.95 Y104.125 E18.04034
G1 X104.937 Y104.125 E18.37066
G1 X105.337 Y104.165 E18.38967
G1 X105.721 Y104.283 E18.40866
G1 X106.075 Y104.475 E18.4277
G1 X106.383 Y104.732 E18.44667
G1 X106.635 Y105.046 E18.4657
G1 X106.819 Y105.403 E18.48469
G1 X106.93 Y105.79 E18.50372
G1 X106.962 Y106.19 E18.52269
G1 X106.914 Y106.59 E18.54174
G1 X106.788 Y106.971 E18.56071
G1 X106.589 Y107.321 E18.57975
G1 X106.369 Y107.582 E18.59589
G1 X104.325 Y109.625 E18.73251
G1 X115.674 Y109.625 E19.26906
G1 X113.631 Y107.582 E19.40566
G1 X113.377 Y107.271 E19.42464
G1 X113.188 Y106.916 E19.44366
G1 X113.074 Y106.53 E19.46268
G1 X113.038 Y106.13 E19.48167
G1 X113.082 Y105.73 E19.5007
G1 X113.204 Y105.347 E19.5197
G1 X113.399 Y104.996 E19.53868
G1 X113.66 Y104.69 E19.5577
G1 X113.976 Y104.442 E19.57669
G1 X114.335 Y104.26 E19.59572
G1 X114.722 Y104.154 E19.61469
G1 X115.063 Y104.125 E19.63087
G1 X122.05 Y104.125 E19.96119
G1 X122.45 Y104.165 E19.9802
G1 X122.834 Y104.283 E19.99919
G1 X123.188 Y104.475 E20.01823
G1 X123.496 Y104.732 E20.03719
G1 X123.748 Y105.046 E20.05623
G1 X123.932 Y105.403 E20.07522
G1 X124.043 Y105.79 E20.09425
G1 X124.075 Y106.15 E20.11134
G1 X124.075 Y113.85 E20.47537
G1 X124.035 Y114.25 E20.49438
G1 X123.917 Y114.634 E20.51337
G1 X123.725 Y114.988 E20.53241
G1 X123.468 Y115.296 E20.55137
G1 X123.154 Y115.548 E20.57041
G1 X122.797 Y115.732 E20.5894
G1 X122.41 Y115.843 E20.60843
G1 X122.05 Y115.875 E20.62552
G1 X97.95 Y115.875 E21.7649
G1 X97.55 Y115.835 E21.7839
G1 X97.166 Y115.717 E21.8029
G1 X96.812 Y115.525 E21.82193
G1 X96.504 Y115.268 E21.8409
G1 X96.252 Y114.954 E21.85993
G1 X96.068 Y114.597 E21.87892
G1 X95.957 Y114.21 E21.89796
G1 X95.925 Y113.85 E21.91504
G1 X95.925 Y106.15 E22.27908
M205 X5 Y5
G0 F7500 X96.375 Y106.15
M205 X8 Y8
G1 F1500 X96.415 Y105.798 E22.29583
G1 X96.532 Y105.464 E22.31256
G1 X96.722 Y105.164 E22.32935
G1 X96.973 Y104.914 E22.34609
G1 X97.274 Y104.727 E22.36285
G1 X97.61 Y104.612 E22.37964
G1 X97.95 Y104.575 E22.39581
G1 X104.937 Y104.575 E22.72613
G1 X105.289 Y104.615 E22.74288
G1 X105.623 Y104.732 E22.75961
G1 X105.923 Y104.922 E22.7764
G1 X106.173 Y105.173 E22.79315
G1 X106.36 Y105.474 E22.8099
G1 X106.475 Y105.81 E22.82669
G1 X106.512 Y106.162 E22.84343
G1 X106.469 Y106.514 E22.86019
G1 X106.349 Y106.847 E22.87692
G1 X106.05 Y107.264 E22.90118
G1 X103.238 Y110.075 E23.08916
G1 X116.761 Y110.075 E23.72849
G1 X113.949 Y107.264 E23.91647
G1 X113.729 Y106.987 E23.93319
G1 X113.575 Y106.667 E23.94998
G1 X113.497 Y106.321 E23.96675
G1 X113.499 Y105.967 E23.98349
G1 X113.579 Y105.622 E24.00023
G1 X113.735 Y105.303 E24.01702
G1 X113.958 Y105.028 E24.03376
G1 X114.237 Y104.809 E24.05052
G1 X114.557 Y104.658 E24.06725
G1 X115.063 Y104.575 E24.09149
G1 X122.05 Y104.575 E24.42182
G1 X122.402 Y104.615 E24.43857
G1 X122.736 Y104.732 E24.4553
G1 X123.036 Y104.922 E24.47209
G1 X123.286 Y105.173 E24.48884
G1 X123.473 Y105.474 E24.50559
G1 X123.588 Y105.81 E24.52238
G1 X123.625 Y106.15 E24.53855
G1 X123.625 Y113.85 E24.90258
G1 X123.585 Y114.202 E24.91933
G1 X123.468 Y114.536 E24.93606
G1 X123.278 Y114.836 E24.95285
G1 X123.027 Y115.086 E24.9696
G1 X122.726 Y115.273 E24.98635
G1 X122.39 Y115.388 E25.00314
G1 X122.05 Y115.425 E25.01931
G1 X97.95 Y115.425 E26.15869
G1 X97.598 Y115.385 E26.17544
G1 X97.264 Y115.268 E26.19217
G1 X96.964 Y115.078 E26.20896
G1 X96.714 Y114.827 E26.22571
G1 X96.527 Y114.526 E26.24246
G1 X96.412 Y114.19 E26.25925
G1 X96.375 Y113.85 E26.27542
G1 X96.375 Y106.15 E26.63946
M205 X5 Y5
G0 F7500 X96.825 Y106.15
M205 X8 Y8
G1 F1500 X96.865 Y105.853 E26.65362
G1 X96.981 Y105.578 E26.66774
G1 X97.167 Y105.343 E26.6819
G1 X97.407 Y105.165 E26.69603
G1 X97.686 Y105.056 E26.71019
G1 X97.95 Y105.025 E26.72276
G1 X104.937 Y105.025 E27.05309
G1 X105.234 Y105.065 E27.06725
G1 X105.509 Y105.181 E27.08136
G1 X105.744 Y105.367 E27.09553
G1 X105.922 Y105.607 E27.10966
G1 X106.031 Y105.886 E27.12382
G1 X106.061 Y106.184 E27.13798
G1 X106.013 Y106.48 E27.15216
G1 X105.888 Y106.752 E27.16631
G1 X105.732 Y106.946 E27.17808
G1 X102.152 Y110.525 E27.4174
G1 X117.848 Y110.525 E28.15947
G1 X114.268 Y106.946 E28.39879
G1 X114.086 Y106.708 E28.41296
G1 X113.973 Y106.43 E28.42715
G1 X113.938 Y106.133 E28.44128
G1 X113.982 Y105.837 E28.45543
G1 X114.103 Y105.563 E28.46959
G1 X114.292 Y105.331 E28.48374
G1 X114.535 Y105.156 E28.4979
G1 X114.816 Y105.052 E28.51206
G1 X115.063 Y105.025 E28.52381
G1 X122.05 Y105.025 E28.85414
G1 X122.347 Y105.065 E28.8683
G1 X122.622 Y105.181 E28.88241
G1 X122.857 Y105.367 E28.89658
G1 X123.035 Y105.607 E28.91071
G1 X123.144 Y105.886 E28.92487
G1 X123.175 Y106.15 E28.93744
G1 X123.175 Y113.85 E29.30147
G1 X123.135 Y114.147 E29.31564
G1 X123.019 Y114.422 E29.32975
G1 X122.833 Y114.657 E29.34392
G1 X122.593 Y114.835 E29.35805
G1 X122.314 Y114.944 E29.37221
G1 X122.05 Y114.975 E29.38478
G1 X97.95 Y114.975 E30.52416
G1 X97.653 Y114.935 E30.53832
G1 X97.378 Y114.819 E30.55243
G1 X97.143 Y114.633 E30.5666
G1 X96.965 Y114.393 E30.58073
G1 X96.856 Y114.114 E30.59489
G1 X96.825 Y113.85 E30.60746
G1 X96.825 Y106.15 E30.97149
M205 X5 Y5
G0 F7500 X97.275 Y106.15
M205 X8 Y8
G1 F1500 X97.315 Y105.922 E30.98244
G1 X97.429 Y105.721 E30.99336
G1 X97.605 Y105.57 E31.00432
G1 X97.852 Y105.475 E31.01684
G1 X104.937 Y105.475 E31.3518
G1 X105.165 Y105.515 E31.36274
G1 X105.366 Y105.629 E31.37366
G1 X105.517 Y105.805 E31.38463
G1 X105.6 Y106.021 E31.39557
G1 X105.604 Y106.253 E31.40654
G1 X105.53 Y106.472 E31.41747
G1 X105.414 Y106.627 E31.42662
