;FLAVOR:Marlin
;TIME:5513
;Filament used: 4.60755m
;Layer height: 0.16
;MINX:81.78
;MINY:81.779
;MINZ:0.16
;MAXX:138.221
;MAXY:138.221
;MAXZ:37.92
;Generated with Cura_SteamEngine 4.8.0
M82 ;absolute extrusion mode
M201 X500.00 Y500.00 Z100.00 E5000.00 ;Setup machine max acceleration
M203 X500.00 Y500.00 Z10.00 E50.00 ;Setup machine max feedrate
M204 P500.00 R1000.00 T500.00 ;Setup Print/Retract/Travel acceleration
M205 X8.00 Y8.00 Z0.40 E5.00 ;Setup Jerk
M220 S100 ;Reset Feedrate
M221 S100 ;Reset Flowrate

;*** Start Dual Nozzle/Bed Preheating ***
M140 S50 ; start preheating the bed
M104 S200 ﻿T0 ; start preheating hotend
M190 S50 ; heat to Cura Bed setting and WAIT
M109 S200 ﻿T0 ; heat to Cura Hotend and WAIT
;*** End Preheating ***

G28 ; home

G92 E0 ;Reset Extruder
G1 Z2.0 F3000 ;Move Z Axis up

;*** Single Print Start Tone
M300 S1000 P500 ; chirp to indicate starting to print
;*** End Single Start Tone

G1 X10.1 Y20 Z0.28 F5000.0 ;Move to start position
G1 X10.1 Y200.0 Z0.28 F1500.0 E15 ;Draw the first line
G1 X10.4 Y200.0 Z0.28 F5000.0 ;Move to side a little
G1 X10.4 Y20 Z0.28 F1500.0 E30 ;Draw the second line
G92 E0 ;Reset Extruder
G1 Z2.0 F3000 ;Move Z Axis up
G92 E0
G92 E0
G1 F2400 E-3.2
;LAYER_COUNT:191
;LAYER:0
M106 S63.8
M204 S500
M205 X6 Y6
G0 F9000 X89.625 Y90.541 Z0.16
;TYPE:SKIRT
G1 F1440 E0
G1 F1800 X90.77 Y89.398 E0.04305
G1 X91.267 Y88.915 E0.06149
G1 X91.955 Y88.303 E0.08599
G1 X92.431 Y87.937 E0.10197
G1 X93.26 Y87.337 E0.1292
G1 X94.529 Y86.447 E0.17044
G1 X95.238 Y85.965 E0.19325
G1 X96.021 Y85.481 E0.21774
G1 X96.512 Y85.224 E0.23249
G1 X97.119 Y84.928 E0.25046
G1 X99.031 Y84.037 E0.30659
G1 X99.64 Y83.764 E0.32434
G1 X100.496 Y83.425 E0.34884
G1 X101.037 Y83.253 E0.36395
G1 X101.627 Y83.084 E0.38028
G1 X103.674 Y82.535 E0.43667
G1 X104.307 Y82.375 E0.45404
G1 X105.209 Y82.189 E0.47855
G1 X105.801 Y82.11 E0.49444
G1 X106.894 Y81.997 E0.52368
G1 X108.477 Y81.86 E0.56595
G1 X109.191 Y81.807 E0.585
G1 X110.112 Y81.779 E0.60952
G1 X110.731 Y81.805 E0.62601
G1 X111.764 Y81.88 E0.65356
G1 X113.454 Y82.028 E0.6987
G1 X114.116 Y82.096 E0.71641
G1 X115.027 Y82.23 E0.74091
G1 X115.601 Y82.357 E0.75655
G1 X116.628 Y82.615 E0.78473
G1 X118.229 Y83.044 E0.82883
G1 X118.913 Y83.237 E0.84774
G1 X119.787 Y83.526 E0.87224
G1 X120.354 Y83.759 E0.88855
G1 X120.882 Y83.996 E0.90395
G1 X122.664 Y84.826 E0.95625
G1 X123.395 Y85.178 E0.97784
G1 X124.207 Y85.613 E1.00235
G1 X124.664 Y85.901 E1.01673
G1 X125.272 Y86.309 E1.03621
G1 X126.922 Y87.464 E1.0898
G1 X127.495 Y87.876 E1.10858
G1 X128.219 Y88.445 E1.13308
G1 X128.69 Y88.876 E1.15007
G1 X129.453 Y89.618 E1.17839
G1 X130.607 Y90.775 E1.22187
G1 X131.095 Y91.278 E1.24052
G1 X131.707 Y91.966 E1.26502
G1 X132.067 Y92.435 E1.28075
G1 X132.644 Y93.233 E1.30695
G1 X133.644 Y94.661 E1.35334
G1 X134.029 Y95.228 E1.37157
G1 X134.513 Y96.012 E1.39609
G1 X134.772 Y96.506 E1.41093
G1 X135.071 Y97.118 E1.42905
G1 X135.952 Y99.007 E1.48451
G1 X136.228 Y99.621 E1.50243
G1 X136.569 Y100.476 E1.52692
G1 X136.744 Y101.025 E1.54225
G1 X136.926 Y101.665 E1.55996
G1 X137.436 Y103.562 E1.61222
G1 X137.62 Y104.284 E1.63205
G1 X137.808 Y105.185 E1.65654
G1 X137.891 Y105.803 E1.67313
G1 X138.001 Y106.874 E1.70178
G1 X138.145 Y108.54 E1.74627
G1 X138.192 Y109.167 E1.763
G1 X138.221 Y110.087 E1.78749
G1 X138.196 Y110.704 E1.80392
G1 X138.131 Y111.626 E1.82852
G1 X137.975 Y113.428 E1.87664
G1 X137.906 Y114.107 E1.8948
G1 X137.773 Y115.018 E1.9193
G1 X137.641 Y115.618 E1.93565
G1 X137.432 Y116.45 E1.95847
G1 X136.987 Y118.114 E2.00431
G1 X136.756 Y118.931 E2.0269
G1 X136.466 Y119.804 E2.05137
G1 X136.253 Y120.321 E2.06625
G1 X135.993 Y120.904 E2.08324
G1 X135.132 Y122.751 E2.13746
G1 X134.816 Y123.405 E2.15679
G1 X134.577 Y123.87 E2.1707
G1 X134.054 Y124.736 E2.19762
G1 X133.733 Y125.211 E2.21287
G1 X132.535 Y126.922 E2.26845
G1 X132.12 Y127.499 E2.28736
G1 X131.551 Y128.223 E2.31186
G1 X131.12 Y128.694 E2.32885
G1 X130.408 Y129.426 E2.35602
G1 X129.218 Y130.614 E2.40076
G1 X128.738 Y131.081 E2.41858
G1 X128.051 Y131.693 E2.44306
G1 X127.569 Y132.064 E2.45925
G1 X126.77 Y132.642 E2.48549
G1 X125.366 Y133.626 E2.5311
G1 X124.768 Y134.032 E2.55034
G1 X123.985 Y134.515 E2.57482
G1 X123.481 Y134.779 E2.58995
G1 X122.876 Y135.074 E2.60786
G1 X121.135 Y135.886 E2.65898
G1 X120.405 Y136.216 E2.6803
G1 X119.551 Y136.559 E2.70478
G1 X118.985 Y136.74 E2.7206
G1 X118.37 Y136.916 E2.73762
G1 X116.374 Y137.451 E2.7926
G1 X115.71 Y137.62 E2.81083
G1 X114.808 Y137.809 E2.83535
G1 X114.193 Y137.891 E2.85186
G1 X113.093 Y138.004 E2.88129
G1 X111.523 Y138.14 E2.92322
G1 X110.809 Y138.193 E2.94227
G1 X109.888 Y138.221 E2.96678
G1 X109.269 Y138.195 E2.98327
G1 X108.236 Y138.12 E3.01083
G1 X106.547 Y137.972 E3.05594
G1 X105.884 Y137.904 E3.07367
G1 X104.974 Y137.77 E3.09815
G1 X104.386 Y137.64 E3.11417
G1 X103.394 Y137.39 E3.14139
G1 X101.779 Y136.956 E3.18589
G1 X101.098 Y136.764 E3.20472
G1 X100.223 Y136.476 E3.22923
G1 X99.652 Y136.241 E3.24566
G1 X99.075 Y135.982 E3.26249
G1 X97.318 Y135.165 E3.31404
G1 X96.587 Y134.813 E3.33563
G1 X95.776 Y134.378 E3.36012
G1 X95.289 Y134.07 E3.37545
G1 X94.759 Y133.712 E3.39247
G1 X93.077 Y132.534 E3.44711
G1 X92.502 Y132.12 E3.46596
G1 X91.779 Y131.55 E3.49046
G1 X91.321 Y131.132 E3.50696
G1 X90.561 Y130.394 E3.53514
G1 X89.384 Y129.214 E3.57949
G1 X88.919 Y128.736 E3.59724
G1 X88.306 Y128.049 E3.62173
G1 X87.936 Y127.568 E3.63788
G1 X87.358 Y126.769 E3.66412
G1 X86.374 Y125.365 E3.70974
G1 X85.968 Y124.767 E3.72897
G1 X85.485 Y123.984 E3.75345
G1 X85.226 Y123.49 E3.76829
G1 X84.925 Y122.874 E3.78654
G1 X84.058 Y121.013 E3.84116
G1 X83.77 Y120.372 E3.85986
G1 X83.43 Y119.517 E3.88434
G1 X83.251 Y118.956 E3.90001
G1 X83.082 Y118.361 E3.91647
G1 X82.547 Y116.367 E3.9714
G1 X82.379 Y115.705 E3.98958
G1 X82.191 Y114.804 E4.01407
G1 X82.109 Y114.188 E4.0306
G1 X81.993 Y113.054 E4.06093
G1 X81.855 Y111.449 E4.1038
G1 X81.809 Y110.841 E4.12002
G1 X81.78 Y109.921 E4.14451
G1 X81.805 Y109.301 E4.16102
G1 X81.884 Y108.191 E4.19063
G1 X82.026 Y106.572 E4.23388
G1 X82.095 Y105.893 E4.25204
G1 X82.228 Y104.982 E4.27653
G1 X82.36 Y104.382 E4.29288
G1 X82.569 Y103.55 E4.31571
G1 X83.014 Y101.886 E4.36154
G1 X83.243 Y101.075 E4.38396
G1 X83.532 Y100.201 E4.40845
G1 X83.755 Y99.662 E4.42398
G1 X84.019 Y99.071 E4.4412
G1 X84.897 Y97.187 E4.4965
G1 X85.198 Y96.566 E4.51487
G1 X85.636 Y95.755 E4.53939
G1 X85.931 Y95.288 E4.55409
G1 X86.311 Y94.726 E4.57214
G1 X87.465 Y93.079 E4.62565
G1 X87.881 Y92.501 E4.6446
G1 X88.45 Y91.778 E4.66908
G1 X88.873 Y91.315 E4.68577
G1 X89.625 Y90.541 E4.71448
G0 F9000 X89.908 Y90.824
G1 F1800 X91.049 Y89.685 E4.75738
G1 X91.546 Y89.202 E4.77582
G1 X92.221 Y88.602 E4.79985
G1 X92.666 Y88.261 E4.81477
G1 X93.49 Y87.664 E4.84184
G1 X94.89 Y86.684 E4.88731
G1 X95.462 Y86.296 E4.9057
G1 X96.231 Y85.822 E4.92974
G1 X96.689 Y85.583 E4.94349
G1 X97.288 Y85.291 E4.96122
G1 X99.195 Y84.402 E5.0172
G1 X99.804 Y84.129 E5.03496
G1 X100.643 Y83.797 E5.05897
G1 X101.148 Y83.637 E5.07306
G1 X101.731 Y83.471 E5.08919
G1 X103.772 Y82.923 E5.14542
G1 X104.405 Y82.763 E5.1628
G1 X105.29 Y82.581 E5.18684
G1 X105.842 Y82.507 E5.20166
G1 X106.749 Y82.412 E5.22592
G1 X108.379 Y82.269 E5.26946
G1 X109.221 Y82.206 E5.29193
G1 X110.124 Y82.179 E5.31596
G1 X110.703 Y82.204 E5.33138
G1 X111.729 Y82.278 E5.35876
G1 X113.413 Y82.426 E5.40374
G1 X114.075 Y82.494 E5.42144
G1 X114.969 Y82.626 E5.44549
G1 X115.504 Y82.745 E5.46007
G1 X116.524 Y83.001 E5.48805
G1 X118.12 Y83.429 E5.53202
G1 X118.804 Y83.622 E5.55093
G1 X119.661 Y83.906 E5.57495
G1 X120.191 Y84.124 E5.5902
G1 X120.713 Y84.359 E5.60544
G1 X122.616 Y85.246 E5.6613
G1 X123.222 Y85.538 E5.6792
G1 X124.017 Y85.966 E5.70322
G1 X124.442 Y86.234 E5.71659
G1 X125.043 Y86.637 E5.73585
G1 X126.689 Y87.789 E5.7893
G1 X127.262 Y88.201 E5.80808
G1 X127.971 Y88.76 E5.83211
G1 X128.411 Y89.163 E5.84798
G1 X129.17 Y89.901 E5.87615
G1 X130.32 Y91.053 E5.91946
G1 X130.808 Y91.556 E5.93811
G1 X131.407 Y92.232 E5.96214
G1 X131.744 Y92.67 E5.97685
G1 X132.222 Y93.329 E5.99851
G1 X133.314 Y94.886 E6.04911
G1 X133.699 Y95.453 E6.06735
G1 X134.172 Y96.222 E6.09137
G1 X134.413 Y96.682 E6.10519
G1 X134.708 Y97.287 E6.1231
G1 X135.587 Y99.171 E6.17841
G1 X135.863 Y99.785 E6.19633
G1 X136.197 Y100.624 E6.22036
G1 X136.359 Y101.136 E6.23464
G1 X136.54 Y101.769 E6.25216
G1 X137.048 Y103.661 E6.30429
G1 X137.232 Y104.383 E6.32411
G1 X137.416 Y105.267 E6.34814
G1 X137.493 Y105.844 E6.36363
G1 X137.603 Y106.909 E6.39212
G1 X137.737 Y108.447 E6.43319
G1 X137.793 Y109.197 E6.45321
G1 X137.821 Y110.099 E6.47722
G1 X137.797 Y110.676 E6.49258
G1 X137.719 Y111.763 E6.52158
G1 X137.577 Y113.387 E6.56496
G1 X137.508 Y114.066 E6.58312
G1 X137.377 Y114.96 E6.60716
G1 X137.253 Y115.52 E6.62242
G1 X137.004 Y116.505 E6.64945
G1 X136.601 Y118.01 E6.69091
G1 X136.371 Y118.821 E6.71334
G1 X136.086 Y119.678 E6.73737
G1 X135.888 Y120.159 E6.75121
G1 X135.63 Y120.735 E6.76801
G1 X134.772 Y122.577 E6.82207
G1 X134.456 Y123.231 E6.8414
G1 X134.225 Y123.68 E6.85484
G1 X133.722 Y124.513 E6.88073
G1 X133.405 Y124.982 E6.89579
G1 X132.211 Y126.689 E6.95122
G1 X131.796 Y127.266 E6.97013
G1 X131.236 Y127.975 E6.99417
G1 X130.833 Y128.415 E7.01005
G1 X130.125 Y129.143 E7.03707
G1 X128.939 Y130.327 E7.08166
G1 X128.459 Y130.794 E7.09948
G1 X127.784 Y131.394 E7.12351
G1 X127.334 Y131.74 E7.13861
G1 X126.54 Y132.315 E7.1647
G1 X125.272 Y133.205 E7.20592
G1 X124.543 Y133.701 E7.22938
G1 X123.774 Y134.175 E7.25341
G1 X123.305 Y134.42 E7.26749
G1 X122.707 Y134.711 E7.28519
G1 X120.858 Y135.573 E7.33947
G1 X120.241 Y135.852 E7.35749
G1 X119.402 Y136.187 E7.38153
G1 X118.874 Y136.356 E7.39628
G1 X118.267 Y136.53 E7.41308
G1 X116.275 Y137.064 E7.46795
G1 X115.611 Y137.233 E7.48619
G1 X114.727 Y137.417 E7.51021
G1 X114.151 Y137.493 E7.52567
G1 X113.058 Y137.606 E7.55491
G1 X111.493 Y137.741 E7.5967
G1 X110.779 Y137.794 E7.61576
G1 X109.876 Y137.821 E7.63979
G1 X109.297 Y137.796 E7.65521
G1 X108.271 Y137.722 E7.68258
G1 X106.588 Y137.574 E7.72754
G1 X105.925 Y137.506 E7.74527
G1 X105.032 Y137.374 E7.76929
G1 X104.484 Y137.252 E7.78423
G1 X103.498 Y137.004 E7.81128
G1 X101.887 Y136.571 E7.85567
G1 X101.206 Y136.379 E7.8745
G1 X100.349 Y136.096 E7.89851
G1 X99.815 Y135.876 E7.91388
G1 X99.243 Y135.619 E7.93056
G1 X97.356 Y134.74 E7.98595
G1 X96.761 Y134.453 E8.00353
G1 X95.965 Y134.025 E8.02758
G1 X95.512 Y133.738 E8.04185
G1 X94.988 Y133.385 E8.05866
G1 X93.311 Y132.21 E8.11314
G1 X92.736 Y131.796 E8.132
G1 X92.027 Y131.236 E8.15604
G1 X91.6 Y130.845 E8.17144
G1 X90.844 Y130.111 E8.19948
G1 X89.671 Y128.935 E8.24367
G1 X89.206 Y128.457 E8.26142
G1 X88.605 Y127.783 E8.28545
G1 X88.26 Y127.333 E8.30053
G1 X87.685 Y126.539 E8.32662
G1 X86.795 Y125.271 E8.36784
G1 X86.299 Y124.542 E8.3913
G1 X85.825 Y123.773 E8.41534
G1 X85.585 Y123.314 E8.42912
G1 X85.288 Y122.705 E8.44715
G1 X84.423 Y120.849 E8.50163
G1 X84.135 Y120.208 E8.52033
G1 X83.802 Y119.369 E8.54435
G1 X83.636 Y118.846 E8.55895
G1 X83.468 Y118.257 E8.57525
G1 X82.934 Y116.269 E8.63002
G1 X82.766 Y115.607 E8.64819
G1 X82.583 Y114.723 E8.67221
G1 X82.507 Y114.146 E8.6877
G1 X82.392 Y113.019 E8.71784
G1 X82.254 Y111.419 E8.76057
G1 X82.208 Y110.811 E8.77679
G1 X82.18 Y109.908 E8.80083
G1 X82.204 Y109.329 E8.81625
G1 X82.269 Y108.4 E8.84103
G1 X82.424 Y106.613 E8.88876
G1 X82.493 Y105.934 E8.90692
G1 X82.624 Y105.04 E8.93096
G1 X82.748 Y104.48 E8.94622
G1 X82.997 Y103.495 E8.97326
G1 X83.44 Y101.844 E9.01874
G1 X83.627 Y101.185 E9.03697
G1 X83.912 Y100.328 E9.061
G1 X84.12 Y99.824 E9.07551
G1 X84.381 Y99.24 E9.09253
G1 X85.257 Y97.361 E9.14769
G1 X85.558 Y96.74 E9.16605
G1 X85.988 Y95.946 E9.19008
G1 X86.264 Y95.511 E9.20378
G1 X86.639 Y94.955 E9.22163
G1 X87.789 Y93.313 E9.27497
G1 X88.205 Y92.735 E9.29392
G1 X88.765 Y92.026 E9.31796
G1 X89.16 Y91.594 E9.33353
G1 X89.908 Y90.824 E9.3621
G1 F2400 E6.1621
;MESH:Vitamix_Tamper_Cover.stl
G0 F9000 X100.771 Y94.207
G0 X101.393 Y95.094
G0 X107.147 Y93.789
G0 X110 Y93.539
G0 X112.855 Y93.789
G0 X115.613 Y94.529
G0 X118.227 Y95.745
G0 X120.578 Y97.39
G0 X124.836 Y101.433
G0 X125.095 Y101.279
;TYPE:WALL-OUTER
G1 F1440 E9.3621
G1 F1800 X126.381 Y104.039 E9.44312
G1 X126.88 Y105.892 E9.49418
G1 X126.948 Y106.151 E9.5013
G1 X127.17 Y106.973 E9.52396
G1 X127.358 Y109.151 E9.58213
G1 X127.434 Y110 E9.60481
G1 X127.17 Y113.027 E9.68565
G1 X126.385 Y115.954 E9.76629
G1 X125.102 Y118.71 E9.84718
G1 X123.352 Y121.21 E9.92838
G1 X121.21 Y123.35 E10.00894
G1 X118.722 Y125.095 E10.0898
G1 X115.968 Y126.379 E10.17065
G1 X113.027 Y127.169 E10.25168
G1 X110 Y127.434 E10.33253
G1 X106.973 Y127.169 E10.41338
G1 X104.047 Y126.384 E10.49399
G1 X101.29 Y125.102 E10.57489
G1 X98.79 Y123.351 E10.65611
G1 X96.65 Y121.209 E10.73667
G1 X94.905 Y118.721 E10.81753
G1 X93.62 Y115.961 E10.89854
G1 X92.831 Y113.027 E10.97938
G1 X92.643 Y110.849 E11.03755
G1 X92.567 Y110 E11.06023
G1 X92.831 Y106.973 E11.14108
G1 X93.616 Y104.044 E11.22176
G1 X94.898 Y101.29 E11.30259
G1 X96.649 Y98.79 E11.38381
G1 X98.791 Y96.649 E11.46439
G1 X101.279 Y94.905 E11.54524
G1 X104.04 Y93.619 E11.62628
G1 X106.973 Y92.831 E11.70709
G1 X110 Y92.566 E11.78794
G1 X113.027 Y92.831 E11.86879
G1 X115.954 Y93.615 E11.94942
G1 X118.711 Y94.898 E12.03033
G1 X121.208 Y96.646 E12.11143
G1 X123.353 Y98.794 E12.1922
G1 X125.095 Y101.279 E12.27295
G0 F9000 X124.837 Y101.433
G0 X126.21 Y107.14
G0 X126.461 Y109.999
G0 X126.212 Y112.853
G0 X124.753 Y118.511
;TYPE:WALL-INNER
G1 F1800 X123.045 Y120.951 E12.3522
G1 X120.95 Y123.044 E12.431
G1 X118.524 Y124.745 E12.50984
G1 X115.827 Y126.003 E12.58902
G1 X112.956 Y126.774 E12.66812
G1 X110 Y127.033 E12.74708
G1 X107.044 Y126.774 E12.82603
G1 X104.188 Y126.008 E12.90471
G1 X101.489 Y124.753 E12.98391
G1 X99.049 Y123.044 E13.06317
G1 X96.956 Y120.949 E13.14197
G1 X95.255 Y118.523 E13.22081
G1 X93.996 Y115.82 E13.30015
G1 X93.227 Y112.961 E13.37892
G1 X93.041 Y110.814 E13.43627
G1 X92.968 Y109.999 E13.45804
G1 X93.226 Y107.044 E13.53696
G1 X93.992 Y104.185 E13.61572
G1 X95.247 Y101.489 E13.69485
G1 X96.956 Y99.049 E13.77411
G1 X99.048 Y96.958 E13.85281
G1 X101.481 Y95.253 E13.93187
G1 X104.181 Y93.995 E14.01112
G1 X107.044 Y93.226 E14.09
G1 X110 Y92.967 E14.16896
G1 X112.958 Y93.226 E14.24796
G1 X115.812 Y93.991 E14.32658
G1 X118.512 Y95.247 E14.40582
G1 X120.949 Y96.953 E14.48497
G1 X123.044 Y99.051 E14.56386
G1 X124.747 Y101.481 E14.64282
G1 X126.005 Y104.18 E14.72205
G1 X126.493 Y105.994 E14.77204
G1 X126.561 Y106.254 E14.77919
G1 X126.774 Y107.039 E14.80083
G1 X126.96 Y109.186 E14.85817
G1 X127.033 Y110 E14.87992
G1 X126.775 Y112.956 E14.95887
G1 X126.009 Y115.813 E15.03757
G1 X124.753 Y118.511 E15.11676
G0 F9000 X120.584 Y122.602
G0 X118.234 Y124.25
G0 X115.628 Y125.466
G0 X113.131 Y126.136
G0 X110 Y126.632
G1 F1800 X107.115 Y126.379 E15.19382
G1 X104.329 Y125.632 E15.27057
G1 X101.688 Y124.404 E15.34806
G1 X99.308 Y122.737 E15.42538
G1 X97.265 Y120.692 E15.5023
G1 X95.603 Y118.321 E15.57934
G1 X94.372 Y115.679 E15.65689
G1 X93.623 Y112.895 E15.7336
G1 X93.439 Y110.779 E15.79012
G1 X93.369 Y109.998 E15.81098
G1 X93.621 Y107.115 E15.88799
G1 X94.368 Y104.326 E15.96481
G1 X95.596 Y101.688 E16.04224
G1 X97.263 Y99.308 E16.11955
G1 X99.305 Y97.267 E16.19637
G1 X101.683 Y95.601 E16.27363
G1 X104.322 Y94.371 E16.3511
G1 X107.115 Y93.621 E16.42805
G1 X110 Y93.368 E16.50511
G1 X112.887 Y93.621 E16.58222
G1 X115.671 Y94.367 E16.65891
G1 X118.313 Y95.596 E16.73645
G1 X120.69 Y97.26 E16.81365
G1 X122.735 Y99.308 E16.89066
G1 X124.399 Y101.683 E16.96782
G1 X125.629 Y104.321 E17.04527
G1 X126.106 Y106.095 E17.09415
G1 X126.174 Y106.357 E17.10135
G1 X126.378 Y107.107 E17.12203
G1 X126.562 Y109.221 E17.17849
G1 X126.632 Y109.999 E17.19928
G1 X126.38 Y112.885 E17.27636
G1 X125.633 Y115.672 E17.35314
G1 X124.404 Y118.312 E17.43062
G1 X122.738 Y120.692 E17.50792
G1 X120.693 Y122.735 E17.58484
G1 X118.322 Y124.397 E17.66188
G1 X115.686 Y125.627 E17.73928
G1 X112.885 Y126.379 E17.81645
G1 X110 Y126.632 E17.89351
G0 F9000 X110 Y126.242
;TYPE:SKIN
G1 F1800 X107.188 Y125.995 E17.96862
G1 X104.457 Y125.262 E18.04385
