;FLAVOR:Marlin
;TIME:5180
;Filament used: 4.72318m
;Layer height: 0.16
;MINX:90.104
;MINY:90.102
;MINZ:0.24
;MAXX:129.896
;MAXY:129.898
;MAXZ:39.84
;Generated with Cura_SteamEngine 4.5.0
M140 S50
M105
M190 S50
M104 S215
M105
M109 S215
M82 ;absolute extrusion mode
M201 X500.00 Y500.00 Z100.00 E5000.00 ;Setup machine max acceleration
M203 X500.00 Y500.00 Z10.00 E50.00 ;Setup machine max feedrate
M204 P500.00 R1000.00 T500.00 ;Setup Print/Retract/Travel acceleration
M205 X8.00 Y8.00 Z0.40 E5.00 ;Setup Jerk
M220 S100 ;Reset Feedrate
M221 S100 ;Reset Flowrate

G28 ;Home

G92 E0 ;Reset Extruder
G1 Z2.0 F3000 ;Move Z Axis up
G1 X10.1 Y20 Z0.28 F5000.0 ;Move to start position
G1 X10.1 Y200.0 Z0.28 F1500.0 E15 ;Draw the first line
G1 X10.4 Y200.0 Z0.28 F5000.0 ;Move to side a little
G1 X10.4 Y20 Z0.28 F1500.0 E30 ;Draw the second line
G92 E0 ;Reset Extruder
G1 Z2.0 F3000 ;Move Z Axis up

G92 E0
G92 E0
G1 F1800 E-3
;LAYER_COUNT:200
;LAYER:0
M106 S63.8
M204 S500
M205 X6 Y6
G0 F9000 X95.88 Y95.98 Z0.24
;TYPE:SKIRT
G1 F1800 E0
G1 X97.313 Y94.671 E0.07746
G1 X98.888 Y93.493 E0.15596
G1 X100.55 Y92.49 E0.23344
G1 X102.319 Y91.643 E0.31172
G1 X104.15 Y90.983 E0.3894
G1 X106.036 Y90.501 E0.4671
G1 X107.97 Y90.207 E0.54517
G1 X109.929 Y90.102 E0.62347
G1 X111.881 Y90.191 E0.70146
G1 X113.815 Y90.47 E0.77945
G1 X115.71 Y90.939 E0.85737
G1 X117.54 Y91.584 E0.93481
G1 X119.32 Y92.418 E1.01327
G1 X120.986 Y93.409 E1.09063
G1 X122.57 Y94.574 E1.16911
G1 X124.012 Y95.873 E1.24658
G1 X125.336 Y97.322 E1.32492
G1 X126.506 Y98.887 E1.4029
G1 X127.517 Y100.559 E1.48089
G1 X128.351 Y102.31 E1.5583
G1 X129.021 Y104.158 E1.63675
G1 X129.499 Y106.038 E1.71417
G1 X129.793 Y107.968 E1.79209
G1 X129.896 Y109.918 E1.87003
G1 X129.809 Y111.879 E1.94838
G1 X129.533 Y113.802 E2.02591
G1 X129.065 Y115.697 E2.10382
G1 X128.412 Y117.549 E2.1822
G1 X127.581 Y119.32 E2.26028
G1 X126.584 Y120.997 E2.33814
G1 X125.432 Y122.56 E2.41564
G1 X124.12 Y124.02 E2.49398
G1 X122.687 Y125.329 E2.57145
G1 X121.122 Y126.5 E2.64946
G1 X119.451 Y127.51 E2.72739
G1 X117.681 Y128.357 E2.80571
G1 X115.85 Y129.017 E2.88339
G1 X113.953 Y129.502 E2.96154
G1 X112.028 Y129.793 E3.03924
G1 X110.071 Y129.898 E3.11746
G1 X108.132 Y129.811 E3.19493
G1 X106.198 Y129.533 E3.27291
G1 X104.303 Y129.065 E3.35082
G1 X102.449 Y128.411 E3.42928
G1 X100.692 Y127.588 E3.50672
G1 X99.014 Y126.591 E3.58462
G1 X97.429 Y125.425 E3.66316
G1 X95.986 Y124.125 E3.74068
G1 X94.663 Y122.677 E3.81896
G1 X93.5 Y121.121 E3.89649
G1 X92.49 Y119.451 E3.97439
G1 X91.643 Y117.679 E4.05278
G1 X90.979 Y115.84 E4.13081
G1 X90.501 Y113.962 E4.20816
G1 X90.204 Y112.019 E4.28661
G1 X90.104 Y110.081 E4.36406
G1 X90.191 Y108.121 E4.44237
G1 X90.467 Y106.198 E4.5199
G1 X90.935 Y104.303 E4.59781
G1 X91.583 Y102.463 E4.67567
G1 X92.418 Y100.68 E4.75425
G1 X93.416 Y99.003 E4.83214
G1 X94.568 Y97.44 E4.90963
G1 X95.88 Y95.98 E4.98798
G0 F9000 X96.177 Y96.249
G1 F1800 X97.582 Y94.967 E5.06389
G1 X99.127 Y93.814 E5.14083
G1 X100.755 Y92.833 E5.21669
G1 X102.49 Y92.005 E5.29342
G1 X104.284 Y91.36 E5.36951
G1 X106.134 Y90.889 E5.44571
G1 X108.029 Y90.603 E5.5222
G1 X109.95 Y90.501 E5.59897
G1 X111.861 Y90.59 E5.67533
G1 X113.756 Y90.866 E5.75176
G1 X115.613 Y91.327 E5.82813
G1 X117.406 Y91.961 E5.90403
G1 X119.149 Y92.78 E5.9809
G1 X120.781 Y93.752 E6.05671
G1 X122.332 Y94.896 E6.13363
G1 X123.743 Y96.169 E6.20948
G1 X125.04 Y97.591 E6.2863
G1 X126.185 Y99.125 E6.3627
G1 X127.174 Y100.765 E6.43913
G1 X127.989 Y102.481 E6.51496
G1 X128.644 Y104.293 E6.59186
G1 X129.111 Y106.135 E6.6677
G1 X129.397 Y108.027 E6.74407
G1 X129.497 Y109.937 E6.82041
G1 X129.41 Y111.86 E6.89724
G1 X129.137 Y113.744 E6.97322
G1 X128.677 Y115.6 E7.04954
G1 X128.035 Y117.415 E7.12638
G1 X127.22 Y119.149 E7.20285
G1 X126.241 Y120.791 E7.27915
G1 X125.111 Y122.322 E7.35509
G1 X123.823 Y123.751 E7.43188
G1 X122.418 Y125.033 E7.50779
G1 X120.883 Y126.179 E7.58424
G1 X119.245 Y127.167 E7.66059
G1 X117.51 Y127.995 E7.73732
G1 X115.716 Y128.64 E7.81341
G1 X113.855 Y129.115 E7.89007
G1 X111.97 Y129.397 E7.96614
G1 X110.05 Y129.499 E8.04288
G1 X108.152 Y129.412 E8.11871
G1 X106.256 Y129.137 E8.19518
G1 X104.4 Y128.677 E8.2715
G1 X102.583 Y128.034 E8.34842
G1 X100.863 Y127.226 E8.42427
G1 X99.219 Y126.248 E8.50062
G1 X97.667 Y125.103 E8.5776
G1 X96.255 Y123.829 E8.6535
G1 X94.959 Y122.408 E8.73026
G1 X93.821 Y120.883 E8.80621
G1 X92.833 Y119.245 E8.88255
G1 X92.004 Y117.507 E8.95941
G1 X91.355 Y115.705 E9.03585
G1 X90.889 Y113.865 E9.11161
G1 X90.6 Y111.96 E9.18851
G1 X90.503 Y110.061 E9.2644
G1 X90.59 Y108.14 E9.34115
G1 X90.863 Y106.256 E9.41713
G1 X91.323 Y104.4 E9.49345
G1 X91.96 Y102.597 E9.56977
G1 X92.78 Y100.851 E9.64676
G1 X93.759 Y99.209 E9.72306
G1 X94.889 Y97.678 E9.79901
G1 X96.177 Y96.249 E9.87579
G0 F9000 X96.473 Y96.517
G1 F1800 X97.851 Y95.264 E9.95013
G1 X99.365 Y94.135 E10.02551
G1 X100.961 Y93.176 E10.09982
G1 X102.662 Y92.366 E10.17502
G1 X104.419 Y91.737 E10.2495
G1 X106.231 Y91.277 E10.32412
G1 X108.088 Y90.999 E10.39906
G1 X109.97 Y90.901 E10.47427
G1 X111.841 Y90.99 E10.54903
G1 X113.698 Y91.261 E10.62394
G1 X115.515 Y91.715 E10.69869
G1 X117.271 Y92.338 E10.77305
G1 X118.978 Y93.142 E10.84836
G1 X120.575 Y94.095 E10.92259
G1 X122.093 Y95.217 E10.99793
G1 X123.474 Y96.466 E11.07225
G1 X124.744 Y97.86 E11.14751
G1 X125.864 Y99.363 E11.22232
G1 X126.831 Y100.97 E11.29718
G1 X127.628 Y102.652 E11.37147
G1 X128.268 Y104.428 E11.44681
G1 X128.723 Y106.232 E11.52107
G1 X129.001 Y108.086 E11.59589
G1 X129.097 Y109.957 E11.67067
G1 X129.01 Y111.841 E11.74594
G1 X128.742 Y113.685 E11.82031
G1 X128.289 Y115.503 E11.89509
G1 X127.658 Y117.281 E11.97039
G1 X126.858 Y118.978 E12.04527
G1 X125.898 Y120.586 E12.12002
G1 X124.79 Y122.083 E12.19435
G1 X123.527 Y123.483 E12.26961
G1 X122.149 Y124.736 E12.34394
G1 X120.645 Y125.858 E12.41883
G1 X119.04 Y126.824 E12.4936
G1 X117.338 Y127.634 E12.56883
G1 X115.581 Y128.263 E12.64332
G1 X113.757 Y128.727 E12.71843
G1 X111.911 Y129.002 E12.79292
G1 X110.03 Y129.099 E12.8681
G1 X108.171 Y129.012 E12.94238
G1 X106.315 Y128.742 E13.01723
G1 X104.497 Y128.289 E13.09201
G1 X102.717 Y127.657 E13.1674
G1 X101.034 Y126.864 E13.24166
G1 X99.425 Y125.905 E13.31642
G1 X97.906 Y124.782 E13.39181
G1 X96.524 Y123.532 E13.46619
G1 X95.255 Y122.139 E13.5414
G1 X94.142 Y120.644 E13.61578
G1 X93.176 Y119.04 E13.69052
G1 X92.366 Y117.336 E13.76582
G1 X91.732 Y115.571 E13.84067
G1 X91.277 Y113.768 E13.91489
G1 X90.996 Y111.901 E13.99024
G1 X90.903 Y110.042 E14.06453
G1 X90.99 Y108.159 E14.13977
G1 X91.258 Y106.315 E14.21414
G1 X91.711 Y104.497 E14.28892
G1 X92.337 Y102.731 E14.3637
G1 X93.142 Y101.022 E14.4391
G1 X94.102 Y99.414 E14.51385
G1 X95.21 Y97.917 E14.58818
G1 X96.473 Y96.517 E14.66343
G0 F9000 X96.77 Y96.786
G1 F1800 X98.12 Y95.56 E14.73622
G1 X99.604 Y94.456 E14.81004
G1 X101.166 Y93.519 E14.88274
G1 X102.833 Y92.727 E14.9564
G1 X104.553 Y92.114 E15.02928
G1 X106.329 Y91.665 E15.10239
G1 X108.147 Y91.394 E15.17576
G1 X109.99 Y91.3 E15.24941
G1 X111.822 Y91.389 E15.32262
G1 X113.639 Y91.657 E15.39592
G1 X115.418 Y92.103 E15.46912
G1 X117.137 Y92.715 E15.54195
G1 X118.807 Y93.503 E15.61565
G1 X120.37 Y94.438 E15.68834
G1 X121.855 Y95.538 E15.7621
G1 X123.205 Y96.762 E15.83483
G1 X124.448 Y98.129 E15.90858
G1 X125.543 Y99.602 E15.98183
G1 X126.488 Y101.176 E16.05511
G1 X127.266 Y102.823 E16.12781
G1 X127.891 Y104.563 E16.2016
G1 X128.335 Y106.329 E16.27428
G1 X128.606 Y108.145 E16.34756
G1 X128.698 Y109.977 E16.42077
G1 X128.611 Y111.822 E16.49449
G1 X128.346 Y113.627 E16.5673
G1 X127.901 Y115.406 E16.64049
G1 X127.281 Y117.146 E16.71422
G1 X126.497 Y118.807 E16.78753
G1 X125.555 Y120.38 E16.86071
G1 X124.469 Y121.845 E16.93349
G1 X123.23 Y123.214 E17.00718
G1 X121.88 Y124.44 E17.07997
G1 X120.406 Y125.537 E17.1533
G1 X118.834 Y126.481 E17.22649
G1 X117.167 Y127.273 E17.30015
G1 X115.447 Y127.886 E17.37303
G1 X113.659 Y128.339 E17.44665
G1 X111.853 Y128.606 E17.51951
G1 X110.01 Y128.7 E17.59317
G1 X108.19 Y128.613 E17.66589
G1 X106.373 Y128.346 E17.73919
G1 X104.594 Y127.901 E17.81238
G1 X102.852 Y127.28 E17.88619
G1 X101.205 Y126.503 E17.95888
G1 X99.63 Y125.562 E18.0321
G1 X98.144 Y124.461 E18.10592
G1 X96.793 Y123.236 E18.1787
G1 X95.551 Y121.87 E18.25239
G1 X94.463 Y120.406 E18.32519
G1 X93.519 Y118.834 E18.39838
G1 X92.727 Y117.165 E18.47211
G1 X92.109 Y115.436 E18.54539
G1 X91.665 Y113.671 E18.61803
G1 X91.391 Y111.842 E18.69185
G1 X91.302 Y110.023 E18.76453
G1 X91.389 Y108.178 E18.83825
G1 X91.654 Y106.373 E18.91107
G1 X92.099 Y104.594 E18.98426
G1 X92.714 Y102.865 E19.0575
G1 X93.503 Y101.193 E19.13129
G1 X94.445 Y99.62 E19.20447
G1 X95.531 Y98.155 E19.27726
G1 X96.77 Y96.786 E19.35095
G1 F1800 E16.35095
;MESH:Vitamix_Tamper_Cover.stl
G0 F9000 X97.778 Y97.774
G0 X96.599 Y99.017
G0 X95.598 Y100.364
G0 X94.718 Y101.834
G0 X93.987 Y103.378
G0 X93.417 Y104.974
G0 X93.005 Y106.623
G0 X92.757 Y108.296
G0 X92.674 Y110.008
G0 X92.757 Y111.693
G0 X93.012 Y113.402
G0 X93.416 Y115.021
G0 X93.997 Y116.643
G0 X94.719 Y118.167
G0 X95.605 Y119.646
G0 X96.608 Y120.996
G0 X97.748 Y122.253
G0 X99.01 Y123.397
G0 X100.374 Y124.409
G0 X101.84 Y125.286
G0 X103.378 Y126.013
G0 X104.674 Y126.474
G0 X110.001 Y128
G0 X110 Y128.3
;TYPE:WALL-OUTER
G1 F1800 E19.35095
G1 X108.217 Y128.213 E19.4222
G1 X106.442 Y127.951 E19.49381
G1 X104.695 Y127.514 E19.56569
G1 X103 Y126.909 E19.63752
G1 X101.389 Y126.148 E19.70863
G1 X99.841 Y125.221 E19.78064
G1 X98.387 Y124.143 E19.85289
G1 X97.069 Y122.947 E19.92392
G1 X95.857 Y121.613 E19.99586
G1 X94.793 Y120.179 E20.06712
G1 X93.867 Y118.635 E20.13898
G1 X93.09 Y116.996 E20.21138
G1 X92.49 Y115.317 E20.28254
G1 X92.056 Y113.584 E20.35384
G1 X91.789 Y111.793 E20.42611
G1 X91.702 Y110.012 E20.49728
G1 X91.789 Y108.204 E20.56953
G1 X92.049 Y106.442 E20.64061
G1 X92.487 Y104.691 E20.71265
G1 X93.086 Y103.011 E20.78384
G1 X93.856 Y101.382 E20.85576
G1 X94.786 Y99.831 E20.92793
G1 X95.85 Y98.397 E20.9992
G1 X97.062 Y97.059 E21.07126
G1 X98.378 Y95.865 E21.14218
G1 X99.831 Y94.786 E21.21441
G1 X101.364 Y93.867 E21.28575
G1 X103.004 Y93.09 E21.35818
G1 X104.672 Y92.495 E21.42886
G1 X106.418 Y92.056 E21.50072
G1 X108.193 Y91.792 E21.57234
G1 X110 Y91.7 E21.64456
G1 X111.795 Y91.789 E21.71629
G1 X113.57 Y92.052 E21.7879
G1 X115.317 Y92.49 E21.85979
G1 X116.989 Y93.086 E21.93063
G1 X118.622 Y93.858 E22.00273
G1 X120.159 Y94.779 E22.07424
G1 X121.613 Y95.857 E22.14649
G1 X122.931 Y97.052 E22.21749
G1 X124.143 Y98.387 E22.28946
G1 X125.214 Y99.831 E22.36121
G1 X126.144 Y101.382 E22.43339
G1 X126.903 Y102.989 E22.50433
G1 X127.509 Y104.679 E22.57598
G1 X127.944 Y106.418 E22.64753
G1 X128.208 Y108.193 E22.71915
G1 X128.298 Y109.988 E22.79088
G1 X128.211 Y111.795 E22.86309
G1 X127.951 Y113.558 E22.93421
G1 X127.515 Y115.303 E23.006
G1 X126.909 Y117 E23.07792
G1 X126.144 Y118.618 E23.14935
G1 X125.214 Y120.169 E23.22153
G1 X124.151 Y121.602 E23.29275
G1 X122.94 Y122.94 E23.36477
G1 X121.622 Y124.135 E23.43578
G1 X120.179 Y125.207 E23.50753
G1 X118.635 Y126.133 E23.57939
G1 X116.996 Y126.91 E23.65178
G1 X115.328 Y127.505 E23.72246
G1 X113.57 Y127.948 E23.79482
G1 X111.807 Y128.208 E23.86595
G1 X110 Y128.3 E23.93816
G0 F9000 X110 Y127.86
G0 X110.009 Y127.9
;TYPE:WALL-INNER
G1 F1800 X108.254 Y127.814 E24.00829
G1 X106.517 Y127.558 E24.07837
G1 X104.813 Y127.131 E24.14848
G1 X103.155 Y126.54 E24.21873
G1 X101.575 Y125.793 E24.28849
G1 X100.059 Y124.885 E24.35902
G1 X98.644 Y123.836 E24.42932
G1 X97.352 Y122.664 E24.49894
G1 X96.164 Y121.356 E24.56947
G1 X95.129 Y119.961 E24.63879
G1 X94.217 Y118.44 E24.70958
G1 X93.464 Y116.852 E24.77972
G1 X92.872 Y115.196 E24.84991
G1 X92.45 Y113.51 E24.91928
G1 X92.188 Y111.755 E24.9901
G1 X92.103 Y110.008 E25.05991
G1 X92.188 Y108.241 E25.13052
G1 X92.443 Y106.515 E25.20015
G1 X92.87 Y104.809 E25.27034
G1 X93.458 Y103.16 E25.34022
G1 X94.211 Y101.569 E25.41047
G1 X95.122 Y100.049 E25.4812
G1 X96.157 Y98.654 E25.55053
G1 X97.345 Y97.342 E25.62117
G1 X98.635 Y96.172 E25.69068
G1 X100.049 Y95.122 E25.76097
G1 X101.559 Y94.217 E25.83124
G1 X103.126 Y93.474 E25.90045
G1 X103.151 Y93.462 E25.90156
G1 X104.787 Y92.879 E25.97088
G1 X106.495 Y92.449 E26.04118
G1 X108.242 Y92.19 E26.11166
G1 X109.99 Y92.101 E26.18152
G1 X111.757 Y92.188 E26.25213
G1 X113.496 Y92.446 E26.3223
G1 X115.199 Y92.873 E26.39237
G1 X116.834 Y93.455 E26.46164
G1 X118.435 Y94.213 E26.53234
G1 X119.941 Y95.115 E26.6024
G1 X121.356 Y96.164 E26.67271
G1 X122.648 Y97.335 E26.7423
G1 X123.836 Y98.644 E26.81285
G1 X124.878 Y100.049 E26.88267
G1 X125.789 Y101.569 E26.9534
G1 X126.532 Y103.142 E27.02283
G1 X126.541 Y103.168 E27.02393
G1 X127.116 Y104.771 E27.0919
G1 X127.127 Y104.8 E27.09314
G1 X127.55 Y106.492 E27.16275
G1 X127.81 Y108.241 E27.23332
G1 X127.896 Y109.949 E27.30158
G1 X127.898 Y109.979 E27.30278
G1 X127.812 Y111.758 E27.37386
G1 X127.558 Y113.483 E27.44346
G1 X127.133 Y115.182 E27.51336
G1 X126.538 Y116.848 E27.58396
G1 X125.791 Y118.429 E27.65375
G1 X124.878 Y119.951 E27.72459
G1 X123.845 Y121.344 E27.79381
G1 X123.83 Y121.36 E27.79468
G1 X122.656 Y122.657 E27.86451
G1 X121.372 Y123.822 E27.9337
G1 X119.955 Y124.875 E28.00416
G1 X118.44 Y125.783 E28.07466
G1 X116.874 Y126.526 E28.14384
G1 X116.849 Y126.538 E28.14495
G1 X115.212 Y127.121 E28.2143
G1 X113.492 Y127.555 E28.2851
G1 X111.76 Y127.81 E28.35498
G1 X110.009 Y127.9 E28.42496
G0 F9000 X110.018 Y127.499
G1 F1800 X108.29 Y127.415 E28.49401
G1 X106.592 Y127.165 E28.56251
G1 X104.931 Y126.748 E28.63086
G1 X103.31 Y126.171 E28.69953
G1 X101.762 Y125.438 E28.76789
G1 X100.277 Y124.549 E28.83697
G1 X98.901 Y123.529 E28.90533
G1 X97.635 Y122.381 E28.97354
G1 X96.471 Y121.099 E29.04266
G1 X95.465 Y119.743 E29.11004
G1 X94.567 Y118.245 E29.17975
G1 X93.838 Y116.708 E29.24765
G1 X93.254 Y115.075 E29.31687
G1 X92.844 Y113.436 E29.3843
G1 X92.587 Y111.716 E29.45371
G1 X92.504 Y110.008 E29.52196
G1 X92.587 Y108.278 E29.59109
G1 X92.837 Y106.589 E29.65923
G1 X93.253 Y104.927 E29.72761
G1 X93.827 Y103.316 E29.79587
G1 X94.566 Y101.756 E29.86477
G1 X95.458 Y100.267 E29.93404
G1 X96.464 Y98.911 E30.00143
G1 X97.629 Y97.625 E30.07069
G1 X98.892 Y96.479 E30.13876
G1 X100.267 Y95.458 E30.20711
G1 X101.754 Y94.567 E30.2763
G1 X103.298 Y93.834 E30.34452
G1 X104.902 Y93.263 E30.41247
G1 X106.572 Y92.842 E30.48121
G1 X108.291 Y92.588 E30.55056
G1 X109.98 Y92.502 E30.61806
G1 X111.719 Y92.587 E30.68755
G1 X113.422 Y92.84 E30.75627
G1 X115.081 Y93.256 E30.82453
G1 X116.679 Y93.824 E30.89222
G1 X118.248 Y94.568 E30.96153
G1 X119.723 Y95.451 E31.03014
G1 X121.099 Y96.471 E31.0985
G1 X122.365 Y97.618 E31.16669
G1 X123.529 Y98.901 E31.23583
G1 X124.542 Y100.267 E31.3037
G1 X125.434 Y101.756 E31.37298
G1 X126.166 Y103.303 E31.44129
G1 X126.741 Y104.906 E31.50926
G1 X127.156 Y106.566 E31.57755
G1 X127.412 Y108.29 E31.64711
G1 X127.498 Y109.97 E31.71425
G1 X127.413 Y111.721 E31.78422
G1 X127.165 Y113.408 E31.85228
G1 X126.751 Y115.061 E31.92029
G1 X126.167 Y116.696 E31.98959
G1 X125.436 Y118.242 E32.05784
G1 X124.542 Y119.733 E32.12723
G1 X123.534 Y121.093 E32.19479
G1 X122.379 Y122.368 E32.26345
G1 X121.119 Y123.511 E32.33135
G1 X119.732 Y124.542 E32.40033
G1 X118.245 Y125.433 E32.46952
G1 X116.702 Y126.166 E32.5377
G1 X115.096 Y126.737 E32.60573
G1 X113.414 Y127.162 E32.67497
G1 X111.713 Y127.412 E32.74359
G1 X110.018 Y127.499 E32.81133
G0 F9000 X110.017 Y127.109
;TYPE:SKIN
G1 F1800 X108.325 Y127.025 E32.87894
G1 X106.664 Y126.781 E32.94595
G1 X105.043 Y126.374 E33.01265
G1 X103.464 Y125.812 E33.07955
G1 X101.947 Y125.093 E33.14655
G1 X100.491 Y124.222 E33.21427
G1 X99.147 Y123.225 E33.28106
G1 X97.911 Y122.105 E33.34763
G1 X96.775 Y120.853 E33.4151
G1 X95.79 Y119.526 E33.48106
G1 X94.91 Y118.058 E33.54938
G1 X94.195 Y116.549 E33.61602
G1 X93.626 Y114.958 E33.68346
G1 X93.228 Y113.366 E33.74896
G1 X92.976 Y111.675 E33.81719
G1 X92.894 Y110.008 E33.88381
G1 X92.977 Y108.313 E33.95154
G1 X93.221 Y106.661 E34.01819
G1 X93.628 Y105.035 E34.08509
G1 X94.184 Y103.475 E34.15119
G1 X94.911 Y101.941 E34.21894
G1 X95.784 Y100.482 E34.2868
G1 X96.768 Y99.157 E34.35267
