;FLAVOR:Marlin
;TIME:5845
;Filament used: 3.61929m
;Layer height: 0.2
;MINX:59.201
;MINY:49.26
;MINZ:0.24
;MAXX:162.967
;MAXY:168.297
;MAXZ:3.96
;Generated with Cura_SteamEngine 4.10.0
M82 ;absolute extrusion mode
M201 X500.00 Y500.00 Z100.00 E5000.00 ;Setup machine max acceleration
M203 X500.00 Y500.00 Z10.00 E50.00 ;Setup machine max feedrate
M204 P500.00 R1000.00 T500.00 ;Setup Print/Retract/Travel acceleration
M205 X8.00 Y8.00 Z0.40 E5.00 ;Setup Jerk
M220 S100 ;Reset Feedrate
M221 S100 ;Reset Flowrate

;*** Start Dual Nozzle/Bed Preheating ***
M140 S50 ; start preheating the bed
M104 S200 ?T0 ; start preheating hotend
M190 S50 ; heat to Cura Bed setting and WAIT
M109 S200 ?T0 ; heat to Cura Hotend and WAIT
;*** End Preheating ***

;*** Single Print Start Tone
M300 S1000 P500 ; chirp to indicate starting to print
;*** End Single Start Tone

G28 ;Home

G92 E0 ;Reset Extruder
G1 Z2.0 F3000 ;Move Z Axis up

G1 X10.1 Y20 Z0.28 F5000.0 ;Move to start position
G1 X10.1 Y200.0 Z0.28 F1500.0 E15 ;Draw the first line
G1 X10.4 Y200.0 Z0.28 F5000.0 ;Move to side a little
G1 X10.4 Y20 Z0.28 F1500.0 E30 ;Draw the second line
G92 E0 ;Reset Extruder
G1 Z2.0 F3000 ;Move Z Axis up
G92 E0
G92 E0
G1 F2400 E-3.2
;LAYER_COUNT:18
;LAYER:0
M106 S63.8
M204 S500
M205 X6 Y6
G0 F9000 X67.182 Y51.64 Z0.24
;TYPE:SKIRT
G1 F1440 E0
G1 F1800 X67.734 Y51.392 E0.02415
G1 X68.285 Y51.275 E0.04663
G1 X68.677 Y51.26 E0.06229
G1 X69.272 Y51.343 E0.08627
G1 X69.824 Y51.545 E0.10973
G1 X69.998 Y51.64 E0.11764
G1 X67.182 Y51.64 E0.23003
G0 F9000 X67.008 Y51.277
G1 F1800 X67.6 Y51.015 E0.25587
G1 X68.243 Y50.877 E0.28212
G1 X68.691 Y50.86 E0.30001
G1 X69.365 Y50.954 E0.32718
G1 X69.996 Y51.183 E0.35397
G1 X70.566 Y51.541 E0.38083
G1 X71.038 Y51.998 E0.40705
G1 X71.071 Y52.04 E0.40919
G1 X66.56 Y52.04 E0.58923
G1 X66.041 Y52.126 E0.61023
G1 X66.447 Y51.681 E0.63427
G1 X67.008 Y51.277 E0.66186
G0 F9000 X66.8 Y50.935
G1 F1800 X67.48 Y50.633 E0.69156
G1 X67.97 Y50.512 E0.7117
G1 X68.475 Y50.46 E0.73196
G1 X68.704 Y50.46 E0.7411
G1 X69.221 Y50.513 E0.76185
G1 X69.935 Y50.719 E0.79151
G1 X70.609 Y51.078 E0.82199
G1 X71.183 Y51.561 E0.85193
G1 X71.646 Y52.155 E0.88199
G1 X71.804 Y52.44 E0.89499
G1 X66.56 Y52.44 E1.10429
G1 X66.228 Y52.48 E1.11764
G1 X65.916 Y52.597 E1.13094
G1 X65.639 Y52.785 E1.1443
G1 X65.416 Y53.033 E1.15761
G1 X65.257 Y53.327 E1.17095
G1 X65.16 Y53.84 E1.19179
G1 X65.16 Y55.14 E1.24367
G1 X65.027 Y54.561 E1.26739
G1 X64.991 Y54.056 E1.28759
G1 X65.027 Y53.548 E1.30792
G1 X65.207 Y52.827 E1.33758
G1 X65.416 Y52.36 E1.358
G1 X65.838 Y51.738 E1.388
G1 X66.188 Y51.376 E1.4081
G1 X66.8 Y50.935 E1.4382
G0 F9000 X66.344 Y50.748
G1 F1800 X66.846 Y50.458 E1.46134
G1 X67.372 Y50.248 E1.48395
G1 X67.889 Y50.12 E1.5052
G1 X68.46 Y50.06 E1.52812
G1 X68.719 Y50.06 E1.53846
G1 X69.287 Y50.119 E1.56125
G1 X69.808 Y50.248 E1.58267
G1 X70.334 Y50.458 E1.60528
G1 X70.836 Y50.748 E1.62841
G1 X71.267 Y51.085 E1.65025
G1 X71.651 Y51.483 E1.67232
G1 X71.991 Y51.952 E1.69544
G1 X72.242 Y52.426 E1.71685
G1 X72.396 Y52.84 E1.73448
G1 X66.56 Y52.84 E1.96741
G1 X66.281 Y52.88 E1.97866
G1 X66.024 Y52.996 E1.98991
G1 X65.809 Y53.179 E2.00118
G1 X65.655 Y53.415 E2.01243
G1 X65.56 Y53.84 E2.02981
G1 X65.56 Y56.16 E2.12241
G1 X65.58 Y56.687 E2.14345
G1 X65.201 Y56.181 E2.16869
G1 X64.939 Y55.69 E2.1909
G1 X64.745 Y55.158 E2.2135
G1 X64.629 Y54.607 E2.23597
G1 X64.59 Y54.057 E2.25798
G1 X64.631 Y53.488 E2.28075
G1 X64.746 Y52.952 E2.30263
G1 X64.937 Y52.427 E2.32493
G1 X65.189 Y51.952 E2.34639
G1 X65.529 Y51.483 E2.36951
G1 X65.913 Y51.085 E2.39158
G1 X66.344 Y50.748 E2.41342
G0 F9000 X66.396 Y50.244
G1 F1800 X66.932 Y49.982 E2.43723
G1 X67.525 Y49.788 E2.46213
G1 X68.119 Y49.683 E2.48621
G1 X68.733 Y49.66 E2.51073
G1 X69.355 Y49.725 E2.53569
G1 X69.942 Y49.87 E2.55982
G1 X70.512 Y50.1 E2.58436
G1 X71.047 Y50.407 E2.60897
G1 X71.542 Y50.794 E2.63405
G1 X71.954 Y51.222 E2.65776
G1 X72.321 Y51.724 E2.68258
G1 X72.611 Y52.27 E2.70726
G1 X72.822 Y52.857 E2.73215
G1 X72.911 Y53.24 E2.74785
G1 X66.56 Y53.24 E3.00133
G1 X66.345 Y53.28 E3.01006
G1 X66.159 Y53.393 E3.01874
G1 X66.026 Y53.566 E3.02745
G1 X65.96 Y53.84 E3.0387
G1 X65.96 Y56.16 E3.1313
G1 X65.98 Y56.268 E3.13568
G1 X65.98 Y57.595 E3.18865
G1 X65.425 Y57.113 E3.21798
G1 X65.029 Y56.641 E3.24258
G1 X64.701 Y56.115 E3.26732
G1 X64.452 Y55.551 E3.29192
G1 X64.283 Y54.958 E3.31653
G1 X64.202 Y54.368 E3.3403
G1 X64.202 Y53.744 E3.36521
G1 X64.285 Y53.147 E3.38926
G1 X64.459 Y52.541 E3.41443
G1 X64.707 Y51.988 E3.43862
G1 X65.028 Y51.475 E3.46277
G1 X65.425 Y51.001 E3.48745
G1 X65.879 Y50.592 E3.51184
G1 X66.396 Y50.244 E3.53671
G0 F9000 X65.899 Y50.083
G1 F1800 X66.492 Y49.74 E3.56405
G1 X67.117 Y49.488 E3.59095
G1 X67.757 Y49.33 E3.61726
G1 X68.432 Y49.26 E3.64434
G1 X68.747 Y49.26 E3.65692
G1 X69.421 Y49.33 E3.68396
G1 X70.063 Y49.488 E3.71035
G1 X70.688 Y49.74 E3.73725
G1 X71.281 Y50.083 E3.76459
G1 X71.802 Y50.49 E3.79098
G1 X72.272 Y50.978 E3.81802
G1 X72.667 Y51.523 E3.84488
G1 X72.977 Y52.108 E3.87131
G1 X73.204 Y52.736 E3.89796
G1 X73.342 Y53.381 E3.92428
G1 X73.369 Y53.64 E3.93468
G1 X66.56 Y53.64 E4.20644
G1 X66.441 Y53.679 E4.21144
G1 X66.36 Y53.84 E4.21863
G1 X66.36 Y56.16 E4.31123
G1 X66.38 Y56.221 E4.31379
G1 X66.38 Y58.314 E4.39733
G1 X65.899 Y58.031 E4.4196
G1 X65.378 Y57.624 E4.44599
G1 X64.912 Y57.14 E4.4728
G1 X64.525 Y56.608 E4.49906
G1 X64.207 Y56.013 E4.52599
G1 X63.977 Y55.384 E4.55272
G1 X63.839 Y54.735 E4.5792
G1 X63.79 Y54.057 E4.60633
G1 X63.838 Y53.381 E4.63338
G1 X63.977 Y52.73 E4.65995
G1 X64.201 Y52.113 E4.68615
G1 X64.513 Y51.523 E4.71278
G1 X64.908 Y50.978 E4.73965
G1 X65.378 Y50.49 E4.76669
G1 X65.899 Y50.083 E4.79308
G1 F2400 E1.59308
G0 F9000 X69.913 Y56.653
G0 X69.62 Y56.36
G1 F1440 E4.79308
G1 F1800 X72.799 Y56.36 E4.91996
G1 X72.472 Y56.88 E4.94447
G1 X72.041 Y57.393 E4.97122
G1 X71.549 Y57.837 E4.99767
G1 X70.981 Y58.218 E5.02496
G1 X70.399 Y58.504 E5.05085
G1 X69.76 Y58.713 E5.07768
G1 X69.62 Y58.742 E5.08339
G1 X69.62 Y56.36 E5.17846
G0 F9000 X70.02 Y56.76
G1 F1800 X72.058 Y56.76 E5.2598
G1 X71.542 Y57.32 E5.29019
G1 X71.047 Y57.707 E5.31527
G1 X70.51 Y58.016 E5.34
G1 X70.02 Y58.216 E5.36112
G1 X70.02 Y56.76 E5.41923
G0 F9000 X70.42 Y57.16
G1 F1800 X71.111 Y57.16 E5.44681
G1 X70.579 Y57.526 E5.47258
G1 X70.42 Y57.611 E5.47978
G1 X70.42 Y57.16 E5.49778
G0 F9000 X64.82 Y67.695
G1 F1800 X65.471 Y67.858 E5.52457
G1 X66.086 Y68.105 E5.55102
G1 X66.38 Y68.261 E5.5643
G1 X66.38 Y71.28 E5.6848
G1 X60.92 Y71.28 E5.90272
G1 X60.801 Y71.319 E5.90771
G1 X60.72 Y71.48 E5.91491
G1 X60.72 Y74.04 E6.01708
G1 X60.759 Y74.159 E6.02208
G1 X60.92 Y74.24 E6.02927
G1 X68.427 Y74.24 E6.32889
G1 X68.058 Y74.966 E6.3614
G1 X67.663 Y75.51 E6.38823
G1 X67.194 Y75.993 E6.4151
G1 X66.681 Y76.394 E6.44109
G1 X66.088 Y76.738 E6.46845
G1 X65.47 Y76.987 E6.49504
G1 X64.816 Y77.15 E6.52194
G1 X64.158 Y77.219 E6.54835
G1 X63.476 Y77.194 E6.57559
G1 X62.817 Y77.077 E6.6023
G1 X62.186 Y76.871 E6.6288
G1 X61.591 Y76.58 E6.65523
G1 X61.038 Y76.21 E6.68179
G1 X60.535 Y75.756 E6.70883
G1 X60.107 Y75.246 E6.7354
G1 X59.754 Y74.683 E6.76193
G1 X59.475 Y74.059 E6.78921
G1 X59.294 Y73.425 E6.81552
G1 X59.201 Y72.757 E6.84244
G1 X59.201 Y72.082 E6.86938
G1 X59.296 Y71.409 E6.89651
G1 X59.476 Y70.782 E6.92255
G1 X59.751 Y70.167 E6.94943
G1 X60.096 Y69.611 E6.97555
G1 X60.537 Y69.086 E7.00292
G1 X61.041 Y68.632 E7.02999
G1 X61.591 Y68.264 E7.0564
G1 X62.179 Y67.975 E7.08255
G1 X62.818 Y67.766 E7.10938
G1 X63.474 Y67.649 E7.13598
G1 X64.164 Y67.625 E7.16354
G1 X64.82 Y67.695 E7.18987
G0 F9000 X64.753 Y68.089
G1 F1800 X65.346 Y68.238 E7.21427
G1 X65.91 Y68.464 E7.23852
G1 X65.98 Y68.502 E7.2417
G1 X65.98 Y70.88 E7.33661
G1 X60.92 Y70.88 E7.53857
G1 X60.705 Y70.92 E7.5473
G1 X60.519 Y71.033 E7.55598
G1 X60.386 Y71.206 E7.56469
G1 X60.32 Y71.48 E7.57594
G1 X60.32 Y74.04 E7.67811
G1 X60.36 Y74.255 E7.68684
G1 X60.473 Y74.441 E7.69553
G1 X60.646 Y74.574 E7.70424
G1 X60.92 Y74.64 E7.71549
G1 X67.784 Y74.64 E7.98944
G1 X67.36 Y75.249 E8.01906
G1 X66.917 Y75.704 E8.04441
G1 X66.452 Y76.065 E8.0679
G1 X65.91 Y76.379 E8.0929
G1 X65.34 Y76.608 E8.11742
G1 X64.748 Y76.756 E8.14178
G1 X64.142 Y76.819 E8.16609
G1 X63.517 Y76.796 E8.19106
G1 X62.923 Y76.691 E8.21513
G1 X62.33 Y76.497 E8.24003
G1 X61.782 Y76.228 E8.2644
G1 X61.278 Y75.889 E8.28864
G1 X60.821 Y75.476 E8.31323
G1 X60.426 Y75.004 E8.33779
G1 X60.103 Y74.487 E8.36212
G1 X59.849 Y73.915 E8.3871
G1 X59.681 Y73.32 E8.41178
G1 X59.601 Y72.734 E8.43538
G1 X59.6 Y72.112 E8.46021
G1 X59.687 Y71.497 E8.485
G1 X59.849 Y70.929 E8.50857
G1 X60.1 Y70.363 E8.53328
G1 X60.425 Y69.839 E8.55789
G1 X60.829 Y69.36 E8.5829
G1 X61.278 Y68.955 E8.60704
G1 X61.783 Y68.615 E8.63134
G1 X62.333 Y68.344 E8.65581
G1 X62.915 Y68.154 E8.68024
G1 X63.518 Y68.047 E8.70469
G1 X64.15 Y68.025 E8.72993
G1 X64.753 Y68.089 E8.75413
G0 F9000 X64.685 Y68.484
G1 F1800 X65.235 Y68.622 E8.77676
G1 X65.58 Y68.755 E8.79152
G1 X65.58 Y70.48 E8.86037
G1 X60.92 Y70.48 E9.04636
G1 X60.641 Y70.52 E9.05761
G1 X60.42 Y70.62 E9.06729
G1 X60.748 Y70.077 E9.09261
G1 X61.108 Y69.647 E9.11499
G1 X61.53 Y69.266 E9.13768
G1 X61.985 Y68.96 E9.15957
G1 X62.482 Y68.716 E9.18166
G1 X63.015 Y68.542 E9.20404
G1 X63.561 Y68.445 E9.22618
G1 X64.135 Y68.425 E9.2491
G1 X64.685 Y68.484 E9.27118
G0 F9000 X64.627 Y68.88
G1 F1800 X65.18 Y69.029 E9.29403
G1 X65.18 Y70.08 E9.33598
G1 X61.257 Y70.08 E9.49256
G1 X61.767 Y69.589 E9.52081
G1 X62.195 Y69.302 E9.54138
G1 X62.625 Y69.09 E9.56052
G1 X63.114 Y68.93 E9.58105
G1 X63.863 Y68.825 E9.61124
G1 X64.121 Y68.825 E9.62153
G1 X64.627 Y68.88 E9.64185
G0 F9000 X64.771 Y69.32
G1 F1800 X64.78 Y69.68 E9.65622
G1 X62.343 Y69.68 E9.75349
G1 X62.779 Y69.46 E9.77298
G1 X63.429 Y69.272 E9.79999
G1 X64.107 Y69.225 E9.82711
G1 X64.771 Y69.32 E9.85388
G1 F2400 E6.65388
G0 F9000 X60.427 Y70.987
G0 X60.427 Y74.533
G0 X67.009 Y75.04
G1 F1440 E9.85388
G1 F1800 X66.656 Y75.4 E9.87401
G1 X66.224 Y75.737 E9.89587
G1 X65.732 Y76.021 E9.91855
G1 X65.223 Y76.225 E9.94043
G1 X64.695 Y76.358 E9.96217
G1 X64.127 Y76.419 E9.98497
G1 X63.559 Y76.398 E10.00765
G1 X63.016 Y76.302 E10.02966
G1 X62.474 Y76.124 E10.05243
G1 X61.985 Y75.884 E10.07417
G1 X61.53 Y75.578 E10.09605
G1 X61.108 Y75.197 E10.11875
G1 X60.967 Y75.04 E10.12717
G1 X67.009 Y75.04 E10.36832
G0 F9000 X65.943 Y75.44
G1 F1800 X65.341 Y75.757 E10.39547
G1 X64.857 Y75.915 E10.41579
G1 X64.363 Y76.001 E10.43581
G1 X63.6 Y76 E10.46626
G1 X62.878 Y75.846 E10.49572
G1 X62.411 Y75.657 E10.51583
G1 X62.031 Y75.44 E10.5333
G1 X65.943 Y75.44 E10.68943
G1 F2400 E7.48943
G0 F9000 X86.608 Y70.743
G0 X86.592 Y70.953
G0 X94.147 Y70.947
G0 X94.213 Y69.015
G0 X97.905 Y68.176
G0 X97.973 Y65.033
G0 X103.114 Y66.726
G0 X103.264 Y66.958
G0 X106.934 Y66.125
G0 X107.177 Y66.649
G0 X109.069 Y67.798
G0 X108.815 Y65.697
G0 X112.372 Y64.889
G0 X112.391 Y64.5
G0 X119.067 Y61.653
G0 X126.779 Y61.615
G0 X129.305 Y61.041
G0 X129.373 Y56.653
G0 X132.187 Y56.653
G0 X132.252 Y60.371
G0 X148.564 Y56.665
G0 X148.564 Y56.36
G1 F1440 E10.68943
G1 F1800 X150.38 Y56.36 E10.76191
G1 X150.38 Y58.633 E10.85264
G1 X149.841 Y58.218 E10.87979
G1 X149.362 Y57.722 E10.90731
G1 X148.968 Y57.179 E10.93408
G1 X148.655 Y56.586 E10.96085
G1 X148.564 Y56.36 E10.97057
G0 F9000 X149.189 Y56.76
G1 F1800 X149.98 Y56.76 E11.00214
G1 X149.98 Y57.796 E11.04349
G1 X149.491 Y57.237 E11.07313
G1 X149.189 Y56.76 E11.09566
G1 F2400 E7.89566
G0 F9000 X148.35 Y53.335
G0 X148.35 Y53.64
G1 F1440 E11.09566
G1 F1800 X148.534 Y52.995 E11.12243
G1 X148.806 Y52.386 E11.14906
G1 X149.163 Y51.815 E11.17593
G1 X149.597 Y51.3 E11.20281
G1 X150.102 Y50.846 E11.22992
G1 X150.646 Y50.483 E11.25602
G1 X151.241 Y50.192 E11.28245
G1 X151.888 Y49.983 E11.30959
G1 X152.54 Y49.868 E11.33602
G1 X153.213 Y49.844 E11.36289
G1 X153.871 Y49.913 E11.3893
G1 X154.525 Y50.076 E11.4162
G1 X155.141 Y50.324 E11.4427
G1 X155.741 Y50.672 E11.47039
G1 X156.25 Y51.071 E11.4962
G1 X156.718 Y51.553 E11.52302
G1 X157.113 Y52.098 E11.54988
G1 X157.427 Y52.69 E11.57663
G1 X157.656 Y53.317 E11.60327
G1 X157.795 Y53.969 E11.62988
G1 X157.843 Y54.648 E11.65704
G1 X157.796 Y55.308 E11.68345
G1 X157.654 Y55.975 E11.71067
G1 X157.43 Y56.586 E11.73664
G1 X157.117 Y57.179 E11.76341
G1 X156.728 Y57.716 E11.78987
G1 X156.489 Y57.982 E11.80414
G1 X155.994 Y58.426 E11.83068
G1 X155.449 Y58.794 E11.85693
G1 X154.843 Y59.091 E11.88387
G1 X154.205 Y59.298 E11.91064
G1 X153.62 Y59.403 E11.93436
G1 X153.62 Y53.88 E12.15479
G1 X153.581 Y53.761 E12.15979
G1 X153.42 Y53.68 E12.16698
G1 X152.96 Y53.68 E12.18534
G1 X152.88 Y53.64 E12.18891
G1 X148.35 Y53.64 E12.36972
G0 F9000 X148.876 Y53.24
G1 F1800 X149.152 Y52.587 E12.39801
G1 X149.486 Y52.051 E12.42322
G1 X149.88 Y51.583 E12.44763
G1 X150.344 Y51.165 E12.47256
G1 X150.838 Y50.834 E12.49629
G1 X151.385 Y50.566 E12.5206
G1 X151.988 Y50.37 E12.54591
G1 X152.576 Y50.267 E12.56974
G1 X153.197 Y50.244 E12.59454
G1 X153.803 Y50.307 E12.61886
G1 X154.395 Y50.455 E12.64321
G1 X154.965 Y50.684 E12.66773
G1 X155.512 Y51.001 E12.69296
G1 X155.981 Y51.368 E12.71673
G1 X156.42 Y51.821 E12.74191
G1 X156.781 Y52.322 E12.76655
G1 X157.058 Y52.845 E12.79018
G1 X157.274 Y53.439 E12.8154
G1 X157.398 Y54.027 E12.83939
G1 X157.442 Y54.641 E12.86396
G1 X157.398 Y55.264 E12.88888
G1 X157.268 Y55.867 E12.9135
G1 X157.064 Y56.423 E12.93714
G1 X156.775 Y56.972 E12.9619
G1 X156.418 Y57.464 E12.98616
G1 X155.996 Y57.902 E13.01044
G1 X155.499 Y58.292 E13.03565
G1 X154.964 Y58.599 E13.06027
G1 X154.394 Y58.829 E13.08481
G1 X154.02 Y58.929 E13.10026
G1 X154.02 Y53.88 E13.30177
G1 X153.98 Y53.665 E13.3105
G1 X153.867 Y53.479 E13.31919
G1 X153.694 Y53.346 E13.3279
G1 X153.42 Y53.28 E13.33915
G1 X153.046 Y53.28 E13.35407
G1 X152.88 Y53.24 E13.36089
G1 X148.876 Y53.24 E13.5207
G0 F9000 X149.474 Y52.84
G1 F1800 X149.805 Y52.293 E13.54621
G1 X150.166 Y51.862 E13.56865
G1 X150.59 Y51.481 E13.5914
G1 X151.04 Y51.18 E13.61301
G1 X151.529 Y50.939 E13.63477
G1 X152.076 Y50.761 E13.65773
G1 X152.627 Y50.664 E13.68006
G1 X153.182 Y50.644 E13.70223
G1 X153.75 Y50.705 E13.72503
G1 X154.278 Y50.838 E13.74676
G1 X154.787 Y51.042 E13.76864
G1 X155.284 Y51.329 E13.79155
G1 X155.713 Y51.665 E13.8133
G1 X156.117 Y52.083 E13.8365
G1 X156.435 Y52.524 E13.8582
G1 X156.693 Y53.01 E13.88016
G1 X156.884 Y53.531 E13.90231
G1 X157 Y54.069 E13.92428
G1 X157.043 Y54.641 E13.94717
G1 X157.004 Y55.192 E13.96922
G1 X156.886 Y55.747 E13.99186
G1 X156.691 Y56.276 E14.01437
G1 X156.439 Y56.754 E14.03593
G1 X156.109 Y57.209 E14.05837
G1 X155.726 Y57.606 E14.08038
G1 X155.285 Y57.954 E14.1028
G1 X154.786 Y58.241 E14.12578
G1 X154.42 Y58.393 E14.1416
G1 X154.42 Y53.88 E14.32172
G1 X154.38 Y53.601 E14.33297
G1 X154.264 Y53.344 E14.34422
G1 X154.081 Y53.129 E14.35549
G1 X153.845 Y52.975 E14.36674
G1 X153.42 Y52.88 E14.38412
G1 X152.88 Y52.84 E14.40573
G1 X149.474 Y52.84 E14.54167
G0 F9000 X150.198 Y52.44
G1 F1800 X150.628 Y51.972 E14.56704
G1 X151.018 Y51.665 E14.58685
G1 X151.466 Y51.406 E14.6075
G1 X152.18 Y51.148 E14.6378
G1 X152.918 Y51.044 E14.66755
G1 X153.167 Y51.044 E14.67749
G1 X153.67 Y51.097 E14.69768
G1 X154.396 Y51.306 E14.72783
G1 X155.062 Y51.662 E14.75797
G1 X155.639 Y52.149 E14.7881
G1 X156.095 Y52.736 E14.81777
G1 X156.427 Y53.419 E14.84808
G1 X156.607 Y54.142 E14.87782
G1 X156.642 Y54.641 E14.89778
G1 X156.606 Y55.145 E14.91795
G1 X156.501 Y55.639 E14.93811
G1 X156.216 Y56.338 E14.96824
G1 X155.951 Y56.762 E14.98819
G1 X155.451 Y57.315 E15.01795
G1 X155.056 Y57.625 E15.03799
G1 X154.82 Y57.77 E15.04904
G1 X154.82 Y53.88 E15.2043
G1 X154.78 Y53.548 E15.21765
G1 X154.663 Y53.236 E15.23095
G1 X154.475 Y52.959 E15.24431
G1 X154.227 Y52.736 E15.25762
G1 X153.933 Y52.577 E15.27096
G1 X153.42 Y52.48 E15.2918
G1 X152.88 Y52.44 E15.31341
G1 X150.198 Y52.44 E15.42046
G0 F9000 X151.182 Y52.04
G1 F1800 X151.65 Y51.762 E15.44218
G1 X152.284 Y51.534 E15.46907
G1 X152.934 Y51.444 E15.49526
G1 X153.151 Y51.444 E15.50392
G1 X153.815 Y51.536 E15.53068
G1 X154.449 Y51.767 E15.55761
G1 X155.016 Y52.123 E15.58433
G1 X155.498 Y52.59 E15.61112
G1 X155.86 Y53.127 E15.63696
